ccrpRepo/mocap_retarget/src/mocap/src/data/output.csv
frame,timestamp,posX,posY,posZ,roll,pitch,yaw,left_hip_pitch_joint,left_hip_roll_joint,left_hip_yaw_joint,left_knee_joint,left_ankle_pitch_joint,left_ankle_roll_joint,right_hip_pitch_joint,right_hip_roll_joint,right_hip_yaw_joint,right_knee_joint,right_ankle_pitch_joint,right_ankle_roll_joint,waist_yaw_joint,waist_roll_joint,waist_pitch_joint,left_shoulder_pitch_joint,left_shoulder_roll_joint,left_shoulder_yaw_joint,left_elbow_joint,left_wrist_roll_joint,left_wrist_pitch_joint,left_wrist_yaw_joint,right_shoulder_pitch_joint,right_shoulder_roll_joint,right_shoulder_yaw_joint,right_elbow_joint,right_wrist_roll_joint,right_wrist_pitch_joint,right_wrist_yaw_joint
1.0,3.7490780353546143,-0.17131496802235158,0.7001458791207873,1.0062109454908472,0.01772330544975101,-0.05842106862006999,-1.570945784429734,-0.42820391701651017,-0.13528391940458037,0.025939769606490703,0.964175280674457,-0.5337629974361742,0.15066389770144845,-0.38289374615887584,0.28433231404653714,0.1864679239388557,0.9621834027987253,-0.22694624591506884,-0.022550052297107437,-0.038919468367403516,0.024873032365859922,-0.00767000465136463,-0.10939783640941331,0.01896851980876318,-0.04467634437736921,0.9126039087203331,0.18975880987788557,0.7337580424171921,0.3225871833454023,-0.026140052396809763,-0.13660999470242582,0.14540620676294003,0.8510746020871711,-0.41041389363063485,-0.41634623832325873,-0.6390289417327029
2.0,3.7784628868103027,-0.1713149680223516,0.700145879120788,1.006210945490849,0.017723305449746637,-0.0584210686200696,-1.5709457844297343,-0.42820391701650096,-0.1352839194045799,0.025939769606489593,0.9641752806744441,-0.533762997436166,0.1506638977014481,-0.3828937461588661,0.28433231404653586,0.18646792393885786,0.9621834027987108,-0.2269462459150598,-0.022550052297106386,-0.03891946836740024,0.024873032365876208,-0.007670004651371096,-0.10939783640955372,0.01896851980957621,-0.04467634437953728,0.9126039087205761,0.18975880987499777,0.733758042417192,0.32258718334634495,-0.026140052396820962,-0.1366099947024716,0.14540620676304666,0.8510746020871796,-0.4104138936305498,-0.41634623832323076,-0.6390289417327473
3.0,3.8105525970458984,-0.17262903416942343,0.6995801715301686,1.0058410374927442,0.01713418431130571,-0.059049908168740076,-1.5713214414186132,-0.42895738263495775,-0.13396624858091946,0.027411630348836303,0.9675426365166084,-0.5332947282957905,0.15010203302836628,-0.3824094051965285,0.2860018459431659,0.18715560065648537,0.963568987695812,-0.22613746201647322,-0.02087805392076531,-0.0376152121080139,0.026228453416193433,-0.007698775270722892,-0.10594981138811888,0.015495600727921794,-0.04585480638752896,0.9125368608369522,0.189933075493748,0.7341338021773417,0.32359560598634585,-0.023479975626474723,-0.12839447955543243,0.14556060900466014,0.8555064119985518,-0.40797084881211365,-0.4142676123896435,-0.6417356071276217
4.0,3.8511321544647217,-0.17424478669303378,0.6988524641780829,1.0053663984966281,0.01788273104701872,-0.0598333722181939,-1.5716851096867215,-0.4316857465496121,-0.1323864360487207,0.029434902266755204,0.9729466214230258,-0.5337507588892121,0.1498601040684086,-0.38332118203119464,0.28812427862751794,0.18785404894392518,0.9659350014406485,-0.22616719503349025,-0.019062076580750112,-0.03653535066756447,0.02760118957044004,-0.009328139462940883,-0.10404885848986872,0.011615480352209563,-0.04560648666747636,0.9120817989693012,0.1898318132987274,0.7359605969178464,0.32718594618545105,-0.023737381213850377,-0.11915548553171737,0.14703564485912224,0.86233019923959,-0.4060969603384491,-0.4132180399152323,-0.6445622451914454
5.0,3.8793764114379883,-0.17551171989111405,0.698266390208382,1.0049912130735215,0.018850275618657802,-0.060500601824652986,-1.571296599811188,-0.43428699030755635,-0.13165076157996272,0.030674086255422513,0.977375738910028,-0.5339861488936235,0.15012081934147636,-0.38441465969773164,0.28921153724911686,0.18770810133610288,0.9676378277914403,-0.226682295692335,-0.017852489062136205,-0.03695374201736868,0.029407643975437294,-0.01036056357410935,-0.10275607382402063,0.008691524615531073,-0.04470542172798457,0.9117492638884905,0.18927305971504452,0.7378744157270392,0.33003262629012525,-0.024285883914564724,-0.11253560670441833,0.14921198347491293,0.8677567196182014,-0.405633211719729,-0.4126412096751592,-0.646510113230845
6.0,3.9171977043151855,-0.1770471201971222,0.697544937546521,1.0044860487687428,0.020060233954208834,-0.06122443317922041,-1.5704082845513436,-0.4380197075389777,-0.13066333740223382,0.03224012217135784,0.983826060005324,-0.5344181663505341,0.1507084721269884,-0.3858528502246461,0.2904289209338647,0.18712959661135248,0.9698041323930398,-0.2275913254660628,-0.016446160165194623,-0.03808472956205859,0.031501331308912923,-0.011899847826050173,-0.10115210932088214,0.004964583514425831,-0.04360352840782682,0.9112500930365633,0.18858436935625839,0.740330497173006,0.33365399217020714,-0.025189273242784214,-0.10505756311642603,0.1520628198926846,0.8748946659387014,-0.40505312930511495,-0.41265027406815374,-0.6490325006225443
7.0,3.9464077949523926,-0.17827605637396016,0.6969209214661584,1.0040559462964562,0.02091555492221375,-0.061914282727685205,-1.5692571118619445,-0.4412884821488787,-0.12968244325474654,0.034050478716082716,0.9897372217204803,-0.5346185848989479,0.15155977776586674,-0.3868119881206712,0.29107422858267784,0.1863840910694672,0.9714769476925922,-0.2285958483609833,-0.015490093267674775,-0.03946894661258382,0.03297686426105498,-0.013059567614906769,-0.1001968472553898,0.0016986742015595497,-0.04289783289351494,0.9110981453937164,0.18807388111225953,0.7419518553062211,0.33653508295589407,-0.025740609131357294,-0.1000814411111984,0.15434722145186144,0.8800502841168609,-0.40487223418430107,-0.4131693692814359,-0.6509646293654563
8.0,3.9854626655578613,-0.17976409340010668,0.6961640862980831,1.0035054028211174,0.021962715151801603,-0.06279245620310861,-1.5674554538975765,-0.4459816117898836,-0.12784376240327963,0.037329031301883045,0.998274404944022,-0.5348225283418465,0.1529853117283185,-0.3878985843793396,0.2916584695730681,0.1852760827080117,0.9735579290947124,-0.23021808154558682,-0.014442660915147402,-0.0415008645633924,0.03441610461476467,-0.014781856490879592,-0.09944246184353585,-0.0026946431973905423,-0.042344992492319995,0.9114130779511793,0.1876830995452382,0.7438865676148729,0.3404304292456024,-0.026448156468618998,-0.09513742728460241,0.15704092423273164,0.8864535320722924,-0.4047602929253361,-0.4145234299145375,-0.6535461716223007
9.0,4.014021635055542,-0.18097073390684787,0.6955356593442881,1.0030787542287476,0.022680698336632492,-0.06369289160243248,-1.5657393119403857,-0.4500297685669016,-0.12598242177703356,0.04100528016589425,1.00583185070928,-0.5348479588542641,0.15440464182667302,-0.388396738693472,0.2919064878245931,0.1845112591743095,0.975109591291129,-0.23183400071192256,-0.013714783619299016,-0.043134154194794334,0.035272008649810734,-0.016053108036364692,-0.09942982626666175,-0.006561036129013195,-0.042352159781119794,0.9123145518582252,0.18772509485166144,0.7454265723558589,0.3438772153979529,-0.026586636689463726,-0.09213069164192494,0.1589656080580118,0.8908104118213515,-0.4049272368856378,-0.4158596533801068,-0.6557559566172475
10.0,4.0495922565460205,-0.18228373271432483,0.6948318416306614,1.0026242625948345,0.02341791456097359,-0.06466525320159788,-1.5637388559028151,-0.4548884717165277,-0.1237284440513621,0.045655234439135245,1.0149068360677913,-0.5352670103823183,0.1562243102589682,-0.3887210122184776,0.29215726173310325,0.18380867617270435,0.9766762396170559,-0.23384788992712838,-0.012929524703530263,-0.04487756183482913,0.03638505065104248,-0.01734052647510481,-0.09984825326461841,-0.011136652910587894,-0.04249168093190539,0.9138585937271916,0.1880037520043627,0.7474215396244601,0.34834396762110026,-0.026355077448658684,-0.08954834406250417,0.1609569120965904,0.8951134640407731,-0.40543977399684117,-0.41727827919548854,-0.6583683337693425
11.0,4.08036208152771,-0.1835355642240109,0.6940564576726873,1.0021998542169435,0.02401469905802682,-0.06536116583305394,-1.561856851740625,-0.4599785554705884,-0.12121910865670743,0.05069460126762755,1.0245703181466734,-0.5363842377197917,0.15837971217084584,-0.3887362908211166,0.29254541707205955,0.18317260564959498,0.977894170886181,-0.2357244847400856,-0.012108851500090747,-0.04636457276976001,0.03799735560663275,-0.018302198870173612,-0.10070095427445108,-0.015985957599667904,-0.042609728253615364,0.9157735883733578,0.1884810508645829,0.7500181558272494,0.3536853659937771,-0.025868948565410405,-0.08767310873860995,0.16270866272698808,0.8989929133900405,-0.40599397247191193,-0.4184340782253969,-0.6609558839693818
12.0,4.116720199584961,-0.18471374550609382,0.6931569371375539,1.00180841190017,0.024320187872671498,-0.06558450305736611,-1.5603091541972547,-0.465099999077636,-0.11802943478607811,0.05629995034494224,1.0346599968886394,-0.5380568836450339,0.16098163139809557,-0.3882903182691717,0.2932615209538165,0.18248868171656324,0.9786289263336256,-0.23712142361491126,-0.011232202527070372,-0.047395409985046225,0.04012030069829718,-0.01882404409841902,-0.10195524902364649,-0.021186573541530127,-0.0426434101675012,0.9178981165173705,0.18907002546793042,0.7532198004396184,0.35984585430790017,-0.025191350139039875,-0.08656036134345123,0.16404835090550296,0.9023402869350647,-0.4063005630125286,-0.41940444931266174,-0.663073339782674
13.0,4.14639139175415,-0.18584199494520476,0.6921186021060199,1.0014523073831287,0.024212740955784767,-0.06534253208935845,-1.559231945637705,-0.4701301944571468,-0.11375771643742576,0.06281265276445412,1.0450201364570855,-0.5398800021751157,0.16400444606891834,-0.3872293119410054,0.2944158020869193,0.18178882692297077,0.9788304945891282,-0.23794967685143803,-0.010320714745537713,-0.04787916361986126,0.04251721552696927,-0.018962967439517517,-0.10336599366881946,-0.02680253629358006,-0.04260895780293344,0.920071980633044,0.1896073732635642,0.7565321432544128,0.36640827652623875,-0.024311204526490007,-0.08643420654016866,0.16504748314094117,0.9051601196146963,-0.4063679771376315,-0.42024291240830874,-0.6641870247213408
14.0,4.185158729553223,-0.18706275013263507,0.6908572028374649,1.001075558437451,0.02363363321052754,-0.06460558284860857,-1.5587229637812814,-0.4756231498130902,-0.10770907888758743,0.07107540061879355,1.0568386169987445,-0.5417616786816422,0.16752456191951376,-0.3852944072180753,0.2962988913903767,0.18116398675701362,0.9784154491132693,-0.2383423162403784,-0.009328128924773053,-0.04764047135974375,0.04521748873346938,-0.01887100159730818,-0.10487176367942144,-0.03350861430502376,-0.042582471865065544,0.9225678874708049,0.19000706042201793,0.7596588085265596,0.3737190826248903,-0.023052282296778533,-0.08762554044675969,0.16606251246476647,0.9078698054626426,-0.4062373395414789,-0.4206281057874399,-0.6637418017851733
15.0,4.215928554534912,-0.1880978710608617,0.6897508915550529,1.0008130899397065,0.022834781226330696,-0.06430794336660246,-1.5586668891699589,-0.47972562365622984,-0.10299012883667338,0.07807975372661444,1.0656825941182726,-0.5423449956457952,0.17001534456945405,-0.38314211822450883,0.29773835062409093,0.18098046555932285,0.977830373966855,-0.23860778803206317,-0.008663094749656524,-0.04698445991366469,0.04666894379902142,-0.018603246668868225,-0.10547045405525152,-0.03903671656789158,-0.04289924718257897,0.9243970613335659,0.19024371859255745,0.7610025494900734,0.37883276273067856,-0.021343315658544276,-0.08951958308124741,0.16706163321368755,0.909439520068613,-0.4064876726009689,-0.42040413670582333,-0.6621767366019767
16.0,4.248607397079468,-0.18924953712461173,0.6884710834279355,1.0005444988081182,0.021826620914162036,-0.06400228647371277,-1.5591317534481235,-0.48434837683316356,-0.09811790078061464,0.08558095619302009,1.075202327787377,-0.5423591224392705,0.17231176123009195,-0.38049040909580345,0.2994989779843928,0.18110305561146903,0.9770729910444566,-0.23886146177700285,-0.008007875140863633,-0.04559663506618829,0.04797182226170202,-0.018374006981378265,-0.10544364251022359,-0.04530577947781904,-0.04347795408108415,0.9262866875923164,0.1904303277208288,0.7614175720143175,0.38400715488579296,-0.018644389607314873,-0.09246528894306116,0.1684578326198169,0.9105414577520055,-0.4072569872017575,-0.4205724467915072,-0.6598956617335157
17.0,4.280962944030762,-0.1903790972466197,0.6871085634366139,1.0003076411956042,0.020980801065517023,-0.06357876586556732,-1.56030690929561,-0.48933540456466457,-0.09376414399403368,0.09246859005845876,1.0843665891052379,-0.5416550869701278,0.1740600391969372,-0.37791197504078355,0.3014695887988414,0.18147313105512622,0.9762398576964517,-0.2387428552510054,-0.007418216977429555,-0.0434301329849124,0.04940701684541825,-0.018399633353388078,-0.10506226720571957,-0.05139908492657027,-0.04407546656411903,0.9279981081760329,0.19045479887912276,0.7609755887402769,0.38864838430948545,-0.015618954309629517,-0.09602089886698675,0.1702284114543498,0.9110877212469677,-0.4086103443657332,-0.42174953514875313,-0.6576778148637221
18.0,4.312576055526733,-0.19147866193222324,0.6856407598526089,1.000134683289561,0.02057919324036392,-0.06312364513168812,-1.5620948612472187,-0.4949979037605905,-0.08980862483340729,0.0990624663529312,1.0929957561966213,-0.5397020846657089,0.1753861301305092,-0.3757678370759516,0.3034691480741105,0.18197789173255496,0.9753924623991483,-0.23810730196514557,-0.006896873769115363,-0.04063260628246848,0.05114485884412302,-0.018958352064151907,-0.10502185619361837,-0.056867443521515,-0.044461800339362284,0.929575110506134,0.1902697634059519,0.7602887865114445,0.3926405136917044,-0.013045818631599553,-0.09964043745410124,0.17239156923882243,0.9114440402198173,-0.4105865410396562,-0.42369395235448226,-0.6559851544691666
19.0,4.35181999206543,-0.1926530905536793,0.6839431281031154,1.0000108539179116,0.020894161094725083,-0.06263215589163447,-1.5646259712493462,-0.5023194540584379,-0.08544120444645206,0.10660204333769024,1.1018965513406602,-0.5356415657696064,0.17653626176022968,-0.37408204674499734,0.3057353035854225,0.18276348032040002,0.9743541356321028,-0.23681734931067255,-0.006378440803301499,-0.03699328801412245,0.053527089184612124,-0.020467979742513985,-0.10585686207097446,-0.06192836857857451,-0.04453953205595912,0.93142871797876,0.1897237762767958,0.7594129137179688,0.39612314762612577,-0.011232866758196926,-0.10337168114417619,0.1753834263093461,0.9121129754007506,-0.41338507122080426,-0.42553615994691907,-0.6545192607591882
20.0,4.38018274307251,-0.19360460243330918,0.6825008659782738,0.999961104071314,0.021413069371834972,-0.06271825426967581,-1.5666312746167175,-0.5086505971507034,-0.08292281469656537,0.11250772435807221,1.107874848443339,-0.5305982680705863,0.17706724288937556,-0.37297184107854364,0.3070223162666895,0.18340894667556315,0.9736541592681537,-0.23559134581898977,-0.006047528567352218,-0.03436254181652476,0.0552871702855539,-0.02199029208092361,-0.10710968075806596,-0.06504162335817251,-0.0443569790008007,0.9325993042871354,0.18895855426694133,0.7585572881704061,0.3976157102523056,-0.010983961820665602,-0.10600810883072127,0.1783871163853714,0.9131516343977919,-0.4161695007503991,-0.4251981635448825,-0.652742515637605
21.0,4.412816524505615,-0.19464497964102093,0.6808913914767161,0.9999050952277331,0.0221277377366065,-0.06305371105113075,-1.5688790567748003,-0.5160676475632806,-0.08130566433899963,0.11829075714609887,1.1135507025299982,-0.5238362171883899,0.17711765597673618,-0.3719189417622505,0.30810735739648343,0.18402651339076584,0.972948731813469,-0.23394842846556468,-0.005736538205078528,-0.031765956007881915,0.057096667987218346,-0.023800772084363285,-0.10874012539059691,-0.06816445026709445,-0.043953648972533454,0.9338480843596828,0.18777619675423546,0.7574466307959569,0.39839919396256507,-0.011531176202450578,-0.1091479442678121,0.1822065731990391,0.9145220429809701,-0.41948620564747374,-0.4228621457732231,-0.6493921755179858
22.0,4.4485039710998535,-0.1956631877697852,0.679287427506049,0.9998017169899114,0.02285717144863328,-0.06335611574084485,-1.5711606713280686,-0.5238203535546194,-0.08108324582450561,0.1226592069082989,1.1182764328859087,-0.5163564902309136,0.1765193597307197,-0.3709943971905566,0.3089373704458035,0.18419933955951764,0.9723158073712546,-0.23170808412263394,-0.005478506306237536,-0.029444200201771048,0.05892330233262258,-0.025523491729369616,-0.11036010881045039,-0.07122906366926868,-0.04350731846537681,0.9353047105381063,0.18630518430486248,0.7563928694462685,0.39840992339536196,-0.012453077456336902,-0.11290108511276725,0.18640332769657939,0.91563445493725,-0.42290350584679676,-0.4196562297206917,-0.644932724581277
23.0,4.485710144042969,-0.19675022782958362,0.6775408412186263,0.9996146552059106,0.023672759747024368,-0.06338901012851986,-1.5738247845448599,-0.5328353404877084,-0.08210540859729405,0.1258110979336233,1.1225574125617672,-0.5077301734378941,0.17522515615407952,-0.3702260314752341,0.30979578360022164,0.18380303017226388,0.9716347664271946,-0.22796628248003237,-0.00519298775525532,-0.026958265744599537,0.061309275294873955,-0.027235183918137448,-0.11205209161435806,-0.0746458935255348,-0.04315925324921342,0.937354357992173,0.1844540081023478,0.7555289330775505,0.39768670108345694,-0.013501484323537387,-0.11796949875734072,0.19142450144755535,0.9161068675929127,-0.4266371085864457,-0.4169199866956568,-0.6395172503807351
24.0,4.515469074249268,-0.1976301148283349,0.6760798368276884,0.9994387433122052,0.024171964499497666,-0.0633017242945424,-1.5761743427141146,-0.5401193099557,-0.08395905765244305,0.12724031591861806,1.1249569939722992,-0.5008831762249366,0.17373369873417255,-0.36948534187677495,0.3105595909643209,0.183328604893721,0.9711446367698608,-0.22409652611414846,-0.004940836388579553,-0.024787330415765998,0.06326294715766631,-0.028025753845137058,-0.1130095369689823,-0.07719827230468841,-0.0432404945288975,0.938576592969279,0.18315723490479818,0.7552845288319812,0.3966004767935353,-0.014301124672735525,-0.12242452087336111,0.19544769442994794,0.9161892776399908,-0.42966651080938767,-0.41648221153726606,-0.635068062825564
25.0,4.551169395446777,-0.19859594588481638,0.6744065632200237,0.9992747141269531,0.02470846286598611,-0.06308187875814517,-1.5791395483971666,-0.5482422594922287,-0.08655701695891378,0.12822402011586628,1.1265812962861808,-0.4932901519930697,0.17173988607617185,-0.36851017335997427,0.3118589092547547,0.18326400482879954,0.9703568550345382,-0.21973762446625164,-0.004569336139637303,-0.022096524136282707,0.0655077069069783,-0.028480599976145222,-0.1133307080169138,-0.07953771657336092,-0.04372399945560991,0.9392325929955946,0.18207603056927385,0.7546660032971514,0.3950824001008012,-0.015148664129898886,-0.12722992444261033,0.19991649784913051,0.9162240241363817,-0.43292750300683414,-0.41687395321024956,-0.6297513132051997
26.0,4.579318046569824,-0.19955456998672727,0.672652662066044,0.9991987569170597,0.025128721862292466,-0.062740145908834,-1.582553293181804,-0.5561516625772558,-0.08955265677869782,0.12874488763362754,1.1269488459845347,-0.4860639668103717,0.16949629621903253,-0.36709461174240887,0.31378128652430265,0.1839615574046034,0.9691164187612635,-0.21635149282488847,-0.004130903843811868,-0.019102753829248195,0.067734010646583,-0.02841229363192748,-0.11274103119569052,-0.08119173123214501,-0.04467721558772364,0.9390808890958036,0.1814662312844995,0.7530698913530088,0.3933587841965913,-0.016097168824340376,-0.13169644697616378,0.2044835041030398,0.9162281260156444,-0.4359934851558339,-0.41693788244335916,-0.6236652000551948
27.0,4.6179797649383545,-0.20061286218970947,0.6706200622419023,0.9992378195676517,0.02547806151142322,-0.062313346695768324,-1.5867861995206796,-0.5645735836975223,-0.09331141375433516,0.12881914753021764,1.1259843746088527,-0.4789759267423745,0.16687750296694187,-0.364937541182089,0.31645168595492856,0.18553617813758574,0.9671731567882882,-0.21436577903156073,-0.0037501759045652466,-0.015547689897598065,0.06997987301607256,-0.027933328407727838,-0.1114102968864592,-0.08243999002106767,-0.04622620959525375,0.9382947496440494,0.18129089150282565,0.7504721374384116,0.3913504609783558,-0.01752349239843451,-0.13662678011591012,0.20984782362018972,0.9159000515681144,-0.43924678462685995,-0.41574795919126484,-0.6157490825193966
28.0,4.641522407531738,-0.20130933036026458,0.6692522764807292,0.9992916893240635,0.025513500759099687,-0.06221852805886819,-1.5894495812517284,-0.5696430825046139,-0.09618871318182728,0.12861037856979363,1.1246423515518877,-0.47568431604674155,0.16528887547701798,-0.3632343017538754,0.31798248722408984,0.18653211187621155,0.9659391015806962,-0.2144494027449229,-0.003821061565111381,-0.013381058385391074,0.07082173962006799,-0.027549297266641366,-0.11085062237447443,-0.08306323645815172,-0.04737392122636562,0.9378875304573687,0.18147946343657156,0.7491361496675655,0.39018391107269823,-0.018936228485619294,-0.13988323890215534,0.21313823546865773,0.9157065893734752,-0.44152816837704034,-0.4146546158823723,-0.6104786030324298
29.0,4.685529470443726,-0.20261117464338277,0.6666373447273137,0.9993822260179139,0.025729305960504247,-0.0622392348761093,-1.5943234263991715,-0.5781356120508849,-0.1011284770138211,0.12837735501583872,1.1215527706822899,-0.47136283595066386,0.162595686521804,-0.3599480232967115,0.3206592892112289,0.18855543328421376,0.9634753434330987,-0.21504056837958815,-0.004525632026038463,-0.009600336310303808,0.07181482305585926,-0.027610122968106422,-0.10984684628960642,-0.08409573967093867,-0.04960492531203098,0.937304979312974,0.18199045281263293,0.7473235497596697,0.3878942510848666,-0.021399389517832483,-0.14603622290784185,0.2190866617741899,0.9146597631688607,-0.4457501312218027,-0.41268997673557617,-0.6014769228261435
30.0,4.716975212097168,-0.20353953832527177,0.6647459027890597,0.9993390251862587,0.026362180557269743,-0.06256107855729302,-1.5970931106505148,-0.5862149231556846,-0.10601847535410416,0.12823486934276856,1.11819003998447,-0.4684076429254146,0.1611421073989397,-0.3583095166046434,0.3219430261966417,0.18933775223672034,0.9622045195440667,-0.21563428163372084,-0.005269101122731843,-0.008013328195457612,0.07200241294436474,-0.02813215150246938,-0.11179139464537236,-0.08566749687482961,-0.051003438295729696,0.938454312937351,0.18207749219308084,0.7473140360741453,0.38621678005801263,-0.025459315409491156,-0.15226931877755417,0.223181147978547,0.9138876412777235,-0.44877044596132526,-0.4115254063362145,-0.5932071786737568
31.0,4.7463366985321045,-0.20457744323932586,0.6626062685086177,0.9992796111055569,0.02718627219791199,-0.06292819985530636,-1.5997786480655622,-0.5940200617672617,-0.11024335410575631,0.1287731839630274,1.1139722717129872,-0.4662743494027669,0.16012366169704734,-0.35635222260448257,0.32348635709636203,0.19043530710398232,0.9607293554498924,-0.21597968541008936,-0.006307789549789096,-0.007017018107738659,0.07191856253355078,-0.029153186491977567,-0.1133889087444841,-0.0872329959188951,-0.052356844612572964,0.9400668166345401,0.1818767570520441,0.747096119480914,0.3838554364261537,-0.0291105841251917,-0.1587166261352193,0.2270408996808051,0.9128846141195615,-0.4516889957053645,-0.41124627050821355,-0.585336875067726
32.0,4.777513027191162,-0.2056316954207535,0.66040605195789,0.9992220834320018,0.028004317490640186,-0.06333731689057331,-1.602298737447122,-0.6015769806455862,-0.11371502795186647,0.13022378951556135,1.1088285063914358,-0.4644711488783788,0.15966699976938792,-0.3541141837779318,0.32535269096074376,0.1920989096556617,0.9591847977249621,-0.21659010071349577,-0.00726578172821613,-0.006735763947021222,0.07163557693909661,-0.030047883248393137,-0.1145551160110487,-0.08866700973163168,-0.05358708950859066,0.9417712184104643,0.1813426393894769,0.7461891671562062,0.38083437844162316,-0.03257794989298722,-0.1650492798385289,0.2304429187009639,0.9117641615668657,-0.4542848716200542,-0.41106796114045935,-0.5777925171416936
33.0,4.816562175750732,-0.2067879200930057,0.6579273738138713,0.9992526577799457,0.028648730763145794,-0.06376888100031378,-1.6051915252085054,-0.6082417773863052,-0.11620768833128059,0.1325599979877057,1.102617499041811,-0.4633753691132193,0.1595194520197013,-0.35090556393144523,0.3277553236308861,0.19473945302926204,0.9570993608468731,-0.21758680551035103,-0.008168780342329013,-0.006462456760289205,0.07115997152506043,-0.030780300226144634,-0.11390745349200972,-0.08955587115984753,-0.055183478921414696,0.9429513217378962,0.18091005419461076,0.7440808616642154,0.37720222583044327,-0.03488028683650969,-0.1707456118491886,0.2338472492302766,0.9102158650178566,-0.456730383873588,-0.40985698285056626,-0.5708280925575937
34.0,4.845475673675537,-0.20773611581587478,0.655847696299996,0.9992943775833167,0.029103558990864684,-0.06424200465401354,-1.6075403885415764,-0.6151287646068045,-0.11933183591984034,0.13467884275603864,1.0955902904524994,-0.46241580845146874,0.15967904815525208,-0.34819358716327775,0.3297447263127377,0.19715045193472844,0.9556223623880671,-0.2188461904906256,-0.008450420666446764,-0.006862323525832589,0.07037780175313049,-0.030609054233326487,-0.11441273436277749,-0.09058308452214436,-0.05668970378442717,0.9444801180436717,0.18059332921054808,0.742080114805813,0.3740646153212908,-0.03853669140677643,-0.17619947221405066,0.23613941581020625,0.909222662541258,-0.4583730292044784,-0.40722227142389106,-0.5630979419541525
35.0,4.883602142333984,-0.20883622949746894,0.6532628989891851,0.9993777695684019,0.02942757115128615,-0.06467934793596651,-1.6105856823434657,-0.6219512753058964,-0.1234321625234911,0.13607502051382386,1.0869442859606924,-0.4627564111232837,0.15933292993110787,-0.34456669865664347,0.3318690708703486,0.19990513750624272,0.9535131499492695,-0.21957636702865269,-0.008573013214773509,-0.006871915014023953,0.06941308145230801,-0.03058130125047103,-0.11415853398754496,-0.0912281171575147,-0.05894675989312136,0.94626955364234,0.18076938324159997,0.7390168572641,0.3706402584968181,-0.04182740702337014,-0.18166990942315345,0.23835273673970814,0.9073169712231284,-0.4599149127027648,-0.40341775345421493,-0.5554354169847111
36.0,4.912569761276245,-0.20970668563874997,0.6510671453893483,0.9994000101733007,0.029735539082899366,-0.06457081764652664,-1.6130371265944259,-0.6276211853272827,-0.12730304244098561,0.13603742887910172,1.079817975886874,-0.46411755222347006,0.15865968558567228,-0.34173656830030824,0.3333533533212643,0.20118555357445708,0.951652420179677,-0.2191049035916673,-0.008483922797077107,-0.0066715732769316236,0.0689408397416544,-0.03073130105886539,-0.11457126470561256,-0.0914691364695218,-0.06107339161929264,0.9476434010657517,0.18132321058653728,0.7369735050648425,0.3679936073277187,-0.04495151958506509,-0.1859026064800261,0.23940330805676896,0.9055303641162897,-0.4610311458585151,-0.400944319240386,-0.5508586355348807
37.0,4.943648099899292,-0.2106407742466307,0.6485711493162211,0.9994086702963256,0.030217273172397235,-0.06403943925412892,-1.615659446169691,-0.6340671859933467,-0.1316582407711725,0.1354325512477623,1.0717407302497943,-0.46596904153437596,0.157843497500578,-0.33871601211547986,0.3348008743328126,0.20182101312361275,0.9493159183637645,-0.2176160125991649,-0.008241298715251477,-0.006458000824801686,0.06900277000122668,-0.03105536980254065,-0.11580971408082157,-0.09138450049828858,-0.06353207838927427,0.9493651374051549,0.18203305360283123,0.7352765739481338,0.364565277400596,-0.04897358757797027,-0.19052417142115707,0.24004968219293377,0.9033591058511593,-0.46236812985375,-0.3989080033533681,-0.5473029777762108
38.0,4.982403039932251,-0.21163552607489955,0.6457770556509717,0.9994735657354048,0.030488438101012025,-0.0630625420880779,-1.618505973347366,-0.6399014874219815,-0.13515910390399877,0.13502647927009237,1.063406492525114,-0.4680428794408806,0.15712053025450973,-0.3348392258957601,0.3363708314739384,0.20219551811597009,0.9460278980784312,-0.21519781563894524,-0.008068387435642015,-0.006034625597391931,0.06980936558066744,-0.03133438897343728,-0.11652507601332746,-0.0907449056438298,-0.06626673306748218,0.9511752276824352,0.18280103294684666,0.7340070988933992,0.36019941090930163,-0.05212245876421558,-0.1948393077725901,0.24062517912881237,0.9005114671757003,-0.4639942488127742,-0.3971247187206497,-0.5454645343693991
39.0,5.011899948120117,-0.21242653175078385,0.6434424877890521,0.9995356803412749,0.03067161689364551,-0.062396729844176706,-1.620645252572046,-0.6460693384858983,-0.1385963267793125,0.13564569317683686,1.0543250709348482,-0.4685647151876192,0.1570555628282731,-0.3318239027480512,0.3370515981878395,0.2019388026734094,0.9435390416100915,-0.2125576170561288,-0.007516888545539746,-0.0063976586881805955,0.07041397412922638,-0.03076821987041349,-0.11885111266453817,-0.08997774615205778,-0.06862098245941163,0.9536759266867064,0.18330468219031182,0.7344374143056009,0.35537413912586235,-0.056515533547865655,-0.1988048172662171,0.24046025446823308,0.8985707750355214,-0.46508440928601585,-0.39441728179632807,-0.5433371900846024
40.0,5.0518479347229,-0.21336540512203117,0.6405869045688942,0.9997075032207967,0.030323255419226244,-0.06180836066957138,-1.6232530511431942,-0.6515132697568993,-0.1416183147287403,0.13732894178208693,1.0432804410028769,-0.4684292441305673,0.1571754709434694,-0.3272448301505858,0.3376211989719451,0.20203046880391395,0.9398209939560311,-0.20898199966692055,-0.007030377208700492,-0.006865314660155358,0.07086076402072147,-0.029671232101849243,-0.11975003861924968,-0.08899482319612853,-0.07147443401678515,0.9564417140988033,0.18381800498246675,0.7349007547889916,0.34944481337617606,-0.059549510148101066,-0.20275906255728765,0.2402686872343362,0.8959228637308443,-0.4660650430664802,-0.3895340916539074,-0.5406232350560806
41.0,5.081116676330566,-0.21412965192431244,0.6381998896568828,0.9998525604385845,0.02990226215322956,-0.0614705297405477,-1.6254841347809617,-0.6556791041113077,-0.14394977143951623,0.13910632191902522,1.0339811280425444,-0.46779238343783036,0.15718711241382427,-0.32330744855550664,0.3380079380566281,0.20230874326767218,0.9367689947805391,-0.20600148251367456,-0.006691458149757296,-0.007428688350861443,0.07072647435117174,-0.028527993736964144,-0.11984864045497602,-0.08856092847258,-0.07358723029585076,0.9582667799531712,0.1841085484165665,0.7356354149378681,0.3450421086893049,-0.0613406566870314,-0.2061484377664308,0.23972401797909593,0.8934816587543379,-0.4664942366223733,-0.38515556658991523,-0.5380875666700113
42.0,5.118692874908447,-0.215072146869087,0.6352152241994331,1.0000277236760025,0.029620618946438977,-0.06122692361412796,-1.6283337339892379,-0.6608134632887093,-0.1471314479294889,0.14114637807254776,1.0221068003203166,-0.4662310072154094,0.1569358513417268,-0.31849909429856127,0.3384962470665219,0.20307917656374247,0.9328745672485065,-0.2023640873961199,-0.006339608855339589,-0.008044419766922708,0.07042763013361568,-0.02730875672070275,-0.12027058820500261,-0.08821167481869394,-0.0759936449160581,0.9604266870061701,0.18435048788487743,0.7363523389092215,0.33992288760481015,-0.06322906913304613,-0.21076318510771774,0.2386435350708721,0.8893133205372339,-0.4670072717807426,-0.3803634904129357,-0.5356068337861898
43.0,5.147785186767578,-0.21588156720735271,0.6326610108357685,1.0001614277791648,0.0297260001525447,-0.060870603640029775,-1.6308174514057678,-0.6654892101172929,-0.1498539871301121,0.1422973594093196,1.0127752388261895,-0.46463276438086987,0.15638541240496856,-0.31478610093863146,0.33928376855052933,0.20394027767328815,0.9299100254572495,-0.20011093078367875,-0.006217512252693409,-0.008194001668555327,0.07035593030531401,-0.0268972454605894,-0.12128826884310388,-0.08797013739679736,-0.0776690072500991,0.962010995571102,0.1845618246963484,0.7366708617272171,0.3364427331916746,-0.06511294459182723,-0.2147243329398143,0.23725430269916262,0.8857623051020755,-0.4674271337681467,-0.37809919227353983,-0.5349717681033306
44.0,5.185714244842529,-0.21691651897026282,0.6294303557149699,1.000372829151955,0.030141956729883512,-0.060292310056681606,-1.6340657286493538,-0.6713562322510571,-0.15328541890107755,0.14321372050444717,1.001100068621834,-0.46165670987356494,0.15537353128054338,-0.310190512709643,0.3406554587434757,0.20551700704689652,0.9260419208418031,-0.1978213724734269,-0.006145855187793703,-0.00775034528938093,0.07054070994891357,-0.026857983124442052,-0.12332701414657571,-0.0875659561542245,-0.07961491874185656,0.9641129283328385,0.18492205066677547,0.7365921820266979,0.33265012570885183,-0.06761904581863891,-0.21952303838577314,0.23492996247679968,0.8811292154803023,-0.46777541716436954,-0.376506136665542,-0.5352690207758699
45.0,5.21436882019043,-0.21780750555472425,0.6266769075663159,1.0005366106626834,0.030531215784955996,-0.05956861701718977,-1.6369044503436565,-0.6762405700449072,-0.15590339970830053,0.14367843309066153,0.991913419869811,-0.45834006235322533,0.1542936714156094,-0.30638841769249536,0.34215199183575595,0.20692075349512318,0.9229842679749882,-0.19628845865694572,-0.006110319509593094,-0.007023509765092182,0.07084324568534693,-0.02713162704703436,-0.12522636627404315,-0.08704851355997577,-0.08096013552004563,0.965559821462921,0.18528674785253985,0.7365976201365565,0.33013015325298856,-0.0699138012409385,-0.2230193560771736,0.23258714953732396,0.877772227031254,-0.467554949524866,-0.3760428618591717,-0.5356794423496127
46.0,5.252238750457764,-0.21891387640822252,0.6232614438854953,1.0007306303845507,0.03103852899939187,-0.05869513917125993,-1.6405375234257011,-0.6819550233440609,-0.15911744022071578,0.14416408775891806,0.9802952697380207,-0.452699645435695,0.15278010403420159,-0.30158207602041404,0.3440151931684207,0.20880225839692684,0.9189514123345774,-0.19394788956703432,-0.00591920180341372,-0.00592574465696127,0.07116663683188242,-0.027437489077591984,-0.12771528588327977,-0.08614123337247666,-0.08236590686546606,0.9672926262058904,0.18563135721292473,0.7365213938702091,0.3270665541350678,-0.07282153303293423,-0.226790017261491,0.22930630485587317,0.8738801071494449,-0.4667289283310919,-0.37543033556471483,-0.5354532782429294
47.0,5.2809224128723145,-0.2198415654428032,0.6204547128785293,1.00081539045783,0.03132344649937946,-0.057993415722463054,-1.6434566242378814,-0.6865370225048808,-0.16169135835068857,0.14461675464561075,0.9711357933283951,-0.44734865411193747,0.15148821992125644,-0.2976334214239985,0.34545730532924773,0.21005380605325003,0.9157994636407449,-0.19178210982481853,-0.005665898362448957,-0.005390172788812028,0.07129228351789114,-0.027485581500956712,-0.12936844328219033,-0.08509809070477735,-0.08308293890836822,0.9683320970490185,0.1856664389419284,0.736718697824335,0.32455591063703754,-0.07515555716951491,-0.2293634907872476,0.22669918194255573,0.8711125853901069,-0.4657996537443225,-0.37471930551391525,-0.534631344468055
48.0,5.318432807922363,-0.2209916290012779,0.6170851680535223,1.0008947959674106,0.031681866749865985,-0.05723054967967929,-1.6468337856967556,-0.6919884186670657,-0.16493450247862643,0.14519570268673715,0.9595079608026369,-0.43981734301281417,0.14981077607244464,-0.29277089786877275,0.3470222478774615,0.211399755411888,0.9115869588176131,-0.18851521874074947,-0.005193969900772019,-0.0052833521683383206,0.071440048700642,-0.027103946430826757,-0.13093050282355906,-0.08338263714778557,-0.08363552018260839,0.9693840791959685,0.18548134726529508,0.7370672780524901,0.32123710624904844,-0.07742689931164158,-0.23211301746656338,0.22373473719292128,0.8674713882392553,-0.4650816218980649,-0.3735480303725133,-0.5339365190026943
49.0,5.347537994384766,-0.22196214830202415,0.6143365785524113,1.0009200526244824,0.03195253343065148,-0.05652312792353485,-1.6494727558252111,-0.6964776199306966,-0.1673994166700321,0.14572185715871125,0.9505082706313854,-0.4339840328312995,0.14835018276988327,-0.2888234397814581,0.3482483070675988,0.21210605749483125,0.9082465013527944,-0.18572612764229374,-0.0047772727940578255,-0.005637551890508524,0.07161020015264173,-0.026585300099119368,-0.1316707987548335,-0.08160978414634629,-0.08377166048536616,0.9697703262176323,0.18528166941037727,0.7373411696586594,0.31885849126416105,-0.07880199375046301,-0.2339008945849183,0.22157201886411493,0.8645424005580618,-0.46497505165858644,-0.3724377300844362,-0.5346539010271278
50.0,5.377556800842285,-0.2230642419849721,0.6112324325784635,1.0009551889945738,0.03220753132947379,-0.05565172370638047,-1.6524094274640058,-0.7012594838755066,-0.16989221801693516,0.14645434505739285,0.9406278615182145,-0.4276906204373366,0.14654688070904615,-0.28425226267903725,0.3496269128264702,0.21284175936861693,0.9043941030018412,-0.182563054678961,-0.004333471998955665,-0.00607796874212977,0.07176550287810445,-0.02599916046862629,-0.13214129319363582,-0.07954792071794778,-0.08380285951288757,0.9696721136938378,0.1852168256245823,0.7372587057438793,0.31695680385080255,-0.079996272231662,-0.23557900795560668,0.21900720855388955,0.8612333801854657,-0.4650475497340862,-0.371012751732389,-0.5369762971777158
51.0,5.41864538192749,-0.22428642817204866,0.6076880492354098,1.0010184044815176,0.03240186108484219,-0.054580837217366826,-1.655790718304262,-0.706046230827365,-0.1723645683231724,0.1474451672328821,0.9296174849247693,-0.420811388737485,0.14425241218081858,-0.2788090896305238,0.3511545122039903,0.2137738406883941,0.899777625148774,-0.17901512979063194,-0.0039079778286199435,-0.006168852605399686,0.07187973480682577,-0.025517007331821773,-0.13251725770183814,-0.07736900200696725,-0.08383560807001914,0.9691500721532393,0.18548213656391255,0.7364038123189458,0.31606260990990964,-0.08106229505106467,-0.23707838159117348,0.21556753545629068,0.8574245608755795,-0.46496660462021444,-0.3689985566887119,-0.5406230433441614
52.0,5.447502136230469,-0.22526792746662894,0.6046180970844464,1.0010040212151168,0.03237806009156856,-0.0534640070966695,-1.6588538144448521,-0.7097763638872199,-0.17425090339442584,0.14807783337188013,0.921393167501768,-0.4159997781267996,0.14210625543231423,-0.2741020733478703,0.35254350730019235,0.21447801527578292,0.8962390070250421,-0.17652454149962987,-0.00369024838899682,-0.005643073021473072,0.07201733514514524,-0.025507197448515068,-0.13297008601132654,-0.07567476376242005,-0.08383274501247212,0.9684255443645062,0.1859971935183733,0.7354583024358515,0.3163453815983195,-0.08229432337650483,-0.2379779868154215,0.21233287209878515,0.854867012955326,-0.4640930484172897,-0.36700330848554363,-0.543071180536715
53.0,5.485021591186523,-0.22645290423187098,0.6007333773432356,1.0009252381294618,0.03220469058267634,-0.05196720078546205,-1.6629113291882414,-0.7139441331148256,-0.1768718811683867,0.14812477539656774,0.911333348887182,-0.4101711187734554,0.13895019306144255,-0.2678910382837185,0.3543608616670578,0.21558546552306995,0.8915792213798279,-0.17349811837785095,-0.003493658997676857,-0.004464053369335947,0.0723084188679413,-0.02545292181717894,-0.13384232254049722,-0.07365246165007826,-0.08361444884468427,0.9673327998080179,0.18666654157169346,0.7341171791759883,0.31722695006448387,-0.08408993741320926,-0.23896817104370338,0.2081450537097165,0.8518281961542835,-0.46257506227680306,-0.3642295021629972,-0.5451109522744572
54.0,5.512995958328247,-0.22742617338530602,0.5974776798001771,1.000759774333826,0.031967142423523706,-0.05063596085448212,-1.6663322446977262,-0.7173709668253823,-0.1792574876946585,0.14752136179209466,0.9037690451997726,-0.4058400725316177,0.1359922205722128,-0.2627741617957863,0.3559721304863179,0.21642461305158306,0.8880699373429634,-0.17137280551706835,-0.0033769508981612495,-0.003535230085960289,0.07268122319808647,-0.02539608319360708,-0.13466755719051213,-0.07206266992968066,-0.08303740324237913,0.9663199177941045,0.1869401450555237,0.7332886051366609,0.31802776116439,-0.08563105479582347,-0.24002896345995534,0.20511693107601517,0.8495427958294507,-0.4614150933696378,-0.3622937342845932,-0.5459362085833648
55.0,5.551514625549316,-0.2286412564136463,0.5934766856329102,1.0005054826691555,0.03171322193706593,-0.04899496571992565,-1.6705525993520056,-0.7213549772030365,-0.1822026536493293,0.14637829974703176,0.8945094233299133,-0.40022290561003027,0.13202928475042663,-0.2564243418922193,0.3580647197993386,0.21762675966677503,0.8835985040686942,-0.16847225766156002,-0.0031095246263903214,-0.0025546826391729845,0.07329265179767051,-0.02514757528987372,-0.13541091045406073,-0.0700312246774136,-0.08203336590443495,0.9648602821240765,0.1870127914939521,0.7321496921824167,0.31877910520406916,-0.08705943092321941,-0.24170137652003892,0.20205885124980139,0.8464398423821012,-0.4606749314510023,-0.3605467344100046,-0.5465537479008141
56.0,5.579221725463867,-0.22965714090708844,0.5901680607096191,1.0002253266669514,0.03153177061990985,-0.047749207447998,-1.6739861177474444,-0.7245572649044408,-0.18437342368797416,0.1455743469668178,0.8875637087458144,-0.39594743984191527,0.12897135602961546,-0.25148104479807487,0.35981959081472514,0.2186399250346911,0.8805114941057557,-0.1661928824162851,-0.0027274788269591953,-0.0018215525705445237,0.07380192740547754,-0.025233984415574617,-0.13553416647872868,-0.0681173695700051,-0.0812112787416597,0.9635334407618663,0.18696749136224045,0.731032967884824,0.3188932590466593,-0.08766967269591676,-0.24332519740018813,0.20035576118339232,0.8439880740425995,-0.46077764308991165,-0.36021566891198853,-0.5472677452542504
57.0,5.616471529006958,-0.23089692560366865,0.5860598541589919,0.9998627233568668,0.03144751329749895,-0.04642776209155593,-1.678233993101791,-0.7280410490440501,-0.18671100558821274,0.14491644144851334,0.8790421449963219,-0.3908253074413776,0.12564326844889526,-0.24546016633911488,0.36202510132120463,0.22037155837429984,0.8768675067379008,-0.16319244577979142,-0.001960824706953949,-0.0007134150311812431,0.07423650413194965,-0.025748032506416857,-0.13523616414151687,-0.06564453625975171,-0.08033436055764634,0.9617507041080808,0.18685993308382376,0.7292796177784174,0.31841379869054076,-0.08777298998351526,-0.24554223069927986,0.19863578150218972,0.8408521445556196,-0.46154187082848924,-0.3610721120569419,-0.5489938081245829
58.0,5.646509647369385,-0.2318850339681875,0.5826251987866871,0.9995304281924331,0.03139613747809278,-0.04551033425159509,-1.6817030147120824,-0.7305216045805953,-0.18816123810443403,0.14489307115426603,0.8726575758306783,-0.38755524852097245,0.12375570866286821,-0.24067856165933263,0.36389179502271185,0.2220879490236592,0.8745337219969568,-0.16082631166918018,-0.001127639306513266,0.00023939883484808293,0.07423579343863868,-0.02659982649680348,-0.13489341923620274,-0.0637517692074666,-0.07959899787217321,0.9602802730552273,0.1866157376433255,0.7277489432311779,0.3177037327955171,-0.08766605523879543,-0.24752223574434778,0.19735714675783517,0.8385498139807092,-0.4623549105833637,-0.3624782359201149,-0.550963506552022
59.0,5.684887886047363,-0.2329495315065321,0.5787514802931114,0.9992074408597443,0.03131986191771801,-0.04455214804747201,-1.6856816830142638,-0.7326529020992274,-0.1891015059713808,0.14538105875110932,0.8657535144626045,-0.38482752941949916,0.12254214446306202,-0.23525203081726373,0.3660290893435615,0.22436707008431517,0.8720512395882825,-0.1578285885158633,-0.00010163921725822387,0.0012364376554694495,0.07404699725129149,-0.027386153590482812,-0.13446597376456976,-0.06185040564304245,-0.0784889055233099,0.9584025613551961,0.18610490785298944,0.7259611078809294,0.31709487452671836,-0.08751385290780858,-0.2497595016400786,0.19592928199452425,0.8361665078094938,-0.4632820384683669,-0.36380409471511843,-0.5532928701384154
60.0,5.7144269943237305,-0.23377048545500034,0.5756111779186293,0.9990012930111977,0.031224098712306837,-0.043742495596959946,-1.6889397278825067,-0.7338424872839517,-0.1890733760231747,0.1463342771752624,0.8606017475202663,-0.3837875847261502,0.12239676441134573,-0.23085961511533568,0.3676719314718049,0.2261475997782465,0.8701621856479875,-0.15508318759672018,0.0006709081674061109,0.0018596092027198378,0.0738851690181799,-0.027679237219303862,-0.13418999495221612,-0.060426084880950914,-0.07719561718165155,0.9567335710794644,0.185462017217239,0.7246989094368723,0.3169793063440743,-0.08742621267416972,-0.25142595285243374,0.19483128667222732,0.8344183143119133,-0.46390091372529296,-0.36422482015650526,-0.5548307786196003
61.0,5.74970817565918,-0.23497460753652247,0.5708343285717257,0.998767992465735,0.031041984388656216,-0.04240290514970092,-1.6941384010549116,-0.7348591534170376,-0.1876860428786903,0.14872719212108793,0.8532677991630601,-0.38407997210913025,0.12314131232769612,-0.22402495366379543,0.37002886716454053,0.22880742080130945,0.8670122900048596,-0.15021459098201426,0.0017348428398603227,0.0028242282041356774,0.07379532755251778,-0.027618002736746937,-0.13389236178658487,-0.05819267909170854,-0.07471429146197575,0.9539864892700091,0.18425753616565957,0.723126060138578,0.3172522890300546,-0.08725240516872745,-0.25367267646216357,0.19339011421328062,0.8316982148349286,-0.4647577769738921,-0.36427462326651217,-0.5563901564830577
62.0,5.778886079788208,-0.23596346383896902,0.5667564363445393,0.9985840132588125,0.030930969040036754,-0.041147123766261076,-1.6987545165876643,-0.7351161681595957,-0.18530199460497065,0.15152413039628942,0.8478946990132583,-0.3866643589257074,0.12451309231481225,-0.21822229121531844,0.3717714224342602,0.23077371240033884,0.8641720841311292,-0.14574200002395768,0.002486891050332599,0.003849521306332932,0.07398889626362401,-0.027419349182256025,-0.13380552476497842,-0.055876241397928884,-0.07236440555698677,0.9518077130635418,0.18321568461301474,0.722478096037628,0.31751012806904033,-0.08691213998377204,-0.25511276566678187,0.19266494323658806,0.829321980937022,-0.46553455945855055,-0.36440802989299825,-0.5568291347124716
63.0,5.81723165512085,-0.2370577372717648,0.5621572388227556,0.9982797949193767,0.03082400761660229,-0.039634656970660334,-1.7040982647359197,-0.7350429087612043,-0.18191805227201557,0.15492671948992504,0.8430827401304284,-0.39193841386977013,0.12641994643799878,-0.21175940420624545,0.3735999662154704,0.2327803988013614,0.8610413383035496,-0.14087027963043836,0.003252450089459743,0.005417083669781012,0.07449475883734835,-0.027441763293297627,-0.1338928496016885,-0.05265653009881917,-0.0698355688507591,0.9498453227865691,0.1822261335763669,0.7226571976503879,0.317392712712365,-0.0862942125868339,-0.2561604208439921,0.19239784488788503,0.8267146105057117,-0.46653579801191947,-0.3652309627184664,-0.5568829670372119
64.0,5.8530168533325195,-0.23796463563221493,0.5582944143544971,0.9978578191768384,0.030784461917386065,-0.03848812935038439,-1.7082799453626176,-0.734839779276979,-0.17929684639754317,0.157495735931036,0.8399510045635153,-0.3976435386178868,0.12808504576253327,-0.2067485127026505,0.3749392454298148,0.23412558285704044,0.8590676815022897,-0.13749691935390415,0.0038797409019156186,0.006707250699825491,0.07491188170338867,-0.027921247229767063,-0.1343492392372002,-0.049645820979816596,-0.06793918581990746,0.9487905261437424,0.18159505216438698,0.7230795153406289,0.31710348945884936,-0.08589119301873516,-0.2567850575248511,0.1926010897815526,0.8249144111686295,-0.46745391771910383,-0.3666104103444309,-0.5568880990049349
65.0,5.885080337524414,-0.2389952977778889,0.55391220080324,0.9972787617873615,0.03066244754219029,-0.03728770561398761,-1.7129822751817527,-0.7342261073290511,-0.17634519360865802,0.16028611259444303,0.8370021961193898,-0.40490575744267376,0.13002751282995345,-0.20115665260583118,0.37642302050271326,0.2356675062329187,0.8571589443480147,-0.13392211120217007,0.004598971811129102,0.00816124463353169,0.07537744400660197,-0.028496816879738388,-0.1350395958341058,-0.04622113359004137,-0.06591694776442739,0.9477649942266453,0.1809903739870817,0.7229036066964414,0.3169190841966429,-0.08556474221718041,-0.25756647301691415,0.19317774999412812,0.8231509426965015,-0.4687231106668584,-0.3684396653265014,-0.556843280849694
66.0,5.914569616317749,-0.24004952424406611,0.5494513039507694,0.9966562894217175,0.030453655776253863,-0.03611687965045273,-1.7177602374513765,-0.7330966470956153,-0.17312316868279765,0.16323146581443526,0.8345486045013745,-0.4122537488851795,0.13206893911946088,-0.19551806959261397,0.37788699117411517,0.23718194204333637,0.8555043805305359,-0.1303677555794585,0.005344669618908724,0.00958894857017644,0.07577687873841583,-0.029001201395770816,-0.135735502379972,-0.04278838446180096,-0.06394563010543404,0.9467323603962681,0.18047013576009505,0.721701545015095,0.3169858013307334,-0.08522061293410894,-0.2583898669562043,0.19400466888261664,0.8216493239274355,-0.47026193611364075,-0.3698549273150316,-0.5567611520832187
67.0,5.944241046905518,-0.24113270037617413,0.5449076972615632,0.9960416079700962,0.030184683595892423,-0.0349916132605818,-1.7225658510731374,-0.7314702453696231,-0.16961281788637494,0.1663828463693714,0.8325152945421388,-0.4186262801471756,0.13411128693415506,-0.18990177719281132,0.3793064133580753,0.23862794052674857,0.8541832136053166,-0.12695398511204004,0.0061235873223085165,0.010925188574342496,0.07584227259813224,-0.02963899944777472,-0.1364448863701686,-0.03934298526079597,-0.06196142905785021,0.9458931296660272,0.17999061582767412,0.7200782073486156,0.31725314225942775,-0.08473926524408235,-0.25905237983533347,0.19498802863871006,0.8203721922434575,-0.47203813833708097,-0.37049947413454964,-0.5570426220574084
68.0,5.984914541244507,-0.24236563012416,0.5397959707934992,0.9953881347302298,0.029796271710794797,-0.033808637427426444,-1.7281295993193222,-0.7290791312288687,-0.16552014178509833,0.16976516974615685,0.8307693358662601,-0.4244652870140986,0.13621188892898012,-0.1835295281232208,0.38091563750274177,0.24044072819735304,0.8529846127285226,-0.12332133736411888,0.00701068938062656,0.012508832138458334,0.0753996422391181,-0.030505835576389022,-0.13715961677979385,-0.035462840055560704,-0.059783229038696956,0.9455891095046521,0.1795198750255699,0.7187627825527555,0.31759597780040644,-0.0838150332207166,-0.2593873474207354,0.19624366648913474,0.8190571252010265,-0.47429203860134383,-0.3705741458214403,-0.5582519560995107
69.0,6.014046669006348,-0.24338487096815908,0.5355386930375249,0.9948409482072669,0.029500716350548475,-0.03292001626769131,-1.7326207388981167,-0.726852685840085,-0.16266456528040524,0.17169331361379847,0.8296784695733401,-0.4279818221602345,0.1377356412271359,-0.17846345514966644,0.38202217247059705,0.24166758222622195,0.8523456410444492,-0.12059222983594656,0.007685354127075338,0.01365167811422657,0.07458949776697929,-0.03138937983614071,-0.13719299135372362,-0.032223914820753576,-0.05824026450520475,0.945706065935208,0.17932584816941122,0.7186966022105143,0.3178594602337358,-0.0823711749466463,-0.2591946787950502,0.19736000480876065,0.8181294943170331,-0.4760292319350192,-0.37027469704393123,-0.5597001407384856
70.0,6.052960157394409,-0.24466025315842493,0.5302089508339679,0.9941519422092557,0.02889235565292954,-0.03173128567307018,-1.738515932963497,-0.7235527224683403,-0.15919632126436112,0.173364219246401,0.8291491188066491,-0.43182115637780594,0.13956493269177223,-0.17157410025859382,0.3833574674947239,0.24336177419758653,0.8511049704933067,-0.11684660805671081,0.008376922546232738,0.015221767107992943,0.07346944178012182,-0.032022866285765686,-0.1363922602969035,-0.02827307755215806,-0.05647221924630902,0.9459194778220004,0.17922450843697324,0.7195223208885753,0.31837473555483276,-0.07963660401981876,-0.25857574852906084,0.19888445730842905,0.8167633473267915,-0.4779385203609297,-0.3696280945303503,-0.5613765252409462
71.0,6.082643985748291,-0.24570523143670492,0.525742734310995,0.9934560502953567,0.028291554965830905,-0.03059182323525338,-1.7432760070215645,-0.7206657809841779,-0.15657728535298954,0.17403760781969646,0.8297767643186982,-0.4347036979620683,0.14113342943291374,-0.16538323467698368,0.38435816181784405,0.24455855108294644,0.8496959992330875,-0.11380123336504208,0.008760378423171714,0.01626948832648131,0.0726305053633335,-0.032114027300489505,-0.13550876999458975,-0.02537821203453394,-0.054977013291944946,0.946100651423109,0.17911566034513926,0.7209915656594736,0.3191247145480739,-0.07687064546780459,-0.258186375781918,0.2001246037684251,0.8154634922617856,-0.4790932986945087,-0.3693976875023767,-0.5619107844398561
72.0,6.116528272628784,-0.2468872422323198,0.5206819853775082,0.9924668193904531,0.02742886099216963,-0.029064246990131284,-1.7485861460941017,-0.7172347333980251,-0.15334880864372735,0.17471317572187472,0.8318165667921105,-0.43809666617044707,0.14304132290443677,-0.15732611718975692,0.3856836695653615,0.24617657742897472,0.847448501673013,-0.11064605987889667,0.009048592922380269,0.017409492704951714,0.07185217554071574,-0.03173508595502664,-0.1347402171891205,-0.022547425855016037,-0.05320666700000329,0.94623591920864,0.1788426110898539,0.7231339452874364,0.3200633273378673,-0.07348935764842579,-0.2581376719728903,0.20145820240089482,0.8137877035003971,-0.4800075501709913,-0.3695554464343169,-0.5613742997675563
73.0,6.148929595947266,-0.2480987662485743,0.5155474783363299,0.9912459149919537,0.026417728888105077,-0.027206524170424108,-1.7538589153033501,-0.7136631194451919,-0.14958813781897892,0.17556072462182992,0.8353613079455766,-0.44153483326849063,0.1450470882779126,-0.14806072087332944,0.3874003457529701,0.24826203845245237,0.8445946782405844,-0.10802352308925123,0.009233666907162846,0.018617795937724474,0.07131798776845716,-0.031090288546915222,-0.13437298390861507,-0.019913547976620344,-0.05144483878663954,0.9463517650576272,0.17846440310923123,0.7255642319027585,0.3207981940963549,-0.06989712826686535,-0.2583026127315315,0.20270532486349796,0.8119752370977315,-0.48056465686964944,-0.3699636296194951,-0.559853701094334
74.0,6.181933641433716,-0.24933743911763565,0.5103465700936406,0.9898897281607093,0.025494068696650996,-0.025086904683739468,-1.7590857661751684,-0.7100608591252211,-0.1452969679789897,0.1766748958635018,0.8400764073316275,-0.4449606126235941,0.14700297992621852,-0.13835060653727813,0.3894187490506654,0.2505712132382849,0.8416319844193286,-0.10581105384322864,0.00936207806884315,0.019945709420652137,0.07105048197936742,-0.030687784230135455,-0.1346299253470975,-0.017100440407819467,-0.049758446365740124,0.9465799016633138,0.17809159917668138,0.7280359823419281,0.3211834326952412,-0.06646426894994387,-0.25824688135533724,0.20387812273904035,0.8102716544362495,-0.48097495385736344,-0.37033533771996857,-0.5581375138958576
75.0,6.213464736938477,-0.25060846012959903,0.5050544321468241,0.988591796935971,0.02488172705151475,-0.022886306711671266,-1.7643775980695389,-0.7063841226000912,-0.1402388005393697,0.17861119376380757,0.845369076964664,-0.4481417591860012,0.1488402147104209,-0.12919490003953246,0.39136210689283085,0.2526351402055439,0.8390474557022602,-0.10342671815015828,0.009430851860028674,0.021421070465125813,0.07089463678113576,-0.030984358818917975,-0.1353579089540235,-0.014013909193254308,-0.04816269953958351,0.9469411626833331,0.17778168012229922,0.7299783792547989,0.3213448162275545,-0.06340574303855306,-0.25773726861955615,0.20494899669196276,0.8089293138908765,-0.48135807181673573,-0.37028059753879816,-0.5567872435902015
76.0,6.244166374206543,-0.2519268450004586,0.4996358256602864,0.9875967973197868,0.02465796573133015,-0.020902071313448144,-1.7697617267917662,-0.7024612851558729,-0.13388189802472017,0.18256074416593399,0.8505733895248866,-0.45042899424459615,0.15068410475097296,-0.12131939144433149,0.39273437258389743,0.2541045778383526,0.8371056866313229,-0.1002156314349596,0.009389870788740224,0.022988568857522325,0.07043503001155933,-0.03222124002801816,-0.1359497586413848,-0.010763173818460325,-0.0466500185112054,0.9473621459584423,0.17757440820760564,0.7308692130348304,0.3216128629451997,-0.06043450246274183,-0.25666828173522227,0.20587043079259718,0.8080196545134762,-0.48168234165892937,-0.36946229084517634,-0.556058897287357
77.0,6.2765398025512695,-0.253304984073754,0.49406867559124334,0.9870649240984057,0.02484446852693269,-0.019441999934530753,-1.775074645282853,-0.6982130937097177,-0.12558791565982022,0.18986426492427813,0.8552496448810145,-0.45103852699720626,0.15286179591867025,-0.11484602188256157,0.3932764291639413,0.25507229723134334,0.8358458519769123,-0.09596482133844719,0.009218482686343253,0.024488517607803923,0.06921523034703886,-0.03433313901117283,-0.1360520153877127,-0.0073241912791932925,-0.04516847420952906,0.9478592858811328,0.1774877318257779,0.7309746309108711,0.3221456758079393,-0.05706592688539768,-0.254896619850588,0.20670289022506994,0.8073564394881736,-0.48191798519855233,-0.3679621795688034,-0.5561194122340931
78.0,6.3180928230285645,-0.2547494028984973,0.4883682240122054,0.9869789621059355,0.025359266642309933,-0.0188337345315172,-1.7800668781095874,-0.6937283823165623,-0.11502838791312904,0.20139389950721326,0.8592862748780286,-0.4492877895831461,0.15570264967265518,-0.10939752802316621,0.39292685872892374,0.2559626599504385,0.8352401232379321,-0.0911093121437188,0.008907631119783772,0.02570329636175247,0.0668661696488953,-0.03707813997983625,-0.1357430475537957,-0.00350265251156134,-0.043739739333606836,0.9485304962186863,0.17746097882115686,0.7310475670602123,0.3224500441126304,-0.052987608240942265,-0.2522993141942689,0.20763605037418487,0.8067156514452725,-0.4820983420546976,-0.36614206984282244,-0.5569184454749472
79.0,6.34583306312561,-0.2559411138897936,0.48374558173714133,0.9871578970360835,0.02598379862226868,-0.019167387617008386,-1.7834279331798322,-0.6901900615831467,-0.10556046572489045,0.213184756250825,0.8620716878308663,-0.44610645939963023,0.1584533622730412,-0.10564340787477144,0.3918643817731282,0.2565814528768451,0.8352848924817837,-0.087394053039787,0.008516784177360445,0.0260751045923932,0.0639478017843241,-0.039613183575810146,-0.1353971730793203,-1.4791602490742627e-05,-0.042677877102284115,0.9492476768494664,0.17741071488691132,0.7315349918758174,0.32198107276191923,-0.04924534137933976,-0.24953960549599757,0.2085545789825108,0.8062906953634671,-0.4822148960700257,-0.3647001801866443,-0.5580247116360245
80.0,6.378177881240845,-0.25778278868131843,0.4767587767337723,0.9875926037897942,0.027047187484059466,-0.021023588582448467,-1.7879817357129049,-0.6850088855453247,-0.09083940447654414,0.23331458306915592,0.865939920838867,-0.43989865205172085,0.16273300697383206,-0.10058821468641269,0.38909680637128735,0.2576599203801182,0.8362056929304096,-0.08242875148671558,0.0075696187187878645,0.02619343114257678,0.057751357399866206,-0.04379405224850946,-0.13508260026943425,0.006113962712227148,-0.041167459052064974,0.9508333625757406,0.17725108334094472,0.7332160664749112,0.3199855911746549,-0.04298016255205751,-0.24416447957068582,0.21022236266355598,0.8057134299800113,-0.48238184695214664,-0.3621981768391146,-0.5604849829158988
81.0,6.410533666610718,-0.25931323395087985,0.47101520088384186,0.9880633037918105,0.027359764340987112,-0.02369750841651394,-1.7909501178181748,-0.6801468453978237,-0.08225159244533296,0.24716560468488535,0.8681651317828368,-0.4365173313842376,0.16485378803723844,-0.09523273340048341,0.385745145373077,0.25937371004028126,0.8357395157369558,-0.0799987539620515,0.00629205391866141,0.026296098961672662,0.051657338510749745,-0.04752313700864706,-0.13101945488732727,0.010914175479508929,-0.040873107552113486,0.950927624430714,0.17753087757870023,0.7338648857745314,0.31785122148797695,-0.034351250216374946,-0.2394506761268108,0.21205046830417196,0.803861961942973,-0.48304373738286827,-0.36080230740168895,-0.5639659498652775
82.0,6.444777488708496,-0.2609040089007838,0.4650642953427633,0.9882407447704384,0.02862608132934718,-0.026557070545973303,-1.7925777977005022,-0.6771447173586858,-0.07230473059547542,0.26298130168537465,0.8719476540271032,-0.4282860132310341,0.1672187081425015,-0.09335482766940881,0.3821295378330152,0.2579973440526672,0.840163977418074,-0.0782853981205988,0.004872496411042666,0.0238714636539631,0.04343600234258531,-0.049856408728087956,-0.13513740058385615,0.01766471534626389,-0.039032534158977915,0.9538668300747473,0.1771481855946876,0.7388090188966073,0.3149190099775267,-0.030330347180130078,-0.23250171124448477,0.2125051635193534,0.8045624865333181,-0.4815566221291815,-0.356781158983931,-0.5664860991569891
83.0,6.483013153076172,-0.26248443886888206,0.4592964232684975,0.9884050960927853,0.02869190728615291,-0.029182623994051173,-1.7933986058095266,-0.6734309238802026,-0.06725279430512286,0.2727294871942273,0.8751021550550357,-0.4206392645964264,0.16721413417518394,-0.08997897537000722,0.3788058221273052,0.25689284266787393,0.8438225041233376,-0.07863117063657163,0.0031647768305992988,0.02147448563791192,0.03566689375855196,-0.05131878094840528,-0.13571747699278058,0.023290311414392077,-0.038043918601938426,0.956100407663032,0.17725861855569805,0.741598567044492,0.31304091556945485,-0.023276128090032766,-0.22612843051097026,0.21297905516084578,0.8048040044387118,-0.4800561987248247,-0.3542364716959062,-0.5697452493912556
84.0,6.509204387664795,-0.26378017918848773,0.45463278174312693,0.9885280491196731,0.02848697285589965,-0.03036745875081118,-1.7934806391037414,-0.6706962265204555,-0.06479017979331396,0.2772708353090831,0.878157272390383,-0.41237159328168643,0.16603776911091297,-0.08687208238427808,0.37700160198863375,0.2554966166226865,0.8466143600621243,-0.07911665309297232,0.0017939191182242114,0.019161094161026612,0.030303978953644957,-0.051665113201678534,-0.1357306913608372,0.027375942103369973,-0.037466316606169024,0.9573170759451012,0.17758115936687682,0.7431015744632521,0.3121765188160349,-0.016811742162841835,-0.2212829792255104,0.21298536927304268,0.8049010953588143,-0.47847562792636794,-0.35300056303137617,-0.5724667888529762
85.0,6.545705318450928,-0.26577286353942947,0.4476379373508208,0.9888332762195575,0.027285478588510464,-0.03130499542993956,-1.7930236496834786,-0.665557679362134,-0.06329806051677779,0.28036092092719833,0.8824142910747946,-0.4006482476380724,0.1634383699353866,-0.07989476443102009,0.3745783964299917,0.2534468602720147,0.8478740659720184,-0.07910191293525304,-0.0003740521687181219,0.016059407286825124,0.02384700101390079,-0.05238843474042372,-0.1316733976121406,0.032387034478700893,-0.03779699095256711,0.956966888605185,0.17874385622174777,0.7432963434557915,0.3113334613611639,-0.004250233868133214,-0.2151651399669552,0.21323012945249759,0.803445619980462,-0.47683827503024545,-0.35272477227338195,-0.5772477375823524
86.0,6.584851980209351,-0.2677085395005239,0.44092901090948733,0.9888997591628215,0.026750247101932828,-0.03145809200103703,-1.7920287804691593,-0.6627910275227109,-0.06210365671775385,0.2814020173097803,0.8882492121522404,-0.38192468758393927,0.1600501872922158,-0.07735645265465624,0.37277281034458026,0.2480973631709173,0.8553358991036407,-0.07800530332503597,-0.002482655627238151,0.012511115512207002,0.016413830961624656,-0.051621557494372944,-0.13647156985795428,0.03840221569838061,-0.0376646676260069,0.9594552349450998,0.180153702056984,0.745740306794493,0.3107822602123622,0.0035713571941046714,-0.20751717860802965,0.2109253068959127,0.8050932482461685,-0.4723223221143389,-0.35142763120676135,-0.5814581759119696
87.0,6.616878986358643,-0.2691906473702341,0.43548764656932204,0.9890969694303962,0.025823720476247217,-0.031193574811241714,-1.7910586312778884,-0.6591016557001976,-0.06193700016188684,0.28104638848866376,0.8921642365572069,-0.37399315110415987,0.15831454613430956,-0.07416670836195714,0.37069219287322164,0.24357994859525955,0.8593553782342568,-0.0754965617040382,-0.004085136551384979,0.010340581165070355,0.011582638381515353,-0.051896529736426,-0.1381960403694476,0.042190175937782085,-0.03830701894835425,0.961476112675006,0.18167948725922445,0.7466354792983008,0.3108604440977581,0.011356305898101503,-0.2022230442611633,0.2091566976933072,0.8066025031416495,-0.46899136833939914,-0.35188006877717337,-0.5851454934138687
88.0,6.639225482940674,-0.2704674742411474,0.43057945597164293,0.9893518504420683,0.024845058529662678,-0.030808344460514593,-1.7902128773717103,-0.6550269804095449,-0.06166695156490047,0.2808151547681708,0.8954104682597172,-0.37120991876574044,0.15752671282948627,-0.0713046046598448,0.3683924990723648,0.23912143453415238,0.8627853759329138,-0.07215334807449836,-0.005478141191638645,0.008614706745923918,0.007622014196134684,-0.05217818763648409,-0.13999310694240916,0.045375438711720145,-0.03900471574460394,0.963399534452269,0.1831029542096601,0.7479622961916541,0.3108538441656314,0.018474755522625477,-0.19755715616987124,0.2075010037586512,0.8082191229203197,-0.4657971593327214,-0.3524782449194854,-0.5880903716713988
89.0,6.676435708999634,-0.27236010541276573,0.42311738298460533,0.9899133924663104,0.022891066960703664,-0.03039010078270727,-1.7891487203688112,-0.6474995255568499,-0.061755699103448025,0.280359563240083,0.8996163586292967,-0.37250108567495155,0.15711388570282836,-0.06696376059259368,0.3637134308644885,0.2315029874803068,0.8680836383436006,-0.06540211162803283,-0.00775473465696307,0.006452715416527816,0.0016424906356550452,-0.05258857146498548,-0.1433237202938832,0.050124579283281234,-0.04027044602896469,0.9668290673641018,0.18521003490908708,0.7508383237956241,0.31015698589997026,0.02949785567818964,-0.19032450038224086,0.20501131308248255,0.8112288397051409,-0.46074782400337133,-0.35273503140678897,-0.5915835388101434
90.0,6.719129800796509,-0.27407002794229207,0.41616522427956437,0.9906751085726051,0.02074367861347822,-0.030247113355605128,-1.7889130692432744,-0.639475355887605,-0.06316055753856792,0.2787548639055609,0.9026119419597014,-0.3778233221679692,0.15703049837870228,-0.06320273432701572,0.35778227972805876,0.22339971889249396,0.8729500340533476,-0.056204190943686255,-0.010124440079049574,0.005115230452842388,-0.0035858688599078523,-0.053303716837211704,-0.14660853301924587,0.0545638175421673,-0.04159506029987846,0.9704410900910024,0.18690347599560486,0.7537250941166287,0.3085096618112008,0.03994433604098143,-0.18325284037611922,0.20301200447812368,0.8145911056411992,-0.4561128772792594,-0.35085581236835894,-0.5930469837213437
91.0,6.739755868911743,-0.27508605112967743,0.4117158247526781,0.9912656323482536,0.01987842416754132,-0.030095357435263568,-1.7896188859877995,-0.6347356932472902,-0.06466525732858353,0.2766417255843474,0.9041289586810326,-0.38137456840283085,0.15689952046344036,-0.06154566146312318,0.3536149560071101,0.21815859666890902,0.8758959436362215,-0.04815376057598775,-0.011459490093114743,0.0045841623287239276,-0.005996742007318403,-0.05437023691356703,-0.14793971202542683,0.05717960996773445,-0.04216672642777648,0.9719862600186094,0.18766639626942963,0.7548933293870742,0.30737901357087727,0.04639892904052729,-0.1788823243711551,0.20230859325220352,0.8168570683817529,-0.45345317893044557,-0.3482246864168079,-0.5928445806872886
92.0,6.778082609176636,-0.2767972936805799,0.4040532401667831,0.9922473756546808,0.01851887608141892,-0.029996535194452355,-1.791388941076117,-0.6266959318381773,-0.06797360593733699,0.272223980375777,0.9064963095630363,-0.3871962229507707,0.15661332679244483,-0.05912248974420055,0.34538545907552287,0.20815119311142552,0.8808085369267027,-0.030911972660303988,-0.013944084101910392,0.004091972893044947,-0.009880444571669023,-0.05672003478786921,-0.14958672819663354,0.06161477831849163,-0.04315089296949438,0.974007463979334,0.1889340982146253,0.7561642031847547,0.3053830806806209,0.05779900378119135,-0.1712786981189982,0.20164787662543202,0.8206274213898097,-0.44899795414645266,-0.34231412797273963,-0.5915222084345415
93.0,6.816963195800781,-0.2783295887934604,0.39702225657181744,0.9930222725136272,0.017114314025253034,-0.03014898952537067,-1.7935518820959142,-0.618913360405969,-0.07119733005262795,0.2683310925869833,0.9082009653032053,-0.3924328994530893,0.1565664642223904,-0.05721080766694624,0.33651602417364934,0.19774884427131884,0.8855210780353586,-0.011112968874165484,-0.016391971732489432,0.00423894567189769,-0.013535938543781385,-0.05894377320094849,-0.1505403810738158,0.06560353552595122,-0.04417230043027127,0.9753354493834565,0.19014519543344827,0.7564148739348977,0.3037220429854452,0.06899864087906621,-0.16433224523777945,0.20194464762462494,0.8236734550975899,-0.44522834771791897,-0.33607991518640207,-0.5890464908454632
94.0,6.846482515335083,-0.279511187934148,0.39132400525101446,0.9936242235727304,0.01601606161740998,-0.030202782544870382,-1.7959053920907966,-0.6121976359430545,-0.07267500171512511,0.2665127161412009,0.9091411626851642,-0.39682126950792396,0.15682737666413266,-0.05639080370438266,0.3295568526019508,0.1898449552879369,0.8906209682505465,0.005629756983004382,-0.01774386402821953,0.004783738426841898,-0.01646597821907924,-0.06046448994726075,-0.15105038483838146,0.06851694530126597,-0.04483302791038725,0.9756941129391883,0.19115001085399633,0.7563921317933286,0.3030455403318752,0.07791268993997666,-0.1593137643903209,0.20328201908102514,0.8265217954070085,-0.4428468889153482,-0.3322203402231698,-0.586106705168705
95.0,6.885588645935059,-0.28097744973231176,0.38437819148685703,0.9945362313425978,0.01443223560561488,-0.030510267982167962,-1.7990792897844397,-0.6030683554794521,-0.07371257227303468,0.2656775164607983,0.9094361241714073,-0.4025630603874307,0.15699247052552712,-0.05661119180761815,0.3209649502012481,0.18051193526022596,0.8989143510645141,0.026581814376812115,-0.01897644550285128,0.005698524040947922,-0.020754353907635047,-0.06230936019664778,-0.1520888146927324,0.07209958211331703,-0.045708661731716074,0.975878396648961,0.19261578618779435,0.7565906546468677,0.3025601620937779,0.08806045604329753,-0.15359642620873942,0.20616831247525036,0.8305062943831463,-0.4405547093537494,-0.3279757048261456,-0.5812055710350137
96.0,6.914414405822754,-0.28217721364608406,0.3787196535662536,0.9956608385822678,0.013314869186539385,-0.030734565588624484,-1.8018587117130154,-0.595207362911122,-0.07406864083711687,0.26551848498514996,0.9088116516461929,-0.4069034425494762,0.15662559459923492,-0.05879958968102287,0.31481860048846566,0.17419554300603762,0.9080199220567224,0.04285321765096956,-0.01910354339655764,0.006342463667675583,-0.02421992994355525,-0.0639398621242952,-0.1536290285560068,0.07481023004495513,-0.04618302807702723,0.9758141831054978,0.19377487797558798,0.756622129381263,0.3026611095831098,0.09480430950715554,-0.14960394762576074,0.2095016066171184,0.8343802369598415,-0.4394799552476605,-0.32437306891809614,-0.5759703659378175
97.0,6.945390701293945,-0.28352224210293786,0.37246405021465046,0.9972593591371257,0.012355457803811648,-0.031111747267478507,-1.8050288898083358,-0.5864173033314024,-0.07451550210305138,0.2653588411623807,0.9075352208842685,-0.41131857771126645,0.15563540048103236,-0.0634057089628723,0.3087203438299227,0.16839958500082852,0.920132945096831,0.06094307008531273,-0.01852268628457448,0.006955407204611205,-0.027962222517333955,-0.06614757343217235,-0.15617204594638362,0.07773165380256752,-0.04636675339663817,0.9757054016123186,0.19488075322125248,0.7564051299427204,0.3029920768086932,0.10071334059204745,-0.1456228743854806,0.21396785730777856,0.8391604477491635,-0.43877425461900166,-0.31937677403755266,-0.5687155117814191
98.0,6.984220266342163,-0.2850404598979299,0.36572577580578053,0.9990825079304935,0.011986122356827642,-0.03136584875810115,-1.8080736802515953,-0.5775457580790259,-0.07502952719028667,0.2645837702127889,0.9060241715845454,-0.41547956691740745,0.15413468040844486,-0.0687288845509096,0.3117716952249043,0.17383933525223988,0.9355254005018206,0.05058881890948133,-0.012202844639441005,0.006973024621653335,-0.03135919493524231,-0.06922802761317175,-0.15984869874944485,0.08068387195366782,-0.04597908850303006,0.9761236874556523,0.1955738432920553,0.755072203958195,0.30335568517335787,0.10544513625374735,-0.141962009637381,0.21993915724303978,0.8451416546763004,-0.43832813586703234,-0.31287710647288774,-0.5591022189674044
99.0,7.013420104980469,-0.2861524511916297,0.36037533149144413,0.9999804901810436,0.01170456225677856,-0.03172537547410624,-1.8114471408110038,-0.5713083054889638,-0.07498755139711652,0.2648300962671036,0.9062237597142888,-0.4188554127162879,0.15327641941141457,-0.07429532111181876,0.3094533284992771,0.17253850171020563,0.9486897811540738,0.059579394956056415,-0.008691697876741815,0.007707602119419307,-0.033791350480391356,-0.07171539625851492,-0.16295047451092493,0.08220251449104826,-0.04533245850065251,0.9759401997437238,0.1955171128739678,0.7539749425608011,0.30328847520294433,0.10883512297304895,-0.140284756096176,0.22518338081628975,0.8493198312130237,-0.438412173227141,-0.3074367293692702,-0.5498998646988966
100.0,7.043381214141846,-0.2872706044972603,0.3546341442682006,1.000204100605071,0.011297951209328014,-0.032230066034993204,-1.8161958332392145,-0.5654896971106917,-0.0743498823914951,0.26600739270407764,0.9082375801889879,-0.42297696265914103,0.15288328559990724,-0.0811355492172221,0.2985398413409509,0.1612717027324845,0.962148916705853,0.09307707854779719,-0.00881419246506599,0.009199378637645235,-0.036326101894250375,-0.07438370611890584,-0.16632477898976153,0.08318666588124912,-0.04437591538549222,0.975252960035113,0.19490668792729043,0.7531704919193295,0.30263216201697013,0.11248822145529067,-0.13957121651967844,0.2313851936281287,0.8529053397562618,-0.4389322439446237,-0.30162286670627486,-0.5385019574868682
101.0,7.083505153656006,-0.2883666022564525,0.34853482470844477,0.9996778237009869,0.010962818899649715,-0.03254156456100942,-1.8227645975324152,-0.5604423000196653,-0.07258486431535771,0.26812481039100744,0.9127020064701381,-0.42840851711188466,0.15322251764964442,-0.08976878148610418,0.2700148992411257,0.12968501148192027,0.9743107854408444,0.1571911504851609,-0.018168871368026387,0.011636894163470763,-0.03835822823631887,-0.07717877375199068,-0.17021205341076223,0.08391131958325229,-0.04299908235153599,0.9739629179084348,0.19373844435686494,0.752386969831141,0.30138079417740543,0.11602032704801052,-0.13985466309419187,0.23891400487261866,0.855199480845976,-0.4398610999763045,-0.2953359939609926,-0.5250845511230047
102.0,7.105021715164185,-0.2889221238726429,0.3446779398872901,0.9992037385138014,0.01087865066733767,-0.032075031887797506,-1.8281959031468364,-0.5574332783426053,-0.07058021301005148,0.2696236581937922,0.9162595733457239,-0.43259569644684515,0.15395928830315966,-0.09562708867948264,0.239398324249942,0.09617407973729156,0.9813375147113662,0.20229763943905554,-0.03057576682231275,0.014161039775153185,-0.038430471183156616,-0.07839926302281494,-0.17271338803812356,0.08397908553026598,-0.04200406632808986,0.9725360478528751,0.192878073274285,0.7514988436718394,0.30090539666122845,0.11763516065502497,-0.14062405740360617,0.2435214256430529,0.8563061433638235,-0.4409604834044499,-0.2921928144073666,-0.5168899159970384
103.0,7.149109363555908,-0.2900366767341337,0.3376387331775196,0.9987871735564515,0.011051237118341026,-0.03054247329231327,-1.8372783377883881,-0.5515415264215273,-0.06704402846666362,0.27098014759853134,0.9220826743293742,-0.44175833135566056,0.1553804426067804,-0.10417261968060981,0.1793949074847847,0.030699607589012173,0.9921591459299598,0.2673518601908116,-0.059785098900558636,0.01820397278629601,-0.037073369459270915,-0.08058891122720524,-0.1747007868574022,0.08385280396578851,-0.04063715199903744,0.968104445191533,0.19171309130900926,0.7491177720044542,0.300326667407805,0.12195817034183698,-0.14250992291376813,0.2519523328806468,0.8563376421383843,-0.44319010661270813,-0.2865559494299051,-0.5025722319037886
104.0,7.178821086883545,-0.2908767520734484,0.33279849113454696,0.9988791374040165,0.011901746576940481,-0.02961422928928533,-1.8423945086463291,-0.548002321732338,-0.06643984951970786,0.26969756486666596,0.9252566277418086,-0.44922584381377123,0.15688477040676443,-0.11358704374414452,0.14277162455404208,-0.00876612147358654,1.0062532415452918,0.296444107517564,-0.07874580249966351,0.018845476314293567,-0.03589062782414155,-0.08136696095416969,-0.1801598085743823,0.08443516427767536,-0.039173890412337,0.9665700177946177,0.1906998232695286,0.7466656255358558,0.29969641921040363,0.12095340456635628,-0.14342456558979308,0.25864534004515133,0.8580393018402188,-0.4447528156470052,-0.2808939920679919,-0.48967674957708074
105.0,7.210418701171875,-0.29182848744397905,0.32753422347448546,0.9993024301833848,0.012179159900749505,-0.02909867412351512,-1.8473565801760423,-0.5427257563968324,-0.06725908995287681,0.267798587927333,0.926574982444339,-0.45830746171380343,0.15814996683524046,-0.12318961473907636,0.12511534725737988,-0.025627301193030277,1.0229494845493579,0.31057761299153275,-0.08741123347602389,0.01924585404824469,-0.03452815520898532,-0.08217006657119597,-0.18393822467130194,0.08499658639530396,-0.03841833426976739,0.964697081839748,0.19009038243510337,0.7437410318780808,0.2987284887662093,0.12093222388657766,-0.14453247678532588,0.2656419851908961,0.8592178208334799,-0.44656943542125216,-0.2759333316416189,-0.4770694054973168
106.0,7.240492105484009,-0.29274925399929874,0.3223099020510234,0.9998158405682236,0.0121183325082234,-0.028750584256398634,-1.85282557734328,-0.5367107540600831,-0.06844721764667985,0.2660453951294428,0.9269676120365165,-0.468224298911714,0.15904814944369602,-0.13431297223377772,0.11881509246895008,-0.02924469722902385,1.0425115900172628,0.31362682725987023,-0.08869126564048133,0.019824945513122423,-0.03263027278618641,-0.08249742447753246,-0.1876675504218495,0.08586660933571119,-0.038069959410432785,0.9627025503057884,0.18971531531921998,0.7408027027781212,0.29714460415363886,0.12004104649499059,-0.1455917068959083,0.2725284005765592,0.8603067671267113,-0.44853550577102425,-0.27202139271949183,-0.4654458377202275
107.0,7.277279853820801,-0.2936082848204418,0.317138705860444,1.0003135446561904,0.01189906083962987,-0.028313731604994306,-1.8589850692477088,-0.5304171068963038,-0.0690938201245143,0.26505857059134663,0.927233783262633,-0.4780969049506667,0.15962886048083422,-0.14676550152931922,0.11685406659306757,-0.027951771810687063,1.0643531478936845,0.3059594515412583,-0.08658871803534557,0.020691031706235367,-0.02985248080532398,-0.08243784471295329,-0.19192971530679775,0.08744117323591245,-0.03791198515217001,0.9606170880202887,0.18952979401221282,0.7372109252728647,0.2950080094249537,0.1175374954716174,-0.14613180406469276,0.27895032071101356,0.8616343623893719,-0.4505890141480414,-0.26931808229495446,-0.4559328414197207
108.0,7.3190391063690186,-0.29446021620916685,0.3115561938354031,1.0008045632606586,0.011665096576907567,-0.0277641570999934,-1.8664850707024097,-0.5235115847323821,-0.06846835802772298,0.2657827169997703,0.9278641561624472,-0.4881272398209431,0.16023423107574442,-0.16223911350054832,0.11538258854577077,-0.025682755806264362,1.0910912877821555,0.2849559403134193,-0.08313600023589526,0.021801121403612636,-0.025935208831892705,-0.08201357161515498,-0.19751632094865632,0.09008534879538302,-0.037805203199274794,0.9582970975521821,0.18953813298872063,0.731788922090796,0.2921632794888655,0.11267658557725233,-0.14597049960392836,0.2853147204258939,0.8632438115176344,-0.45264955131974616,-0.26706518285238445,-0.44836786027807185
109.0,7.348369598388672,-0.29512576539050717,0.3070558780831708,1.0013055606821761,0.011843218813451361,-0.026705499718179655,-1.8722878026905017,-0.5179076907304507,-0.06648539197522774,0.26730576310506415,0.9283667949741259,-0.49447837285832974,0.1609142333593363,-0.1753286054962116,0.11390514351479263,-0.02542684013504714,1.112112133321786,0.25945601521693096,-0.08056773891307786,0.022102447043112018,-0.02185179376428986,-0.08118054186807279,-0.20238656018946588,0.09214144276887018,-0.037972891055070596,0.9561969862441448,0.1897521853641722,0.7263103787719203,0.2900348610945825,0.10785189410926542,-0.14571079493452554,0.289188321073535,0.8645623920541319,-0.4541722431546885,-0.26612101405146726,-0.44476295705756086
110.0,7.382280349731445,-0.29578769636241115,0.3021619345475537,1.0019168732335788,0.012129841953808451,-0.025176898590065708,-1.878952270665077,-0.5116201482503637,-0.06315816954972381,0.27001743241311316,0.928919114886648,-0.5006177428219297,0.16196913502887195,-0.19059158444025653,0.10474375712385342,-0.03297228076167609,1.135474426927886,0.22708339379571665,-0.0822976654939393,0.02224538758487509,-0.017178568607653384,-0.07975803026790393,-0.20789223578095672,0.0937209655361548,-0.03851570058070411,0.9539203704313339,0.190165673491552,0.7201498949174121,0.2879059801325763,0.10229956325550027,-0.14594423719952807,0.2922282669563502,0.8655576028650414,-0.4555502281534035,-0.2654635627521863,-0.4420247165771029
111.0,7.417073488235474,-0.2964245122626777,0.29740971348841005,1.0025413823724314,0.012298619033694315,-0.023439810099391535,-1.884969057488689,-0.5052366748246494,-0.059929931909048384,0.272470159251418,0.9291804111966846,-0.5061993932397004,0.16321765480455902,-0.2061337217521757,0.09324831759197846,-0.04344510441699936,1.1582797906044275,0.19022151307023086,-0.08610488011336741,0.021513339520717052,-0.012860810819684973,-0.07777699032228974,-0.21343144432802208,0.09464324283312892,-0.0397562063906062,0.9519904540731969,0.19108695943228843,0.7148289927631069,0.28599474209863396,0.09735676441964258,-0.14655172029542327,0.2940062893084856,0.8655058113268312,-0.4565160236893123,-0.2650649971887914,-0.440980080390944
112.0,7.445805788040161,-0.2970315891394611,0.29277770487076826,1.003108715433363,0.012203541174725501,-0.021271918321614264,-1.8902585411477033,-0.4987531112345386,-0.05749030134139914,0.27346727388146863,0.9291693968391528,-0.51198645255001,0.16447240893533566,-0.2214441025254188,0.08114686667302587,-0.05524569969101007,1.1800066300295233,0.15140610254038844,-0.0908339996834337,0.020025417313610596,-0.008706035749885427,-0.07529138418682649,-0.21884898596610716,0.09493016143478418,-0.041854062307599034,0.9504973319860259,0.19274290463293758,0.7108352533692006,0.2845741848345394,0.09356975483153974,-0.14742507083139558,0.29453921331014465,0.8642577691020608,-0.45706648689326557,-0.265298355128898,-0.4418361678151209
113.0,7.484249591827393,-0.2976514662539654,0.28780045697122747,1.0035749862555596,0.011687054644113824,-0.018724761706281744,-1.8952393804170335,-0.491652955277046,-0.05637685466716907,0.2726043272999782,0.9289951568771551,-0.5191563986426027,0.16574871683541698,-0.23818354933685032,0.06696233959822412,-0.06924412962539968,1.2034110720339566,0.10836197403745672,-0.097055864344752,0.01786052090061384,-0.0046073116098947564,-0.072188689922252,-0.224888253202602,0.09477334415226878,-0.045199635805048724,0.9493361662838948,0.1955618221800451,0.7078354132175778,0.2834123660560805,0.09082004601483773,-0.148445319452153,0.2937911987930508,0.8613883709465291,-0.4570317694576356,-0.26618057708927134,-0.4445771026319322
114.0,7.512517690658569,-0.2981202844226351,0.28373349697311434,1.0038929486606012,0.011309977524001459,-0.01612788816515237,-1.8987508332384042,-0.485889535559972,-0.05616266751023731,0.27029354644969117,0.9286851581391846,-0.5253839795569547,0.16663947079321284,-0.25124150361470154,0.056323225018866815,-0.08021272830166482,1.2198251501974806,0.07824407398367908,-0.10188098845094337,0.01573950686575684,-0.0010540433010896174,-0.0696488437763898,-0.229901794211737,0.09443955030781886,-0.04852336145428429,0.9486124518517075,0.1984436694714869,0.7061143387671671,0.2829727578278751,0.08919490502896302,-0.14900982072888225,0.29206194668814806,0.8587212074159101,-0.4565010373785855,-0.2676331294862591,-0.4481706298222631
115.0,7.544076681137085,-0.2985862233280163,0.27918084413571187,1.0041736892614341,0.010818958597366864,-0.013250509999642383,-1.9021079438575859,-0.47952961046188847,-0.05653762493021547,0.2672326533206761,0.9284487693647763,-0.5327494573688651,0.16763935232181082,-0.2658413231969868,0.044726248092540166,-0.091871427985899,1.236983441226181,0.049155705176583804,-0.10726726832098737,0.01296595357123122,0.0030398473574133594,-0.06671352387871093,-0.23615455386792855,0.09456720052939568,-0.0523976366253798,0.9480197038176421,0.20192322976331883,0.7043247541670243,0.28241127759245116,0.08716901310903918,-0.14889691892737209,0.28932180051979867,0.8556863082133777,-0.4557532625385976,-0.26951434040591493,-0.4538628138296691
116.0,7.5828142166137695,-0.2990573207191798,0.27411629187243924,1.0044261065655946,0.009964925048163872,-0.010614087173807563,-1.9050569807785358,-0.4724172460194977,-0.05805465258265097,0.263767960526987,0.928240591400375,-0.5412485531042083,0.1687829656419339,-0.2821786701418798,0.03203026868089681,-0.1035405649392607,1.2550589034065491,0.02255604579961154,-0.11312533937301474,0.009380127138663007,0.007414595875101312,-0.06306646037603215,-0.24379782675801343,0.09561968730685058,-0.0567794556431049,0.9475917464501618,0.20606101002442784,0.7015992425864468,0.281195661628608,0.08468580864272371,-0.14763325203667577,0.28538250254704495,0.8520763117397978,-0.45505750941339795,-0.27138002457223565,-0.4629458135955839
117.0,7.6125617027282715,-0.29944498721821117,0.26988929827371794,1.0046641495089446,0.009066290137354082,-0.008417239960834101,-1.907104368914176,-0.46632774208477773,-0.059704554733938715,0.26062329769432935,0.928043806893624,-0.5481682772852922,0.16956750298050083,-0.2951040695491795,0.02369774694075491,-0.11086291547380776,1.267311488134244,0.007458840450781596,-0.11672219913510881,0.006150595752869522,0.011288647011483575,-0.0598060280859289,-0.2496618745138401,0.09684303080471898,-0.06047518323398962,0.9468107438181235,0.2095381089802112,0.6976990006410815,0.28017893278139805,0.08260683597783763,-0.145987760377551,0.2814183396131311,0.8493255762300718,-0.4544100194223224,-0.2729575685685984,-0.47251651266228833
118.0,7.652432918548584,-0.29995482949912317,0.2647241964736836,1.004914240849596,0.007677679079186869,-0.005971474585326235,-1.908896313460907,-0.45883369795531764,-0.06265156793952455,0.2561431391391028,0.9279958987019512,-0.5569992183333305,0.17036549006310497,-0.3109463797348231,0.015034452626038136,-0.1180736212633666,1.2811193170055994,-0.007013941400673525,-0.12023460506878345,0.0019816639951119506,0.01582004910352537,-0.055475767521350625,-0.25678825035910624,0.09850870438116482,-0.06535247222541316,0.9455676770612533,0.2142307243451991,0.6898723975693128,0.279138979182346,0.08013402315507995,-0.1436387098472546,0.2756234542586118,0.8459109544289379,-0.45349268090022277,-0.2756209147414798,-0.4862393428640684
119.0,7.676063776016235,-0.3003116183764899,0.2614186300473271,1.0050486868573625,0.0068087207980877485,-0.004407326091104323,-1.9096874143762934,-0.45417848099074054,-0.06461835650511419,0.25311330875010296,0.9282288475920282,-0.5623157237702577,0.1707533867739604,-0.32086172907034155,0.011678485419255018,-0.12081027477492415,1.2880952312846405,-0.012920627158106702,-0.12122174495442589,-0.0010336247312220615,0.01855048988116605,-0.05314900118240082,-0.26091598139345207,0.09953940267952843,-0.06846110349943818,0.9443269811155468,0.21726373407178642,0.6837410470519527,0.2790301761324354,0.07861747308721358,-0.1422550191044029,0.27182111101380835,0.8438507577054726,-0.45251452255188446,-0.27809544138737946,-0.49454303351199336
120.0,7.709320306777954,-0.30095834538936667,0.2557934075562307,1.0051984138764432,0.005527220948239653,-0.0020179513841164986,-1.9104299070510518,-0.4466325972444609,-0.06822295089929643,0.24787969000040233,0.9288926170835599,-0.5711648255017622,0.17147860329532494,-0.33840716274854715,0.008019952104031561,-0.1236446502071568,1.2989208506379581,-0.020909263432723278,-0.12153129774625704,-0.006651145627471556,0.022912910066212766,-0.04941589789475976,-0.2686267531299118,0.10152491123459642,-0.07382496814498285,0.9430814850822911,0.22241636331127213,0.6737549702890931,0.2781724747640777,0.07600343718467717,-0.13986976260598596,0.26543217008591025,0.8406038911676414,-0.45066086713039966,-0.2837654957757133,-0.5080640329019964
121.0,7.746969223022461,-0.3015283381284236,0.251142971449247,1.005193738041371,0.004768743477813128,-0.0004702992228924808,-1.9104622768986494,-0.4409173628331104,-0.07135539642838516,0.24383382043080726,0.9295879281338952,-0.5779468348548888,0.17224876800804878,-0.35380190848240045,0.007444947190512294,-0.12372857237805265,1.3064575574737955,-0.025270596244499274,-0.12009757927157247,-0.011887362500347054,0.026431799451296197,-0.04673010111854339,-0.27664755019943066,0.10371955005853666,-0.07803464701220877,0.9444208445697135,0.22625928793380576,0.6690632574238191,0.2750816285717127,0.073683788951318,-0.13751885812459466,0.2605951365334057,0.8384670305231339,-0.44920219816420315,-0.28981152424293,-0.5178534600935683
122.0,7.783513307571411,-0.3021664709002493,0.24605110066299762,1.0050679217830123,0.004370588857206449,0.0009904326681893783,-1.910373767625153,-0.43520223065260155,-0.07460655006673089,0.2397813259048569,0.930405321248801,-0.5850423819537011,0.1732351496568394,-0.37149940076789967,0.00923455212138774,-0.12174491683273446,1.3130450899947013,-0.027979386054048656,-0.11694435427532679,-0.017764234010361885,0.03068409722952185,-0.044154407118219295,-0.2870256139581138,0.1065687177831312,-0.0825227082891911,0.9481588327537835,0.22979594340818388,0.6691907514125037,0.2685428751348875,0.07114326935135315,-0.13459179097533527,0.2557899886410602,0.8368645909321526,-0.4479311114490211,-0.29714313563893957,-0.5273285267313103
123.0,7.812044143676758,-0.3027165890030532,0.24187960593024166,1.0048617218324236,0.004253050217377572,0.0021288173133960308,-1.9103907847359087,-0.43077690426135706,-0.07715082942607347,0.23655083522286827,0.9310461667621099,-0.590749126674784,0.17390891958700258,-0.3861004559017869,0.012161235123291422,-0.11899983072343079,1.3165365512210556,-0.028690864984208364,-0.11376148243362957,-0.02225020906120985,0.03438964544455769,-0.04219773671820279,-0.2951990702821833,0.10882743039744061,-0.08624886738003132,0.9508991745500168,0.23237837357693492,0.6713128812969369,0.2625175772165679,0.06965848918614878,-0.1322932672220864,0.25223522548617405,0.8353893010803009,-0.4469685479669541,-0.3024190551878626,-0.5343994255945352
124.0,7.851900100708008,-0.3034049280762576,0.2368432357187885,1.0044994170409627,0.004416299459602381,0.00335972005725154,-1.9103859984405505,-0.42600060264314066,-0.08059916900371464,0.23212404154916363,0.932108133751643,-0.5981917527901692,0.17446524423527948,-0.4044668950659115,0.01677735698332492,-0.11483087325421691,1.3194361057335433,-0.02882799972035665,-0.10935806690322641,-0.02682835283473975,0.03859534115606177,-0.04004316317673599,-0.3047093257897553,0.11109488736851184,-0.09096416795458193,0.9530121888641989,0.23585942955461026,0.6720065536645221,0.2567340960526079,0.06849133073175895,-0.12971641261843594,0.24740594208435274,0.8332948964098051,-0.44590191952903474,-0.3084548880624792,-0.5436806965562568
125.0,7.881518363952637,-0.3040027441374141,0.23273352099437433,1.0041361519155847,0.0046532286874860175,0.004200216681353588,-1.9102483356501452,-0.42236508614034196,-0.0836645082389417,0.22821052173909864,0.9332115974364188,-0.6040692410856957,0.17451836151420091,-0.41925339741425294,0.020728855200230212,-0.111309838098265,1.320149629807108,-0.028548710394631888,-0.10597920465252272,-0.030146969097860528,0.04142181402446494,-0.038646767714529864,-0.31142088381670985,0.11236074680311905,-0.0941388205578042,0.9531696705959884,0.23872090800603163,0.6697797643212386,0.2550390113721165,0.0679871225363907,-0.12788619837895748,0.24337822330481176,0.8311368459709736,-0.4450729197244969,-0.31282234064821557,-0.5515785104350648
126.0,7.917954683303833,-0.30476624281703546,0.227745140742425,1.003644758320646,0.005152499109052197,0.004967344273177035,-1.9098552829715052,-0.4183492749656444,-0.08765495251257903,0.2232238363346502,0.9348173777019784,-0.6108903368416838,0.1742964592760822,-0.437386309122208,0.025903013088815353,-0.10664929788456257,1.3196742797091974,-0.028098534238289053,-0.10171913748662388,-0.03357795751510821,0.044276460980558305,-0.03725794142437053,-0.3192612463307668,0.1134065953574449,-0.09754261042545001,0.952953969756569,0.2426811003866942,0.66505020922199,0.25616032819841045,0.06799125892193697,-0.12577646580444155,0.2382151373310173,0.8282608985228399,-0.4442410945306423,-0.31859470564708825,-0.5617750049694588
127.0,7.945804595947266,-0.30544149174903606,0.2236460331555445,1.0032111521592082,0.0053310124062368475,0.0054557073249279706,-1.9094315858953834,-0.4148187345431784,-0.09061431136891526,0.21972212558272547,0.936132183943406,-0.6153763667020822,0.17403643947876052,-0.4516069830335906,0.030075633368332078,-0.1027007159978027,1.3178693611714447,-0.02794723301663207,-0.09861552436004786,-0.036087147763803076,0.0464434617232425,-0.03620550735206354,-0.3252074490416246,0.114172039844424,-0.10001922130702204,0.9526040076936515,0.246228610705422,0.661564359823869,0.2589762645257711,0.0684142130981556,-0.12413702845272462,0.23445841085549873,0.8260000951585492,-0.4435096584738366,-0.32347074630374495,-0.5692173116510807
128.0,7.982602119445801,-0.3062827791213234,0.2186144224146565,1.0027162758952446,0.005661869809544157,0.005879407300194435,-1.9089607417436212,-0.41035603861374953,-0.09327294673258597,0.216860227856361,0.9375320133593988,-0.6194919073536773,0.1740508629784488,-0.46900312096929686,0.035602968244155556,-0.0971157633878325,1.3143447340591634,-0.02803768049125719,-0.09478077765094871,-0.03862199305268617,0.04950905969222839,-0.035042196636285106,-0.331933286606106,0.11518463927080025,-0.10288641796733916,0.9516865510709607,0.25111016816462495,0.6563608921587902,0.264293526071624,0.06941781860534448,-0.1222846892026372,0.23031705896720578,0.8236519839073424,-0.4428460334837155,-0.33011371704208914,-0.5772442959846997
129.0,8.010810613632202,-0.30699104053298554,0.21446422075063382,1.002340145277583,0.005695738831533587,0.00610501708753756,-1.9085598340573808,-0.4061972156215071,-0.09411398683492873,0.2165406986695615,0.9385312677135729,-0.62116423763852,0.17446633477164386,-0.48283689611815844,0.03995730282607697,-0.09211964189616767,1.3102464804304934,-0.028650061302294968,-0.09223279975020227,-0.040713871100131555,0.05235951954772684,-0.034173188464906606,-0.33588395509700025,0.11658392845016624,-0.10475821348009508,0.9487719375091201,0.2556291447483433,0.648294495391968,0.2717387205797182,0.07011458736014824,-0.1208544627957927,0.22778664285906175,0.8222536529541834,-0.4424307525173081,-0.33496058304644544,-0.5821138533056115
130.0,8.047146320343018,-0.3078565870706331,0.209370903153429,1.00195456710925,0.0060321233698564704,0.006192807089807094,-1.9080717519971977,-0.4010351465675782,-0.09396232512681604,0.21783894609068954,0.9392331566589269,-0.6217637057082531,0.17517053982821035,-0.49995003265626714,0.045657039372326236,-0.08510577878306218,1.3037865980568348,-0.030141935909506187,-0.08943384116383318,-0.04342688322573994,0.05628296204955349,-0.033166415304773364,-0.3396695114646686,0.11861195967142593,-0.10577548917161927,0.9437419832417402,0.2608017975886933,0.6341089203203251,0.2825112337287282,0.07029328618981077,-0.11930051460856117,0.2253077447044237,0.8212768058200954,-0.442428221294764,-0.3405740023919449,-0.5870732127007561
131.0,8.084558725357056,-0.30867274149754265,0.2047254732364494,1.0016748534564683,0.006443086647254696,0.00612664904002797,-1.9073121464999965,-0.39617780198218194,-0.09331748522363369,0.21980379012365953,0.939306250959641,-0.6212213386364279,0.17557125651254651,-0.5151978492794543,0.05077210402732479,-0.07830265398842047,1.2963115962297764,-0.03282530266540683,-0.08758852818053289,-0.04639788373063826,0.05985404132686149,-0.03215304270116721,-0.3432939408936197,0.12036624901972452,-0.10488992954930093,0.9393788443985424,0.2634430808859564,0.6214393641805676,0.2896992003665241,0.06956489556927814,-0.11803171583118388,0.22380969287813024,0.821122117730937,-0.4428085705830277,-0.34483483339397136,-0.5902333373949255
132.0,8.11299467086792,-0.30944830966580794,0.20053857116254425,1.0014684939265064,0.006782097844405515,0.005977378567269868,-1.906224538535766,-0.39162024094919623,-0.09321727379669419,0.22104497105780546,0.9388344546895169,-0.6206186233761891,0.17541889663788507,-0.5283307556719886,0.055043118480121264,-0.07221201405240064,1.2882859075314999,-0.03670246082323524,-0.08655638021804242,-0.04917632879619487,0.06264664312484637,-0.030938389788139967,-0.3475519455091713,0.12136177474601767,-0.1030240242923885,0.9368127819705627,0.2633577732467166,0.6150928968436999,0.29126654221213527,0.0687841162811111,-0.11698246352479974,0.22304368224756013,0.8212128200852317,-0.4430328536695447,-0.3477248526268618,-0.5920492107812287
133.0,8.144930124282837,-0.31034353915484963,0.19588463446219584,1.001316478602393,0.007188565298600277,0.005722959122081289,-1.904837650178874,-0.386411815372148,-0.09414998734673144,0.22116372136878265,0.9373973003867219,-0.6205280994031378,0.17469711587476888,-0.5424084822772891,0.059647150605669726,-0.06537230814220707,1.2779725079095696,-0.04266209119678774,-0.08582430421302137,-0.0518347159741348,0.06541523482812503,-0.02929473015255323,-0.3534590329923498,0.12162018444911796,-0.10044137173075879,0.9359246094377821,0.2611436845854532,0.6147526272306609,0.2877528157098451,0.06830786730466598,-0.11594378067009045,0.22247844676713036,0.8214893125798207,-0.4432016046054594,-0.35027115431396505,-0.5935534775070307
134.0,8.183114528656006,-0.31134780774123477,0.1907618695027808,1.0012509644832739,0.00760507716945451,0.005301254161310758,-1.9032024859102217,-0.38046550378093735,-0.09672351953058753,0.21950996750056498,0.9346529152458375,-0.6216153273014633,0.17342803176819427,-0.5572158566085957,0.06451211403251407,-0.05773110014257058,1.26504459538772,-0.05149489076495606,-0.0853921846914906,-0.05402432123083676,0.06798504562502358,-0.02733784383964777,-0.36076911935385847,0.12104396827713698,-0.09754093347389103,0.9360448988089911,0.25746379026865446,0.6201115718370133,0.28047338894591356,0.06855068141885315,-0.11506316401363872,0.2218774186926693,0.8220060623816152,-0.4433553243646081,-0.35249913905950525,-0.59479196812173
135.0,8.213489770889282,-0.3121874311383511,0.1865435266004214,1.0012798877462492,0.007846583530612353,0.0048589617380405195,-1.9016681010534637,-0.3754699552033016,-0.10002486805540772,0.21672994001162332,0.931915614580129,-0.6236072154880354,0.1721733189507179,-0.568587442423258,0.06794453831707502,-0.051738835027637584,1.2532730579566038,-0.06047451600401209,-0.08553611271688864,-0.055657678163602564,0.06970490055052142,-0.02576848237205171,-0.36652438605401816,0.12034396566089235,-0.09543848009988927,0.9355067663246197,0.25457868054880683,0.6252254255688702,0.27522689730283545,0.06927165210608509,-0.11478571915920541,0.22156493084977416,0.8223764595802672,-0.44335270648879566,-0.3535233410759958,-0.5949484003072623
136.0,8.250969648361206,-0.3132043082397421,0.18133485003473573,1.0013958246702659,0.008245686029886354,0.0041070087489806836,-1.899468330934402,-0.3692641298725674,-0.10520414089999981,0.21211382539706647,0.9277952952458622,-0.6265531633431403,0.1704848722748809,-0.5818977424799581,0.0720344783520365,-0.044033470590874375,1.2375818032742139,-0.0734794838682554,-0.08586811078044128,-0.058044556053780394,0.07162311414055487,-0.02404161989936413,-0.3733417943744012,0.11982164678200091,-0.09322826018091088,0.9334897580017484,0.2517554891510588,0.6299288142563418,0.27065495469296363,0.0699581551556409,-0.1149316034230713,0.2214352159518771,0.8230179013039083,-0.4432283865811351,-0.35388848605458145,-0.5935874839910834
