ccrpRepo/mocap_retarget/src/mocap/src/data/output.csv
frame,timestamp,posX,posY,posZ,roll,pitch,yaw,left_hip_pitch_joint,left_hip_roll_joint,left_hip_yaw_joint,left_knee_joint,left_ankle_pitch_joint,left_ankle_roll_joint,right_hip_pitch_joint,right_hip_roll_joint,right_hip_yaw_joint,right_knee_joint,right_ankle_pitch_joint,right_ankle_roll_joint,waist_yaw_joint,waist_roll_joint,waist_pitch_joint,left_shoulder_pitch_joint,left_shoulder_roll_joint,left_shoulder_yaw_joint,left_elbow_joint,left_wrist_roll_joint,left_wrist_pitch_joint,left_wrist_yaw_joint,right_shoulder_pitch_joint,right_shoulder_roll_joint,right_shoulder_yaw_joint,right_elbow_joint,right_wrist_roll_joint,right_wrist_pitch_joint,right_wrist_yaw_joint
1.0,3.252790689468384,-0.17128975367716118,0.7001972034442456,1.0061173443887321,0.02097408821787696,-0.05896310871467153,-1.5706040193521555,-0.34514304199698875,-0.13038328520599068,0.01029339610057643,0.7799328173507829,-0.4369425881277096,0.14232661835405241,-0.2984024818606182,0.25991248539779327,0.21734253257935798,0.7791661946856918,-0.1334541876699147,-0.0131276768127964,-0.03899104857988174,0.024422201163953952,-0.011564236929897168,-0.1073547267055954,0.018965338078281425,-0.044944582461584295,0.9103366308439957,0.19026366015673019,0.7346832024524447,0.3222275196098525,-0.024323414822429328,-0.13647731010588862,0.14544801976444713,0.8493478302629728,-0.4107051817411112,-0.41591069335712544,-0.6387764824966357
2.0,3.280191421508789,-0.17128975449918699,0.7001972048062393,1.0061173484192802,0.020974079112750406,-0.05896311327036103,-1.570604019703128,-0.34514301723426055,-0.13038328801283713,0.010293395298154904,0.7799327786449016,-0.4369425651939427,0.1423266167317821,-0.2984024607273455,0.25991247823906216,0.21734253811377968,0.7791661649674125,-0.13345416944312,-0.013127676008464095,-0.038991056350457375,0.024422214093273237,-0.011564251691458707,-0.10735491113911755,0.018966356025142628,-0.044947258952612534,0.9103369727627271,0.1902600686910006,0.7346831823757778,0.3222286967166266,-0.02432358901486578,-0.1364780695703156,0.14544999621519758,0.8493479228464006,-0.4107035005701891,-0.4159103956680567,-0.6387772373765672
3.0,3.3049631118774414,-0.17186770346943803,0.6999472098207821,1.0059633598398123,0.020700022622727507,-0.05929363137369196,-1.5707107765791521,-0.34554404289702845,-0.12996127802251312,0.010949502233744586,0.7815463793394024,-0.4367803109004813,0.14210295988782856,-0.29820259133108207,0.26053893171112236,0.21766590028158805,0.7798748817397179,-0.13317040565192387,-0.012406702383789533,-0.03847877688430347,0.02501192215174062,-0.011481686850889208,-0.10590576623527197,0.01743260511626804,-0.045449628372257696,0.9104408454681447,0.1903063266037368,0.7347232871817753,0.32265607785205985,-0.02310370908191646,-0.1328817889030933,0.14552343990217245,0.851141151293844,-0.40965979011171705,-0.4149772025412207,-0.6399316139187303
4.0,3.3480308055877686,-0.1736120421956393,0.6991591271205194,1.005489564139405,0.020818231250382256,-0.060319551836929566,-1.570946454976521,-0.34796703285065456,-0.12876465165292061,0.013061400517908626,0.7874093601053653,-0.437056896986187,0.14172443380702512,-0.29856281063302725,0.2624552771559664,0.21852692871449853,0.7825130551240919,-0.133048272423326,-0.010401356369790931,-0.03725785578798894,0.02662419391820178,-0.012222121166533883,-0.10323569423195798,0.013088986307605008,-0.04584887908448721,0.9106594813285573,0.1902368633459922,0.7355862090149685,0.325466101617385,-0.021652847223820063,-0.12263206967206736,0.1465389383757314,0.8570088822826034,-0.4073785759715497,-0.41295235685546633,-0.6430054162095886
5.0,3.371090888977051,-0.17461317311853697,0.698692067684963,1.0052110682741269,0.021252447077378125,-0.0609174710235785,-1.5708541344608977,-0.3498551145094438,-0.1282176840157486,0.01421264431553857,0.791191381305393,-0.43741222644675126,0.14173715561812758,-0.299141439347141,0.2634152302060692,0.21875442920640403,0.7840809181623358,-0.13332998755958037,-0.009365081774508583,-0.037061696081447965,0.027814288918253577,-0.012802065791629713,-0.1021252047406947,0.010722491421611611,-0.04556515672620715,0.910718586688922,0.18997468195532896,0.736507924842146,0.3274205228431275,-0.021444156489147312,-0.11712835938176465,0.14768794878284372,0.8605718207874327,-0.4066950235653028,-0.4120521312025204,-0.6445885806376231
6.0,3.4010672569274902,-0.17573853621811802,0.6981505285184924,1.0048795209630288,0.021940742247701372,-0.061611128824218195,-1.5704648761499058,-0.3524266634912506,-0.12770106359013234,0.015519840419592838,0.7960350316878172,-0.4379517541810908,0.14199809046402878,-0.30000155760378666,0.2643402206331211,0.21872973367193815,0.785895838493795,-0.1339548816639526,-0.008303681467822656,-0.0373395424534337,0.029266525267431526,-0.013553914043377562,-0.10119300188571433,0.00806659527491728,-0.04495799049030986,0.9108038253587563,0.18954346553158036,0.7377583137761186,0.32983405463945537,-0.02156558923348325,-0.11138604684489856,0.14932649230606532,0.8646429788865764,-0.40635954912430017,-0.4113946574734677,-0.6462453379031247
7.0,3.452620506286621,-0.1778187741606752,0.6971275090505216,1.0042043115784616,0.02333223456590766,-0.0628437550762049,-1.5691528092148592,-0.3582621265134053,-0.1265273390716723,0.01839583263262545,0.8068653622673663,-0.43927793541281235,0.14295677648276395,-0.30183921700469135,0.26585991909051765,0.21811313500482,0.7894352009237009,-0.13563007861900234,-0.00649243043754849,-0.03881712000928728,0.031919274021536756,-0.015290092909149188,-0.09956452481798728,0.002870984146814696,-0.04368649438521996,0.9109296522902139,0.18863494090924962,0.7403027640662223,0.3345677745326936,-0.022172645441081017,-0.10177895702305126,0.15272012294251983,0.8728370085143886,-0.4061681921572793,-0.4111021655373879,-0.6493921021428564
8.0,3.4767024517059326,-0.1787771862286172,0.6966442117768575,1.0038686658241809,0.023956187807554846,-0.06345880174331385,-1.5682139652327272,-0.36148545986216185,-0.12573570841825898,0.02033085895054093,0.8129083562347386,-0.43994191958072343,0.1436813257948696,-0.3026351416426725,0.2663934558785841,0.21761242825394217,0.7910984172057616,-0.13667224697729255,-0.005762640586310255,-0.03989091014695821,0.03289803316960144,-0.01624463208844025,-0.09899862822985228,0.00023032006404792777,-0.04325349394852822,0.9110978942691852,0.1883137338834549,0.7414741519497003,0.336909252448227,-0.02253040428571207,-0.09813417925994844,0.1542824712978191,0.8767019017255728,-0.40622895909158796,-0.411525972341281,-0.6509259381044608
9.0,3.5022900104522705,-0.17985837536569255,0.6960836583012623,1.0034922617092605,0.024587133862292568,-0.06428651673946437,-1.5668697248247958,-0.3654469321159153,-0.12465160858092997,0.023257570228610837,0.8204370176317242,-0.4406121703891202,0.14487724252597867,-0.303305612453863,0.2667650180616787,0.21700037169283565,0.792888985878133,-0.1380874671494723,-0.00503479523193002,-0.041290832604970455,0.03374630050442531,-0.01729613323497668,-0.09869297794913853,-0.003006570968057656,-0.04304282684156831,0.9116022218216608,0.18816046823888274,0.7427613400578189,0.33974314213457835,-0.022751434242024783,-0.09480560788371589,0.155922214699537,0.8806757263429893,-0.4064857074710637,-0.41233747228675577,-0.6527363505632507
10.0,3.531538486480713,-0.18105950522315947,0.6954469998615863,1.0030861741136068,0.025225259121591938,-0.0652878838636982,-1.5651811478956428,-0.37018784583468045,-0.12329735344565515,0.02715755375876479,0.8294885113336667,-0.44148399161007107,0.146397792882549,-0.30381108935095774,0.26702620137292005,0.21636848560048724,0.7947406077947002,-0.13986434038770484,-0.004285433475316183,-0.04291095515946025,0.03461409303523941,-0.01837503453710347,-0.09868142577476369,-0.006852978590771674,-0.04303071850718468,0.9125080863348696,0.1882221288213532,0.744329824930414,0.3432606006014577,-0.022744191020485464,-0.09179028282652682,0.15764385637851774,0.8847200023783944,-0.4069818077263092,-0.4134041338841292,-0.654892113337441
11.0,3.5622317790985107,-0.18236029866843878,0.6947043405449391,1.0026584728945935,0.025842838918568364,-0.06634579030997506,-1.56327324902538,-0.37568276424662056,-0.12168464792245434,0.03193368143270679,0.8400360203971791,-0.4428074258360215,0.14828721695675087,-0.30411901333043767,0.2672626609672732,0.21573786853316446,0.7965663971392685,-0.14186622370350122,-0.003469615841489339,-0.044617172011345727,0.035740363379338,-0.01936610626641643,-0.09899749181589651,-0.011311125010847804,-0.043112673339981394,0.9138195294840082,0.18849477761315714,0.7463842036491519,0.34767400020695216,-0.02249622586663279,-0.08905143878905646,0.1594009478861121,0.8888282927553453,-0.4076568222418977,-0.414536028981629,-0.6573444626486107
13.0,3.6188924312591553,-0.18433521023581095,0.693398477312006,1.0019843270793813,0.026687081718715255,-0.0673514433831909,-1.5603796275748103,-0.38569611771914125,-0.11811930732444308,0.040754672894951736,0.8592538221305606,-0.4464490041590914,0.1519936252088605,-0.3042991594122441,0.26805964060584303,0.21461449042937328,0.7990629354385428,-0.14497061351328475,-0.002101849629631316,-0.04698657198708234,0.03828106930313654,-0.020860758058512383,-0.10021657883795132,-0.01912307339074911,-0.04317105986202305,0.9164861307793235,0.18927659960932508,0.7509771776108844,0.3564643318613888,-0.022029514072256354,-0.08610398727193858,0.16190796945785385,0.8955739502650455,-0.40854575517030395,-0.4166237949398194,-0.6612508507707953
14.0,3.6576991081237793,-0.18561336265959844,0.6922441079824764,1.0016154845948395,0.02657001328855796,-0.06773307050371397,-1.5590165454688707,-0.39206898313702676,-0.11475057607029263,0.04833472067570082,0.8719909587902532,-0.4487880712500516,0.15512530525770168,-0.3032048709771648,0.26878990241407597,0.21401250541180802,0.7997826254822185,-0.14623117417596035,-0.0011633247869590815,-0.047803707800007506,0.04013062933167222,-0.021018377557634103,-0.1013002246480176,-0.024939210088925523,-0.043273260673393064,0.9184246222909775,0.1898793229053053,0.7541308169743781,0.3628898744724042,-0.021149808879615387,-0.08579920243292799,0.16308126084341285,0.898954179310969,-0.4090264480940272,-0.4174319966188722,-0.6624167659898442
15.0,3.6993331909179688,-0.18687909702916172,0.690996488156887,1.001265407691283,0.02610591413410505,-0.06787553269331403,-1.5581010876081456,-0.3984573675497993,-0.11075596557039757,0.05660148659873517,0.8849262142500431,-0.45094035526431403,0.15832266233633285,-0.3015250614527387,0.26981947691400804,0.2135343574974533,0.8000365363689897,-0.147181963396798,-0.00026163767998167893,-0.04805686422865883,0.04183847460484432,-0.02100768805126095,-0.10222628149888238,-0.031125443600478364,-0.043455257749226775,0.9203549751128688,0.19040842314060757,0.7568906910782119,0.369305119087857,-0.01991949063424077,-0.08655098512929112,0.16422124275271027,0.9020354320297507,-0.40947593877913024,-0.41795764166861227,-0.6624436261288293
16.0,3.74953293800354,-0.1889285510385747,0.6888401898456027,1.000695361848119,0.024851621280421603,-0.06735055626713427,-1.557748660102766,-0.4094329803940224,-0.1030390433209829,0.07074831524877044,0.9071584543503975,-0.45430835665889724,0.1632832009917572,-0.29785265160112484,0.2725137475985433,0.21316274659742146,0.7995705219759652,-0.1482151229164402,0.0011285169547487063,-0.047049348407406245,0.044652993419939196,-0.021021627122396018,-0.10313027818238303,-0.04208863129521271,-0.043938807964946675,0.9235421716983601,0.1910716247313115,0.7602996176981296,0.379806513302662,-0.016946363421512817,-0.0898796661987013,0.1663723258595027,0.9065233884941422,-0.41025408595240487,-0.41895792308653534,-0.6604989386659684
17.0,3.7718522548675537,-0.18971450757451788,0.6879310711960582,1.0004873092939202,0.024245387774918557,-0.0668259559875638,-1.5583303062581146,-0.41400042610126975,-0.09987887432662552,0.07606486748595565,0.9159441533752344,-0.4552008557783974,0.16480683199418117,-0.29611181246457663,0.2740101890139029,0.213276893728965,0.7990325479964295,-0.14827851387968344,0.001593494644739508,-0.045821097220157564,0.045782741567485366,-0.021155923702724913,-0.10306228160772152,-0.046548808859557776,-0.04421861750768387,0.9246813597063316,0.19117680491548605,0.7608219859565191,0.38358795353260094,-0.015314509158125853,-0.09219125143469617,0.16753609539197734,0.9078729721974118,-0.4108162096774056,-0.41983538618301597,-0.6590448532107713
18.0,3.797030210494995,-0.19060437824540866,0.6868140039853545,1.0003027133172195,0.0236922186238411,-0.06637446239153172,-1.559399097246513,-0.41921325164207157,-0.09685707819292055,0.0817001039347787,0.9249821115541301,-0.4551410949308184,0.16613021306219206,-0.2941914571032522,0.27558583553408117,0.21357247387280784,0.7983851726683955,-0.14804479622619543,0.0020446698429749865,-0.04400517880882275,0.04703398221564756,-0.0214432467791122,-0.10292420157109891,-0.05120284066715436,-0.04452739709321643,0.9257639294775992,0.1911719494187631,0.76089634455423,0.3872031077761219,-0.013458340878528298,-0.0949934634670651,0.16914208560448735,0.9089342683911577,-0.41196673895478353,-0.4212719249552169,-0.657547430721354
19.0,3.831258535385132,-0.19158793785649522,0.6854785046510801,1.000149683476652,0.02337520635715965,-0.06602796228610577,-1.5609204668949443,-0.42531183221460706,-0.09389987453602344,0.0878721013627718,0.9342002332403037,-0.45375709959811467,0.1673059795844013,-0.29226917132601715,0.2771877918837587,0.21402673137793604,0.7976456748669027,-0.14746374974003956,0.002485496901038312,-0.04165919596925703,0.048538246332025775,-0.02206593142479777,-0.10307190170119929,-0.05578051195789881,-0.04474252655906663,0.9267880740346929,0.19100750282020845,0.7607375457246497,0.39050487766901965,-0.011774875083459545,-0.09802214314792526,0.17125940489802138,0.9098796220829197,-0.41377241414102384,-0.4228919105701876,-0.6561071398855836
20.0,3.863474130630493,-0.1926618536115463,0.6839320062375934,1.0000276504007055,0.023345471762961915,-0.06584660510625702,-1.5628108242459255,-0.4324188955370412,-0.09108125533271519,0.09462585918542452,0.9434773643737722,-0.45081587487841634,0.16831406944944532,-0.2903970164505904,0.2787581183987129,0.21463575042148042,0.796800912178494,-0.14653094927199056,0.0029174976000988593,-0.038933273274995975,0.050294660431996915,-0.02307885700880151,-0.10368029172986357,-0.060174560335807814,-0.04480306688924438,0.9277372484689672,0.19061348175210285,0.7603714956808107,0.3933163274518568,-0.010574129895319907,-0.10119148246137244,0.17397110544060984,0.9109624342205824,-0.41624354669730723,-0.42391651521611473,-0.6543571403757731
21.0,3.8918471336364746,-0.19370906531001014,0.6823330208549174,0.9999356733171071,0.02365079855393315,-0.06576554132399182,-1.5649574777691841,-0.4400564559843886,-0.0888692663305453,0.10097684820418831,0.9518266541385015,-0.44645202047073057,0.16887796980059877,-0.28881117266999695,0.2802059142864852,0.21529398827989593,0.7958821226625021,-0.14519439738121334,0.003289212926140221,-0.03611590928744097,0.05219981275386901,-0.024442909988195895,-0.1047770674018079,-0.06398471028335066,-0.04463200109995688,0.9285691978705399,0.18991401635928618,0.7598389383214994,0.39523580253569385,-0.010219470960204348,-0.10437738777376716,0.17713608373614204,0.9122202605062163,-0.41912137058127924,-0.4236339745441028,-0.6518884671042597
22.0,3.931326389312744,-0.19473531269083336,0.6807134854636787,0.9998377619239492,0.024160403812865827,-0.06574140907097147,-1.5672738667049182,-0.44808212843936646,-0.0875570478257311,0.1064504220127899,0.9591151377628298,-0.44094217009123127,0.16889689759971466,-0.2874564041046445,0.2815009598365006,0.2158082037096638,0.7949605864634379,-0.14337192109598706,0.003602623405777706,-0.03336730805508244,0.054160461086293334,-0.02596328522288716,-0.10613136159387916,-0.06743894673273249,-0.04432028695557666,0.9294102262399477,0.1889193105778929,0.7592428025946962,0.39628596334951505,-0.010549232773050934,-0.10781866829667666,0.18068748485761732,0.9135799490075763,-0.42230204560394724,-0.42215455540902985,-0.6484874471484903
23.0,3.9843854904174805,-0.19633359681402557,0.6781467331530289,0.9996053085832417,0.025306315153844502,-0.0654240531256058,-1.5714420576764379,-0.46186751656771696,-0.08697133282146839,0.11311728448717123,0.9691843335649778,-0.4306546755717462,0.1678670844487637,-0.2858295400039629,0.2836320710323431,0.2161976189934952,0.7934297438478406,-0.13890009306861506,0.004067726903638343,-0.028990430758078563,0.05776696877525379,-0.02862813906420971,-0.10847332958847293,-0.07279505574856403,-0.04371030949069464,0.9313642595796776,0.18678152708028162,0.7583367342422513,0.3966311192006311,-0.011833881525107772,-0.11440402612421466,0.18713253386361423,0.9153777777183532,-0.42767029726776495,-0.41884030668159467,-0.6414463557711465
24.0,4.008793592453003,-0.19701843119281173,0.6770267958337355,0.9994663728780329,0.02581840665671964,-0.0651776663378906,-1.5734368392584095,-0.4680389024825855,-0.08763041350750503,0.1148321246113104,0.9724921706308765,-0.4258005977790298,0.1669217247924428,-0.28526280448713576,0.2845764905564901,0.2161366134334211,0.7928471420953327,-0.1361267708970745,0.004274888307903104,-0.027085780319180658,0.059480012812963064,-0.029601239865706078,-0.10934978027857487,-0.07500156807119876,-0.043573059791576114,0.9323879287053751,0.1857623318041815,0.7581005360276996,0.3961831125470391,-0.012502147371700295,-0.11776077949693703,0.19017096624471708,0.9157518098876642,-0.4300533203763388,-0.4179482025089419,-0.6379447011963821
25.0,4.032793760299683,-0.1977953077981957,0.6757136431087982,0.9993104842545929,0.026277045197712363,-0.06491843537401532,-1.5758274506944117,-0.47485793949849553,-0.0891599591841866,0.1159820806030003,0.9750680441663864,-0.42019205066959286,0.1655272253000395,-0.2845064377371491,0.28569120702613404,0.21613057519279322,0.7922377769828648,-0.13274441189273273,0.004540483441142963,-0.024878871037949377,0.06136388016756084,-0.03027730021995436,-0.10994177020765579,-0.07716251299717002,-0.0436915304768922,0.9332501909967892,0.18478603644972486,0.7577775911054909,0.39526796936220815,-0.01322905932084747,-0.12160608074659936,0.19364232713995064,0.9159335205870116,-0.43274994682710854,-0.4177292958642196,-0.6337765354431428
26.0,4.058905124664307,-0.19866433840841452,0.6741836821346459,0.9991792883851791,0.026666750762851653,-0.06462002940708757,-1.5787052192542697,-0.48223705179064347,-0.09143946580287796,0.1167012283808542,0.9767469749549529,-0.4139758474530715,0.16372019731495224,-0.28337943676852856,0.2871433461709333,0.21647825407012072,0.7913623846758926,-0.12932072678759282,0.004874103003225886,-0.022283229549679956,0.06339388956059533,-0.030585720751579427,-0.1100535998913368,-0.07910156205342772,-0.04416541963277902,0.9337381702461698,0.183994600526418,0.7569525865568099,0.39398002986828,-0.014062742711082425,-0.12573487859574023,0.1975614641983124,0.9160442417038503,-0.43568828549635513,-0.4177142215327698,-0.6287126703853696
27.0,4.118682622909546,-0.20016916735091633,0.6714127543896407,0.9991212761097513,0.027215243920026028,-0.06382568781795511,-1.5842468746514977,-0.4920774153488805,-0.09419162012701975,0.1174377864167865,0.9778892372504605,-0.40572760146420384,0.1605038404880189,-0.2804332973597433,0.29041382214954364,0.21831330801264004,0.7885026389401887,-0.12469902683781997,0.004992473841690353,-0.01733270615863775,0.06659126917001552,-0.03136225856582604,-0.10771267717819813,-0.08091671570349009,-0.045639622210755404,0.9336498111492431,0.18335339107569615,0.7542576196304172,0.39151285762793153,-0.013794719852064773,-0.1312860244839378,0.20423831303313728,0.9156721466369191,-0.44018958600436103,-0.41748661603347303,-0.621333509723101
29.0,4.150469779968262,-0.20087258008339212,0.6700622300884108,0.9991399818469855,0.027503730707409593,-0.06354637158502517,-1.5870429243626956,-0.498408649897344,-0.09723233905887821,0.11709109969460713,0.9770088244095009,-0.40113242138223093,0.15874635539929915,-0.27893133449694674,0.2920239062392882,0.21937350757295027,0.7869825440538389,-0.12369190490968379,0.005189573744459015,-0.014972214567653368,0.06800269213530553,-0.030987325513549824,-0.10760576261488938,-0.08197782208878382,-0.046714093632351295,0.9334658198465421,0.18329244950431756,0.7527995188775134,0.3903008102885783,-0.01552161001842437,-0.13512816335797584,0.2078134352379945,0.9155734148091652,-0.4425719005663935,-0.41652130955057964,-0.6153642174365987
30.0,4.194055080413818,-0.20211150539322914,0.6676083882392985,0.9991539486955558,0.02790271072300115,-0.06352787860809753,-1.591286484867262,-0.5081554061017994,-0.10282346777134849,0.1164260556993006,0.9736667710120295,-0.3959674126026781,0.15633053933021301,-0.2761068127583627,0.29415881495847424,0.22085322719854636,0.7846060887487645,-0.12364001840594871,0.0047228571733871514,-0.01179184917673616,0.0690123177770915,-0.030856440476588157,-0.10834578746484633,-0.08363421102412083,-0.04866173020022055,0.9336299015709082,0.1835338355908538,0.7516354815407977,0.3883195132697468,-0.019440964796532876,-0.14197037027156273,0.2131657327554274,0.9153432748316694,-0.44685264979596917,-0.4151829110531796,-0.6055565270194259
31.0,4.2357330322265625,-0.20336417412276198,0.6650925477278087,0.9991331443565498,0.028537267823060077,-0.06365860278298244,-1.5952152437013285,-0.5179488466363036,-0.10846276209224272,0.11601789637117495,0.9693173179063476,-0.39147839287864883,0.15429625598300906,-0.27335921111953665,0.29617254381201535,0.22235501398158347,0.7822523810518394,-0.12373896901173859,0.003991684734721438,-0.009330939944525609,0.06963483546234839,-0.031125372489806437,-0.10965604515111384,-0.08547044451102082,-0.05054978936583169,0.9342620448543659,0.1836185829645996,0.7509145279472931,0.3860286739531828,-0.023870132848516322,-0.14938386493408465,0.21827018462803333,0.9147817992930813,-0.4509818135114247,-0.41415368397397767,-0.595503765317504
32.0,4.274337530136108,-0.20461174056434156,0.6625508946205942,0.9990957338120526,0.02929150399391396,-0.06386676335174507,-1.5987637628915472,-0.5267457558598396,-0.11324827843549079,0.11627723603671747,0.9640102988082383,-0.38813516455359187,0.15286272223410202,-0.27051410999855696,0.2982195359028217,0.2241469615344689,0.779847691766765,-0.12402879848640339,0.003017793046306764,-0.007712267399709202,0.0698480470260602,-0.03184908347535904,-0.1106706053585203,-0.087126899324202,-0.05227882095647683,0.9352249041687012,0.18348503016950996,0.7501875800627118,0.3832870923732571,-0.027884736994214558,-0.1565636965054331,0.2228303304710511,0.913855902213519,-0.4546439309250352,-0.41349659377512316,-0.5862771447352912
33.0,4.308655023574829,-0.2057651038892252,0.6601533031500344,0.9990642499078898,0.03010372286799528,-0.06412817839445731,-1.6017683828663007,-0.5345904657898314,-0.11715123620725398,0.11730446458569498,0.957827951811904,-0.3855773768313014,0.15213106151113454,-0.26770923987796413,0.30023250078225133,0.22624274315394072,0.7775411404240548,-0.12453534638916146,0.002107589769880256,-0.007013217880929781,0.06974739774474126,-0.03259823175386815,-0.11142221371734316,-0.08859673965482118,-0.05382430356272261,0.9363742811897927,0.18314762309354735,0.7492173599122223,0.38022803759284035,-0.03157712072064186,-0.16324025672259002,0.22662483979203046,0.9127567468777931,-0.45758447707388017,-0.4126855517042293,-0.5778459458063598
34.0,4.3431782722473145,-0.20681075087227158,0.657914453536403,0.9990692710595572,0.030818630150381533,-0.06439034016989824,-1.6043832789460013,-0.5413102359669251,-0.12033226311445963,0.11879735352431277,0.950849093676987,-0.38380603921387796,0.15189997993363796,-0.264840964274755,0.3021986446109065,0.2286393945740388,0.7752908596162869,-0.1251969672767148,0.001432433530724998,-0.006929392359461823,0.06938379408383245,-0.03314324699395673,-0.11159558830519084,-0.08975849796373875,-0.05533755658514598,0.9375360369078597,0.18281129696029588,0.7477436598837217,0.3770775391477071,-0.034754799781122045,-0.16908374798100506,0.22963031978742945,0.9116298096928077,-0.4597342098812506,-0.4112261931684762,-0.5702389177619316
35.0,4.3777642250061035,-0.2078379309836349,0.6556207084317797,0.9991036758032195,0.03139006665321847,-0.06461536636427313,-1.6070490579348984,-0.5475786568959728,-0.12364642298985981,0.12012133899421604,0.9429036803502151,-0.3827728587533306,0.15169669210252085,-0.26169811800584014,0.30413254672204404,0.23117015505266778,0.7729498765388392,-0.12579671464849762,0.0010012623576035596,-0.0069350545227077195,0.06881003067365478,-0.033479775447117,-0.11141131270178459,-0.0906680567289607,-0.057103572003141784,0.9386786268872567,0.18272511426122978,0.7458179166584629,0.37394902000941904,-0.03783921091170565,-0.17451018813457936,0.2321393297732796,0.9104407704539283,-0.46147023497181683,-0.40901723571664433,-0.5630014368521977
36.0,4.406983852386475,-0.20883171616694235,0.6532611184375074,0.9991398034364107,0.03189400765346271,-0.06469122007289844,-1.6097908969699597,-0.553534347151449,-0.12734441358805898,0.1208016471741927,0.9342231453726197,-0.38258867544393005,0.15131679002134668,-0.25845832320760675,0.3059137887200474,0.23343596846866563,0.770533160986973,-0.12589190216338553,0.0008316246927865265,-0.006867466726553041,0.06822502772250519,-0.03378193070652087,-0.11131153167475913,-0.0912748351437633,-0.05915208220378966,0.9398567370895894,0.1829663655868201,0.7437244481536147,0.37089253023378205,-0.041092968581476444,-0.17958575241451685,0.23408040356847362,0.9090052870009264,-0.4628810346685134,-0.40646076307072476,-0.556592120680085
37.0,4.436006546020508,-0.2097871622401224,0.6508311421799642,0.9991606922881711,0.03240238914105831,-0.06452046266443878,-1.6125558725706397,-0.5593270537160269,-0.13137180654029282,0.12076981312440496,0.9250298387666758,-0.3830805301620677,0.15074844398670212,-0.2552383643395355,0.3074878242291599,0.23513666575610254,0.7680253399064523,-0.12520749278305116,0.000891930240690976,-0.006719568680665862,0.0678816417519782,-0.034152597976445306,-0.11169739011932023,-0.09152797035140887,-0.06140798755248511,0.9411633824827177,0.18345121522936575,0.7418142622871945,0.36770319364963294,-0.04471097590946163,-0.1844209368168092,0.23545715483465368,0.9071915303110974,-0.46412300047777244,-0.40399815540460515,-0.5514229772769133
38.0,4.466219425201416,-0.21070596329615188,0.6483379730282497,0.9991758723493497,0.03288150201199666,-0.0640996495450533,-1.6152742107764766,-0.5649741362098946,-0.1354325364842458,0.12041904923462296,0.9153889032804234,-0.3838445580928377,0.15015397858392532,-0.25197694082092476,0.30884277535848503,0.23622995334595165,0.7653507698943693,-0.1237149086499577,0.0011247936394840384,-0.0065717248185236336,0.06792314816373743,-0.034500652030928856,-0.1126350521272042,-0.09137458956835573,-0.06378030330245683,0.9427029556036051,0.1840445032734947,0.7404387460887256,0.36408342657467696,-0.048600311665561,-0.18902681424277612,0.2363585294391478,0.9050177762734966,-0.46532027704194534,-0.4017610358246281,-0.5476211561842393
39.0,4.504599332809448,-0.21159255817677566,0.6457952740501991,0.9992146431018314,0.033227198520724754,-0.06350748499008121,-1.6178910475908201,-0.5703219924617413,-0.13917351472403708,0.12033026127597338,0.9052272760924367,-0.3843855956583598,0.14974549348199442,-0.24850711813799897,0.30996030732404534,0.23685701199429082,0.762383229355376,-0.12150961441144023,0.001468622729810251,-0.006527437050567457,0.06829912073143732,-0.03461998843531265,-0.11378206305116664,-0.09083873637105791,-0.06623275579268165,0.9445022319377083,0.1846568118442536,0.7397764105705594,0.35987366040480007,-0.05238446728131779,-0.19330751563006132,0.23690213619316186,0.9026816861462121,-0.4664551417601388,-0.3993574593534076,-0.5448228840655329
40.0,4.542187690734863,-0.21245555036293717,0.6432163447553398,0.9992954717301592,0.033344633741796664,-0.06287197836685621,-1.6204153052726666,-0.5751975571468779,-0.1424776745063519,0.12084905225811064,0.8944163799187164,-0.3843485838384505,0.1495889338265243,-0.2446852965033876,0.31082231020978685,0.23724248470708603,0.7590248901348051,-0.11870745238766828,0.0018681495744230698,-0.006676562090352993,0.06875767361919614,-0.03434443351644677,-0.11470934851105588,-0.09011245536990409,-0.06872943885515025,0.9464846617776934,0.1852209514104839,0.7397603971934302,0.3551701488800968,-0.05570902425857989,-0.1972764686820672,0.2371400317912183,0.9003691053829712,-0.46739677918108136,-0.39622321373064634,-0.5423592355137646
41.0,4.575547218322754,-0.21330674667528712,0.6406052546904932,0.9994139171235827,0.03325077066477815,-0.062308779031664936,-1.6229118958374187,-0.5795857301353563,-0.1454865591536871,0.12194545594116206,0.8829328184308951,-0.3835862259268638,0.14957167719903722,-0.24050905140535778,0.31145981252436766,0.23761809002501835,0.755293241404696,-0.11545173238038312,0.0022743788928980962,-0.007043369359637717,0.06903224474023172,-0.03368355153637478,-0.11525332263126994,-0.0894409119882991,-0.07118228884639696,0.9485514974771956,0.1856808561433474,0.7402040834907606,0.3502695059285226,-0.05844220069912054,-0.2011309680414076,0.23706091472449148,0.8980180813478221,-0.4680664691049381,-0.3923434673165065,-0.5398559942014838
42.0,4.607320547103882,-0.2141606914217991,0.6379467059503745,0.9995480317461135,0.03309109503036631,-0.061844216360363934,-1.6254527174182825,-0.5836820741991846,-0.14842614576241095,0.12332016000075474,0.8709069990358363,-0.38209936387375454,0.14951105490435548,-0.23610089029914455,0.3119845297487891,0.23815434853779144,0.7512975343759756,-0.11198034161751852,0.0026355159353339506,-0.007534258372035342,0.06907680286088604,-0.03286455317541552,-0.11562707537078856,-0.08892964606146495,-0.07349763724484207,0.9506036542698357,0.1860255811639676,0.7408503690393788,0.34547281869638047,-0.060741616927728295,-0.20510530083143955,0.23663182508210623,0.8953785219088835,-0.4685269328420306,-0.38829084051030927,-0.5375073937850765
44.0,4.6504621505737305,-0.2150348267481389,0.6352102565406672,0.9996897119190775,0.033025651156175395,-0.061428172477305934,-1.6281027662745309,-0.5877234832288675,-0.1514601710085877,0.12459251374123897,0.8585646922730239,-0.3799500365625781,0.14924794642125536,-0.2315879600236067,0.3125562627585106,0.23897092124693967,0.7471686882698729,-0.10863836448808661,0.002900141226725452,-0.007947610772132765,0.06903274987844248,-0.0321890721645358,-0.1162382542730567,-0.08853470179489686,-0.07562004617351305,0.9525462293031123,0.18629547102025149,0.7414374710112048,0.34099656051768307,-0.06293400862252616,-0.20929024189525752,0.23579523532970087,0.8922507994905478,-0.46886559230376934,-0.38472433163280717,-0.5357815210776581
45.0,4.693157434463501,-0.21634708566017036,0.6311425174554428,0.999871273530573,0.03324159426930583,-0.0605261519797458,-1.6321775522850266,-0.5938504675443909,-0.1556468070506503,0.12561926902160914,0.8420042938793704,-0.37575563153039815,0.14825831025902012,-0.22535899921538483,0.31403868189836964,0.24065760581040002,0.7418008040763666,-0.10516772571340817,0.003018491114750315,-0.007845721984989975,0.06918800996283456,-0.032065229520832336,-0.117912147509156,-0.08792431792796676,-0.07806474299445094,0.9544461627800991,0.1867634606334736,0.7422823537427452,0.3360161487327711,-0.06642316215674904,-0.21505553203705585,0.2335595338213285,0.8875995349160289,-0.46886270828307536,-0.382033860094932,-0.535062662285826
46.0,4.724216938018799,-0.21760565678491361,0.6272503452522166,1.0000546337452274,0.033605172800877645,-0.0596418060623785,-1.636162728369003,-0.5994119976727528,-0.15963608612977154,0.1262258874594961,0.8261450351648658,-0.3703582375516885,0.14701339835374785,-0.21939404832195336,0.3155936572337402,0.24262088703241924,0.7365158727895766,-0.10199862607106498,0.003129303190483269,-0.007334952789336938,0.06945113475033339,-0.03220837553493247,-0.11996076509467993,-0.0871486658082388,-0.08011803383963023,0.9560992088568816,0.1871889917402846,0.7428278030150883,0.3317128313756609,-0.06974931798087983,-0.22019855482646555,0.23098357781307632,0.8828524710923551,-0.46839995077842905,-0.38010059056301293,-0.534717185996706
47.0,4.759312629699707,-0.21880048760588117,0.6235810881025841,1.0002143167661655,0.034026588257202645,-0.058812226697841044,-1.6399720636701252,-0.6043452735511432,-0.1633741774198521,0.12656792864284105,0.8111244556850004,-0.36383642036219055,0.1456161725869091,-0.2137404588434229,0.3171152300820027,0.2446473846721815,0.7313724206595411,-0.0989031879774366,0.003306077406827894,-0.006645846252944605,0.06973013508834608,-0.03239529950319503,-0.12208454488582324,-0.08615257598224266,-0.08171782857933119,0.9575416893176638,0.18747879819504498,0.7431732384548564,0.3279152535062441,-0.07277352022271447,-0.22456661095296504,0.2282769255029398,0.8783034039194078,-0.4675244951340696,-0.3785472885122352,-0.5343019247356149
48.0,4.790759325027466,-0.21992246280841432,0.6201951319843906,1.0003323909818418,0.034440284669199364,-0.05806094413018974,-1.6434852587229831,-0.6086623058977194,-0.16681774731610735,0.12678937903298493,0.7970370533720745,-0.3564804482332855,0.1441546846352807,-0.20845446686066016,0.31850767108348443,0.24651526379992128,0.7263960700817502,-0.09568787863644332,0.0035967022684031957,-0.006086547497257521,0.06998765809000408,-0.0324016771760369,-0.1239614733398388,-0.08487782635546205,-0.08282117348114357,0.9588079326014756,0.18756423674284387,0.7434328311237015,0.3244840791414543,-0.07525068230587163,-0.22810861086542175,0.22570603580909337,0.8740817590954069,-0.46651695111899694,-0.37711736324455536,-0.5338406787565366
49.0,4.8492114543914795,-0.2215543068628118,0.6154010760372398,1.0005880780185183,0.03465348071953081,-0.05729202429873416,-1.6482877121169328,-0.6117398727993795,-0.17053515471742248,0.12709310993370454,0.7788269015428184,-0.3463836075977671,0.1419446225072684,-0.19981601181725073,0.32010651560008657,0.24962732103543214,0.7177828700354286,-0.09043633990233466,0.0037803463979598556,-0.004992411757127857,0.07020883568294516,-0.03257538054314899,-0.12323880642202048,-0.0824087094181531,-0.08428994243306472,0.9601882782451208,0.1877083122937367,0.7420821374941746,0.32007532899428426,-0.07464748930216455,-0.23129551426299505,0.22326883680349208,0.8674974804735702,-0.46601541846021977,-0.37520565957680607,-0.5345797465479212
50.0,4.873534202575684,-0.22233001504867317,0.6131852137490176,1.0006040598033312,0.03503385473848723,-0.056727675001861155,-1.6505254916961705,-0.6148898829291713,-0.17299760543349407,0.12733367445217333,0.7684423615614935,-0.3398252293453941,0.14067576004524568,-0.19629709011642937,0.3209485252590928,0.2504924081427512,0.7141548940183995,-0.08747503355471244,0.0042732698959979006,-0.005261451607860443,0.07041324369186175,-0.03193307627370263,-0.12480797876844121,-0.0809805679150003,-0.08435215534477145,0.9608178482680463,0.18749796542382763,0.7421657750338997,0.31817684450045713,-0.07627653314834279,-0.23315144191759324,0.22122942229690667,0.8644258089370002,-0.4655563703213394,-0.37367474110190413,-0.5354337889069167
51.0,4.901666879653931,-0.22322236320749533,0.6106090549056867,1.0005994892414178,0.03535344328451206,-0.05595778936229731,-1.6530702168646363,-0.6183751049324578,-0.17552968172625039,0.12773145376230544,0.7573383140276644,-0.3329037133705158,0.13911757180815298,-0.19227428733177385,0.3219628581294467,0.25127985572028544,0.7103227825501407,-0.08436724086352762,0.004775351957710722,-0.0055671408149591435,0.07060576074898317,-0.03136387175037868,-0.12630882120782277,-0.0793418071723058,-0.08429189033954212,0.9611487697705342,0.18740757105240727,0.7420744181384544,0.31680066749434543,-0.07801541094403536,-0.23490742198379672,0.21872531587374922,0.8613048614788557,-0.4650268239196694,-0.3718932393317831,-0.5372164888112645
52.0,4.92934775352478,-0.2242196405091434,0.6076204764600195,1.0005666186839313,0.03560036563472753,-0.05497509193821603,-1.656028702298196,-0.6220854544521666,-0.17822091789264252,0.12814952180104247,0.7454091057297747,-0.32560903422966725,0.1371773916452339,-0.18763373207529316,0.3231393646065735,0.252081747877388,0.7061939816040095,-0.0811409024708679,0.005255237448726928,-0.005645462675324103,0.0707859992460919,-0.030973617091380665,-0.12788887813042993,-0.07753044664199786,-0.08417290465734836,0.9611624884350174,0.18751657289602763,0.741732991215894,0.3160596475498336,-0.08006293785942442,-0.23654048007105224,0.21562608015011298,0.8582043748194206,-0.46412792651501367,-0.36971850519811633,-0.5394262912770714
53.0,4.961657762527466,-0.22529821036854433,0.6042447404072754,1.000516925652058,0.035616046584927896,-0.0538696057584765,-1.6593843045388017,-0.6251153519782282,-0.1808081414591154,0.12829708982101798,0.7337094229083654,-0.3188157405603345,0.1348211887905733,-0.1821594639790992,0.32440148759027876,0.2531109961131033,0.7016173665280986,-0.07803181698887023,0.005536277710205545,-0.005166907641113342,0.07093196481095457,-0.030975374201598585,-0.1287144859116529,-0.07560179431096585,-0.0840884661611984,0.9607622842659758,0.18787393295626528,0.7408092844059224,0.31603945413557555,-0.08153507839678008,-0.23773895170810982,0.21241009822456114,0.8552190300857252,-0.46300569795235497,-0.36737912636503384,-0.5417566786703057
54.0,5.013080358505249,-0.2270207948951186,0.5986285813398915,1.000387069732855,0.035525410963898045,-0.05207159927234085,-1.665113329339014,-0.6289859004510663,-0.18539000865123217,0.12752954641967842,0.7140852476078642,-0.3074661661564408,0.13018449094067885,-0.17256540035847764,0.3263277196501442,0.2551892180626307,0.6933156195478962,-0.07279815782098481,0.005910107580464358,-0.0037814204531605197,0.07119816623756745,-0.03089387352372877,-0.1303068928422843,-0.07255841280922412,-0.08359959587376456,0.9598103357081569,0.18842076020989956,0.7387198319607449,0.31687256859141566,-0.08396720380054143,-0.2395534948114398,0.2070448622939362,0.8503206358097068,-0.4609661544971802,-0.36329015213895666,-0.5446700608495216
55.0,5.041835069656372,-0.22778525156672594,0.5961035241868662,1.0002699401859825,0.035430508012950244,-0.05125964546299981,-1.667733645730845,-0.6304599314662294,-0.18749400970348268,0.12673514574938818,0.7056518982384445,-0.30255500732200274,0.12782025958904342,-0.16819913879699533,0.32722046183130993,0.2562052785184785,0.6896273907371839,-0.07051110976165395,0.006081207811836179,-0.0031075613752046963,0.07138262733694725,-0.030793306453590918,-0.13098208013798135,-0.07121181066953457,-0.08312807634741898,0.9592796760597683,0.18849438459831486,0.7377121705371186,0.3173227453886509,-0.08489507741543632,-0.24050954077332465,0.20500403203095968,0.8481734489563308,-0.4603077311999373,-0.36179047713286594,-0.5454256301987981
56.0,5.065572500228882,-0.22867498505259992,0.5931862692461515,1.000064058625902,0.035287641627293635,-0.050292280426408306,-1.6707670638147645,-0.6322468520113452,-0.1897204465679807,0.12574432560362547,0.6968625394544941,-0.2974066553906774,0.12509679966468817,-0.16336929202702716,0.32838981605806883,0.25735167910349876,0.6859180743406867,-0.06808415780970034,0.006344969269364882,-0.002389742169863345,0.07167454480194885,-0.030798697906347528,-0.13147054813758918,-0.06957307103241245,-0.082469663747856,0.9584878216486721,0.1884559259348489,0.7366156778114659,0.3176222014307254,-0.08566643035707111,-0.24181679915230367,0.20320252396863778,0.8458480143160731,-0.4599723214525262,-0.3607790658549287,-0.5461234641729634
57.0,5.1137919425964355,-0.23030783710448233,0.5877888348797772,0.99977978964085,0.0344330182236874,-0.04872103656648007,-1.6762816464636552,-0.6331687395363244,-0.19211944559419158,0.1245169017659716,0.6844971871012884,-0.29109533819701106,0.12090785114469955,-0.1534227946716309,0.33047599819785634,0.2603725359311339,0.6784495574793243,-0.06388031424195799,0.006490611146714695,-0.000479412543789258,0.0721090714613018,-0.031652747969162565,-0.12828017073909426,-0.06669445146779057,-0.08206865959525908,0.9561431003914793,0.18867572879950706,0.7338963148313864,0.31759636163021576,-0.08296950284441404,-0.24358858515593015,0.20150351077251644,0.8408675933168268,-0.46066423457446193,-0.3604709503474165,-0.5481695846185312
58.0,5.140413999557495,-0.23110998366674573,0.5850769031922946,0.9994856374594505,0.03454609561727976,-0.04786781655525479,-1.679086298150387,-0.6350310889003283,-0.19392580932469833,0.12387745108521687,0.6764924419536618,-0.28647364551759125,0.1188997028671219,-0.1494339410043459,0.33179276128093027,0.26168973551465563,0.6757991210494174,-0.06145209880591398,0.007208273442469747,0.00012590655680924624,0.07233503713235022,-0.031913818643432325,-0.12911973011604108,-0.06505941276717132,-0.08129930031815805,0.9550933633429644,0.18837865379904914,0.732814339123547,0.3171954518508904,-0.08384213120727872,-0.24543673595124804,0.20013174572014236,0.8386218788569367,-0.46101081176873043,-0.3608708395094166,-0.5493073432101796
59.0,5.169189453125,-0.2319966290008344,0.5819523779525934,0.9991544760467761,0.0346711232088167,-0.046987376047865306,-1.6822605203762484,-0.6367828433325314,-0.1955682834989586,0.12356301175006548,0.667882886280216,-0.28197723027305116,0.11729347590305184,-0.14505080372136403,0.33330852969777736,0.26335484970579165,0.6732991877505032,-0.058715924922422016,0.008134947593465749,0.0007464655121964504,0.07239119298157938,-0.0323624097952924,-0.12995431077139113,-0.06332807834218229,-0.08029039604507565,0.9538666196378964,0.18788613103304388,0.7315302700055373,0.3166805130673656,-0.08469980161211724,-0.24757696352228736,0.19867683947806508,0.83634390107235,-0.46151554659246097,-0.3615720726527048,-0.5508403671596566
60.0,5.2194907665252686,-0.23357758047769128,0.5760922034721057,0.9986858072902078,0.03480143548256075,-0.04559140418292878,-1.6882433977309037,-0.6383216850955199,-0.19743985039465892,0.12405972034366608,0.6521595475397497,-0.2752212904941246,0.11578085906384522,-0.13664677501524125,0.3358670915090361,0.26696025366461207,0.6685665774527616,-0.0530696472167374,0.009878057792539835,0.0018347191875454217,0.07215957344450138,-0.03295531600887503,-0.1308051136179563,-0.06037605720126617,-0.07799563451140518,0.9515051108308141,0.18666972158992795,0.7288165214958461,0.31609476843635237,-0.08553804195504716,-0.2511920125956576,0.19620157054725967,0.8325225840470976,-0.46267034375848537,-0.3626230960693747,-0.5538303697441576
61.0,5.244790077209473,-0.23427805333177176,0.5733370755535983,0.9985525810430738,0.034783434662839514,-0.04500131295236546,-1.6910965221958316,-0.6381483970782402,-0.19740752514327403,0.12508572643656415,0.6454396909027313,-0.273593050272191,0.11594801190480408,-0.13256388404918748,0.33686013219461286,0.2686961434485005,0.6662414795139353,-0.05011648337292164,0.01057151896893381,0.00232579812674076,0.07197112313022803,-0.03304769939423169,-0.1307975377006133,-0.059048437022410874,-0.07666644296646476,0.9502983735688488,0.1859747554680631,0.7275840074740916,0.31612370820456126,-0.08544568180310923,-0.25254511414084924,0.19528244453371746,0.8309020204432062,-0.46325281963220993,-0.362810394323766,-0.5549510077425022
62.0,5.266462564468384,-0.23506384496400562,0.5701301366657252,0.9984057127001401,0.03478614807923918,-0.044272345107674985,-1.6944503742691253,-0.6377474921681401,-0.19666818802334385,0.12690220499036153,0.6385510532809746,-0.2733524968013279,0.11672838137705119,-0.12798846573461872,0.3378516825335146,0.2703828099857821,0.663768763882098,-0.046659568864934824,0.011250169209370341,0.002897827266842938,0.0718344829670269,-0.03310970046475455,-0.13087071061895883,-0.05731451515820642,-0.0749327673896907,0.9489335759934392,0.18512382726415655,0.7266216648063041,0.31626220630909574,-0.08528605397740088,-0.2538278314612296,0.19453591620748967,0.8291903067412626,-0.46385664318144654,-0.3629472488104168,-0.5557118760198272
63.0,5.290837526321411,-0.23594175655677896,0.5664539919160811,0.9981980479764976,0.03481521780572591,-0.04341310359088085,-1.6983156764206973,-0.6371367175876044,-0.19532357318549756,0.12937099441243421,0.6316165003701874,-0.2747203685540047,0.11800324539837381,-0.12290986241003048,0.33882713044245005,0.27201923133003275,0.6611416088023816,-0.042831661006316246,0.011938638355122728,0.0036732119487512403,0.0718034911698855,-0.03328787024162212,-0.13105263023636726,-0.05497725678888094,-0.07291758504909857,0.9475820809873372,0.18420919378347012,0.7260825349416276,0.3163039762897131,-0.0850098397404477,-0.2549369751480416,0.19409497481519397,0.8273420059047996,-0.46454947278028336,-0.3633511906155666,-0.5561801225085261
64.0,5.3506481647491455,-0.23751726460888523,0.559749653354335,0.9976928303945469,0.03479887176088766,-0.04186066538202876,-1.7055682500989349,-0.6353593762480474,-0.19219319386832362,0.13427058481471016,0.6202793692054197,-0.27987024890671197,0.12074281568788998,-0.11349598021040663,0.34044489096366093,0.27510237914397756,0.6561471309442253,-0.035842039951981354,0.01316858935588502,0.0055472031447102756,0.07197454500560749,-0.033695681206195656,-0.13161914188545148,-0.05013479620480915,-0.06933375233209317,0.9455659790783879,0.1827293840384125,0.725692749259824,0.31612425912048403,-0.08437705777783558,-0.2564141999710026,0.19395270545270704,0.8239756434365086,-0.4660817745634671,-0.36488723760340286,-0.5566880737165567
65.0,5.375758647918701,-0.2382222710289431,0.5567192687652047,0.9973658234280742,0.034743895750152784,-0.041204703907485846,-1.7088371449697162,-0.6342362746757191,-0.1906171135849047,0.13648212505758467,0.6159812597992552,-0.2834250427799673,0.122104884420283,-0.10928587402426423,0.3411133698363591,0.27648204485492966,0.6540417720344183,-0.03286348972889993,0.01372197816389694,0.006517183086469457,0.07213221366946503,-0.03394926042427241,-0.13204928862532744,-0.047753852151385966,-0.06783568452118383,0.944869871739267,0.18220377057129078,0.7254516056623685,0.3160023927231533,-0.08409997997437649,-0.2569302877933298,0.1942277523949943,0.8225539116317685,-0.4669804995770119,-0.3659770950396205,-0.5567841855820642
66.0,5.4044764041900635,-0.2390440465041973,0.5531948919462961,0.9969135860107246,0.03465682220425844,-0.040478825590452655,-1.7125067162691685,-0.6328567097219542,-0.18876042449716313,0.13898434107116964,0.6118770663404264,-0.2879958476606474,0.12371892895555658,-0.1046716099888892,0.34187043475652634,0.27785118376544765,0.6521563078631705,-0.029775493429056506,0.014347038467510197,0.00755237765018669,0.07228231659105738,-0.034354178384615186,-0.13261960504601508,-0.044985223569794584,-0.06622676918623308,0.9440876294908989,0.181715583355486,0.7247706603291191,0.3159599472617781,-0.08381287655812375,-0.25753196336171047,0.1947670333886538,0.8211593380534368,-0.46813974367157696,-0.36716686116505726,-0.5568126837317077
67.0,5.43398380279541,-0.2399881355670511,0.5491694177063058,0.9963741901156067,0.034528749152873864,-0.039666236587925334,-1.7166019943577653,-0.6311542156806915,-0.18651267997328316,0.14188159140362328,0.6079952334845042,-0.2930093547183441,0.12556160699603786,-0.09962595430280571,0.34273874591960163,0.2792190935221777,0.6505085048860566,-0.026552512717649766,0.015054465941850823,0.008629486738703174,0.07229801321508035,-0.03493698786345349,-0.13327581305017516,-0.04186046982715025,-0.06446729684781113,0.9432283877832677,0.18124194822388634,0.723672899927233,0.3160507169892771,-0.08344207598908288,-0.2581630006358386,0.19552253263991476,0.8198406697577827,-0.4695864188955623,-0.3681501872766596,-0.5569464248633963
68.0,5.487239837646484,-0.2417198057140702,0.541864409229972,0.9954304871483108,0.0341276748573002,-0.038170608099999094,-1.724270317522716,-0.6274927693276793,-0.18193443284264532,0.1472408808042888,0.6022710524546453,-0.3012244028313772,0.1287948057324825,-0.09034759047139282,0.3444199877064671,0.281913620030835,0.6478159865071123,-0.020844747050335656,0.016357452039212333,0.010693799319102682,0.07190216410492403,-0.036036814614621646,-0.13433487379055498,-0.0362412104013455,-0.06132797562211616,0.9421278993063285,0.18047240603816317,0.721628477242791,0.3164012063975059,-0.08244917126966163,-0.2589547584425978,0.197063210712389,0.8177851183538578,-0.4725811023160024,-0.36917368517641636,-0.5579170725047892
69.0,5.517448902130127,-0.24250274241982475,0.5385810172898676,0.9950233597824194,0.03386893629776033,-0.03749340559875911,-1.7278275105864793,-0.6255535467976137,-0.17979248459282832,0.14932740696323155,0.6004542421405277,-0.3041367231207939,0.1301028927159779,-0.0861512588785393,0.34518347487614176,0.2831739400786394,0.6467851607580111,-0.018384060416438443,0.016927146275662743,0.011651901179731413,0.07143225463197073,-0.03655579719149328,-0.13452460628828192,-0.03373870006450583,-0.06002050796794049,0.9420171562163154,0.18022761413338872,0.7211057218551445,0.3166208615699848,-0.08160017348428784,-0.2589727229512667,0.19782094489017032,0.817021116283389,-0.4740296292923395,-0.3692168889957059,-0.5588112209619958
70.0,5.546393394470215,-0.24340626123118664,0.5347633765958457,0.9945385414454012,0.03354518209885637,-0.03672772127810339,-1.7319347240348373,-0.6232147839616572,-0.17751621861536593,0.15111691799052165,0.5990708701287502,-0.30684633743146494,0.13149706839375003,-0.08135379426520743,0.3459678118758348,0.28445330125617246,0.6458073873314809,-0.01569016025773942,0.01750812290431019,0.012664232965422077,0.07067727967785617,-0.037135881994849906,-0.13429906069294945,-0.030881443732068685,-0.058636664029445465,0.9421515848573043,0.18006044342550268,0.7211606195977731,0.31694816655465563,-0.08009984176565374,-0.2586861570323712,0.19875972822564386,0.8162166500365325,-0.4755666960402908,-0.3690391383327506,-0.5599417644188228
71.0,5.572499513626099,-0.244430551227372,0.53039127427196,0.9939254174121444,0.033099145431741805,-0.035854644876077826,-1.7366028878195547,-0.6204707347714626,-0.17509042811004755,0.15261928116439719,0.5983959287979173,-0.30960782374077334,0.13305545372185776,-0.0756713650416074,0.3467374572854163,0.28579973925776114,0.6446199126073411,-0.012693387671246526,0.01804956222631319,0.013716699454754334,0.06970863026511634,-0.0375860951180861,-0.13373404910918205,-0.02778002329820671,-0.05710372567809259,0.9424700814926441,0.17991346545870843,0.7218470040227395,0.3174750654755376,-0.0779179025058796,-0.25824160958411746,0.19988551091854473,0.8152684222591917,-0.47708467381449604,-0.36884046019299815,-0.5609322070370202
72.0,5.5960142612457275,-0.24558018690536615,0.5254549322413238,0.9931079789523318,0.032503651117420776,-0.034843555180761335,-1.7417839116280234,-0.6173701877736679,-0.17239742462880647,0.15405523891541018,0.5987633452038947,-0.31265053062066606,0.13485803628369747,-0.06874457284037705,0.3475304703024147,0.28735497207702676,0.6429751886351328,-0.009513894147370399,0.018529570907050028,0.014801722152122748,0.06857652167939898,-0.037801615891152926,-0.13307690486143903,-0.02455743633867135,-0.05536086813468188,0.9428877217657221,0.1796985774977093,0.7231158584111687,0.3181730356185265,-0.07513747442501693,-0.2578651046129901,0.20118134368529123,0.8141108195236642,-0.4784933452366558,-0.3688157190260114,-0.5613879749039258
73.0,5.649813652038574,-0.24742605676000662,0.5175526116777116,0.9917561983858066,0.02991988642962081,-0.03276182716981557,-1.750309076002746,-0.6112607726174937,-0.16711797310468834,0.156688927531004,0.6039167633385356,-0.319871576586364,0.13723502376525507,-0.05387662282441807,0.348979016061982,0.2917913145097857,0.6373003512790893,-0.004931373198484319,0.018522536157927736,0.017718403353391463,0.06737650072519816,-0.0382141231481948,-0.1274309285954757,-0.020687709098707114,-0.05385354315768759,0.9412279488037055,0.179838481885952,0.725476854019963,0.3190824987799099,-0.06625605307439136,-0.25747598457419807,0.203471269198075,0.8097869791196699,-0.4804887542621683,-0.36909103369431895,-0.5612176160501042
74.0,5.675013780593872,-0.24831038065000663,0.5138339289548217,0.990775080928106,0.029643173085782185,-0.031616848757580474,-1.7541619864469569,-0.6094141799614106,-0.16443723685191125,0.15790275901595321,0.6069920451569035,-0.32216356022851395,0.13882066408965466,-0.04736977845732826,0.3499113751319872,0.29340065746061017,0.6350960214099366,-0.0027549409077715628,0.01881298502095751,0.018468677372837243,0.06674828314088116,-0.03757129800908112,-0.12858310018138305,-0.018391011934390442,-0.052299740858410944,0.9415446531164671,0.179469503619089,0.7273761557780667,0.3194250024139058,-0.06468706335789941,-0.2574391325639285,0.20425240193441657,0.8087351300336669,-0.4809470865019687,-0.3691814923779493,-0.5601099770971963
75.0,5.702965497970581,-0.24932557092033508,0.5095623390229281,0.9896407939598393,0.029476047191035127,-0.030263421332470536,-1.7583711555324135,-0.6073596098875745,-0.16115420694499144,0.15965708920996974,0.6111399961384806,-0.324542058671201,0.14056910791138494,-0.040226957419838894,0.35093810195789865,0.29500843152263406,0.6329242697946619,-0.0005382229889805139,0.019093710416305854,0.019247350333880416,0.06610222699100536,-0.037276090017562255,-0.13026469920209077,-0.01566860753515936,-0.05057981966836719,0.9421389698764892,0.17905895958396012,0.7292814738769371,0.3196498218436114,-0.06314613272413053,-0.2571595447128318,0.20511148648984734,0.807936786444395,-0.48132960962575244,-0.3692207268490284,-0.5588862468416342
76.0,5.7348527908325195,-0.2504856169335632,0.5047011615307018,0.9885095786659444,0.029474566897276153,-0.028765008345109137,-1.7630066184319806,-0.6049583246541854,-0.15690727436980126,0.16265587427293993,0.6160832948849474,-0.32673750873302876,0.14250725776972512,-0.032925492178651636,0.35189224771748484,0.29635594846013247,0.631004982859315,0.0021589360096186845,0.01934090612948188,0.020084689144702836,0.06532378439565704,-0.037553160041371214,-0.13226771643676286,-0.012507817699660096,-0.048705316356738054,0.9430097063985805,0.17864682711512378,0.7308366201714924,0.31990424769816306,-0.06160006231006502,-0.2564882974698895,0.20599121669249115,0.8075128875525424,-0.4816450422438118,-0.36894923102615274,-0.5578196769808451
77.0,5.765796899795532,-0.25178675023341024,0.4992930330972742,0.9876392225885063,0.029280235788912166,-0.027248082424846838,-1.7679871284833981,-0.6017851554101417,-0.15118950800341624,0.16799896481725513,0.6218740998368775,-0.32874901891132746,0.1445746713376696,-0.02539555067362954,0.35254876182539663,0.2976165735251671,0.6290857358427207,0.00552019264258709,0.019356435641544878,0.021195948387361274,0.06431060659879922,-0.0388104530578794,-0.13288167154212133,-0.009200596331190768,-0.04707100499142618,0.9436513339008663,0.17843569030823284,0.7316834870001911,0.32028524534260205,-0.05874156956990886,-0.25524591816469416,0.20694565801862397,0.8070142192053704,-0.4819525743138329,-0.36828807129914287,-0.5573178809870805
79.0,5.81732964515686,-0.2540193511102584,0.49033606420784515,0.986944021179095,0.02920453928237341,-0.02508459264548744,-1.7762334685516241,-0.5964127917426968,-0.13825046361225402,0.18286575663588406,0.6320878398632479,-0.3300490806410444,0.14858617064026058,-0.014295221404582989,0.35303867359699137,0.2995114725569812,0.6262177849004918,0.01283359402302613,0.01908690403565717,0.023273468951184886,0.06197324777292574,-0.04178155334429623,-0.13329657089424277,-0.0035371434482087474,-0.044562414849302644,0.9448612271103863,0.17824571235268932,0.732351882212048,0.3209637774223121,-0.05324831093477972,-0.25210187802805184,0.2083266415669437,0.8062260631043019,-0.4822593102510755,-0.3661787984077548,-0.5575071514529092
80.0,5.861445903778076,-0.255643680906644,0.48398689808102335,0.9871424224053107,0.029835748100217063,-0.025151855375373428,-1.7804107692891966,-0.592892820833337,-0.12741681808095331,0.19897678596958937,0.6379895798503914,-0.32691373478852737,0.15227950123683476,-0.008661139019483823,0.3517941114931922,0.2999506943220691,0.6256889795936702,0.0178382619054154,0.01853411706489503,0.02330253777161648,0.058309159147175924,-0.04484619467728813,-0.1331637228097258,0.0011597078250261419,-0.0430048963257466,0.9460098465508566,0.17811211008014058,0.7333624037079697,0.3202881024047837,-0.04829365751997852,-0.24835279075338684,0.20945099416168644,0.8058958055382075,-0.48230895271226354,-0.3644359376250146,-0.558884381113908
81.0,5.89160943031311,-0.2573071014930366,0.4775887630089738,0.9874790610441342,0.03062906814140432,-0.026072900793648893,-1.7840123592065684,-0.5896131429439125,-0.11650923086493695,0.21643596478021548,0.6437428221386312,-0.3226837967660432,0.15590460469831677,-0.0036077081672053037,0.3497992176012765,0.30021478429710635,0.6258043403881177,0.02233206223355369,0.01767788016201826,0.02281942286285752,0.053413077859491134,-0.04811452837216162,-0.13316024263288082,0.006405813742805381,-0.04148902938011043,0.9475704586240015,0.17793369834610126,0.7350718804688863,0.31885037340696754,-0.042727369811125064,-0.2436616468598848,0.21064553326161256,0.8056160650509033,-0.48222837820354436,-0.36240435371657853,-0.560898055631547
82.0,5.927490711212158,-0.2589970554427339,0.4711769483311863,0.9878316900069972,0.031426516953909245,-0.027663248658548016,-1.7869535691144556,-0.5865236236894867,-0.10662973023855102,0.23327180673870265,0.6493878921018188,-0.3177775317548194,0.15885946559146136,0.000991524253749789,0.3472739297139025,0.3001687041607525,0.6267367539278278,0.0257903956804071,0.01650148752014028,0.021780152713720566,0.04740950915702931,-0.05119385583303363,-0.13333508774286404,0.012031921977397738,-0.040040976955842106,0.9494835463049702,0.17777300219633058,0.7373745867011393,0.31695224701438385,-0.03653596216161436,-0.23816173166130228,0.2117244729951005,0.80544980776246,-0.48183721911902966,-0.3600897730283517,-0.5634640138897318
83.0,5.966028928756714,-0.2607159273210937,0.464765430823264,0.9881326877708843,0.032020175255810454,-0.029518521726221922,-1.7892316360390432,-0.5835492483794588,-0.0984678450949053,0.24783506719623666,0.6550820290199562,-0.31202344490077616,0.16061692700815122,0.005338865318019808,0.3446547982861523,0.29972898462896036,0.6286006920083893,0.027948310329293433,0.015043517428298521,0.02022792311591161,0.04070396447896481,-0.053659228950018616,-0.13351227414175376,0.017775159885965834,-0.0387138587805136,0.9515140915929258,0.1777264300699647,0.7398713258514333,0.31505335092405246,-0.02955937083947418,-0.23212039383233973,0.2125292931315667,0.8053823356756141,-0.4809898503505101,-0.35769295407338586,-0.5664598405250245
84.0,5.9933552742004395,-0.2623339055623536,0.4589177700378062,0.9883500247026442,0.03216527439201523,-0.031115476873913243,-1.7906162448569485,-0.5810162747261285,-0.09297921594869153,0.2578347094115282,0.6607803316445172,-0.3049331877251168,0.16058307363871943,0.009232604549580178,0.342560577376526,0.29886405253820236,0.631374220018762,0.028613506606093304,0.013423733613662926,0.01835516208852883,0.034196416876121884,-0.05499657550779421,-0.13360412073376673,0.023038864178614754,-0.037726419936335215,0.9533667674431683,0.17790071621365103,0.7420676097308645,0.3135198091005351,-0.022129455755307233,-0.2261298272071281,0.21288207451770455,0.8053693103168337,-0.47962600224568586,-0.3556627782941093,-0.5696477331082438
85.0,6.032154083251953,-0.2639979063151838,0.45303584214450854,0.9885299735423737,0.03194492096596218,-0.032177587782503125,-1.791402922333849,-0.5786128780705893,-0.0891214358292104,0.2644301549425978,0.667000945815235,-0.29555682239121506,0.15924299319939755,0.013085540117506617,0.34104348895910785,0.29730841222435356,0.6350665889357048,0.02870922333225468,0.011705864677534285,0.016182689281066143,0.02796839226789683,-0.05564938519284954,-0.13369397509232006,0.028099120277606072,-0.037080521371200055,0.9549732476654655,0.1783910934314639,0.7437606896243556,0.3124012422184578,-0.014033496833645074,-0.22011379498348943,0.21279971750369175,0.805450134473858,-0.4777335729631155,-0.3541322891020046,-0.5730886954363326
86.0,6.0736403465271,-0.2656949239807197,0.44709422490733164,0.9886979393340374,0.03140198101425855,-0.032658781885034294,-1.7916693037427511,-0.5761876235363236,-0.08655366424447024,0.26808383258176643,0.6736080185961077,-0.2848261309354358,0.15708123063310236,0.016813587982678655,0.3399161150039568,0.2948325129236724,0.6395740718397196,0.028974164862926352,0.00994017395622948,0.013904208836609429,0.022107074832069556,-0.05596647817770114,-0.13402443372032807,0.03289945411603404,-0.0368760299149242,0.9563963895736021,0.17927293547469114,0.7449645203060999,0.311700592082189,-0.005503981758254713,-0.21416511168464664,0.21218157172034147,0.805720332072747,-0.47528659262803574,-0.3531431757182196,-0.5767978771259292
87.0,6.111734867095947,-0.2673917953294158,0.44108294409371274,0.9888852243675696,0.030601112720478343,-0.032699638461595945,-1.7914649824823377,-0.573392727426993,-0.08489816033582609,0.26973666684283315,0.6801524538740455,-0.27490604762721266,0.15480043188949832,0.02027698324156632,0.3387730824902846,0.2912576894037047,0.6447343191565775,0.0300168120759094,0.008163137217751464,0.011674572428959239,0.01657015882125487,-0.05621062651236572,-0.1348309683071015,0.03743577008182129,-0.03712590611769765,0.9578432764148248,0.18055115291870633,0.746014681969295,0.31134207491762744,0.003286735621741214,-0.20827732888262146,0.21101288672807147,0.8062896637936048,-0.47227799519273117,-0.3526906786627484,-0.580712374651656
88.0,6.146660804748535,-0.2690572337440835,0.43500028403465374,0.9891311177335047,0.02954466373329797,-0.03251288865278912,-1.790891176992177,-0.569766196833281,-0.08384391830252308,0.27037177961711767,0.6861860875045451,-0.2679981922295664,0.15299225782817674,0.023449592187578187,0.3371985883896546,0.2865272853549999,0.6504130284705285,0.03218474379167551,0.006379598904219909,0.00954977587934571,0.01124605965736536,-0.05648237941255439,-0.13627350718774972,0.04176763954786732,-0.03775229545616221,0.9595481460085662,0.1821312983026166,0.7473559134618855,0.3111079607778932,0.012305463826823545,-0.20237183285237384,0.2094133981345747,0.8072737487082706,-0.468749674549345,-0.3526509777323771,-0.5846032754137079
90.0,6.186725378036499,-0.27067764647829423,0.4288455814147219,0.9894964415148286,0.028252295769025722,-0.03227957087125594,-1.7902060704842446,-0.5650538719758107,-0.08330292834340292,0.270473668993352,0.6913680084911353,-0.265327922893971,0.15189130003184043,0.026327190583972974,0.33489967664389053,0.2807638440220627,0.6564352161549973,0.035716188059342555,0.0045798635593701405,0.007616600492393669,0.006113948975039362,-0.056827504314939714,-0.1382928336398609,0.04591974125805434,-0.038612048971905094,0.9615973078218227,0.18381405331300757,0.7492249724895521,0.310681987642315,0.021509841996717627,-0.19642415399686186,0.20762433202434116,0.8087697061629642,-0.4648621216049582,-0.3525725150772472,-0.5880352720236981
91.0,6.2369725704193115,-0.27280682202449885,0.420086197808505,0.9903776225639987,0.026545648725060707,-0.03189612712065776,-1.7903330232403198,-0.556944237949158,-0.08389754635524685,0.2686630049996618,0.6966942564876697,-0.2684731313771329,0.15127848257836884,0.029400731498983833,0.33001423525562984,0.2712734362622189,0.664734395766405,0.045266300712124,0.0021792901707259433,0.00566435456175473,0.00020033193331459509,-0.05801227100837916,-0.14108334915883183,0.051310260313838056,-0.03972373151769658,0.9643745141272629,0.18578629212121417,0.7520455247954251,0.3093401556150971,0.034378567128137555,-0.18807311489262038,0.20566036023965287,0.8121849709136175,-0.45935595834488757,-0.35043354194448717,-0.5904627935475721
92.0,6.272076845169067,-0.2747307192579378,0.4118759082761459,0.9913032335622791,0.024849895765698994,-0.03173413895789685,-1.7911835132655107,-0.5488002713131874,-0.08547623952800912,0.2657898577949391,0.7009714410208525,-0.2735087151604471,0.15089675016874038,0.03172174303623869,0.32417563632548374,0.261203423482644,0.6726589198675499,0.05748326496866478,-0.00020962682356018053,0.004503547061382867,-0.004973030187253726,-0.05956893927919386,-0.14354850337392608,0.05626682999863097,-0.040841469171591996,0.9668157446503023,0.18751613680321785,0.754451874484281,0.30765807643811277,0.0465512303199238,-0.18006624313548797,0.20421633702158437,0.8159134715950396,-0.4542621973626163,-0.34689735002858657,-0.5913452873046801
93.0,6.3082616329193115,-0.2764494642086108,0.40425426776863427,0.9921731980250862,0.02320728274755845,-0.03174700848705424,-1.79274987295039,-0.5408562776271395,-0.0875997290697185,0.2624006167579307,0.7043905832689469,-0.2791720323035801,0.15069309765089897,0.033347294982585644,0.3176568755924116,0.25082466098350564,0.680280060062602,0.07221121853606671,-0.002484282279229414,0.004109231364275603,-0.009489711340134066,-0.061330357063403895,-0.14546344651629695,0.060739131511020006,-0.04191165721941278,0.968696824243919,0.1890314851253257,0.7561480768740452,0.3059425775481499,0.05806249781004072,-0.17256257888868307,0.20347428826809744,0.8197418848075241,-0.44976658820978677,-0.34242724319637463,-0.590786069266865
94.0,6.347994804382324,-0.2779769196725691,0.39725934478933866,0.9929447149105834,0.021607464232007413,-0.03186162720114994,-1.7948487994179945,-0.5331371477449547,-0.08966032279664925,0.25931563805166424,0.7069772381652869,-0.28480852492993197,0.15067028872071245,0.03423282596039065,0.3108978712940792,0.24055780112835418,0.6879117195500295,0.08863264824237657,-0.004470866980747484,0.004338382252549649,-0.013524063151508753,-0.0630811164056995,-0.1468684714969077,0.06469012105199354,-0.042927769474437716,0.9699783688787982,0.1904185177787094,0.7571552378343505,0.30450331395055835,0.06882155713614571,-0.16580031888375357,0.20365556525836453,0.823484928170455,-0.4460908118304375,-0.3378318522914734,-0.5888970273755878
95.0,6.373898029327393,-0.27933895733363273,0.3909110240516454,0.993683980952367,0.02006762973136677,-0.032012044693462804,-1.797242275571764,-0.5255205711632419,-0.09118169693791472,0.25716499563445105,0.7085849806153461,-0.2901247635611394,0.15073088360130976,0.034101147921426135,0.3043799166067953,0.23091090506474116,0.6961279228128575,0.10559482122018751,-0.0059636238408904765,0.004958127398877915,-0.017246864895496327,-0.06469922268974022,-0.14803946987926064,0.06811001174574643,-0.04388214288980906,0.970736706309851,0.19174803917128386,0.7576322052913211,0.30354636895166726,0.0784901132916479,-0.16000926999610343,0.20492032308210062,0.8270813291131736,-0.4434382949221664,-0.3336665105543691,-0.5857437467757909
96.0,6.403136968612671,-0.2807028588563933,0.38457788324269726,0.994633615873117,0.01859165912278287,-0.03208238313304305,-1.7998615220686274,-0.5173298737134482,-0.09211119828304665,0.2557739327140152,0.7092829252488069,-0.295384974160094,0.1506231403483543,0.03258026747768874,0.29818971218339774,0.22181472623136694,0.7060497722943587,0.12297976456002029,-0.006897044878627702,0.005635501470028219,-0.02094411237425045,-0.06633331282480248,-0.14945921017011746,0.07132802356841458,-0.044742287764552253,0.9711916034994583,0.19310134366256992,0.7578517474496821,0.3030551478036883,0.08740836446851438,-0.15478696998141486,0.20720689946998083,0.830909344968239,-0.44154721792561413,-0.3296262023681874,-0.5813158137769459
97.0,6.4280407428741455,-0.28208024511281954,0.37825918924603597,0.995905386547937,0.01730070744509147,-0.032090850357196464,-1.8026104169572894,-0.5087089651655053,-0.09264724323349369,0.25481133873222667,0.7090851527227167,-0.30037603638234267,0.15011373410474077,0.02915047748263808,0.29261206733283873,0.2137165093903644,0.7180311497144074,0.14036051288745316,-0.007141853418246691,0.006259124086437672,-0.02450007732392346,-0.06811371441459466,-0.15143356095222257,0.07435522597910534,-0.04539676975305665,0.9713932907677404,0.19438486513711267,0.757820292397295,0.30296995383170755,0.09509860221069649,-0.15017177556509897,0.2104308443721214,0.8350592162171966,-0.4403910927993041,-0.3252686897434034,-0.575492807490303
98.0,6.483563423156738,-0.28436055587594083,0.3682621265900157,0.998388933583948,0.015916772344464238,-0.031975881070577104,-1.8066785641276537,-0.4948545827918511,-0.09324458505824479,0.2530975378151121,0.7074172085820032,-0.30747966229149054,0.14844976241851793,0.021319873413601392,0.2898420215871981,0.20979855287282745,0.7406057259405986,0.14813404050593512,-0.003397936966930448,0.006627704377655771,-0.029650465385835337,-0.07162568198376994,-0.15587820491084356,0.07893392358907841,-0.04585833388533833,0.9718217550867789,0.19602747703309692,0.7567833402951747,0.303192041725212,0.10478274176248821,-0.1437663277338416,0.21721034348652762,0.8426034313687688,-0.4395475091120845,-0.31702685355259225,-0.563489684699048
99.0,6.509159088134766,-0.2853090776903017,0.364009015663443,0.9993064044026052,0.015507397669397339,-0.03208411664722512,-1.8087863498668164,-0.48933553177104394,-0.09340634284858604,0.25272664759214714,0.7069752958775806,-0.3102345134889974,0.1476443607831062,0.016630946550777362,0.28901635486437643,0.20887035351558803,0.752188048791868,0.1512500137768367,-0.0008830704171168466,0.006905760105201285,-0.03168690550118729,-0.07336996994871918,-0.158247979042033,0.08049483884300115,-0.04567398579178383,0.9718780292308465,0.1962990136462664,0.756004443538143,0.30319226188031273,0.10792666171501766,-0.14178179055072543,0.22079191398937645,0.8459863381112962,-0.43961665105414816,-0.3129404788168515,-0.5569086021144911
100.0,6.540221452713013,-0.28627821568010775,0.35929705214952135,0.9998454072743841,0.015019159183698078,-0.03241291469000107,-1.8119651615343062,-0.48393670055586546,-0.09333767700307968,0.2530961032622979,0.7077211973696755,-0.3134105674401943,0.14706427232959196,0.010510028622312971,0.28475166432979643,0.20345036162872693,0.7659137860921267,0.16584270272311452,0.0007614434188690341,0.007733243066302679,-0.033885627685122946,-0.07529130150735303,-0.16101479604016533,0.08166449890244858,-0.04515836635588182,0.9715755389259695,0.19612450548906227,0.7551912798716094,0.30288974939132834,0.11102232417118355,-0.14046942766296083,0.22520666392365163,0.849464423319807,-0.4401134273614848,-0.3084540257807926,-0.5485184747681315
101.0,6.568817615509033,-0.28721610124332864,0.3541411024126152,0.999867983984247,0.014352082203913447,-0.032966068367540194,-1.8167817155626036,-0.4787879877657542,-0.09280867838674359,0.25460969651858034,0.7101619680941633,-0.3174125442984055,0.1469377350683848,0.0026900262624661828,0.2725607980541365,0.1877556045455709,0.7812385981825754,0.19885869866992623,-0.0009450741262640522,0.009540961837735193,-0.03622500050666386,-0.07728426775711426,-0.16420436411925826,0.08250981734245458,-0.04431388447900102,0.9707882395054765,0.19551097573977028,0.7544859250017213,0.3022298380986519,0.11405601732263967,-0.1398521374623643,0.2304525557860589,0.8526568537521393,-0.44107340088074487,-0.3037282892985083,-0.5384138895165045
102.0,6.596697807312012,-0.28812179894008627,0.3485157990888818,0.9995475035326091,0.013686045251929485,-0.033306298299874325,-1.8234932088131628,-0.47378944336890505,-0.09138589409547156,0.2570367837420791,0.7142549340514346,-0.3226686455637134,0.14731379598777167,-0.006886467128326964,0.24869825436232415,0.1570746951146701,0.797261033330904,0.24711949413661544,-0.008465922693560982,0.012523771716492738,-0.03810672081389878,-0.07924098302768504,-0.1678334332130521,0.08311721588951523,-0.04315489667570987,0.9694380341983758,0.1945652855381069,0.7536092957410763,0.3014728401151064,0.11684798939479435,-0.13984710594003652,0.23646651695174792,0.855524254164582,-0.44249132073990466,-0.2988431449364845,-0.5268390145061281
103.0,6.6506359577178955,-0.28943930992622735,0.33976553494873407,0.998812306587926,0.013243438775512456,-0.03308522729525932,-1.8357540060974773,-0.467154051042842,-0.0878354782350387,0.2610762591525789,0.7227563474381535,-0.3334266801185416,0.14884431619917685,-0.023915910876767144,0.19043529288911107,0.08220642937173799,0.8212436831216736,0.33256863265936254,-0.0342754183749588,0.01810216730227741,-0.03928634024641624,-0.0821381905254232,-0.17388933672279516,0.08377702309590003,-0.04097111756810683,0.9667091239430521,0.19272590297763642,0.7514302585826247,0.3003197991961656,0.12002787565445075,-0.14091355230410837,0.24682410685887785,0.8585044670446693,-0.4450613176400182,-0.29065197832225675,-0.5070133287098346
104.0,6.676529169082642,-0.29005652090006595,0.33600806327654975,0.9987669922092641,0.01351720923914612,-0.03249796804517125,-1.8405056495396823,-0.46436041264054084,-0.08649500920169989,0.2615024853629832,0.7260105593296764,-0.33911796641285785,0.14974505933422355,-0.031335182552537956,0.16527542826843244,0.050135740834946214,0.8315463520242834,0.36022007744088946,-0.04739613941990059,0.019830573014044367,-0.03872880156973885,-0.0831659614093718,-0.1765281562970007,0.08400473674202605,-0.04012151591757736,0.965308521086508,0.19201807642468882,0.7497941841963918,0.29994647085942844,0.12083714172911646,-0.14164425236603112,0.25154046634387184,0.8594391359559341,-0.4462804284611527,-0.28702912622945115,-0.4981419311468575
105.0,6.699877023696899,-0.2908250404443393,0.3317387258256063,0.9990203915380923,0.013925677897052922,-0.03168936770901215,-1.8449220783808424,-0.46062883831959256,-0.08588496411972711,0.260528109163238,0.728350201871665,-0.34617629280519735,0.15072694635529765,-0.03980174143844897,0.1460460712455009,0.026159488855437507,0.8446236941471432,0.3790945277802833,-0.057858607109349036,0.02080774070183948,-0.03750807925859495,-0.08395775586095042,-0.17944194799713198,0.08428514761212447,-0.03946536573017477,0.9636305112623227,0.19143389571574665,0.7475467398540531,0.29944111550755087,0.12128743470637382,-0.1425031249347565,0.2568723046702802,0.8606494324087381,-0.4478304460750301,-0.2833402296918588,-0.48827108833536464
106.0,6.753189325332642,-0.29231370113276833,0.32383495265820117,0.9997408802363075,0.014410022410298023,-0.030384736423850887,-1.8523072529540703,-0.4527595934640548,-0.08621093966383184,0.2573218015889802,0.7309629171680997,-0.3605742761560634,0.15224687329563816,-0.05724288396679586,0.12504669273925928,0.0012827509507633006,0.8738695971686172,0.39569283622318185,-0.06957419001400894,0.0213141870320974,-0.03450564499556573,-0.084908184612824,-0.18492130662746073,0.08527040723351301,-0.03867611333286025,0.9606505790796032,0.19061567431243948,0.7429750471320663,0.29776249629364687,0.12095169902637873,-0.14402849709878876,0.2670230847966624,0.8626493576301559,-0.4508543231294003,-0.27700746875166027,-0.47031159128658806
107.0,6.7839109897613525,-0.29299358362776073,0.3201954634060322,1.000123930774142,0.014472832566396199,-0.029772085762283868,-1.8557965667549405,-0.44871260776619737,-0.08656152202621317,0.25576794575393025,0.7316222770077532,-0.3675254242013678,0.1527141098795515,-0.06642514272385411,0.12086198975360145,-0.0029397015968999508,0.8898300801524155,0.3941159508701394,-0.07151915332959011,0.021262845123859387,-0.03247541019403698,-0.08505248350891521,-0.18771095422115738,0.08617355425951792,-0.038497699665298535,0.9593179465448354,0.19037835855726012,0.7404662547700287,0.2965309141709041,0.11980249144098759,-0.14449733904634343,0.2716205790553075,0.8634817378612514,-0.4523168741387147,-0.2746769483109775,-0.4630063086771518
108.0,6.8193159103393555,-0.2937195606807639,0.31606124563176696,1.0005794232210783,0.014544511952877322,-0.028792707035796866,-1.8601273131110512,-0.44388026796606317,-0.08635830345395021,0.2546141886986432,0.732221546183845,-0.37495935008155945,0.15312590331433715,-0.07760761145518433,0.11854362495462026,-0.004763242115669442,0.9091593946042207,0.38438451024817255,-0.07153086436636508,0.02125814217864703,-0.029317347118357654,-0.08488141708956035,-0.19127218445246164,0.08760749485798919,-0.038429146052168774,0.9576791013346202,0.190255080284291,0.7368980724963172,0.29492973261565064,0.11734997879823764,-0.14465550056855722,0.27627911046018494,0.8645998773086732,-0.45404042967687297,-0.2729125507138275,-0.456495848013464
109.0,6.850663661956787,-0.2944757756317859,0.3114620065881679,1.001116462203645,0.014738113361563783,-0.02738108125057078,-1.8652890933086674,-0.4384074397012875,-0.08516606283983708,0.2543738322686233,0.7329343733120564,-0.3823936783538629,0.15365013362123633,-0.0909281828284273,0.116832248842278,-0.006007890623834545,0.9315438384898806,0.3658681164504831,-0.07037045467620144,0.02121214725835668,-0.02508582319214169,-0.08433084178891209,-0.19562237149311915,0.0893870748759171,-0.038485182672425164,0.9556735180031168,0.19024639527149306,0.732113121669744,0.29308747949115466,0.11359159890277815,-0.14462549855847465,0.2807042444695313,0.8658927392106082,-0.45588390624800884,-0.27160280242511214,-0.45102130042486666
110.0,6.875635623931885,-0.29524184001499265,0.3064250609172524,1.0017531312176855,0.015059786641208682,-0.025502151257956296,-1.8714001462533527,-0.43228080309331385,-0.08279628615748293,0.25530015824881286,0.7337509968758829,-0.3897374084253948,0.15442444035703023,-0.106496128897242,0.1125154486915746,-0.010359316360052842,0.9566854919873339,0.3398061100416269,-0.07014491465920658,0.021183784116610697,-0.020020871391832794,-0.08330887673553042,-0.20066198187663975,0.09107839739716048,-0.038774996774031935,0.9533627534087082,0.19037946948453122,0.7263967012510197,0.2911601831089432,0.10883512277401075,-0.14477314991106438,0.2846562042111811,0.8671697684209438,-0.4576877419726785,-0.27065056996773973,-0.44643762587937424
111.0,6.912662029266357,-0.2959349545678648,0.3015188047913547,1.0024056004931952,0.015398634294773625,-0.023373160600900784,-1.8776641285062756,-0.42612785138777054,-0.07965516548582816,0.25715483952727275,0.7345492916986716,-0.3963042693863117,0.15542274034739945,-0.12299536868288441,0.10574633284705462,-0.017802053735725243,0.982196447238218,0.30750963270258774,-0.07140142754142494,0.020870370588276316,-0.01487406618165857,-0.08179716962937264,-0.205896037599433,0.09234763246530167,-0.03948251235488108,0.9511849402995096,0.19079918917949157,0.7206991311052219,0.28936536780512995,0.10378518111717,-0.14520901170201586,0.28748758556303794,0.8678830454445741,-0.45907525856148423,-0.27005802250296324,-0.44356673343938136
112.0,6.941314697265625,-0.2965721179711442,0.2967530153415991,1.0030361331237225,0.015610654424421243,-0.021002492246254494,-1.8837643883268964,-0.4198924219454969,-0.07639247298871588,0.25898754851834277,0.7351624975631238,-0.40251827963151854,0.15655579106814616,-0.13996859556990027,0.09694434338768457,-0.02790275437740181,1.007456222408498,0.27109453478291307,-0.07422063383121927,0.02011095545277237,-0.009908935098622632,-0.07979700701602456,-0.2111693778108514,0.09306256543335997,-0.04080342669929437,0.9493599468645268,0.19169166998082737,0.7156444554116812,0.2878613143773617,0.0990908209144643,-0.14596412793150904,0.2891805591961238,0.8678302385305412,-0.45999948355875075,-0.26992817247459455,-0.44244800659819816
113.0,6.972620248794556,-0.2971634765296426,0.2921149418777903,1.003596860323091,0.01559106389735884,-0.01842920175616897,-1.8894577723506778,-0.4135594680387151,-0.07364061124994467,0.2599185227486249,0.7354978546130015,-0.40882740070098494,0.15769018701583778,-0.15703036121636552,0.08675159769646897,-0.039814342070814884,1.0320067356852134,0.23289906330003218,-0.07837560156328871,0.018881849893060333,-0.00527475217678138,-0.07740870101708994,-0.216428685993857,0.09326763111551621,-0.042879620929060176,0.9479958182935273,0.19322112617170734,0.7115604761513037,0.2867394749431464,0.09516845224108061,-0.14691514435012226,0.28975658560383377,0.8669166792587266,-0.46038990688649895,-0.2703715450625227,-0.44303080526070193
114.0,6.996976375579834,-0.29771082320102216,0.2875675570343003,1.0040462603826656,0.015337482487266643,-0.015743909703256488,-1.8945503358948712,-0.40716364872018607,-0.07177089352700786,0.2595630055303973,0.7355671235281416,-0.4154689064696524,0.1587564207658997,-0.17397998273052867,0.07596368086840476,-0.052407896638000676,1.0555126152679888,0.19522941560781454,-0.08334600338043927,0.017182147458781934,-0.0010017374208146552,-0.07478494794974017,-0.2218282919203257,0.09320340325222329,-0.04570394949544444,0.9470611600345011,0.19543602352713896,0.7084461063801661,0.28594305224172023,0.09203378945255133,-0.14779011370123848,0.28927326655218977,0.8651852689420024,-0.4602119804143046,-0.27135164685156393,-0.4452379286796322
115.0,7.050577640533447,-0.29847731017600304,0.2803934913332284,1.0044687163563923,0.01435086515436206,-0.01204566312016539,-1.9013774055326174,-0.3969984297070466,-0.07110044407846511,0.2572680142218863,0.7355203678029769,-0.4270784509603973,0.16044721469554227,-0.20169063634616224,0.05684654819306598,-0.0731925374383098,1.0930561194094368,0.1375003749977717,-0.09278844422434265,0.013657213509551146,0.004787601506941562,-0.07031660855640434,-0.23156690432889843,0.0935075364288647,-0.051328584060726865,0.9462459361527529,0.20016126302921694,0.7048372404537109,0.28454394179131703,0.08795581914181175,-0.14835791211242494,0.2868721331986164,0.8606350504849934,-0.4589763210717651,-0.2731462898632226,-0.4518809219008876
116.0,7.078294992446899,-0.2987707207259114,0.2772164305136196,1.00458574258428,0.013748558284541586,-0.010651362216219578,-1.9037082835416477,-0.3925000717882866,-0.07170833524756422,0.2556666005725726,0.7354415591095986,-0.4324183480521203,0.16117743529996592,-0.21365576558030186,0.04852288796664901,-0.08154506590691944,1.1080717972613419,0.11656611916118131,-0.09688941877057913,0.011660438007255169,0.007181771202675508,-0.06824412419675659,-0.23625960241947075,0.09410535748403125,-0.054064545210710496,0.9459301775619682,0.202595136049319,0.7033779540557372,0.283766440618361,0.0863454317281195,-0.14793396005044085,0.2850924576117509,0.8581184424685224,-0.45817839390410875,-0.27389302748019767,-0.45658206270014434
117.0,7.102773189544678,-0.2990990758958899,0.27351167007469396,1.0047409305171526,0.012979764787829091,-0.008959822083577193,-1.905923800867446,-0.3871997806575037,-0.07274565031982659,0.2533714978911082,0.7353406965561112,-0.4385592504694341,0.16193508617472302,-0.22671346844631096,0.04021952225252272,-0.08964634475468249,1.1227865429298882,0.09804744660662951,-0.10085022636276407,0.009036581927242915,0.010211280997839228,-0.06568096419733041,-0.24154058105034926,0.09509727553013464,-0.05731004435188936,0.9452670713605553,0.2055112317822712,0.7009844397303772,0.2828593545220697,0.08451723982014722,-0.1469226930868496,0.2824129510985226,0.8552855042424943,-0.45720804640215906,-0.27485686366770506,-0.46361846062441636
118.0,7.130954742431641,-0.29948350921628714,0.26929825208408176,1.004922991176323,0.011988414876689932,-0.007008074210423177,-1.9079545600614316,-0.38113160292379694,-0.07429135632792189,0.25028407380363765,0.7353415778833591,-0.4455478401263025,0.16266376567503602,-0.24089293723378413,0.03231965408818978,-0.09714756802898333,1.1372009412376252,0.08188969772802873,-0.10444296837231241,0.005807347714047424,0.013755793390836008,-0.06263524304884355,-0.24723693364999855,0.09639117886044765,-0.06114462224004322,0.9440497639136993,0.20897311317213613,0.696862463606283,0.28197893664359813,0.08250914565994003,-0.14543680765393716,0.27875536378589955,0.8521469430315776,-0.4559948920882628,-0.2762387378184671,-0.47296412715770986
119.0,7.160557508468628,-0.29994470036581067,0.26460147178620663,1.0051097364433774,0.010796651186734733,-0.004864927591316829,-1.9097110996785398,-0.3744122780915861,-0.0763482900482962,0.24640632144308194,0.7355644066558373,-0.4533149822785199,0.1633528380790672,-0.25631988757274826,0.02518275593798956,-0.10377007683359761,1.1513292361531255,0.06768867678563889,-0.10743172876426155,0.0019087122042363677,0.017621263258551817,-0.059256585921239294,-0.2533431235657929,0.09790236878887726,-0.06557278123878388,0.9422894424277878,0.21301075963796443,0.6906940909484045,0.28128679411827934,0.08034041490567631,-0.1436613975104527,0.2742253369745814,0.8487176206396525,-0.4544753750662438,-0.2784479527247569,-0.4840763541921721
120.0,7.21968674659729,-0.3007592561896475,0.25714285053461167,1.0052571872526148,0.00868278793750716,-0.0022595743900489214,-1.9111022110476914,-0.36409834820040016,-0.08099773044110467,0.23958758223993099,0.7364612825512646,-0.46577903974368345,0.1643995998385413,-0.2814799613966937,0.01640600842614208,-0.11088844350733716,1.171962780727561,0.050184270798737204,-0.11027457561992798,-0.005098420016313658,0.02288382307709648,-0.05386038351018533,-0.2637526348879941,0.10079503033194277,-0.07302598394467187,0.9399299493854791,0.21993526681595973,0.6786411175778115,0.27962582806108827,0.07709332379072092,-0.14047156419231227,0.2663724293840041,0.8429426935293582,-0.45178559143801955,-0.2836995394440916,-0.5028360214182097
121.0,7.249226808547974,-0.3011535891751972,0.2538927979927374,1.0052459203491224,0.00789788327780731,-0.0014117030877921315,-1.9111785286542449,-0.35992107670696766,-0.0832538085939964,0.23662795702412037,0.7370252369161606,-0.4708438490451364,0.16489669065121332,-0.29267749105644686,0.014463196062917447,-0.11202105756228468,1.1793411385156938,0.04505554792543269,-0.11020818698972565,-0.008633921813658647,0.02502002851657513,-0.05175856580053693,-0.2689382185554471,0.10235654287639509,-0.07616196672730535,0.9398924704420333,0.22278473985143346,0.6745639182124715,0.2778634440693949,0.07569651152992413,-0.13892318310553492,0.263163916103314,0.8405648775237784,-0.45056227535588766,-0.2869374938796126,-0.510297588191768
122.0,7.275648832321167,-0.3016249201546346,0.25016539661913034,1.0051793726734173,0.007292640430613487,-0.00048362230048699787,-1.9111117004233111,-0.3554365163675264,-0.08560118361638935,0.233479006197431,0.737694711602074,-0.47617926844339864,0.1655122374958812,-0.3055234579060748,0.014083787030530755,-0.11171440654628521,1.1858750925040382,0.04129623426713213,-0.10899708156291817,-0.01297284368277934,0.02778161516875923,-0.0496296583904513,-0.27542930323384845,0.10438200982492082,-0.07948998394331244,0.9409239484516896,0.2255218518770368,0.6727920317105494,0.2743406601219022,0.07411824221379137,-0.13704667264189105,0.2600067467213848,0.8381815165660845,-0.44923542923043025,-0.29111711154235753,-0.5176853733088909
123.0,7.305769920349121,-0.3021707459759755,0.24597280948149736,1.0050366198420921,0.006862455251054163,0.0005264781622361994,-1.911004059321952,-0.35066554012924483,-0.0881038049297125,0.23003728859317613,0.738426296672366,-0.48198409722560986,0.16618908431614504,-0.32007770887441334,0.015146807424311882,-0.11009187121985145,1.1914972538559214,0.0386815273402138,-0.10676716018857216,-0.017816051641155413,0.031175177092959784,-0.047401956177319085,-0.2830487246401518,0.1067345482448139,-0.08314546299782805,0.9427375495773389,0.22825313487859122,0.6729993069917093,0.26926892940746716,0.0725475205826765,-0.13490832271457484,0.25678086813782103,0.835768729171192,-0.44785515120674435,-0.29588853047191055,-0.5253033975974797
124.0,7.344373941421509,-0.30279136222880393,0.24133613831031064,1.004802216799278,0.006568896754155239,0.00161122967326998,-1.9108891915771458,-0.34566487138663277,-0.09089482292113438,0.22607934881493913,0.7393273413320822,-0.48847545043668616,0.16680503560828205,-0.336328435880707,0.01740206316154678,-0.10739077274084849,1.196174164940082,0.036907093137669086,-0.1037414341940208,-0.022833752606437427,0.034950769837947794,-0.04510490007878895,-0.2914040400739911,0.10916264273317443,-0.08718908428378394,0.944550562144185,0.23123600902400976,0.673516347325585,0.26382912159779964,0.07109960082353838,-0.13262466178916624,0.2531991497748165,0.8332508067890994,-0.4463790269473497,-0.3009779649779088,-0.5336026556742228
125.0,7.376541376113892,-0.3034321584289186,0.23674279227570577,1.0044687252042226,0.006459332449204136,0.002520820842461285,-1.9106806058711157,-0.3410967047145096,-0.09389683435407425,0.22184544332112816,0.7404726708986592,-0.4950671554439755,0.1671872154068955,-0.35273337613560884,0.02052198971121443,-0.10388438567771055,1.1992235214232834,0.035990874395298286,-0.1002912099927552,-0.027315299409167326,0.038381956337098296,-0.043060735703043224,-0.29956065358798123,0.11124869102883572,-0.0910660566169478,0.9458373883556723,0.2342859484785378,0.6731667452436367,0.25951035919856213,0.07002681640581888,-0.1304690185529615,0.2494589081826028,0.8307794297444522,-0.4450092368004176,-0.30588563249662043,-0.5421411256527544
126.0,7.398875713348389,-0.3041011985035328,0.2321887053544209,1.0040532715196,0.0064590194046326346,0.0032528271238984547,-1.9103555597515594,-0.3369054771886263,-0.0970840947290023,0.21737518795008037,0.7419639145791022,-0.5015677014846052,0.16727619947874028,-0.369058524107356,0.024163971081788548,-0.09987239790854681,1.2006639265038395,0.03559288883122973,-0.09667601941277164,-0.03119494130388673,0.04125723391432087,-0.04131931176145176,-0.30727500813553166,0.11290315082200193,-0.09465289970288623,0.9463226683318915,0.23758503490914407,0.6712339927526052,0.2574254623355117,0.06937560362388494,-0.12845714555679905,0.2455208963784863,0.8282810224296837,-0.4437095663291931,-0.31072231118019944,-0.5509839376084278
127.0,7.447905778884888,-0.3052279654273728,0.22496152426234622,1.0032883043376748,0.006749220153140632,0.004035656362815691,-1.909616715333714,-0.33093003892514544,-0.1022993045973189,0.21018400032190848,0.744959355873128,-0.5114226573684452,0.16706643797285997,-0.3951607956532994,0.030839524334142672,-0.09248547249817972,1.2002662453685173,0.03534984092260014,-0.09054286033057043,-0.03614363916823108,0.04511530637751561,-0.03907937846349272,-0.31921819221080444,0.11483503891248314,-0.09994684801314652,0.9465921748974357,0.24365218510260592,0.6658928259289008,0.25828866929244476,0.06930321427284178,-0.12542989246006256,0.2388659289675653,0.8243534722767065,-0.44192556463887667,-0.31921346104262616,-0.5655350679469271
128.0,7.48370885848999,-0.30575476616191144,0.2217896240241916,1.0029440458297443,0.006891534000043491,0.004240863889360464,-1.9092367218205437,-0.32832728868039013,-0.10419232268092707,0.20774831028024743,0.7463582881826654,-0.5148331564146246,0.16701201920928446,-0.4062730023322233,0.033956076248795417,-0.08887755193863744,1.1986211274056837,0.03522708832966525,-0.08797745995472647,-0.03788574843491211,0.04682046168912518,-0.038296928354160445,-0.3239681744291576,0.11557863010946204,-0.10200461434201856,0.9463786963849997,0.24667287520500408,0.6628558995846947,0.26061226348915056,0.06973111451602274,-0.12419690635777153,0.23620226009685497,0.8227796682974947,-0.44130303163501383,-0.32321929323881693,-0.5712399777640766
129.0,7.520855903625488,-0.3063782206893556,0.2181344095049521,1.0025664351335188,0.006924045261355273,0.004424138498422502,-1.908768552178987,-0.3250667379259551,-0.1056169823598471,0.20625279285456355,0.7478704955783863,-0.5175271268644263,0.167180799972662,-0.41852072134334595,0.03745706837056559,-0.0845128977084108,1.1955266833595242,0.03488143143948268,-0.08543530991112448,-0.03979350099908671,0.04902168430023958,-0.03748223702486905,-0.32845444981030203,0.11667495872945985,-0.1040724825280454,0.9449411916702828,0.25043896384178677,0.6576982756481908,0.26530225300839017,0.07035291405125645,-0.1228834548604849,0.2337264795043528,0.8212255841823957,-0.44066538130587996,-0.32756922242746855,-0.5765566306191628
130.0,7.554193735122681,-0.3070908142845877,0.2139953802193868,1.0021667963973098,0.006916941384999998,0.0045834104158322155,-1.9081666340267023,-0.3211663767528605,-0.10642709374352306,0.20591776470890366,0.7494090525086368,-0.5193866717705964,0.1675910438997392,-0.4320071786868097,0.041359098596234045,-0.07926949782040879,1.190851412671043,0.03408541191810714,-0.08301078678394475,-0.04202082781370223,0.05176749131062873,-0.036617890681299226,-0.33262118959625653,0.11821038661855796,-0.10586927255953016,0.941926678482069,0.2546689464834371,0.6495300937949913,0.27219298183036256,0.07085107059350228,-0.12152113284594543,0.23149578482265998,0.8198348118003723,-0.44009463477944083,-0.3320490124800747,-0.581385154306963
132.0,7.584842920303345,-0.3078954917573788,0.20937374632805317,1.0017660385584943,0.0069923659094625334,0.004701925059844292,-1.9073598361033743,-0.3166854211488118,-0.10674746696074386,0.20650668112509724,0.7507710799532792,-0.5204869567974513,0.16806615743039988,-0.44675760062392644,0.04570220767955452,-0.07308707207465176,1.1843606065381773,0.03254984233181426,-0.08077129696701144,-0.04469819730240292,0.05496681611730694,-0.03563319270715041,-0.33683064225429743,0.11999366127984702,-0.106921907673266,0.9378031128307299,0.2585190833020851,0.6393001452758957,0.27972424911101484,0.07098939816717943,-0.12015019648299682,0.2295402379718281,0.8186731891025675,-0.43966401135305727,-0.3365386849233082,-0.5857184428094193
133.0,7.626436233520508,-0.309093046522412,0.2028633699563176,1.0013447124477075,0.007305133961620863,0.00467298786721369,-1.9056721517212112,-0.3099871669076011,-0.10718202724149893,0.20750142157729132,0.7511939855614838,-0.5209112216987217,0.16805565858009341,-0.46636409415804403,0.051449965829798716,-0.06401355551057379,1.1716006986137844,0.027767507474653973,-0.07896269890354642,-0.0485759982693517,0.059202739393173984,-0.03386769752023805,-0.3434762994291296,0.12161970024087886,-0.10585139039019059,0.9332993568858943,0.25970136049727677,0.6304250847665954,0.28362574046699734,0.07073941322688013,-0.11854429845587541,0.2280193615388485,0.8178177078020512,-0.4393499850736698,-0.34115585274794014,-0.5893860891234872
134.0,7.663233518600464,-0.3102370311150233,0.1968105073813084,1.0010847990188483,0.007894908754191209,0.0044939852774115874,-1.90400443159714,-0.3035608623347549,-0.10819143542713011,0.20756237329916608,0.7501539066895451,-0.5214121636983613,0.16750745016549667,-0.4840602096703222,0.0568602325785819,-0.05518033724737366,1.1574114952051178,0.02156352352090265,-0.07775892089529486,-0.051800343830402655,0.06301068777201402,-0.03202907684458531,-0.3503736906474486,0.12225880500527948,-0.10363102265563721,0.9307576771070818,0.25856104611389097,0.6265680101049136,0.28306159503197975,0.07067407179349376,-0.11729985082573594,0.22695049497941133,0.8174956793633252,-0.4393467813511943,-0.3448674999240963,-0.5920030709313528
135.0,7.704334020614624,-0.3113196318885357,0.19121670350240375,1.0009795911250838,0.008622380564689829,0.004157521482888365,-1.9023780598849247,-0.29735080960793403,-0.11013218165267379,0.20621514407691338,0.7477367268193034,-0.5224540132596617,0.16647207339871323,-0.4996938838649926,0.06175964312757918,-0.04677749751184988,1.142085409149411,0.013869843945611525,-0.07710795840669983,-0.05436738174538211,0.06625710647331755,-0.030228522308084524,-0.3573485814031168,0.1220899022706171,-0.10085100108586724,0.9296551519576008,0.25600695371275406,0.6268384911013833,0.2795762118759214,0.07095805218709438,-0.11649218586205279,0.2262024910142644,0.817601482102088,-0.43953253207230614,-0.3476414700970379,-0.5936139862915868
136.0,7.744717836380005,-0.31233014565024153,0.18606849743559323,1.001001811178311,0.009381927787391173,0.003667107497756679,-1.9007492724598603,-0.2913563154829667,-0.1130715361819902,0.20339818559271838,0.7442132185339942,-0.5241299098371822,0.16508346672989982,-0.5131882808225046,0.06605086666340033,-0.03886958853391137,1.125956300340549,0.004768499061915508,-0.0769420275935441,-0.056484446975721345,0.06892362589778384,-0.028617449695568932,-0.36415979559776923,0.12155305377367068,-0.09810297508286425,0.9290710402266755,0.25313551244586396,0.629202470049196,0.2752082655731174,0.07143626678064224,-0.11615937978566454,0.22571559874459773,0.8181095432814445,-0.43977092131313056,-0.3493749961708549,-0.5939703000927344
138.0,7.784183740615845,-0.3132571462144188,0.181344463466316,1.0011284081200587,0.010133755685683005,0.0030724951891857566,-1.899008921959352,-0.2856146762519618,-0.11669741744919407,0.1995243372393829,0.7399563904163511,-0.5261311475914306,0.16352294276117033,-0.5244693856291908,0.06972213440610557,-0.031467566170176875,1.1093616580959318,-0.005513437077000426,-0.07719324602163825,-0.05840989804617533,0.07109175104582596,-0.0273031200863477,-0.3705580237625349,0.12112497331101055,-0.09578406027832706,0.9281882456567645,0.2507738807656999,0.6316140571231101,0.27152468586253964,0.07183723346018053,-0.11617916448947392,0.2254537646388593,0.8190586724241729,-0.43989539492540897,-0.3498921939057014,-0.592799388812507
140.0,7.819226026535034,-0.31457133197767484,0.17461351638065165,1.001385175371662,0.01096989450046476,0.0022373078131567906,-1.8956333756335515,-0.2771143990002742,-0.12167048834608402,0.19416672862748818,0.7338333434168456,-0.5282966669595965,0.16125142964386943,-0.5383097917784049,0.07414551467797145,-0.02100800323090162,1.0834095353413542,-0.022334652492602514,-0.0785010262193932,-0.06135530973267332,0.07376712677662786,-0.025744582196741167,-0.37924337031478117,0.12134044280338885,-0.09366623941949054,0.9253236137162595,0.2488005940250345,0.6330091138151692,0.2680096479741794,0.07233921305378849,-0.11594063341287461,0.22530133169400102,0.8210781282199828,-0.43912940591960553,-0.3480241096670185,-0.5887835261177234
144.0,7.852497816085815,-0.3161662830976181,0.16632839487103915,1.001762015577086,0.011752292795498609,0.0011276844904517253,-1.890367700499119,-0.26628796423735446,-0.12688288434731768,0.18901928024452375,0.7261048265293335,-0.5294796256978163,0.1584332172744314,-0.5529723363437933,0.07859637596867372,-0.007935215181883075,1.0490117586991579,-0.044168035688906385,-0.08113822731638476,-0.06475859678950006,0.07669514102367822,-0.024323143392275336,-0.3889677783643302,0.12181872470513905,-0.09241460940930349,0.9207275125863087,0.24778046796023295,0.6328507928627668,0.26519485136459514,0.0737314282635097,-0.11524839334604382,0.2246080406659084,0.8239212043541939,-0.4374460825777586,-0.34417064103909123,-0.5841681671398827
146.0,7.894262790679932,-0.3188309975626221,0.15288770843460306,1.0023466483202648,0.012324285254823368,-0.0012272604599149633,-1.8799657765461268,-0.2482265363979443,-0.1346549462937651,0.18205927373162584,0.7136743441260742,-0.530404255330633,0.15360553681501118,-0.572105616402305,0.08672797261848245,0.018362308565258865,0.9893994357850355,-0.08020189208310159,-0.0862164266834949,-0.0698183598957442,0.07999582196777083,-0.02388297429760488,-0.4004209167747202,0.12301454662495115,-0.09274223833678039,0.910746043136546,0.24927563025420513,0.62538038504743,0.26624174317467175,0.07841819492582353,-0.11416912964428699,0.2234036599282525,0.829252835529461,-0.4341761882508842,-0.3345503953252818,-0.5763644201620134
148.0,7.937877416610718,-0.3215435669486518,0.13972370574245221,1.0030431572111953,0.012722189029012052,-0.004120682798475315,-1.868246710388552,-0.22964766627048902,-0.14288026207522708,0.17441979416046058,0.6993779368429622,-0.5300897601751591,0.1485640859078296,-0.5878886265031934,0.09737173803142618,0.05061343085783165,0.9296536631681934,-0.11022701912502496,-0.09027497070499159,-0.07466951121856857,0.0824829209189112,-0.023957786982912507,-0.40955839603533595,0.12280361012164742,-0.09292958977664251,0.9017869051603209,0.24979669114024067,0.6197615851989975,0.265651318241215,0.08514879936735317,-0.11338742539581906,0.22226159497331782,0.8341294567984755,-0.43081488940848367,-0.324471579067378,-0.568537862833604
150.0,7.97900128364563,-0.3242207702388016,0.12728255917318684,1.0037032966901545,0.01308147179623216,-0.007402686373752369,-1.85571107806214,-0.21165323173644396,-0.15106344191794363,0.1663905717972734,0.6844794885584742,-0.5281949882360463,0.14340604850827326,-0.6002893633173093,0.11127731765194304,0.08946052769551058,0.8744373330605542,-0.12908428267263614,-0.09253218010038151,-0.07946665604512729,0.08412128655138423,-0.025051170292669185,-0.41587855819855335,0.12121765234678979,-0.09305978901495693,0.8934540228731169,0.24957216899855428,0.6141865072374537,0.2642976828824873,0.09304607113953361,-0.11403926234650041,0.2212503838949983,0.8377449814482745,-0.42767588739347817,-0.3164266342169505,-0.5607260596926441
