ccrpRepo/mocap_retarget/src/mocap/src/data/output.csv
frame,timestamp,posX,posY,posZ,roll,pitch,yaw,left_hip_pitch_joint,left_hip_roll_joint,left_hip_yaw_joint,left_knee_joint,left_ankle_pitch_joint,left_ankle_roll_joint,right_hip_pitch_joint,right_hip_roll_joint,right_hip_yaw_joint,right_knee_joint,right_ankle_pitch_joint,right_ankle_roll_joint,waist_yaw_joint,waist_roll_joint,waist_pitch_joint,left_shoulder_pitch_joint,left_shoulder_roll_joint,left_shoulder_yaw_joint,left_elbow_joint,left_wrist_roll_joint,left_wrist_pitch_joint,left_wrist_yaw_joint,right_shoulder_pitch_joint,right_shoulder_roll_joint,right_shoulder_yaw_joint,right_elbow_joint,right_wrist_roll_joint,right_wrist_pitch_joint,right_wrist_yaw_joint
2.0,4.567592144012451,-0.10333823507936471,0.5154915136148643,1.0170671776131015,-0.000274580283716054,-0.006213688694163483,-1.6870622106495545,-0.2726609908672697,-0.11870445920012301,0.048068457181657545,0.9255773200745421,-0.5708565048221006,0.12597328706398925,-0.33717607719294485,0.27728086356549475,0.14876427173582463,0.8747720432154219,-0.04267905413991635,-0.042575309006254544,-0.02612524370239908,0.09237712747160033,-0.0739404319089659,-0.17099808270861722,-0.027624358913811292,-0.07054897620058614,0.9401786380262744,0.17665908084632825,0.7648004480554105,0.26774407159194014,0.019692741792185615,-0.08600494058368223,0.08121513644776363,0.9049507600411002,-0.3174320505248593,-0.2741446809696991,-0.6080325725628811
4.0,4.6444337368011475,-0.10407222941787608,0.5149993512813984,1.016846083512437,-0.0002976506175338846,-0.006336752835201831,-1.6852985649103123,-0.2755301850813905,-0.11689912862782686,0.049947655944361305,0.9313615427082187,-0.5666863790208961,0.12544357449999244,-0.33690492945635764,0.27746823563998524,0.14773418455452514,0.8755619262470219,-0.04230926460268884,-0.041841180202628434,-0.025904290216274436,0.09392059027979496,-0.07263192783706876,-0.17125467752427015,-0.028472223643605566,-0.07265827164844495,0.9406915979324109,0.17776734692542884,0.7654312856739399,0.26678174742576627,0.019603520469124714,-0.08362889971327905,0.08177100002245137,0.9054900361529591,-0.31826923911613647,-0.27545052786852375,-0.6118191638870746
5.0,4.697657346725464,-0.10607848104351969,0.5135878814290582,1.0161676598259202,-6.724415010694456e-06,-0.006956310898605152,-1.6805760995531904,-0.28473302582472815,-0.1115847064212967,0.05570315965491622,0.9487236140450404,-0.5546345439862076,0.12475041407083123,-0.3363249249967899,0.2778049349989842,0.14510784016047126,0.8773488487209458,-0.04234804842432789,-0.040303264647554835,-0.025265835708566164,0.09722339290672764,-0.06981612978410168,-0.17286246436749783,-0.030990747476803013,-0.07725114978800164,0.9416204435405544,0.18021797864187605,0.766324503335333,0.26525648303249294,0.017546718431634682,-0.07824770176566023,0.08254630962844775,0.9068591706415421,-0.3198599690297357,-0.2782892290416139,-0.6207203230525998
7.0,4.7341086864471436,-0.10826497553756023,0.5120816763748787,1.0154263718603005,0.0004929719333218311,-0.0073869803851580144,-1.6752616112780552,-0.2957760044405631,-0.10508033271149012,0.062144739930632284,0.9690724242376301,-0.5412827308900029,0.12444022314780909,-0.3358230373000263,0.27853008942111224,0.14221489341997434,0.8790740443562094,-0.042966058583359445,-0.03873464855246043,-0.02444610634471267,0.10095293446760953,-0.0669660487462598,-0.17497251275402032,-0.033462871625306145,-0.0819060273362201,0.9425472091728773,0.1827750279708275,0.7672416525012645,0.2637590957067433,0.014697825042190346,-0.07255066313236078,0.08342260205324303,0.9086756649591506,-0.3215131894822549,-0.28160037334163845,-0.6300140715785074
9.0,4.804964065551758,-0.11114869847033357,0.5100913552750161,1.0145259268569569,0.0009837242966435184,-0.007879329532417883,-1.6679578905649577,-0.3114894746679565,-0.09531313864971075,0.07127224473130275,0.9979428827014005,-0.523612787365412,0.12555478283700394,-0.33464531321030744,0.28043773538432887,0.13948966361930026,0.8809284372555748,-0.04564228414247969,-0.03681828986003889,-0.023118424823690913,0.10570363849871339,-0.06298415842667827,-0.17820346689946964,-0.03618885254863066,-0.0863672778782799,0.9435663098151648,0.18554838804757334,0.7682109756601104,0.2634231520761248,0.01012500629399287,-0.06598763162927945,0.08562760432158326,0.9106938697268427,-0.3243091918085447,-0.287004964176602,-0.6400709496662034
11.0,4.867871522903442,-0.11445639569998868,0.5078433614631848,1.0136549719295704,0.0007540668111863513,-0.00872242938993473,-1.6599236470823722,-0.32969650494625613,-0.08293903249945023,0.08277771602430656,1.031568495553857,-0.5049910318009623,0.12861412004045258,-0.33213944329403977,0.28335318782123475,0.13793149668121038,0.8823868483546781,-0.04982642340961239,-0.03481825362648093,-0.02124412735542764,0.10951819911174279,-0.05756477557661179,-0.18183110627216056,-0.039041541557019284,-0.08951889358913084,0.9441733447709475,0.1878162959481181,0.7686485756704122,0.26472200010643654,0.003808147506251228,-0.061008519352464374,0.0899711372553246,0.9126487208116991,-0.3292976374706641,-0.2923176446046688,-0.6483703148863906
12.0,4.927939414978027,-0.11801704579423522,0.5053546446922441,1.0129793610339588,-0.00023786728406684595,-0.009829806925648058,-1.6522297274996558,-0.3491122418006986,-0.06888963897513711,0.09568691839302737,1.0666552434148633,-0.4889644251279302,0.13342710931321283,-0.3281759627566456,0.28664308935249694,0.13718131341221906,0.8829477586556149,-0.05436982253941067,-0.0329267413565651,-0.01868123398856763,0.11190827904829344,-0.05157015146752432,-0.18462324669372326,-0.041900622484061456,-0.09125427335851315,0.9443199997512721,0.18896630417636828,0.7681629527593263,0.26609625082359356,-0.0036626838239934107,-0.05933137997996484,0.09739400414477936,0.9143095293759482,-0.3376699286686163,-0.2965400643328838,-0.6536493372774896
13.0,4.97047758102417,-0.12102240979698942,0.5032075018554001,1.0124958633182817,-0.0012318940438018403,-0.010500533581541526,-1.6463302089954677,-0.36613066089849755,-0.05651674801153002,0.10650501696218359,1.0962727072591134,-0.47794425425734455,0.13810924535728591,-0.324433418952478,0.28972711447055904,0.1366980338595298,0.8828957552904605,-0.05824634378855053,-0.031497476338360135,-0.016270550259893993,0.11383400298227953,-0.04684103121690107,-0.18633052265218003,-0.044427820509971225,-0.09171262861128116,0.9443759053117151,0.18912882918844545,0.7678391040990309,0.26727491290406763,-0.010251560279868467,-0.05995258108414375,0.10532031117850037,0.9155841265585412,-0.34642348028048864,-0.3007011682528133,-0.6565801093071197
15.0,5.001253128051758,-0.12343207391509188,0.5013725877637689,1.0121964223447026,-0.002057206941522279,-0.010826313883602856,-1.6421153680379774,-0.38058420592340003,-0.04633040003676758,0.11499645683281288,1.119810423978779,-0.4715837334429848,0.14241462510314115,-0.3210577933694752,0.2924229170526937,0.13644417382736423,0.8823300391153024,-0.061549607158590564,-0.030569832166237015,-0.014026711786322438,0.11557946941789458,-0.043648965592216524,-0.18700658069143894,-0.046610728283733235,-0.09111294374348639,0.9444654596407844,0.1884861845637978,0.7680861251829445,0.2682706487663569,-0.015669838890288328,-0.0621992341699849,0.11310584157966347,0.9163859204188182,-0.35479405456645985,-0.3051799151159858,-0.6577256463697758
17.0,5.064801931381226,-0.12606279224592823,0.49896123575816664,1.0121038878405875,-0.0027755678596119264,-0.01173986730016666,-1.637840964515692,-0.39719012963072986,-0.0361058067529143,0.12423877600398778,1.1430579478119713,-0.46729811313845737,0.14789848666085148,-0.3166188911021731,0.29492839215835454,0.13681089855638548,0.8810944725817591,-0.06608689798603772,-0.03004645700444726,-0.0108921576768651,0.11750982244010222,-0.04151605868838405,-0.18677850417592007,-0.048916357569511695,-0.08956995823744901,0.9448028571740504,0.18700085850950926,0.7693697879467053,0.26906135622408717,-0.02120485227653699,-0.06589796252238823,0.1223522985221164,0.9162884427698053,-0.3644868377666476,-0.31185700810784345,-0.6577024364347269
18.0,5.131487846374512,-0.12892771041512321,0.4959728757538491,1.0122132211983685,-0.003022419003164012,-0.013506923252107846,-1.6332741405466802,-0.41618243737505356,-0.02573747380312859,0.13489537740920024,1.1652808009563564,-0.46397360477249094,0.15460171214797142,-0.31157481247706537,0.2971190089927224,0.13788994961458123,0.8793853896122547,-0.07169889234974292,-0.029867824332341794,-0.007235167873057453,0.11887209636366877,-0.040712527037181964,-0.18589962432460513,-0.051179124253573384,-0.08753572742519079,0.9449597811543163,0.18483796989419998,0.7703958670170443,0.2690620811796586,-0.027245379294095484,-0.071109380517463,0.1326450892686402,0.9154657045379653,-0.37523649548859106,-0.3201363657025298,-0.6566389934051262
19.0,5.16410756111145,-0.13142469179159283,0.4932537527514177,1.01234963889767,-0.002763843635978031,-0.015305292516461299,-1.6294066007169095,-0.4334273674336562,-0.016754574526427552,0.14465819045402944,1.1832118403731555,-0.4614244265713572,0.160808916112557,-0.30744960243918873,0.2988991479589106,0.13908375924444286,0.8777763131274575,-0.07664202253417865,-0.02982240767195811,-0.0041331989186839824,0.11949169434798756,-0.0409331533383681,-0.18469533448643127,-0.05324845042171425,-0.08564470298168161,0.9447966643454141,0.18265674137820676,0.7708541369273664,0.26867197321042036,-0.03275765983913785,-0.07672095192228826,0.14197702426095712,0.9146562011530883,-0.3848944752024536,-0.3277165638966485,-0.6549852300321417
20.0,5.1951470375061035,-0.1335732752167727,0.4908187276732233,1.0124728792349742,-0.002128722599296695,-0.01709638641682984,-1.6262692633945952,-0.44865106040716407,-0.009205645695232823,0.15344351718490584,1.1968544410736692,-0.4592953017723775,0.16634334410506768,-0.30423336597667283,0.3002888475312162,0.1403059076199687,0.8763908436657936,-0.08069892953341717,-0.02983500157725747,-0.001544515971571742,0.11928799264227136,-0.041963290379730435,-0.18315512786720467,-0.055263530845650555,-0.0840091738851027,0.9443443242348473,0.18055633532969334,0.77062786062211,0.2680503448151822,-0.03785149844738167,-0.08276657117885522,0.15035999879931333,0.9139247747096155,-0.3934816605863519,-0.3342588077129297,-0.652533736756341
21.0,5.226032257080078,-0.13536963913289174,0.48865801771048234,1.0125561063427144,-0.0013184327508915929,-0.018760493021243625,-1.6239894228369773,-0.4615242994105747,-0.0031379013487151633,0.1611219797095157,1.2062626286695073,-0.45747601415806965,0.17105027043959342,-0.301762601515942,0.3013867457390453,0.1415386838168439,0.8752977479647998,-0.08370663892103411,-0.029854560515766047,0.0007265635806880504,0.11849660166684217,-0.043508078297057357,-0.18127662781150136,-0.057241939082200065,-0.0826993027060292,0.9436154395258062,0.17869103675418954,0.7696815872831522,0.2675093620887897,-0.04256084604950411,-0.08901044055311294,0.1577105725215841,0.9132834690695164,-0.4008532624841207,-0.33963334862354055,-0.649247200936782
22.0,5.259361028671265,-0.13695943046914683,0.4865695061780429,1.0126087383890394,-0.0006095153670749906,-0.020320753500953838,-1.6224180809926994,-0.4727235551103708,0.0017835882417847346,0.16805914498133329,1.2126417098525788,-0.45580034835747507,0.17512530096752343,-0.29944244071918336,0.30233315919902615,0.14284812243878728,0.8744065180731175,-0.08593356362098102,-0.029869871276462373,0.0031300795865576545,0.11754842881050057,-0.04514183387229226,-0.17903013983014404,-0.0591499576496222,-0.08167758280609497,0.9426946633637833,0.17714515006021575,0.76818703719737,0.26733520146169343,-0.04708369560969347,-0.09522391650331338,0.16439745137181522,0.912586492776599,-0.4073360718667579,-0.3443091683977966,-0.6452449717841204
23.0,5.289788246154785,-0.13848597102362864,0.48435851829175625,1.0126674435414424,-0.00013773945491407056,-0.021845340963512712,-1.6213123175157078,-0.48320287037687226,0.005815687409169615,0.174602388565012,1.2169924484604913,-0.4542234676970237,0.1787890428199188,-0.2967867665960021,0.3032086382554629,0.1442707737300864,0.8735358192878719,-0.08778275336973103,-0.02991620622437865,0.005914065132692537,0.1167243422061599,-0.04659570428076999,-0.1763749539436068,-0.06088774012981196,-0.08089977849803628,0.941628663494535,0.1759106637940066,0.7661942533354218,0.2675017244859707,-0.05160455418653257,-0.10140108389867336,0.1708327971417714,0.9116776341812878,-0.41336065309358677,-0.3488562940023231,-0.6406294368671468
24.0,5.321814060211182,-0.139947547410207,0.48206483375129794,1.0127569169705704,0.00012763373276711382,-0.023269513482078695,-1.6205886300831396,-0.4931362967282661,0.008734986029747389,0.18044865188399845,1.2193578091842334,-0.45285490717492716,0.18185755852918917,-0.2938045170131454,0.3040334046889839,0.14573075640029345,0.8725480550037021,-0.08937641468139379,-0.03000230908120776,0.008880217157324215,0.11619075366653556,-0.04765753405240047,-0.173288378170046,-0.06244553195404141,-0.0804050075910116,0.9404532406749745,0.1750122617101996,0.763866496484708,0.2679542652442472,-0.05595225083552742,-0.10757233381515505,0.1770362848776027,0.9105076589569797,-0.41900814984637463,-0.3534314358871221,-0.6355818269739011
25.0,5.349719047546387,-0.1413651540042556,0.47974696151614105,1.0128951070725885,0.00029770293499906315,-0.024599003735241216,-1.6201108149881638,-0.5027776781861061,0.010324770733710435,0.18531431052718028,1.2197446463164707,-0.45167821977211414,0.18413730000073575,-0.2906413139425433,0.3048039900474635,0.14716668511158115,0.8713121724726591,-0.09076689734512869,-0.03010743850390484,0.011729681870883631,0.11595730355217515,-0.04819964957673197,-0.16980661962517324,-0.06402102538585654,-0.08021471181463019,0.9392119335676511,0.1743677638441569,0.7615154698698442,0.26851336416516725,-0.060030935533102806,-0.11409512036895439,0.18314258595403313,0.9089762301295972,-0.42460872674694905,-0.3580549968968516,-0.63024422017855
26.0,5.38227653503418,-0.1427639810929286,0.4774396352052599,1.0130726130608685,0.0005520113854618611,-0.025872121089815417,-1.6197952478333413,-0.5123533511169045,0.010436166065810817,0.18899917509555955,1.2182165274972125,-0.4506080601878586,0.18543433854770525,-0.2874920628414118,0.30552523034317247,0.1485635069289041,0.8697976911796956,-0.09192265296627741,-0.030198356416195376,0.014277550904857807,0.11593643663386147,-0.048290555128983434,-0.16613909949607805,-0.06582563712885614,-0.08027878850580562,0.9379899122113429,0.1738150116077517,0.7595319409684806,0.2689173347357446,-0.06393614513986132,-0.12135144621011003,0.18927198028879377,0.9069978046368035,-0.43049775084561137,-0.3626516798385109,-0.6247295728747096
27.0,5.443181753158569,-0.14496128532086155,0.47375417697034294,1.0133880580111891,0.001546653127804873,-0.02791063933675658,-1.6196329930038547,-0.5280414456397421,0.0076851359151501545,0.1926281706633297,1.212500102605189,-0.44894133453891827,0.18582376984733434,-0.28290557592697013,0.306603735377074,0.15094745659856063,0.8668898837498914,-0.09314057733996642,-0.030181651002123545,0.017816699338733248,0.11616566988672372,-0.048241745962630325,-0.16018403776072504,-0.06928717622336147,-0.08064259231890065,0.9359641013941719,0.17281162901565625,0.7575192238972199,0.2689893229916588,-0.07026647025709347,-0.13469233395530059,0.1993966998725615,0.9028935504885147,-0.4405449022328692,-0.3700238506897368,-0.6156699752565766
29.0,5.476990461349487,-0.14591121360636666,0.4721066526523915,1.0134793513558709,0.0022235550365222153,-0.02886272612480598,-1.6197552996549602,-0.534970062140411,0.004898611884118236,0.19300732072699336,1.2085799253713674,-0.4483446839791212,0.18510009365499341,-0.281149039798274,0.30697315234751965,0.15197913975814678,0.8656675059256673,-0.09329356514793222,-0.03009351514538776,0.019350025779780518,0.11617812286364726,-0.04841171323221663,-0.15801619552137633,-0.070889466015625,-0.08089898320759481,0.935367798015304,0.17231432057287815,0.7574585892063225,0.2685628158984704,-0.07332248909605653,-0.14097711426010695,0.20363506695951863,0.9007611101475352,-0.44491218368184526,-0.3730942248141027,-0.6116897880500582
31.0,5.5298309326171875,-0.14751752916429883,0.4691892312197563,1.013484514874915,0.0033729539149620963,-0.030406543447508858,-1.620421070492441,-0.5464094812314537,-0.001869770834446731,0.1921047446036906,1.1996923798066725,-0.4480748729497866,0.1824503868554966,-0.27836586457441204,0.30739548760046637,0.15326164879127716,0.86403621761469,-0.09306302422218654,-0.029964111891364956,0.022700058241444186,0.11574073249024641,-0.04918479682445148,-0.15538479633704755,-0.07299884232106935,-0.0818915760841271,0.935767602652759,0.171902725413973,0.758354070415874,0.26703166342855966,-0.07903703161729515,-0.15059887359526125,0.20921168395511833,0.8974722759377619,-0.45090903821681916,-0.3774829577307206,-0.6042349504128308
33.0,5.5891993045806885,-0.14957460613784312,0.4652288851054547,1.013558031996443,0.005140721349301728,-0.031966089355662516,-1.6218265095623714,-0.5612082987900386,-0.011175597842495342,0.19076230242562253,1.184901201630799,-0.44813739349512005,0.17836543970975777,-0.27466050456693436,0.3079660213703836,0.1545781184109698,0.8613468231867933,-0.09243240244348314,-0.029975300370733097,0.027523241913726362,0.11513373160683138,-0.05047719842234509,-0.1514147795772794,-0.07507945085159397,-0.08421379783626264,0.9367403380008104,0.17222366883110313,0.7594507167482879,0.2646891708342128,-0.08626487068926501,-0.16205144850875908,0.21510405827333534,0.8935181215269067,-0.4571486054781735,-0.3822177694732176,-0.5939712696403372
34.0,5.65053391456604,-0.15194696020673454,0.46035766224967933,1.0138323598586496,0.006947353813213283,-0.033277724934232464,-1.6238132895756767,-0.5775679928299826,-0.02085547332540197,0.1905852564861155,1.1641862114558759,-0.4476835783021226,0.17389567990792973,-0.2694659870213013,0.30820812412517684,0.15521607660047848,0.8572796680117076,-0.09136687302351484,-0.03049347492851197,0.03276014214681484,0.11455991866626503,-0.0517694195859216,-0.14658118863828995,-0.07711716067120257,-0.08755422949906516,0.938145741265878,0.17312505698687558,0.7608745619175956,0.2617374688640807,-0.09451979075493137,-0.17518940070208994,0.22074047463051974,0.8886820318753261,-0.46410361455078986,-0.38707970843377637,-0.5840803286110762
36.0,5.704243421554565,-0.15388598679684692,0.45613115120943537,1.0141756077562945,0.008516288241040348,-0.034221641488198694,-1.6256880247220236,-0.5906135473512057,-0.02855768982145055,0.19118816926244833,1.1443031117368054,-0.44664287490419097,0.17023539581981156,-0.2647340560314267,0.3078678894811228,0.15520297466234514,0.8531053192300866,-0.08997292136275992,-0.03116118798260349,0.03680670624285527,0.11422957799224837,-0.05281348486242096,-0.1425238958304969,-0.07868716865389727,-0.09055105029006119,0.9394148613195312,0.1740297134549818,0.7622718172159745,0.2591292464550055,-0.10148160022160856,-0.1863191287654562,0.2249509250326715,0.8843585979843966,-0.46991819288196396,-0.3905380056413119,-0.5770016335049063
38.0,5.759561777114868,-0.15589263870974523,0.4514378365105828,1.0145779592784008,0.009901676737217927,-0.0346912903187317,-1.6282528076150267,-0.6029860034379588,-0.03573173309998163,0.19270431751577746,1.1198802901818734,-0.4451361030989062,0.1664409640105759,-0.2590250003028991,0.3070652098756828,0.15427041814863895,0.847832809329865,-0.08784001765924293,-0.03219532843511459,0.0404664674899492,0.11451764676017351,-0.053343199590403095,-0.13869679584065467,-0.08028791375566517,-0.09355819458645748,0.9408869805298061,0.17487619306224864,0.7640567578571756,0.25627590318688154,-0.10946452024306916,-0.19814686372942866,0.22848649252054526,0.8799089928155895,-0.47610761325508816,-0.3922410347503987,-0.5709329901743303
40.0,5.830706357955933,-0.15799405769249986,0.44634751805328154,1.014925174536538,0.011393531686405306,-0.034790160480155985,-1.6311265142665072,-0.61507310417548,-0.04366958139628674,0.1936897717964132,1.09102891631864,-0.44400213378935666,0.16210425157838348,-0.2526657116571618,0.3062500119542168,0.15288366622695387,0.8415289472967726,-0.08574202044221882,-0.03353106512821112,0.0435450110384237,0.11489163627891283,-0.05362616223100844,-0.13470017810962667,-0.08242196252171928,-0.09672326144726734,0.9423808805177275,0.17552318912791942,0.7653245704602447,0.252947882987263,-0.1180708812952262,-0.21078599086648095,0.23081737406487704,0.8755176253840433,-0.48182786910719705,-0.3922530804986045,-0.5651605430446248
41.0,5.884911298751831,-0.16017554681525442,0.44087121040382166,1.0152745316817504,0.013208029458795532,-0.03470580609591137,-1.6337222143284866,-0.6270717664769541,-0.053076735297888006,0.19363147575554918,1.0578383403761884,-0.44430450277982536,0.15718849932497175,-0.2458687666170563,0.30505617265948703,0.15064586177243433,0.834168495744588,-0.08377559715097865,-0.035208173549318975,0.045860048390277824,0.11496805087197348,-0.054009701601808416,-0.1306957241082651,-0.08512701985829604,-0.09993037949509155,0.9441462059493617,0.17604665079149417,0.7665110720907382,0.24962703301454287,-0.12684316308084803,-0.22390747230324626,0.23142160269639656,0.8711165041002501,-0.4863872431235674,-0.3908196765601807,-0.5598867532974117
43.0,5.943810701370239,-0.16197114411402957,0.43620018086805246,1.0156354068266937,0.015045889416693992,-0.034820043590217245,-1.6354684900560823,-0.6365873697520947,-0.06173318657051595,0.19334603516023446,1.0278481570465692,-0.44507109838660197,0.15298079779075502,-0.24016107251519309,0.3033942579550054,0.14825503369810375,0.8273202863483093,-0.08186054635287165,-0.03674509262717977,0.04715298250433214,0.1149416070130094,-0.05444338455199482,-0.12762745016692195,-0.08741712376312054,-0.1024546728389775,0.9458154100561407,0.1763982641764713,0.7673394778382052,0.24697322904851046,-0.13402764836350897,-0.23478372508400136,0.231169664900662,0.8671295401661995,-0.4895536334513353,-0.3892238370778901,-0.5560116469675855
45.0,6.004353046417236,-0.16382901242219222,0.43109858276587903,1.016026251526572,0.017165986928751327,-0.03481079816012581,-1.636816415005641,-0.6459558205388578,-0.070680311110935,0.19348000610200122,0.9948610622252014,-0.4472374608262113,0.14885069025098405,-0.2342075200754409,0.30123290071815323,0.14487108451061964,0.8198744317427991,-0.07956683184438039,-0.03852113883351295,0.04767711725772207,0.11530438063614998,-0.05499238137584339,-0.12518596185203662,-0.08923908304494363,-0.1046042285371821,0.9476328901722523,0.17674481861262575,0.7684176105367901,0.24470444784153728,-0.14128945966401896,-0.24526868434962318,0.22951481321105677,0.862699336231181,-0.4916277454167399,-0.3879319544133354,-0.5534816638185914
46.0,6.051236391067505,-0.16573438154974957,0.425524066808565,1.0164351094951887,0.019269998319375183,-0.03417950270868337,-1.6379665541923836,-0.6549866849471915,-0.07889734411336013,0.19435365526221027,0.9600123355568477,-0.4495911171757876,0.14515736584199876,-0.2276075299340916,0.29952379916489724,0.1410916327618002,0.811979634359851,-0.07729515056642214,-0.04038782828540095,0.04763684168488261,0.1165551320036647,-0.055612012637221014,-0.12299328439277976,-0.09008272606368381,-0.10666512999123347,0.9494425236518407,0.17737000841409822,0.7693021137018761,0.24266935891991395,-0.1482563095984173,-0.2546049414092201,0.22660826534783174,0.8582090941042682,-0.4927104312938496,-0.3865443868785244,-0.5528683758692825
47.0,6.082223176956177,-0.1672842098213252,0.42075581909185583,1.0168105432756744,0.02102564095811721,-0.03347560500957419,-1.6388040232519807,-0.6616646809795674,-0.08504442392236597,0.19588357976918705,0.9303419707166425,-0.4505546589543695,0.14249058785178306,-0.22175690954365695,0.29827350647069545,0.13805683095083676,0.8050376678303983,-0.07533291502885492,-0.04189680668707205,0.047246093532820374,0.1179779240861357,-0.05626569699356565,-0.12138722525769216,-0.09015236919619914,-0.10838500394836392,0.9509920084492509,0.17809303608063226,0.7694108813121814,0.2410918330603639,-0.1536986949937137,-0.26144043422949054,0.22373371287257954,0.8545172312042523,-0.4931630920729351,-0.3851048292323388,-0.5533802143184517
48.0,6.1182496547698975,-0.16861677978686582,0.4164997493098025,1.0171394663105298,0.022460319357717175,-0.03274486908400968,-1.6396635623685085,-0.6667497357819252,-0.08958817300911648,0.19810431451037314,0.9045413183973305,-0.45036525185114534,0.14044196486797494,-0.21632032769980725,0.29738606093130576,0.13563633196279407,0.7988509242699897,-0.073544309782733,-0.043145248272159986,0.04676313596697869,0.11927359494539833,-0.057005770444432495,-0.12022311383480161,-0.08980873058505962,-0.10991152418157012,0.9524497031204365,0.17888820083612345,0.769120521046288,0.23982033663670801,-0.15817429364704946,-0.2665927192280128,0.22089262692991168,0.8515001751518376,-0.49314070725476766,-0.38340245761330993,-0.5543067510490806
49.0,6.153205394744873,-0.16974335561295825,0.4127794279117024,1.0174089662765957,0.02362341239715214,-0.032130400116644975,-1.640640348690125,-0.6704573486821663,-0.0928944084070143,0.2007153163636125,0.8827514987671978,-0.44941239468575833,0.1387898257790539,-0.21144561624335081,0.29656853249343573,0.13363668881577082,0.7934584440782717,-0.07164875277375016,-0.04414842740279851,0.04630363862404739,0.12008978111712601,-0.05782845993791781,-0.11954942068340366,-0.0892666037000486,-0.11121239511773695,0.9539833573695405,0.17966598691690863,0.7688953704056227,0.2387824559080815,-0.16167711989225914,-0.27024675772040485,0.2181271066083778,0.8490921288092379,-0.49261540028185646,-0.38139689300287305,-0.5552585186337526
51.0,6.200035810470581,-0.17078073587231418,0.40933394602682777,1.0176219546822918,0.024651975050728754,-0.031645003375961815,-1.6418011334260938,-0.6736163846763078,-0.09582675231769755,0.20317443977021693,0.8634477369647496,-0.448704526225815,0.13714114884884554,-0.20698699094038492,0.2955199413366253,0.13154490943236663,0.7885733247566149,-0.06932562023609279,-0.045033866681801135,0.045943019831577975,0.12028488616799168,-0.058674543645665725,-0.11924819564328124,-0.08874252517262864,-0.1123475004362649,0.9557871055831575,0.18036511909376002,0.7692289392781118,0.2377963795977625,-0.16451586062253695,-0.2730384581948881,0.21523427895002323,0.8469824883397268,-0.4916245098155828,-0.37920926615502354,-0.556190063493853
53.0,6.248927354812622,-0.17226896557664145,0.4044864935134028,1.0177777292057069,0.02573655601968238,-0.03060989869073681,-1.6437614893306234,-0.6786989302533644,-0.09991954468914392,0.20529820771525556,0.8401129586138243,-0.4501653786266758,0.134477651788802,-0.20095187683437707,0.29415032243441974,0.12787131137350655,0.7826389335793442,-0.06578836385838048,-0.04623218005227146,0.045517249828996284,0.12010753123354542,-0.05962793303349976,-0.11877229040503301,-0.08805378376317455,-0.1139302576342635,0.9584150580430417,0.18131196194345517,0.7713486124326501,0.23620329031954584,-0.16736685873721155,-0.27588474689963466,0.21032415035271773,0.844179463835856,-0.48935361900962565,-0.3767982349308805,-0.5589504745927015
54.0,6.328965663909912,-0.174073394095947,0.3984888007283837,1.0178469420512057,0.02660986972790616,-0.029025546081295817,-1.6462639698561885,-0.6847726549499173,-0.10449239422697841,0.20725570497560833,0.8149992778313713,-0.4524911772877008,0.13124227147872447,-0.19327015642945217,0.2929224514458272,0.12342842747924267,0.7758602036757083,-0.06190461768724183,-0.04755866490742543,0.04502601732335394,0.12038316978786648,-0.0603064676533761,-0.11780572991687208,-0.0865123541890305,-0.1161615444588959,0.9611437919213688,0.18283442814637654,0.7740484694147457,0.23413687907175387,-0.1695983675500688,-0.2781094579091342,0.20422361622611646,0.8405469486430744,-0.4864400805356266,-0.37551500314973946,-0.5642391724593303
56.0,6.374803066253662,-0.17564219787778607,0.39309261199725487,1.0178816875584857,0.02727926344453591,-0.02764513305446379,-1.648542153273311,-0.6895180185287976,-0.10863574741947826,0.20856759407211245,0.7933784594726314,-0.4546124142455371,0.12850983230164204,-0.1861388232742972,0.2916539319683814,0.11945795790684474,0.7695579937338888,-0.058072746601447164,-0.0486601969398906,0.04466768636445109,0.12057478330799777,-0.06069644617456535,-0.1169254114402496,-0.08471803243916677,-0.11830382265226075,0.9632568198458913,0.18439986978040068,0.7759853648494082,0.23227557670968446,-0.1711472475659751,-0.2795537233665689,0.19898309869189743,0.8371898759377117,-0.4841035271183857,-0.37452814321440514,-0.5694206117511962
57.0,6.421342849731445,-0.17735383662588727,0.386695033461655,1.0177862352186748,0.02790615610067261,-0.02596449919230269,-1.6517230426742737,-0.6940469820851684,-0.11308421951180214,0.2089717529177473,0.7716765130176464,-0.45921918649734905,0.1263153519560543,-0.17792587277223154,0.28985958536846923,0.11462106481488894,0.7629640519003515,-0.05241559040340675,-0.049710766166894974,0.04463041137740052,0.12015889308774239,-0.06151241824762314,-0.11618358756370034,-0.08239937149768489,-0.12043281067558605,0.9645487140365132,0.18613818246276193,0.7769737442349149,0.2306200091288833,-0.17331643296416502,-0.28055902724085785,0.19362387128643865,0.8338871137280626,-0.4816008291109586,-0.37196375171908597,-0.5737739992877114
59.0,6.462180137634277,-0.17873676527628918,0.3812335407677516,1.017645438255193,0.02843753322556423,-0.02462533799615272,-1.6544338746531246,-0.69687457488849,-0.1169658803927115,0.2083753476840901,0.754768011514561,-0.4638922218490796,0.12513648556446363,-0.17084096272749416,0.2879187743159986,0.11025632998642308,0.7571979105197721,-0.046596861882792606,-0.05056222456792481,0.044696975361743704,0.11936948459523483,-0.06251375227284625,-0.11570955687604717,-0.08054029354309697,-0.12203415820504686,0.9651808091897494,0.18745920398341723,0.7766767850429621,0.22938464346013487,-0.17499991579052293,-0.2810899540571707,0.18928805268756532,0.8312305045494611,-0.4794140165992343,-0.3694328453602681,-0.5765616093948005
60.0,6.516468286514282,-0.18030915390062358,0.37471301079119207,1.0170551723918413,0.02886291183696347,-0.02287411413330137,-1.6578363126289228,-0.6998566776617432,-0.12090222502873307,0.20640470734676203,0.7403078325546901,-0.4700341471898623,0.12500786490746735,-0.16214007865748734,0.28583731031242665,0.10493224281533386,0.7508538636393998,-0.03963411717126624,-0.05159259881704093,0.044708449969175966,0.11850917566631888,-0.06384894969226668,-0.11498665201489448,-0.07899061113396368,-0.12332764445505448,0.9654803511249792,0.18831140176616992,0.7755953641612867,0.22775141591839992,-0.17601938269391074,-0.2815416929561967,0.18477210883138534,0.8282874506458775,-0.476562838017938,-0.3683262333712639,-0.5786838908178678
62.0,6.563436985015869,-0.1816981710734381,0.3688716029823479,1.0162540889148899,0.029099843449670742,-0.021215227492968995,-1.6608684863954513,-0.7022184810498597,-0.12406663753002364,0.2041508610985615,0.7299490605928518,-0.47536083338392154,0.12546512417782102,-0.15359307359172855,0.2841633959031672,0.1001874633116067,0.744545426023956,-0.033276677293161784,-0.052555723595912915,0.04457004989081023,0.11804375783784862,-0.06459999950074059,-0.11419789880616313,-0.07768758311639237,-0.12418252315828224,0.9657841965880682,0.1887816701426014,0.7746341628081865,0.22615920381968263,-0.17597546103078218,-0.28174307813678645,0.18124569808329036,0.8254474267982641,-0.47426181922774197,-0.3685374748174065,-0.5803216359949319
64.0,6.622612953186035,-0.1833162698757447,0.3619395052521938,1.014882843469137,0.029173785178496725,-0.01930417390341427,-1.6648132985062771,-0.7044166783590423,-0.12593652892167542,0.203008353399175,0.7227202298585989,-0.4811364248373095,0.12675350630025697,-0.1427978512219502,0.2826818847257403,0.09527525640092735,0.7373080483068702,-0.026422803545625203,-0.05354557892371453,0.04447233161356011,0.11797443573948649,-0.06480873309090468,-0.11326885637861266,-0.0754228220056315,-0.12414094401270753,0.9660242208843943,0.18888526853021032,0.7745369603155238,0.22471306256005202,-0.1747728175303112,-0.281102133652515,0.17906240675448656,0.8221632634471014,-0.4727914576822694,-0.3699137437308486,-0.5817141192606405
65.0,6.697299242019653,-0.18520422589984412,0.35385111565337635,1.013380494432082,0.029514765471959907,-0.01699009553005811,-1.6696938133641117,-0.7057222222707349,-0.12561938162387623,0.20421668361960615,0.7177162228642637,-0.48694899173710127,0.1284345827606552,-0.1312977551857033,0.2815416966612714,0.09030705938260242,0.7302754899671033,-0.018959560618639973,-0.054439795947872315,0.04482061752368813,0.11802575225727736,-0.06570257904865381,-0.11246853344123797,-0.0719154502512366,-0.1229962984943361,0.9660559957708204,0.18869907653877438,0.7749570945642489,0.2239380476557951,-0.17300453131939658,-0.27948923779707724,0.17845392003394978,0.8188604064630103,-0.47245145677210476,-0.3718716174752851,-0.5828677325426529
67.0,6.746108293533325,-0.186842930520837,0.3468883024409105,1.0122451391453375,0.02996343275190058,-0.014747195086182122,-1.6740312576469996,-0.7058325490661923,-0.12392276327578547,0.2061725467195668,0.7150960472967056,-0.4909520662721669,0.12985028397033738,-0.12192392514517736,0.2810754350482906,0.08646999617098783,0.7245880986763917,-0.01236165587504433,-0.05509191857629733,0.045418369621755966,0.11814548403267902,-0.0669239544159649,-0.11199983339224076,-0.06866744965563706,-0.12147806124514753,0.9659866472610066,0.18837837223828247,0.7754117784468371,0.22383718912856837,-0.17115955749021255,-0.27773815969731686,0.1787713667444613,0.8162950592572248,-0.4729059645404742,-0.3736473493701809,-0.5835810810500681
69.0,6.793742656707764,-0.1887885200947143,0.3386133893790172,1.01118033322345,0.030560730620812222,-0.011928418794859367,-1.6793439201412572,-0.7041124079801888,-0.12065881757603458,0.20878719300776122,0.7141155569133442,-0.49362963171015417,0.13120249784235177,-0.11263613082839957,0.28137100949230875,0.08277568540342274,0.7206899190913703,-0.005456277576988109,-0.055476890831859554,0.046328651836023506,0.11777538269116414,-0.06915511282164757,-0.11198001377032071,-0.065232321915132,-0.11902905007722309,0.9657641259017389,0.1877028970264214,0.7758247351141787,0.22469611349151292,-0.16881126551333825,-0.2757107057757387,0.18026316066499948,0.8142511045123547,-0.4742604386646078,-0.3755862534114699,-0.5839237446007501
71.0,6.850990295410156,-0.1909168150717278,0.32944311321648373,1.010156068353577,0.030859905566313607,-0.0087856345850811,-1.6855208344487311,-0.6998850608083169,-0.11613105522267445,0.21182992575685256,0.7150056359581978,-0.49588025993240686,0.1323338009899812,-0.1034809825032193,0.2822082453817464,0.0794124740421303,0.7189861668476164,0.0017221056767030714,-0.0555460298668842,0.04732375027084092,0.11678056809487686,-0.07153393615552736,-0.11203607133795587,-0.06186090200629611,-0.11569057833197545,0.9653881709811831,0.1865969242168859,0.7759631176050779,0.2264613380445084,-0.1655991062403477,-0.27343248200062675,0.1830399336047354,0.8129160371309354,-0.47659038598434555,-0.3777733269899066,-0.5840283294933727
72.0,6.916261672973633,-0.1931910527043411,0.31937144240781745,1.0090400128005093,0.030890989140006785,-0.005258623136090304,-1.6928103650265443,-0.6933710022341659,-0.10983847178851691,0.21615072789603668,0.7180069323405021,-0.4968481992425607,0.13340685931591864,-0.09418968531874738,0.28338180037379124,0.0763397802945,0.7192201411575149,0.00987236861263301,-0.05526824783073811,0.04878588520362387,0.11574051967603505,-0.07375585207383514,-0.11147889687089912,-0.05801816151334359,-0.11176701580972886,0.9649253366445327,0.18519320002993464,0.7760333379593853,0.22842008463194913,-0.16097730123460235,-0.2700648078764779,0.18697043219862466,0.8124463323431573,-0.47935166178659777,-0.3799391873176101,-0.5839349614473881
73.0,6.953837156295776,-0.19515352604991287,0.310621431592808,1.008079235022107,0.030664282079636528,-0.0021811075818065277,-1.6996439269015342,-0.6867685131519784,-0.10319967425566129,0.22108145781061744,0.7218993911035911,-0.49637693178923914,0.13428000297724835,-0.08609650346873528,0.28447210506157866,0.0742656108180266,0.7200194820271038,0.01742741042149277,-0.054954165715703954,0.05052204999093338,0.11487699870051207,-0.07541499382277396,-0.1106010411002522,-0.05457027530292556,-0.10829390078371032,0.9644649701062209,0.18390451897093804,0.7760642194622563,0.23004069390758491,-0.15650353214168541,-0.26662306816233017,0.1906298545347243,0.8125540609110565,-0.4817114116123339,-0.3816252894883137,-0.5837675499887942
74.0,6.9911699295043945,-0.19680720579237243,0.30320996091924457,1.0072851388875557,0.030235560512106074,0.0003126323659735019,-1.7058754072681324,-0.6802930898240984,-0.09648621555928785,0.2265555080981634,0.7263722318610407,-0.4943513277847501,0.1350065931160318,-0.07917466374292689,0.28528491493228064,0.07314232650456651,0.7211605114611241,0.02416712508809963,-0.05468606105567912,0.05243253016978021,0.11398478780489875,-0.0766465651962416,-0.10952951575049535,-0.05153033549435737,-0.10538436269390059,0.9640287321747119,0.1827982179908869,0.7761497676214515,0.23124312704308403,-0.15237884133045898,-0.2632287343871818,0.1937876914083775,0.813110564962801,-0.4835129936775712,-0.38277728942702793,-0.5835469417531772
76.0,7.043123006820679,-0.1982529154461552,0.29666383212728076,1.006623823027839,0.02969929583831884,0.0022875605399210793,-1.7116508623729447,-0.6739687587586122,-0.08990694074787989,0.2323482061387645,0.7310756377125692,-0.4909609930016241,0.13570144759387787,-0.07302612562548287,0.28568551439251244,0.07264076678262066,0.7224899807096468,0.03009414332007545,-0.05452577075118706,0.05438288828325624,0.11290565472917019,-0.07777425530579216,-0.10835220878570037,-0.04869099696557773,-0.10295831724933051,0.9636898689233441,0.18188517858220454,0.7764869753943286,0.2320475492837088,-0.14848203783811664,-0.2598191089720771,0.19651999141617837,0.8139751790950944,-0.4848090920724357,-0.3834681767921964,-0.5832932883262868
78.0,7.111769676208496,-0.20007606937828656,0.2879429569600928,1.0059411308765678,0.029083733660731182,0.004288324447144363,-1.7188195274512907,-0.6654597467524592,-0.08186376578873347,0.23993370250953155,0.7371786064759349,-0.4846934625543533,0.13697329521033513,-0.06515955521469939,0.28494143305835673,0.0717281006121758,0.7246387905420616,0.036719027021999126,-0.05466402395080276,0.05640389702476947,0.11094465607892828,-0.07999570221817748,-0.10621423489781842,-0.04477472892354011,-0.10016222752239971,0.9636646999898172,0.1808336965285112,0.7777843790029841,0.23243679773308176,-0.14210958395295423,-0.2548869967044636,0.20034639262410248,0.8154889954554294,-0.4861744450460628,-0.38405627287612426,-0.5828034731612962
79.0,7.163297414779663,-0.2022994786574161,0.2769820773736752,1.0056528595248555,0.02846167362438024,0.005877303672460087,-1.7269693429637085,-0.6562143400349542,-0.07349746929704846,0.2477192493772471,0.7436337474341592,-0.47648875749666086,0.1389106656830891,-0.05523133626957544,0.28236807163849353,0.07024829540395536,0.7268103088267555,0.043604438424505905,-0.05566146420286154,0.058341525310165065,0.10750912180322822,-0.08363546198590356,-0.10302029650760557,-0.040085775407942816,-0.09700982646932535,0.9637916509184701,0.17960182147010328,0.7798543267451176,0.23253862150274704,-0.1328506300970741,-0.24854951486999022,0.20543705642560645,0.8178552857384882,-0.48760979546892935,-0.3837567096067766,-0.581291474278286
81.0,7.210442543029785,-0.20430872480218218,0.26707029662434634,1.0057538398643044,0.027953402477511234,0.006487157150940639,-1.7340016501215287,-0.648989508497288,-0.06708680312722343,0.2535870367442432,0.7488288138734194,-0.4682873825201438,0.1406949402455799,-0.04614154256905307,0.2790292943543856,0.06917935657439195,0.7283675403224191,0.04916498360109438,-0.057125256863959514,0.059926501180974194,0.10347149711339597,-0.08742111883308024,-0.09995763910959625,-0.03563859841660467,-0.09424906119501865,0.9636993557024136,0.17852974621294548,0.7817920417411754,0.23241688059579943,-0.12396954282042111,-0.2422599486905328,0.21012119967566886,0.8202873253541385,-0.48872232301826113,-0.3823101788181751,-0.5797686412053813
83.0,7.258149862289429,-0.2066504873220922,0.2554639319529891,1.0063091223930292,0.028296770456653693,0.005322919787825597,-1.740569091738354,-0.6439541799679229,-0.06305895705007787,0.25696274880298886,0.7547466501963687,-0.452198426964312,0.14216884211852893,-0.03685759287337007,0.27348810251029615,0.06834653759640003,0.7306663108925959,0.0543008743148061,-0.05937651601632836,0.06060511740241639,0.09686229567890123,-0.09325558581109333,-0.09696520027542514,-0.02980517180340766,-0.09108148403651134,0.9634327200323509,0.1773434996152527,0.7837674296636343,0.23175270679855964,-0.11300211118797518,-0.23334296931504056,0.214899065263945,0.8234241354134191,-0.48936529808143714,-0.3782647665669351,-0.5794835090596373
84.0,7.314850807189941,-0.2092290470455905,0.24290885462753808,1.0068399406971866,0.02949483792981812,0.0028727382715612354,-1.7452023679946136,-0.6417506799592336,-0.06280067339775378,0.255963641152186,0.7631115589319398,-0.4234793758865659,0.14196778744715485,-0.028895326239173357,0.26662036506245324,0.0669005521268489,0.7350809506316567,0.059667860939858604,-0.06186551739633005,0.05969804120732377,0.08805304993520864,-0.10050166021227262,-0.09497817405254932,-0.023400387574363843,-0.08783064694345295,0.9633521272644604,0.17613690138692797,0.7860797839607406,0.2306204828495025,-0.1003946642050011,-0.22262705360493218,0.21855476583041908,0.8272448213495935,-0.48863176378766804,-0.3724141186978723,-0.5808409381214129
85.0,7.363860368728638,-0.211432547499184,0.23239951644228185,1.0071173833593825,0.03071620614061469,0.0004233527200154227,-1.7474842518662244,-0.6410608587641142,-0.06509440479751724,0.2524072165624332,0.7710234927379702,-0.3945961358462209,0.14080875865662762,-0.023483983706904563,0.2602846911784232,0.064486457681315,0.7403099862236702,0.06474452794837486,-0.0639259571348026,0.0578235862045377,0.07983414677835425,-0.10680790128682685,-0.09403817374514728,-0.018024718100661304,-0.08514901486760568,0.9634767373133661,0.17517971611006744,0.7883057985753392,0.2296760512815874,-0.08918064851889669,-0.21315994936632832,0.22091706770860997,0.8308086123253523,-0.48706035938780656,-0.36688573421281556,-0.5824079857471676
87.0,7.401782989501953,-0.21333102037588,0.22334953563246757,1.0071676648606591,0.03171866513089424,-0.0014530985594735397,-1.747881136219418,-0.6407339322427361,-0.06862470579456739,0.24762953252507286,0.7785073111481975,-0.36885017175382284,0.1393814036756323,-0.019769431076629533,0.25445355202222847,0.060498303337654144,0.7462322167521582,0.0700759034621755,-0.06559164606052101,0.055021103492978604,0.07277709004085035,-0.11202481054348301,-0.09386988119754841,-0.01362284315553932,-0.08278488358188237,0.9639902249552648,0.17438112213764856,0.7905717817576161,0.2292152706167606,-0.07864090602044847,-0.2049257885886216,0.2224634723853785,0.8342848203617022,-0.48484207889918063,-0.3622436790715331,-0.5837180053527915
89.0,7.459094285964966,-0.21531041802851786,0.21303682485703684,1.0071305471539411,0.03230781012746026,-0.0019700947604730772,-1.7462383447945067,-0.638905022034594,-0.0714124569137848,0.24364832505223932,0.7881435145024474,-0.34812227714667365,0.1389359235293026,-0.016356907847735982,0.2471355458579585,0.05160679200037321,0.7545346630515366,0.0786326171743629,-0.06738868609987014,0.05039285836333594,0.0671136242090283,-0.11681701149616044,-0.0951760483176693,-0.009599653599418584,-0.07981628299108975,0.965776832599414,0.1734579302779084,0.7941338272154901,0.22992585094941959,-0.06472586542557629,-0.19622322446935214,0.22314685931554107,0.8390057618547513,-0.4808910092703905,-0.3588303744319232,-0.5850940223783143
90.0,7.515774250030518,-0.2172559006058842,0.20140158695077992,1.0073950431602299,0.03265618587675584,-0.0014244301900265403,-1.7441538413010338,-0.6344680861123204,-0.072193666835624,0.2423377950748702,0.7986870644737795,-0.33624894908976755,0.14059561505910373,-0.013267303970908592,0.23588867315065337,0.036355728833886866,0.7642965973318425,0.09144002846069105,-0.07012877723962703,0.04584886120548419,0.06306530826481625,-0.12176419554841336,-0.09821794169438836,-0.005915012516515883,-0.0765330061471741,0.9687717268540825,0.17255910262701063,0.7994251632068048,0.2315261609173315,-0.0476000625712057,-0.18705707319996148,0.22270179340670876,0.8449980650303515,-0.47512701662102963,-0.35579926363122794,-0.5864021681833345
92.0,7.568214654922485,-0.2188383164824156,0.19115078201724844,1.0077614808862363,0.032967238904209814,-0.0008269304012473247,-1.742733585539074,-0.629892900140974,-0.07318993640322564,0.24088242265368265,0.8076717044913982,-0.33058565067467527,0.1427333038252553,-0.011090141782867224,0.2234460843015708,0.01988945179848381,0.7731264119074275,0.10471644569375489,-0.07337158952210515,0.0427384993400753,0.060037309984900436,-0.1264830376926801,-0.10182251738320038,-0.0029993177017424042,-0.07370833889009121,0.9717410414044905,0.17178454665338036,0.8043946838842392,0.2331025631357126,-0.03219618403017976,-0.17912125809312782,0.22182204300931385,0.8506280951828984,-0.4694707132121275,-0.3527585070833759,-0.5872870090932301
93.0,7.628544330596924,-0.22038272257582833,0.17962286732826035,1.008246715011223,0.03358280691479239,-0.0004989209108065975,-1.743433942602587,-0.6242521874629225,-0.07681170156857223,0.2359006004707052,0.816809555699724,-0.3311998459188292,0.1450833124701023,-0.010049622801249172,0.20471841570562932,-0.0022848979928511755,0.7842931919837695,0.12357374970352883,-0.07828294728613894,0.04175781532973276,0.057570050097682346,-0.1325707891216259,-0.10718070488588805,0.0001699726802583102,-0.07032003614204611,0.974340214592662,0.17052471025296603,0.8086414781253174,0.23430078254068992,-0.015864082015593632,-0.1702788999255628,0.22104348677323032,0.857585515727219,-0.46346483666984495,-0.3486654414017073,-0.5877201852244215
94.0,7.656290292739868,-0.22154756638982215,0.17021949103780953,1.0086676931733627,0.03411422576254891,-0.0008647553707048555,-1.7450478824607174,-0.619235335259813,-0.08119721904322838,0.23066649656460092,0.8236389533844768,-0.3352337727653769,0.14688582335293165,-0.010520669583925241,0.1857251326243296,-0.023368323546036362,0.7952079129498977,0.14175480555626546,-0.08356430720372365,0.04219768001432936,0.05564864906438487,-0.13816606049032742,-0.11241154202718665,0.0031581698256293437,-0.06742793334760233,0.976366146647446,0.16925662242021858,0.8113797711357587,0.23462642622815236,-0.0029959309639995507,-0.16279498090251823,0.22111840547922523,0.8636889547351633,-0.4590402983324872,-0.34508373063264886,-0.5877422143796076
95.0,7.686471939086914,-0.22248215716919284,0.16228758313626573,1.0090788101386765,0.03442027129227516,-0.001830066825165122,-1.7473793939954179,-0.6143489509632555,-0.08528345627737208,0.22654295673891872,0.8287032591915261,-0.34095437518501154,0.14813840264975536,-0.012436745694275015,0.16666870715825438,-0.04315486504238013,0.8068689490082548,0.15955619606599186,-0.08907150236485399,0.04351332730057253,0.05397009693503567,-0.14291272731800697,-0.11718913833166125,0.006103288876918594,-0.06487604347618903,0.977881788958836,0.16796080615399425,0.8128412331153627,0.23426888618191605,0.007487774314192534,-0.15640538816708216,0.2223267134636944,0.8691575967135472,-0.4562192465746823,-0.3422571390806325,-0.5873962327040508
96.0,7.7234947681427,-0.22330507811657302,0.1551587596450082,1.00956932409331,0.034379623836243656,-0.0031784355660523303,-1.7503640070338724,-0.6089609849520256,-0.08805841348019813,0.22471500395349636,0.8325028726469081,-0.3474130428814447,0.14902662983265735,-0.015689608849938592,0.14732333999793304,-0.062020013442469754,0.8200566765996851,0.17768051228327864,-0.09481368371634813,0.04543680625240764,0.052315502905416464,-0.14659151031267847,-0.1214308457249898,0.008846574155761965,-0.06253883526753007,0.978927916660904,0.16665499829970526,0.8134585947667559,0.23367788810147228,0.016755516958547954,-0.1510044130741466,0.2245648100474928,0.8742715631957153,-0.4546892508999024,-0.3400438507785628,-0.5865875599717905
98.0,7.7743024826049805,-0.22403274591937503,0.1488341840252391,1.0101175225780104,0.03396795687289339,-0.00475867741338859,-1.7540162277763223,-0.6031481496833178,-0.08942620085940242,0.22508164017598853,0.8350728699640617,-0.35383286354116694,0.14945982944568076,-0.02016875283534042,0.12822533162563757,-0.07935289372846514,0.8347314129569219,0.19601323764940815,-0.10072324179842436,0.047931179593678756,0.05055895761758492,-0.14907363186133463,-0.12511671310099456,0.010984926159299274,-0.060365840557358136,0.9792833953671407,0.16534494619388845,0.8132784196217193,0.23331982605070364,0.02467411670970171,-0.14696362569994098,0.22764624035220937,0.8789679786808061,-0.45432942851781255,-0.33802235073885106,-0.5849482246215361
100.0,7.8342461585998535,-0.2249954556816128,0.14023466760692643,1.0109084794885859,0.03319793429622087,-0.006629172733267593,-1.7608494138143376,-0.5944193083386409,-0.09039914589303531,0.22604525036347034,0.8374966453329047,-0.36216575438960175,0.14919923025196064,-0.028448103854304123,0.10356015188902183,-0.09881553557010844,0.8582101692136342,0.224366779394421,-0.10837172085720229,0.052451965822764686,0.04859354164102228,-0.15132366065133204,-0.13012560383267327,0.012788095901851981,-0.05661599858583154,0.9774518107793883,0.16311063731529968,0.8114432072348137,0.2342424777124447,0.03341400179946961,-0.14348760688062934,0.2333161057036222,0.8854179709494181,-0.4556600084872795,-0.3341869663804755,-0.5797851865847116
101.0,7.888076543807983,-0.22607526613388734,0.13010403386161581,1.0118896072005508,0.03262532971013502,-0.008826634056858393,-1.7702580144849238,-0.5839945874220279,-0.09199142265462078,0.2264062805132976,0.8392957484107566,-0.37240187134342634,0.1486058870781328,-0.04148162458351477,0.07556463379533034,-0.11758138970268478,0.8896390831049614,0.26075680334379736,-0.11772886637737098,0.05820304401462531,0.04677182102145054,-0.15415468214758177,-0.13638001355291518,0.01474964824703888,-0.051474077189963996,0.9731568479926271,0.16015374414302982,0.8069800816589952,0.23626866950616238,0.0404811894025747,-0.14079083757878486,0.24182510375110639,0.8930477368666394,-0.4590689911775797,-0.32832696459898614,-0.5705621353635855
103.0,7.942158460617065,-0.22697365260397148,0.12136918216166379,1.0128052289880678,0.03240297904427767,-0.011125948329775157,-1.779004290611106,-0.5749200535975412,-0.09373714637635645,0.22685810152186003,0.8400423030663695,-0.3817893114876137,0.1482076571415718,-0.05538342494949433,0.05186421280160263,-0.13105528429949145,0.9194965259748447,0.2928612463161345,-0.12660619393054218,0.06308809295231821,0.045206262498612426,-0.15688543109783115,-0.14199388777136737,0.01674249226066951,-0.046991794319676566,0.9685240282636833,0.15757803680168606,0.8017370962764374,0.23791620161640203,0.04461742163192871,-0.13887515930881542,0.25023944610890897,0.8994530473314826,-0.4627631402175666,-0.32236759653486824,-0.5612149802408637
104.0,7.989260911941528,-0.22787335829034416,0.11175659508688453,1.0140680873787038,0.03273882268766151,-0.012803264057937521,-1.7885182221809781,-0.5646585425995908,-0.09521155318179352,0.22688835656712683,0.8398221014913648,-0.39265401984262405,0.14849127717796426,-0.07426751953591157,0.0315640192923223,-0.13872564498746046,0.9537435477749834,0.32199922030543937,-0.13504807365304278,0.06723798859619852,0.045608295928829395,-0.1595160966461433,-0.14826393959804574,0.019359885993059395,-0.043808352753254905,0.9619101087932048,0.1555746455657297,0.7940732623889125,0.23773967676482063,0.04617824521514049,-0.13763123156915785,0.25997084363909945,0.9055910376932528,-0.46763302131943,-0.31571219811981366,-0.5500997164233461
105.0,8.0354163646698,-0.22853988993089358,0.10407864881173426,1.0151804772693107,0.03327122744645671,-0.013992592717496699,-1.7962890289426725,-0.5563227520607743,-0.09618264799020027,0.22713585480184212,0.8390186389517034,-0.4016526731876947,0.14905313484355587,-0.09227301306937313,0.018507566630034507,-0.14076786720952558,0.9829722425082628,0.33832103786143836,-0.1411237350485613,0.06994224185640098,0.04691265049147842,-0.1612486673033835,-0.1533468617040506,0.021908360410463425,-0.04244834944389639,0.955895070749329,0.15450150398858942,0.7869349051130508,0.23602183705602847,0.04584640256834632,-0.13710968085834543,0.26814187800760453,0.9097572375933441,-0.471700901739768,-0.3101312581486537,-0.5408629355738569
106.0,8.060792922973633,-0.22905319247125072,0.09770766003834327,1.0161423378545216,0.03388997410196924,-0.01466926241575691,-1.8026544216391627,-0.5494017665387201,-0.09666296834318455,0.2274554513637954,0.8380759293934295,-0.40887484357703896,0.14959210937944492,-0.1094713284476464,0.011837169925578815,-0.13840620747084956,1.0082288151926693,0.3420893707970307,-0.14422933266754595,0.07155170311666278,0.04892347832206141,-0.16212213191816027,-0.15764198165790164,0.024133157826336397,-0.04241993573203898,0.9503773360277654,0.1541487077912555,0.7804091369737831,0.23347310380746067,0.044697557721325346,-0.1373065673654855,0.27480948495313856,0.9123687624750133,-0.4748856950862532,-0.30574054689645147,-0.5332951034381226
107.0,8.094156742095947,-0.22947350872001662,0.09204025676443996,1.0169791401661283,0.034673856109026006,-0.014929904035944467,-1.8081696789429706,-0.5435154232164463,-0.09675790501163617,0.22772609227690782,0.8372716395072475,-0.41463642375780546,0.14988143067897047,-0.12645710906467753,0.010159494931879941,-0.13284647207440067,1.0310634932118998,0.334753795067049,-0.14427001308556042,0.07247345033043712,0.051420929703151576,-0.162570729591682,-0.16166054181605247,0.025931339386046276,-0.043020146223201626,0.9450755007369964,0.15423110866119205,0.7741797089634197,0.2309790883050496,0.04309011471663679,-0.13818372690888406,0.2802907178266286,0.913905679469506,-0.4772748955885472,-0.30241077816243667,-0.5266028201699635
108.0,8.120800971984863,-0.2297929126733893,0.08703712884790327,1.0176902485521455,0.03582190615661721,-0.014830114151677138,-1.8130943112335545,-0.5388144469788889,-0.0963269559776074,0.22812891249469835,0.8366842449104873,-0.4190778787917413,0.14990910401095364,-0.14323799146170557,0.012639243674758757,-0.1249623520504418,1.0514209334792026,0.31657252999054997,-0.1414745995662507,0.07297326078920795,0.054353928601139356,-0.16305710952375588,-0.16550725922162368,0.027380785977860714,-0.04393305810432537,0.9400706075495047,0.15467094823878214,0.7681746556395374,0.2289869846558612,0.04092871442156893,-0.13953845744986954,0.28451598792094496,0.9144733014247823,-0.47871214013227925,-0.3002622849718307,-0.5205864472563161
109.0,8.151595115661621,-0.23002213772004326,0.08208834439624714,1.0184026308261664,0.03761480989301641,-0.014134999891043012,-1.8186516916893316,-0.5346861181101805,-0.0948644081411664,0.22884266625749972,0.8363336245052546,-0.4233808872688643,0.14988728825615258,-0.16060920966786563,0.01390196186583239,-0.11939532341006137,1.0709324481262692,0.2895719915314835,-0.138734340918492,0.07390137029598248,0.05831093985681201,-0.1640219759072069,-0.1693542050012763,0.028681072857465836,-0.04508828093252541,0.934916079874986,0.15548727124072748,0.7617647006265342,0.22759261014260507,0.038259211096243625,-0.14119108452506435,0.28793570683227226,0.9144825602533434,-0.47948047388646786,-0.2991489756959088,-0.5147153233255306
110.0,8.201687097549438,-0.23018015505164224,0.07720183348783743,1.019131019975893,0.03985208283942843,-0.012941425793119694,-1.824832346503383,-0.5308518998911445,-0.09259150532329508,0.22977942942254626,0.8360826733885163,-0.4279920813544013,0.14992853282166824,-0.17840857724852488,0.01374358173211647,-0.11608915064520474,1.0895250002173829,0.2550936778371118,-0.1366947241388473,0.07526895146532742,0.06316489115786106,-0.16520402252837296,-0.17287253767065675,0.03004052455065591,-0.04664767216439092,0.9295912846385471,0.15684784824869322,0.7547729018419453,0.2267679368255641,0.03537005298911362,-0.14281899028928818,0.29058285706335507,0.9139568214604468,-0.47972516122346465,-0.2989046847289243,-0.5096111284200935
112.0,8.243593454360962,-0.23029867305958435,0.07239227060405451,1.019864000271335,0.04182412503502326,-0.011461064195181444,-1.8309971366556685,-0.5267069865916483,-0.09022869913848496,0.23061036997677925,0.8357986988862798,-0.43303329360867193,0.150039305916552,-0.1959476236510953,0.012210941941472483,-0.11475454557468276,1.107161546931386,0.21455818089754103,-0.13559019882255258,0.07655409076609924,0.0683587085808984,-0.16574131663585728,-0.17599654560920536,0.03149657094121518,-0.04867072552625529,0.9241525169785092,0.15885139744218346,0.7472216684331193,0.22662563185003415,0.03256242527798951,-0.14418804687046854,0.2923927590944051,0.9128701182103514,-0.479590365092072,-0.29925346736985664,-0.5060793951226095
113.0,8.289993524551392,-0.2304430212131932,0.0657929699018554,1.0209055784558405,0.04199255051418592,-0.008998444102573814,-1.8366741919329377,-0.5184365419817027,-0.08897966357165069,0.22995995791721152,0.8348755324185777,-0.4399626389831814,0.1501262959173627,-0.216748080235531,0.008465933001303983,-0.1160018830405984,1.1272283474954095,0.15255406804353727,-0.13547212216929322,0.07576135613487787,0.07485864710953494,-0.16265325131151925,-0.1811671605389263,0.03322217895764053,-0.05196085711282682,0.9174439531208688,0.16256673755165446,0.7370464853643726,0.22829818420310483,0.028660725929911042,-0.14527515815704978,0.29235906186228533,0.9107655068095013,-0.47879056314551566,-0.30030451250019585,-0.5059691047509748
114.0,8.323282480239868,-0.23053704707655737,0.05973315770999268,1.021768273781458,0.040665027861964805,-0.0071253722636375715,-1.8402225947011324,-0.5095729547335759,-0.08951172622916106,0.22875613690517982,0.833776919957355,-0.4463233395322715,0.15023550893245108,-0.23488005971577158,0.004155892024905499,-0.11768934463495759,1.145017230896501,0.09148161444687151,-0.13582541130115672,0.07342845530069285,0.07990214326283712,-0.15785117039717297,-0.18705147850785156,0.0348434047704404,-0.05495480207401865,0.9117745231016836,0.16622244576267958,0.7286326653262041,0.23013364533491437,0.024771664131803664,-0.14590330351977082,0.2911865712051226,0.908078263559918,-0.4776303243691826,-0.3010078409556003,-0.5080307775319527
115.0,8.354161977767944,-0.23058292395250918,0.05416866776053385,1.0224596523116098,0.03846906559051257,-0.005680099661835162,-1.8421166898350962,-0.5006177893085703,-0.09135189110855806,0.22704757585375712,0.8325106934805084,-0.4520118263585018,0.15041246938645253,-0.25071033563673134,-0.0003571853297517963,-0.11954844680576521,1.1599659024660371,0.03393049142652105,-0.13656717569914034,0.06987352957501157,0.08390108042091596,-0.15222940373860772,-0.19360650504503862,0.03630370149183307,-0.05745287634936859,0.9073154835451047,0.16953733364432172,0.7224130428329002,0.23179736008864515,0.02101674208167993,-0.14634921933592435,0.28924516814225415,0.9049180842650226,-0.47634396447992733,-0.30154734101482944,-0.5116191868838738
116.0,8.393957138061523,-0.23059208690495947,0.0490809044378709,1.0229895537857319,0.036116566578924744,-0.004456319894387763,-1.8430301614055962,-0.49214912683722256,-0.09379499621781053,0.22504036473699823,0.831141898173825,-0.4569239232597195,0.15065533334903572,-0.2647470489712101,-0.00464046304085084,-0.1213387620539074,1.171640225500418,-0.017855429654310438,-0.13759493629394762,0.06564181858170365,0.087340697045205,-0.1467038206137492,-0.20030543262116818,0.03752642624492217,-0.05943845928413696,0.9040173784478175,0.17237602336988028,0.7183368969603712,0.23308218815010595,0.017788267270818645,-0.14691575722151728,0.28695010272615207,0.9013060866389824,-0.475203551046065,-0.30231753456290333,-0.5162232077616723
117.0,8.42567753791809,-0.23058269633642114,0.04444655289620961,1.0233728619291598,0.033954789145583295,-0.0033249219313495363,-1.843288151357709,-0.4844988747275278,-0.09635661478125143,0.22293388084844057,0.8298050747027939,-0.46085827464651674,0.15087809214568626,-0.27717610317206,-0.008321097288358387,-0.12288288151727789,1.1798349670078503,-0.06229607377278901,-0.13868452633163952,0.061124702549004414,0.09047945673638734,-0.1418007738770404,-0.2066365007208291,0.038552020063123985,-0.06104392577421132,0.901695430706239,0.17474458148471667,0.7159950237236519,0.2337942870800176,0.015400042025794588,-0.14769187358364513,0.28458727382543547,0.897279499811756,-0.4743102559204595,-0.3035751804990016,-0.5213759841355246
119.0,8.47106647491455,-0.23057989907051074,0.03976668995570931,1.0237106192675531,0.031904494243948985,-0.002036273730399549,-1.843106078448747,-0.47699496369235095,-0.09890314652965787,0.22064101185885326,0.8284930970661615,-0.4641149970910867,0.150970361036069,-0.2890928862634997,-0.011327945431364643,-0.1241646146403047,1.185373005048703,-0.10274521105430395,-0.13957764920485383,0.05634869057523132,0.09379534746550694,-0.13727305668840353,-0.21292278281275862,0.0396709141477754,-0.06266225082837312,0.899788392641595,0.1770156226721072,0.7142549196911098,0.23400233729863038,0.013472635084299389,-0.14844762495104236,0.2820511619989013,0.892959245293584,-0.4734554943462441,-0.305055799400198,-0.5268174254277531
121.0,8.540894985198975,-0.23058482630685428,0.03304775575516365,1.024159042643206,0.029619243990012797,0.00016458280107668126,-1.8421309154248156,-0.4670866658480335,-0.10211915998344943,0.21714448917852766,0.8270467471473453,-0.46773051751376304,0.15075139902715332,-0.30499055534790487,-0.012586219267281571,-0.12395544373715614,1.1866795427386956,-0.1488924256611064,-0.13971596902896516,0.04978261704059529,0.09939870997950465,-0.1325141901149741,-0.22222286818820508,0.04236282099158407,-0.06499510441644996,0.8978840109123731,0.1800159386164144,0.7126239273062827,0.23300679039240477,0.010330219062511255,-0.1482546410949224,0.27816872171715673,0.8878076086282174,-0.47194168590494845,-0.305599030488782,-0.5339153539259294
122.0,8.583892822265625,-0.23060405525481004,0.024803811201430256,1.0245618141805644,0.027408231888597846,0.0028113237926243708,-1.8400525045146119,-0.4558964805097314,-0.10592453987506092,0.21302729496967476,0.8257948176814961,-0.47181724601449315,0.1504413410224878,-0.32462975393896865,-0.010625880160221427,-0.12042200244686871,1.1830693476369087,-0.19504278297033506,-0.13848649421647125,0.04159474523094137,0.10707962461336204,-0.12834676030627828,-0.23421011047079002,0.04668378208503198,-0.06829513186571107,0.8968669320226823,0.18416608041243457,0.7123306928346315,0.23129325000817946,0.006373775340833147,-0.14716648753938327,0.2737337525664657,0.8819757629066602,-0.4704748184437201,-0.30560983797226193,-0.5426029227400226
123.0,8.621110439300537,-0.23065190529245683,0.017548219620333427,1.024751169727773,0.025410737837086476,0.004891430152425127,-1.8375351142931509,-0.446272248759073,-0.10955470650833936,0.20952166315928555,0.8249634227860796,-0.475305603616728,0.15014877942471708,-0.34223773603380936,-0.007167363893252884,-0.11535616652157232,1.17813357750192,-0.2313399377786165,-0.13641130033879145,0.03415006780457869,0.11366653580636096,-0.12492571292219021,-0.24487402896024746,0.050549432413473594,-0.07185931228444303,0.8966602629770601,0.1885418487095563,0.7122507209716917,0.23006617116167105,0.0034139463460438747,-0.146308391900885,0.26988797477658066,0.8763554204398499,-0.4693939051809598,-0.3060277779643623,-0.5503566862052125
125.0,8.673989295959473,-0.23073699565975078,0.01130907714959188,1.024714435661922,0.023545818373070862,0.006399780997442817,-1.834818090831574,-0.438105774424551,-0.11318073599340436,0.2062906763765331,0.8245588970651092,-0.47844747559143475,0.14979930155383137,-0.35775080755214905,-0.0023677194582152348,-0.1088619478358962,1.172391628938083,-0.2579669995367044,-0.133484114909416,0.027723874112485905,0.11878420850080028,-0.12197367553514007,-0.2536623485459666,0.05358339760429205,-0.07559955151748754,0.896697806577575,0.19307237353597012,0.7111894913714671,0.2298358582198569,0.001647064243815624,-0.14594069386829087,0.2664974474551661,0.8709697459932577,-0.46841395282846054,-0.3071151614250284,-0.5566964084327971
126.0,8.725776433944702,-0.2309481852975639,0.004212607317725164,1.0243000384670122,0.021304965430043104,0.007632272218246725,-1.8312733590588426,-0.42906780674767775,-0.11906648308963028,0.20044017996394214,0.8247524072130437,-0.4830926407263568,0.1487280156912697,-0.3760380466056862,0.006814377645657018,-0.09699054617568398,1.1627715224206105,-0.2773125828679397,-0.12815472968856867,0.021202661569211856,0.12288566128922829,-0.1186746508416009,-0.2619392503302917,0.05643319589836776,-0.08006054358571965,0.8952624306312867,0.19856019328466273,0.7058424756737687,0.231334817350268,0.0005902638592527669,-0.14584201495009985,0.2621798324287016,0.8650344346087866,-0.4660156164959672,-0.30841543822128525,-0.5610910700725495
128.0,8.765393733978271,-0.23117370914110713,-0.0018918934478540182,1.0237996056962542,0.019415547066658906,0.008413009491356344,-1.828064461821985,-0.42142297016481906,-0.12539101606729294,0.19378013974400787,0.8250683508428329,-0.48773643627593055,0.1475105447115711,-0.3921727105542816,0.0167282395528293,-0.08410065110926837,1.1532403420159825,-0.28899235685111485,-0.12263619382900273,0.01620678134191313,0.12560981553501743,-0.11575074241171693,-0.2686034859361857,0.05875619534403825,-0.08353586772604005,0.8934705755904905,0.20305239252373913,0.6992945583852992,0.2328106057224901,0.0003248423870949323,-0.14559842714281604,0.2580022979834893,0.8597756030397417,-0.4632240445743844,-0.3088706850731094,-0.5635613778842788
129.0,8.820107698440552,-0.23148950870343565,-0.009353101686622553,1.023062408685924,0.017491376674185738,0.009128948898397576,-1.8239236247020763,-0.4128308328643314,-0.13341842854744332,0.1851591384110614,0.8260611954409042,-0.49290956534175173,0.14596080815172885,-0.41223670882268837,0.0313229855800895,-0.06491958200610856,1.1396565248853459,-0.29479576561261434,-0.11575457256682123,0.010797835487984922,0.12862422371800383,-0.1125665101623373,-0.27637163880181687,0.06199871150700405,-0.08691232489618705,0.8905965226982164,0.2075742760760645,0.6917204151999254,0.23363544900880662,0.0011649524039324568,-0.14439588578881207,0.2526363526125495,0.853817584804232,-0.45964577928379446,-0.3098254403962626,-0.5682063384134092
130.0,8.867180109024048,-0.23176827232887076,-0.01586686667626043,1.0223707479969957,0.016049146959952527,0.009637948917582073,-1.8201345814351577,-0.4057599557679001,-0.1401019312834771,0.17814842175647622,0.8272017593412277,-0.4966690283260728,0.14472865375951424,-0.4297446557069735,0.04562468050802025,-0.04602874447492562,1.1268587703497523,-0.2956140361479131,-0.10957747188404951,0.006516369469963061,0.13139979593047219,-0.1099198881939058,-0.28312150351125137,0.06495619775730896,-0.08945067694759976,0.8879967419415815,0.21121436074666056,0.68500816933173,0.23392528242072508,0.00282144081231135,-0.14304542164128928,0.2477273164657952,0.8481645837955302,-0.4568992814613565,-0.311779031421764,-0.5741844996123899
132.0,8.911030292510986,-0.2320095699034101,-0.02145170411410827,1.0217489851036667,0.015031179296140729,0.01000481479906595,-1.8166883361148387,-0.4000530470554277,-0.1451541845322909,0.17311821895616825,0.8284086848526335,-0.4989371731615776,0.14394243010771718,-0.4444690669382122,0.059050935766192525,-0.02812905775555046,1.1150557285947964,-0.2927136458944595,-0.10445719597724723,0.003219611559884064,0.13401158041532762,-0.10781724566351483,-0.2889843940175182,0.06748289689785653,-0.09124922263274435,0.8857273704621438,0.21407263768429663,0.6792255721812932,0.233903935042058,0.004922910201627809,-0.1417995998983695,0.24339882083115727,0.8429962005561431,-0.45501722226765556,-0.31501334387281577,-0.5810502372408086
134.0,8.97229552268982,-0.23236052624620307,-0.02845606691399675,1.021036114679262,0.013721264178772015,0.010395224453910043,-1.8119767529605597,-0.3927374420145811,-0.1502661033075046,0.1684511345104281,0.8297462923151294,-0.500797730470488,0.14294211791003683,-0.461522399646084,0.0755799014092283,-0.005191851342760399,1.0990864307067958,-0.28680114868210915,-0.09991579198991607,-0.0006444264075141906,0.13693013347885896,-0.10533958912668501,-0.29620419423182176,0.07032405544695627,-0.09328901002816792,0.8821340594260245,0.2172860719120448,0.6717513115866032,0.23405468368392485,0.007203068235588929,-0.1408447522711574,0.23884029037293475,0.8378067176161663,-0.4529698052731675,-0.3199679449745365,-0.5881121171786703
136.0,9.021726608276367,-0.23278772631497563,-0.03637238141398838,1.020589326927912,0.012149613953112358,0.010662222793354565,-1.8065230703234683,-0.38352658280292407,-0.15519107244480418,0.16437059164188675,0.8296113221111313,-0.5018680327062871,0.14149506996928965,-0.4790183794969294,0.09368821498060716,0.02140620197647566,1.0788559930315489,-0.2815800052605777,-0.09723132332204008,-0.0043420915601479005,0.13961398567825248,-0.1022390698593183,-0.30404145035028574,0.07318084782615696,-0.09516272884012864,0.8774919063804203,0.2201470108541846,0.6642051467676351,0.23334159302752597,0.010092700356069233,-0.14061953376357625,0.2355573674577635,0.8334879779860859,-0.4518582408635371,-0.32413458838651177,-0.5928858683478462
138.0,9.097509384155273,-0.23326248423964285,-0.04526643307837565,1.0205344424413139,0.01045665758208876,0.01068939442712738,-1.8000617560031313,-0.3721041810355854,-0.15969244168360375,0.16136245057695037,0.827303719530592,-0.5005030117881156,0.13949430805377638,-0.49648605524404077,0.1133913835053693,0.05193895717714541,1.0539513819271444,-0.2790169728568209,-0.0963837485232722,-0.008181676794727507,0.14197288745983072,-0.0988839098911429,-0.3133784345226819,0.07618991171598921,-0.09580179227698934,0.8726922745180536,0.2216569043143392,0.6596828823638619,0.230736703530112,0.013210476770070551,-0.14055053681956292,0.2333891418108774,0.8300975810312595,-0.45164516415054484,-0.32597830758937785,-0.5957870599822782
139.0,9.148572206497192,-0.23375357464056595,-0.05475574112006168,1.0208197992730448,0.008681896652168817,0.010626756664604647,-1.7924290662859168,-0.358965535128673,-0.164034821136823,0.1586103932450742,0.8230174716340198,-0.4974196471002713,0.137094146402173,-0.5123416296654668,0.13422025889085593,0.08522597424171634,1.0257898624737407,-0.27807509488173765,-0.09707216270213823,-0.012397401288772373,0.1440850481834507,-0.09563260446756222,-0.3237662730681971,0.07922408845082127,-0.09492645512645992,0.8684477980889203,0.2217403015769806,0.6584634394457878,0.2269026193098545,0.016111253731679417,-0.13991270251558563,0.23155637629134562,0.8277667650851359,-0.45139473749669223,-0.3256892457421998,-0.597453409523061
140.0,9.191641569137573,-0.23412651646828223,-0.06241232870873036,1.0212837007075752,0.007293732079413653,0.01060722336430302,-1.7860546292048782,-0.34758425427546324,-0.16752596563726233,0.1561261153846268,0.8179258967003638,-0.494368930771236,0.13497481407854547,-0.5232356377114135,0.1515613572056818,0.11327142551212499,1.0015416441103326,-0.27751930683758774,-0.0983292591748219,-0.015519284304302085,0.14580150334066766,-0.09301078316504982,-0.33207444983576606,0.08156039689613048,-0.09338853956142538,0.8656133924177152,0.22120893974541117,0.6592114602187041,0.22350555018984092,0.01851883257073586,-0.13894408389102697,0.2302955494416543,0.8265082682909386,-0.45133314436142435,-0.3240639580364504,-0.5980213891002785
141.0,9.22243046760559,-0.23440393977854274,-0.06869279430682504,1.021793720147313,0.006171953277675493,0.010664422479425426,-1.7805773415222852,-0.3377502038026293,-0.1706268864204698,0.15340365401852296,0.8126002675513087,-0.4919518156922277,0.13305773613470956,-0.5306868863430353,0.16596330293532846,0.13684231239788688,0.9807675750766283,-0.2766187259810734,-0.09980561036548047,-0.017852540040927282,0.14730468695230264,-0.09098985122748687,-0.3386347207122299,0.0833090547976982,-0.09158646110478036,0.863927012639087,0.22049031572383232,0.66129766888933,0.2208906175960306,0.020571847537499424,-0.1376650506702742,0.2293103969948929,0.8260945528385408,-0.4510788497909526,-0.32154893141795526,-0.597592908903808
142.0,9.253605127334595,-0.23461074448405234,-0.0740433612756521,1.0222866594319435,0.0052223517423400645,0.01072858828686005,-1.7757508505771042,-0.3290918363483316,-0.17365906646593005,0.15029101619693352,0.8072986987159371,-0.49043015650921373,0.13118480610516922,-0.536120592626125,0.17790151117528297,0.1568366024019614,0.9627163837832939,-0.2751564121685974,-0.10143169861505992,-0.019530679523413613,0.14856906584264634,-0.08944318716374836,-0.3438291889895084,0.0844527406175979,-0.0899180599808149,0.8629359121839388,0.2198732051982333,0.6638926659578388,0.21909877526855226,0.02242990578413061,-0.13649146722804445,0.22859104672925434,0.8263418193721991,-0.4505311083501482,-0.3184234539790639,-0.5956562923276661
143.0,9.283342361450195,-0.23477509044932693,-0.07892949381395578,1.0227518966433295,0.00433091814975178,0.01066385008542874,-1.7712296476614102,-0.321052061894829,-0.17676761905361887,0.14699670788816788,0.8020388554507167,-0.48942647381436427,0.12919077555534195,-0.5407042162316564,0.18804366053729588,0.17450911287024273,0.9463761638903767,-0.27313399858938153,-0.10320518964248526,-0.020782081215201947,0.14944631210139836,-0.08824749246005942,-0.34819558713528564,0.0849846416533436,-0.08853381968768623,0.8621604305034218,0.21936964890496086,0.6663878782104671,0.2178431832529197,0.02418943653612122,-0.13585887473973401,0.2281792244264046,0.8270198632585635,-0.4497436304560992,-0.3147591105808998,-0.5917924137227893
144.0,9.312459945678711,-0.23492334278256954,-0.0838399629505861,1.0231959049717299,0.0033136785701166293,0.010424427082208185,-1.7664617104457947,-0.3129454508157107,-0.1801255035042236,0.14354373620916494,0.7967749297807636,-0.4884994188848367,0.12698582096961358,-0.5452515916574425,0.19741790013707822,0.1914253726307253,0.9306114541307857,-0.27026860189381285,-0.10506108357722425,-0.022017934562214424,0.14989382788253994,-0.08721894168246055,-0.3522327157315547,0.08499846513310652,-0.08743561867273347,0.8611533081726447,0.21890598775078138,0.6682412962479558,0.21681606270568166,0.026024541623179,-0.13598914619058936,0.22808120880916732,0.8278751376879767,-0.4489244132407953,-0.31074012008310903,-0.5863766059944618
145.0,9.374101638793945,-0.23510454024444322,-0.0917519905675612,1.0239231374765723,0.0012987539257235394,0.009950712277460975,-1.7584161625048509,-0.29931029587379954,-0.1858102519394506,0.13767397733677822,0.7876609962746322,-0.48636288435659697,0.12320862651099007,-0.551831271906648,0.21197153308744082,0.21799657892811725,0.9056121068426077,-0.2632603302083717,-0.10774416961572267,-0.0240220701687784,0.15025379125705435,-0.08536204330118594,-0.3579120215544295,0.0841841433935542,-0.08612644237815774,0.8589066322057635,0.21833732328738054,0.6692066478661476,0.21555909648826166,0.029504953366371232,-0.13772846749298123,0.22874888213076605,0.8289467529869051,-0.4485562809839517,-0.30404827198866735,-0.5763702340780245
146.0,9.398213386535645,-0.2351571423695944,-0.09523512889673821,1.0242253486108097,0.0002596121801302149,0.009892818382852102,-1.7544544130715054,-0.2932397616997491,-0.1882495111884171,0.13485622885615825,0.7838066271384552,-0.48508621814147723,0.12161191641592065,-0.5545559697731366,0.2181641226711703,0.2289128847014076,0.8951280674271036,-0.2597339261518621,-0.10864859141550001,-0.02506427936262799,0.15059051881912816,-0.08438003734649616,-0.35998040163720335,0.08369745895356259,-0.08574622066190915,0.8577029654884367,0.21821168216381787,0.6689228813976068,0.21517007844928532,0.03152492003514508,-0.13885546746076521,0.22957509388997663,0.8292717368741427,-0.44918879997033445,-0.3013700627292435,-0.5726834506195947
148.0,9.43446969985962,-0.235196855345211,-0.09922715012600386,1.0245068446661445,-0.0009087429419652524,0.010038654087685658,-1.7494652428470105,-0.28660394824914687,-0.19084938740962354,0.1314328715957232,0.7800440541946957,-0.4836331786436851,0.1199800561351971,-0.5578844222787662,0.22483705642763116,0.24007360885637824,0.8839950834878801,-0.2564689785200704,-0.10947611561587368,-0.02640644390159727,0.15138543688079453,-0.08326597580579478,-0.36204884048487074,0.08332961881492731,-0.0853830156021921,0.8564008146201314,0.2181296300603825,0.6687174960554965,0.2148233645900519,0.034292403558594975,-0.13983352108283337,0.2308116987885211,0.8297139514521272,-0.4503266668502589,-0.29897839909690094,-0.5700179353451645
150.0,9.48077654838562,-0.2352273464267206,-0.10571587172451279,1.0247331616747133,-0.0025199032171212875,0.010184906753647999,-1.7408055661914028,-0.27685092104139825,-0.19517298893893537,0.12557871218217168,0.7754881466487363,-0.4822290634322354,0.11771903342383173,-0.5646266162362854,0.23341239237478822,0.25363786930694604,0.8684951482915628,-0.253485565626955,-0.11062818421055828,-0.02847321851623416,0.1529132522833251,-0.08203728510051489,-0.3648743899749528,0.08318864382663206,-0.08478737287798296,0.8546670245516392,0.21786143276856404,0.6684799885006952,0.21425448832008287,0.039271439131494196,-0.14030076098965077,0.23254527792509944,0.8308231533600421,-0.45156663239248557,-0.2972179363873152,-0.5680787802437837
152.0,9.552057027816772,-0.23528448240120847,-0.11421134302655281,1.0248623785636846,-0.0043980012078769885,0.009500782959799083,-1.7294906118509017,-0.2645666637338523,-0.2019897581937719,0.11725630204794239,0.7698624437484414,-0.4813492352037947,0.11471728102619563,-0.5749493889719363,0.24093612484062354,0.2651871144630707,0.8507312283480409,-0.2490757391172553,-0.11205251354968712,-0.030699809624014758,0.15358033528775805,-0.08115955581715599,-0.3683528773688666,0.08212761753786908,-0.08390681760630508,0.8524709926784971,0.2169471947753882,0.6667936405283927,0.21351174420669294,0.04543351995864615,-0.14130225607696684,0.233746006240744,0.8323511802862319,-0.45207259111828135,-0.29620726531773267,-0.5660152939826041
153.0,9.643942832946777,-0.23541027143004928,-0.12976378213550616,1.024974282318175,-0.007491305427940145,0.006721533599190321,-1.7091191792856337,-0.24157689597441034,-0.21697324303781845,0.09986049448367765,0.7578835844965718,-0.47991680737549614,0.10931489157137284,-0.5960453930982228,0.24617487778751634,0.2713894064691206,0.8214958349062182,-0.2360497947304137,-0.11427191516295568,-0.03359444481810646,0.15267245618935354,-0.0802824308657565,-0.3738160646356151,0.077516007256134,-0.0822914962613294,0.8496592181532172,0.2146713849432648,0.662531588118693,0.21316058237621424,0.05679436463964865,-0.14475495502284716,0.2340901915568018,0.8351189518439709,-0.451518485266652,-0.2960665340313501,-0.5627870836253652
154.0,9.67064380645752,-0.2354430504413016,-0.13480348876735218,1.0250373528896515,-0.0083560963452407,0.005485289086334639,-1.702492979135302,-0.23367542393862506,-0.22247412209425454,0.09340955919945948,0.7528734755319715,-0.4788470058792819,0.10772624131208118,-0.6032342676332023,0.24495706822836638,0.26836041649907494,0.8123851056302768,-0.2295607625190948,-0.11483830495991096,-0.034199389348527884,0.15200280173386166,-0.07999358544019172,-0.37509479192913253,0.07533238848568304,-0.08194623345166126,0.8494809276157329,0.21412435712682043,0.6611467941658415,0.21366704425324423,0.060735579355419,-0.14608422143257788,0.23367401594254322,0.836159238336189,-0.45079056122998484,-0.29597956388216334,-0.5615979208187628
156.0,9.709501504898071,-0.23546050240140087,-0.13934201618071654,1.0250885283617475,-0.009097694922697807,0.004378050447559697,-1.6965893907556788,-0.22652885039688408,-0.2272483323776277,0.08762414470776442,0.7483752257215489,-0.4774525228400446,0.10657661678153418,-0.6099485296320207,0.24221704277348272,0.26224356760470113,0.8047316872693269,-0.22269630562588794,-0.1152118989820684,-0.03447611331994209,0.15141692124930314,-0.07950928604020918,-0.3758001702646205,0.07336319705193006,-0.08190919628147345,0.849766597744652,0.21403743392945657,0.6605448350365477,0.2146158882984115,0.06441016915312171,-0.14687781079818796,0.23301720674795245,0.8373841387501171,-0.44963089663993894,-0.295112037104236,-0.560114852811652
157.0,9.752897500991821,-0.23549889182599948,-0.14590125614139351,1.0250139633428335,-0.010214233426668816,0.002945180500096966,-1.688573835338174,-0.2169995853615031,-0.23288817395970182,0.08072114724188652,0.7438100422008243,-0.4755670453261663,0.10533974794387385,-0.6196551497745393,0.23762336831489905,0.25071070353633684,0.7956408271656619,-0.21361176084460864,-0.11555014152029938,-0.03462080646496031,0.15062200623998434,-0.07831193029767482,-0.37645686470354667,0.07107264779816024,-0.08179148073509464,0.8500223006000214,0.21405689073733797,0.6602151546916155,0.21637939798291336,0.06867239937195137,-0.14726269199086695,0.23166334268280864,0.8397394578756058,-0.4472057028050571,-0.2914885639091699,-0.5567066220499312
159.0,9.792600154876709,-0.2355564832106154,-0.15246834950377658,1.0248564239195455,-0.011386514142934321,0.001655989877676217,-1.6803891155003132,-0.2076126862926855,-0.23815859575571738,0.07396498328304277,0.7398123682603994,-0.47371206615597816,0.10424854212557735,-0.6288844848095594,0.23323490553708998,0.23911929899552892,0.7871768979668584,-0.20490797839794642,-0.11585615391525013,-0.035058486019273485,0.15000833894328913,-0.07694942531837035,-0.37697391791778034,0.06873334875983148,-0.08140806209097759,0.8503912464423897,0.21385277720403775,0.659725896379201,0.21825488412928817,0.07252774090679708,-0.1476936323170669,0.23021599264671888,0.8422759711575393,-0.44465252728578,-0.28698443509588945,-0.5527610524447093
160.0,9.854491949081421,-0.23570629967102485,-0.16052085065353444,1.0244431030709107,-0.01324832710080577,0.0003784129981720184,-1.6703701148529875,-0.1962552712969915,-0.24386125673934567,0.06605211441696328,0.7363794360088285,-0.4722843722983143,0.1032005505152552,-0.6382361189275193,0.2303754619054845,0.22819704495843263,0.7786591125422202,-0.19513936792217096,-0.11621385171997714,-0.03545730293167087,0.14962143832037636,-0.0744943242811848,-0.3760619672771349,0.06545636491855296,-0.08087991533526798,0.8509452992367175,0.21302022535412518,0.6587397198606606,0.2197926872714764,0.07766504447935155,-0.14845757058333778,0.2285463874620819,0.8457160016307044,-0.4415252851659061,-0.2810829775804623,-0.5474364392720822
162.0,9.896716833114624,-0.2358891630440656,-0.1675565238149962,1.0240261060169698,-0.015128044718183502,-0.0005150884786639992,-1.6611752184741246,-0.18605876777829292,-0.24884784646550523,0.05830882923483652,0.7336448615445819,-0.47133842825861827,0.10240356962614465,-0.6448112543210391,0.22947885862811263,0.2213164196027932,0.7718211415483749,-0.18742965147492885,-0.11671635826640697,-0.03606476139732319,0.1494163377514014,-0.07184200964730353,-0.3741506703348755,0.06216166836330966,-0.08048671199076002,0.8516681062128828,0.21189462816390014,0.6574189661038201,0.22041580404259842,0.08275492328416106,-0.14939881607516053,0.22714837845020025,0.848633926614921,-0.43869808851060343,-0.27594665259379836,-0.5423333495974829
164.0,9.969747066497803,-0.23623586192659862,-0.1756467074012763,1.0234324407324311,-0.017331263737051655,-0.0013305298952466266,-1.6505092211610912,-0.17467057104046985,-0.2544780794015453,0.04844364767511103,0.7316929054850092,-0.47108794799631537,0.10155266553614498,-0.6493293200359722,0.23286586460635472,0.22091631631955513,0.7657373951717199,-0.18276702203809597,-0.11783864574644196,-0.037007333713103004,0.14907425258378698,-0.06853724065698132,-0.37031823321243423,0.0582442159715515,-0.079744722208776,0.853004297475161,0.20976668200467363,0.6562947389085483,0.21977218527832754,0.0888650880384404,-0.1510083335715325,0.22579622446472286,0.8516000672080211,-0.435980690703769,-0.27097674609346617,-0.5370991004405881
165.0,10.018342733383179,-0.23671369527375952,-0.18491131194870652,1.0225753732632243,-0.019731302564646058,-0.002259409713222407,-1.6386705165618265,-0.1624281636372101,-0.26074519975730276,0.037066219593235014,0.7309326913343059,-0.47103997715453727,0.10048136544889856,-0.6520635102340409,0.23823371459896625,0.22355775163926025,0.7605211717347224,-0.17811476086078948,-0.11948231612646819,-0.037885465507425775,0.14926558605508486,-0.06497538170998057,-0.3648032719963143,0.05479565708258335,-0.07880711600943258,0.8559037928466877,0.20778738241366457,0.6572262717366407,0.21959447605423746,0.09578226635154904,-0.15235035909285655,0.22446980351816298,0.854227572747793,-0.43371446346975046,-0.2663787492931081,-0.5337648960573727
167.0,10.072054386138916,-0.23713140982392167,-0.1927652332425485,1.021765010820902,-0.021906885461667497,-0.003184464163396538,-1.6288073232517113,-0.15210981097094692,-0.266192361270349,0.027316196202935975,0.7307963740560037,-0.4710168941205966,0.09948417676096083,-0.6530638872881571,0.2416615099819237,0.22473755722255412,0.7569428266111566,-0.1716220049246786,-0.1210523481571594,-0.038514403478374155,0.14977112667714565,-0.061893359689673154,-0.3593648546061685,0.05247390680840151,-0.0783076151631674,0.8593965646172709,0.20668469824646024,0.6594897336846404,0.21988338289494794,0.10198080734280557,-0.15306929960866017,0.22353277216037906,0.8557161165154583,-0.4321456755292904,-0.26330789013816525,-0.5323340345004267
168.0,10.119795560836792,-0.23762643165044928,-0.20189874304588667,1.0206797240225438,-0.024143314713418542,-0.004889925469036679,-1.6183708996473682,-0.14095019865254477,-0.27224366909241093,0.01769278261271763,0.7316704718464011,-0.471048701613157,0.09803615096309298,-0.6537774737472268,0.24075569522235324,0.21926623844625817,0.7542440531248872,-0.1556867642707022,-0.12305728740216737,-0.03870042713087336,0.14974011192061798,-0.058982068862689196,-0.35268357122227645,0.05015805298126265,-0.07820892861563129,0.8650288095508674,0.20590332268649922,0.6659944498648529,0.21992605322964542,0.10913553026181955,-0.15356637242437515,0.222518235909467,0.8568195481471357,-0.4304374819760104,-0.2608757645073072,-0.5314348235497774
169.0,10.161319255828857,-0.23806876842288408,-0.20960860748524618,1.0197098088182677,-0.02575821884096366,-0.00648346718038555,-1.6097072660050458,-0.1318444915933414,-0.27718284827606,0.009884759760259121,0.732768126959825,-0.47082593756848207,0.09668615769180036,-0.6538487599298439,0.23707657935280346,0.21048360257156606,0.7523523189391028,-0.13808307258376276,-0.12495217369075415,-0.03914202604958153,0.1492642042377052,-0.057196456192245025,-0.3474502174012294,0.04806104452839531,-0.07795454860494783,0.8706555832093836,0.2050850382704333,0.6734164290952058,0.2199596156591642,0.11451202059380018,-0.15395764623360533,0.22134440771097474,0.8574735600251921,-0.42866369370577534,-0.25843940661679704,-0.5303742589298958
171.0,10.208064317703247,-0.23848103917533647,-0.2163809827087224,1.0188093084440277,-0.026756749048970768,-0.007852427397887874,-1.602095275721608,-0.12430815390652605,-0.2812819653222027,0.003117606390848413,0.7341965900930785,-0.4704433577463625,0.09546808030511741,-0.6535691002874411,0.23192912151733586,0.19987453560336504,0.7509590169476957,-0.1210025091541482,-0.12686965831448632,-0.03982496363609625,0.1487249974305549,-0.0565498660668087,-0.3434499896974995,0.046203092756063824,-0.0773146431425443,0.875940243093578,0.20403132339596194,0.6803447698484031,0.2201170927622659,0.11795591668603528,-0.15403671213092468,0.21988135483625015,0.8582287661640429,-0.4266129189049424,-0.25523617454352426,-0.5288617145874508
173.0,10.266468286514282,-0.23901102636118635,-0.22507397670659451,1.0175521022812808,-0.027468320888961027,-0.009406258217841815,-1.5926107775970952,-0.11558168736446019,-0.2861458846482057,-0.005259093817826141,0.737422743180709,-0.46988663132760167,0.09392425209862384,-0.6524918799690783,0.22498256394779165,0.18571525397789307,0.7505636516513219,-0.10234640657329377,-0.12942166848214637,-0.04025911590661914,0.1491315261185054,-0.05722239320376134,-0.3378699793214448,0.044938295580704724,-0.07626151767979822,0.8821597283805307,0.20286619231728323,0.6857082972172175,0.22090040369961972,0.12013936181236162,-0.152769780089074,0.2175754462025241,0.8600799448339612,-0.42361058578025773,-0.24995819305493508,-0.5275089844733231
175.0,10.343668699264526,-0.2401073312864609,-0.2416136836042982,1.015226321707257,-0.02972144360297034,-0.012297839757341736,-1.5730091060009697,-0.0988181462137041,-0.2946722260482123,-0.021100757060575383,0.7457761909005076,-0.4674861053486771,0.09082076886807935,-0.6466882186960916,0.21104662344949407,0.1594413870057636,0.7518120074516634,-0.07105845836598422,-0.13481765538262214,-0.042437976010417315,0.14975122194669815,-0.05824973387281627,-0.32257108474179363,0.04315736520551275,-0.07619465230039281,0.8947805844918287,0.20182630291746106,0.6908490380014839,0.22233733564403044,0.12629933808655025,-0.15034136281980226,0.2131656720774467,0.8627627543259813,-0.41816113889475054,-0.24342692944585675,-0.5274982495281599
176.0,10.379929542541504,-0.2407446736018469,-0.25002290399590366,1.0142368860882218,-0.031136035373686463,-0.01395082565841713,-1.5623229548276731,-0.0903632282819033,-0.29772993059022124,-0.02756463411363143,0.7500669328847717,-0.4647591375575018,0.08932764666392767,-0.6421321006843141,0.2041502793576001,0.14759440533674328,0.7535426958413313,-0.05699831377374909,-0.1380093779692708,-0.04432515620833606,0.14854348800189313,-0.057867136873754235,-0.3118803898964868,0.04172339595677203,-0.07720773325080107,0.9020084019109902,0.20180832338942595,0.693527277265613,0.2229798262695312,0.13193088124451013,-0.14989372632117728,0.21049678673819147,0.8630995069755614,-0.41518420783738674,-0.242488224635459,-0.5285242090597996
177.0,10.421912431716919,-0.24132223425371754,-0.25734021321799055,1.0135321584009165,-0.03231780924638155,-0.01529797160626602,-1.5526124519283058,-0.08306051174100418,-0.29973828565824956,-0.03290251888454009,0.7534757609904781,-0.4614928889158041,0.08811523127174192,-0.6376398570019391,0.1974664000207078,0.13679864361327349,0.7553603226462309,-0.04591367172231209,-0.14148248442612665,-0.04627529209878096,0.14712291330024005,-0.05728992040557631,-0.3017413782909304,0.04005836380500211,-0.07835966732120425,0.9087925924416186,0.20188257707234497,0.696654930435114,0.22375543927240127,0.13772416432667475,-0.1497637864784988,0.20765238643904183,0.8629084480354976,-0.4122033804224272,-0.24211064427096726,-0.529668279523246
178.0,10.455109357833862,-0.24184451975329263,-0.26412644207150227,1.0130339207541548,-0.03316476998407865,-0.01631778246174483,-1.5436035119581055,-0.07647013514927567,-0.30108247497945995,-0.03783669614865638,0.7562640117532247,-0.4577912014377451,0.08708943985550716,-0.6334877205788605,0.19028464587420169,0.12558102825404321,0.7572492674294139,-0.03755832930548248,-0.14529159483010307,-0.04779266650538704,0.1459482971343367,-0.056833941964555545,-0.2920771679327154,0.03801592379162821,-0.07941693830678372,0.9153331578297985,0.2019131907112014,0.7005968232261648,0.22489300857242056,0.14343861216472864,-0.1497951096363936,0.2044324122698123,0.862462428187633,-0.4090183272511836,-0.24158996366940222,-0.5307566530314798
179.0,10.49081540107727,-0.24234017718769288,-0.2709381481024237,1.0126712467230568,-0.03384056915737725,-0.01703643910146476,-1.5347747231809912,-0.06998873245892888,-0.3020602511577147,-0.04296586118993684,0.758974608665338,-0.4537934653160043,0.08618474089508475,-0.6295249832457923,0.18212697924568189,0.11299378792044984,0.7593667084239202,-0.03164939452807624,-0.14955938198506533,-0.048713932891296746,0.14508241462274762,-0.056504600151782186,-0.2820233731839573,0.03530161846498686,-0.0804645659583799,0.922010721606144,0.20188586318026266,0.7054258016519657,0.22647984478011224,0.14961852870781972,-0.1502099695374081,0.20081011563554782,0.8617261085209392,-0.40564680040517587,-0.24127671622544497,-0.5319029344753254
180.0,10.516542911529541,-0.24275739441282929,-0.27715891984686386,1.0124988909844257,-0.034373908821342586,-0.017171139403250095,-1.5267052218633297,-0.06418686565549785,-0.3024681038665592,-0.04816112773134727,0.7616775053033416,-0.4501375380883078,0.0856035719087247,-0.6260698159764093,0.17366672811634512,0.09996320782920096,0.7616081269657426,-0.02917814707146784,-0.1539133622421467,-0.04910798409440655,0.14479534864762653,-0.05630600095365268,-0.2722651249113441,0.03192201860604429,-0.08139645811322503,0.9283937986490602,0.201744935923377,0.7106836970421779,0.22858397978577177,0.15598664695093203,-0.15126242625679906,0.197150419176172,0.8606036938525496,-0.40255759806403024,-0.24166977166849402,-0.5331876414770769
181.0,10.552895069122314,-0.2431374309014309,-0.2833939695249087,1.0123789464435393,-0.03482179819045011,-0.01680203957783567,-1.518734213568082,-0.05865354200149692,-0.3024277831199016,-0.05359726630149655,0.765006399560143,-0.44696106872729907,0.08531932038406284,-0.6229030098031983,0.16532165977010138,0.08677783940121109,0.7644716966242735,-0.028810324849747302,-0.15819073175730922,-0.04914079802162251,0.14504712418567717,-0.05620101609817051,-0.262087354988347,0.02794525692599176,-0.08211953931528321,0.9348451674740204,0.20144397605196404,0.7163042107534716,0.23130035654728368,0.1626787720271162,-0.15291729666141538,0.19337754880373065,0.8592153615650203,-0.39969657043732637,-0.24280340292680366,-0.5347644772064853
183.0,10.603217601776123,-0.24347732547662693,-0.2896745951081121,1.0122349681664158,-0.035051897716770794,-0.01595771017431043,-1.5108729093778557,-0.05358666916445394,-0.3020103470074187,-0.059172202844160776,0.7691647209663854,-0.4443143451510403,0.08530421337770328,-0.6201247222027697,0.15773054513403517,0.0742912202712733,0.7681780954630298,-0.029761668190114374,-0.16211713029612967,-0.0489910964705385,0.1459825707823865,-0.05623069392215117,-0.2520934540009846,0.023765032319872967,-0.08226981530017353,0.9412879641927898,0.2008243101979086,0.722229391264448,0.2346344014711634,0.1688650261311287,-0.15479644818353933,0.18946158444047012,0.8578615110391357,-0.3969077349226078,-0.2438598730043759,-0.5362423084239715
185.0,10.651432991027832,-0.2438476059998877,-0.2985334180009838,1.0118581731514653,-0.03444041649587191,-0.014583675550738645,-1.5010675370959237,-0.048109671721979004,-0.30099020151617556,-0.06563370333677446,0.7762770007860735,-0.4403609144982764,0.08537015406993508,-0.6172510662049557,0.1499918193861965,0.06116185084280695,0.7749477947316454,-0.03196604763168373,-0.16614679028572477,-0.048217174815834485,0.14848005249182397,-0.05636124262573622,-0.23985707929900302,0.018718126566194527,-0.08012517631895523,0.9505529449938752,0.19866740258150323,0.7319957993984916,0.2395032328663716,0.17438883382719272,-0.1568992940249791,0.1840286697613326,0.856930300935574,-0.3928156834317241,-0.24344392568010342,-0.5371479975830585
187.0,10.717648983001709,-0.2441387268354579,-0.3092979811575177,1.0112914512084417,-0.03334614343944838,-0.013358911281269594,-1.4899182213836764,-0.042854720295234315,-0.2997826463979183,-0.07173750538346664,0.7860169178492374,-0.4333955172589746,0.08511481561789788,-0.6141516164850482,0.14284274778482392,0.049899606523195195,0.7846444310991982,-0.03436567959398288,-0.16954947230511647,-0.0471370353279809,0.15229844120766606,-0.05639799060480519,-0.2250538207680672,0.013901881406153714,-0.07544079284411377,0.9622853729696437,0.19458390525546876,0.7454988044199466,0.2444557330098759,0.18015539855833446,-0.15907679409703263,0.1784199653525253,0.8555564768396646,-0.38876601770676544,-0.24380189676222558,-0.5385078918884189
189.0,10.791704654693604,-0.24434295135241108,-0.32138478092851785,1.0107732711127821,-0.03252687839123717,-0.01273116828124587,-1.4777895681120117,-0.03756549126998704,-0.29831543315135034,-0.07640554541067343,0.7976198018386728,-0.42227086653322365,0.08453634586384018,-0.610299171997433,0.13546373995420855,0.03959260274683726,0.7967227892813078,-0.032946391308936555,-0.17208783965662106,-0.04540175393718464,0.15690389452915454,-0.0569536605502124,-0.207610984929879,0.009988698854567601,-0.06929087910287422,0.9752231541284886,0.18936623495127142,0.7611058269362478,0.24899698821165972,0.18667101356295313,-0.16132439710706042,0.1735159820542641,0.8532534936856124,-0.3859246498255173,-0.24668412561437267,-0.541726059601273
190.0,10.849652290344238,-0.24452294527017662,-0.33430515800706884,1.0105533620807237,-0.031715823553996304,-0.012500809941966414,-1.4647337875048279,-0.03278487608854809,-0.2957191173382783,-0.07898504334699812,0.8106955368132858,-0.40678126399305176,0.08384175387223322,-0.605518202625054,0.1276775596770019,0.029226772910167065,0.8100461622076338,-0.025996219226898164,-0.17381253881059142,-0.042933595716013365,0.16149872140927718,-0.05885056716815759,-0.19031501695377168,0.006966622353605436,-0.0626538142981369,0.9880513698398404,0.1837143854383011,0.7773580379682039,0.25285092935040615,0.19134373388613707,-0.16322251173163368,0.1686007005201313,0.8511080815968546,-0.3830671889452414,-0.24897279764392227,-0.5443997157467659
192.0,10.908907175064087,-0.24464647978811063,-0.34476116883307184,1.0105492132647211,-0.031164851581863183,-0.012143179139490042,-1.4534451243000726,-0.029777973380904023,-0.29252210337152473,-0.08000955399614498,0.822513727300668,-0.3919285767215248,0.08331868355330257,-0.6010324319733742,0.12171657100569988,0.020982842677646003,0.8210006099392836,-0.017879009336335384,-0.17477934801071981,-0.04126913555927183,0.1651335596483421,-0.06117511002057038,-0.17715176451158796,0.004815992695766567,-0.057454700930689766,0.9978898340274338,0.1790595237833366,0.790608884937329,0.2557500029077272,0.19419167559864559,-0.16477516816196172,0.1646438861501486,0.8492976924175002,-0.38096677663876094,-0.2505498486412092,-0.5460349814019951
195.0,10.977430582046509,-0.24474917422933196,-0.3559182565753455,1.0108274697083375,-0.03083107784318155,-0.011404331578585038,-1.4404117916483807,-0.028280898275775877,-0.28656551640071737,-0.07848975388009923,0.8375145704636644,-0.37207329961515834,0.08284856449329145,-0.59435842479981,0.11747905713975801,0.014267232482414864,0.831489281915454,-0.006652385194353004,-0.1746917002002562,-0.040024071417898294,0.16859629724566513,-0.06364607949176368,-0.16407198279783833,0.0024538949693851883,-0.05329248353844107,1.0079104582602718,0.17500218137734375,0.8042494588252984,0.25824850247790326,0.19626300563021357,-0.1671525407457225,0.1604724641554919,0.8473972290321192,-0.37931978177742504,-0.2520951978180455,-0.5482171997526946
197.0,11.058684349060059,-0.24469393130969314,-0.37000911691868654,1.0117924160635918,-0.031246387637351963,-0.010990616537437901,-1.421628927146046,-0.02934823488560151,-0.2751262209380131,-0.07140210397573743,0.860499195429852,-0.3376246602293782,0.08212328365940778,-0.5823118578990419,0.11345084736631655,0.008860800943004739,0.8419375751646709,0.008976979119374532,-0.17311588618478907,-0.039049384000372854,0.17334599462650668,-0.0643628820448384,-0.14699549912714222,0.0006025382971367134,-0.05412307822830004,1.0194402950874748,0.17383325296193503,0.8196293975156337,0.2571914066790643,0.19909060088068659,-0.17052288959271994,0.15563257398092528,0.8452729924554059,-0.3780054914832973,-0.2524610713394739,-0.5515811935082836
198.0,11.117774963378906,-0.24462262291881867,-0.3837321035383293,1.0130614148009132,-0.03249239225245778,-0.010829453377322676,-1.4010372819804786,-0.03327467726009692,-0.2596526060940063,-0.059559986955632555,0.8871609742253375,-0.29715100103259756,0.08189712150283814,-0.5682554616260636,0.10959065796579676,0.0042602843907478235,0.8500597099240046,0.023751819527689615,-0.17052573886771366,-0.0385658742217119,0.17889614734318643,-0.06334576294655755,-0.13026094295893184,0.00027264093832816375,-0.06020873670900355,1.028789154929593,0.17609564402715927,0.8317241963329707,0.25292244049450047,0.20184942733011274,-0.1738856357255131,0.15180113919101906,0.8433276224058439,-0.37773658224655837,-0.2521530500952068,-0.5547259427872038
