ccrpRepo/mocap_retarget/src/mocap/src/data/output.csv
frame,timestamp,posX,posY,posZ,roll,pitch,yaw,left_hip_pitch_joint,left_hip_roll_joint,left_hip_yaw_joint,left_knee_joint,left_ankle_pitch_joint,left_ankle_roll_joint,right_hip_pitch_joint,right_hip_roll_joint,right_hip_yaw_joint,right_knee_joint,right_ankle_pitch_joint,right_ankle_roll_joint,waist_yaw_joint,waist_roll_joint,waist_pitch_joint,left_shoulder_pitch_joint,left_shoulder_roll_joint,left_shoulder_yaw_joint,left_elbow_joint,left_wrist_roll_joint,left_wrist_pitch_joint,left_wrist_yaw_joint,right_shoulder_pitch_joint,right_shoulder_roll_joint,right_shoulder_yaw_joint,right_elbow_joint,right_wrist_roll_joint,right_wrist_pitch_joint,right_wrist_yaw_joint
1.0,6.443610191345215,-0.10425579980914572,0.6682709034833694,1.0333971130502113,-0.01925935245654717,-0.038085505621403844,-1.5866473360521283,-0.2305499235545262,-0.16041988323855882,0.015573941375640311,0.8143243802926382,-0.5123422294813172,0.12858685174016696,-0.29337539801054435,0.19186143449453705,0.08289625180354646,0.8281460434324306,-0.2565970180166822,-0.07008057576706968,-0.022888288579740387,0.01656142871121823,-0.055077561365222044,-0.17983372928047786,-0.09345085564620259,-0.11186479588310083,0.9274207118346424,0.2090376855655543,0.7385649494107764,0.3114571349609358,-0.023163267925763217,-0.15658823051898396,0.2244432596383587,0.8582354417071645,-0.42196040888107456,-0.3106217517342652,-0.4649057073815004
3.0,6.510858774185181,-0.10425579981105573,0.6682709034976473,1.0333971130767228,-0.019259352545345436,-0.03808550562854499,-1.586647336054816,-0.23054992339520947,-0.16041988323986078,0.015573941362593631,0.8143243800841214,-0.5123422293429059,0.12858685173112638,-0.29337539785207944,0.19186143447531356,0.0828962518253846,0.8281460432347054,-0.2565970178875524,-0.07008057575935289,-0.022888288634728603,0.01656142884243159,-0.055077561476422426,-0.17983373229566613,-0.09345084105800072,-0.11186483537450564,0.9274207147436508,0.209037632568217,0.738564950490483,0.31145715189231965,-0.023163269958669158,-0.15658823749879042,0.22444327840897732,0.8582354422712146,-0.4219603920037121,-0.31062174876055215,-0.4649057140597825
5.0,6.569296360015869,-0.10548513464763346,0.6678265400292063,1.0331319243014292,-0.019165579627556877,-0.03873221044591451,-1.5840419239199632,-0.23341730559417562,-0.1575752484916402,0.01919329924548604,0.8191051192036632,-0.5063333262550764,0.12771971394848927,-0.2928683046219958,0.19242806093693418,0.0821192699198815,0.828640795518139,-0.2576070276614069,-0.06954593166526006,-0.024070950769486666,0.01745490951250768,-0.05422308389401235,-0.18029237227409173,-0.0934063178726327,-0.11107887334206124,0.9283851172784212,0.20889830608165222,0.7394010549160162,0.3127154357888954,-0.026369481689927934,-0.1600268148144477,0.22376241639518962,0.8561813505199527,-0.4232679407652446,-0.3122897644217474,-0.46621715338345737
7.0,6.6388936042785645,-0.10756498731508675,0.667183340706666,1.032854689020958,-0.018443784436047838,-0.04120310899099776,-1.5794446668573434,-0.23903148798518004,-0.1549312268683498,0.024572782988726574,0.8270441010924429,-0.4968189760097185,0.12577563701126543,-0.29259291621307626,0.19249908951840544,0.08188946652694568,0.8295508399426917,-0.26017678426613156,-0.06885092363603648,-0.02616729056746082,0.017319248537474727,-0.05291450672523661,-0.18062026466382453,-0.09393486639753978,-0.10987334556626575,0.9302687924169686,0.2086533823230931,0.7406671253131576,0.3151532141808936,-0.03089630564666142,-0.16716563583865823,0.2229398521693285,0.8516368540195749,-0.42645619897982007,-0.31460190085986783,-0.4684336846840135
9.0,6.699667692184448,-0.11007098570487953,0.666426090305003,1.0324125532118802,-0.016521244707438876,-0.04413073868325007,-1.5738242780202962,-0.24815074085833835,-0.15141711255408025,0.03168579804474042,0.8388579736499397,-0.4846128603396022,0.12346100742334074,-0.29345166085214736,0.19232192404142068,0.08080226062809656,0.8308139607561438,-0.2630042704798289,-0.06807276579239076,-0.027212115201409023,0.016166975709783347,-0.05269255025493175,-0.18261345656387173,-0.09435396610174443,-0.10835965813193019,0.9334926759695745,0.20897606341735547,0.7429748302423498,0.3197330523649098,-0.037893966730588695,-0.17613846923830823,0.22102957790798794,0.8462003467290156,-0.4287965240720656,-0.3157541469180886,-0.4680105434075171
10.0,6.765809774398804,-0.11275759720877376,0.6657120114206752,1.0319692521280852,-0.01414189695926725,-0.04666085343191446,-1.5670315025687995,-0.26025629464672634,-0.14548065880847805,0.041743578150650516,0.8548222843221309,-0.47009978237474354,0.1214168351922785,-0.29488917059924835,0.19237630849622017,0.07859344071677253,0.8319466848669845,-0.2673074188385721,-0.06743187182041686,-0.028800487594127136,0.016116187832775592,-0.0520395281086387,-0.18488910841008926,-0.09519686326438173,-0.10687109961973082,0.9364539361845459,0.2095823763609359,0.7449872000396298,0.3255801794051424,-0.04529443937992572,-0.18742652562154974,0.2194254969909169,0.8391588346386056,-0.43254634322622465,-0.3188911482469521,-0.4681218254548216
11.0,6.802137136459351,-0.11478434173275785,0.6653223859738102,1.0316233890798219,-0.012114220680844124,-0.048590948630741426,-1.5612113422360931,-0.2715459411032824,-0.13985883767810686,0.051204531771192885,0.8695840773926298,-0.45771509086226664,0.12017273111551713,-0.2964379042383065,0.19221455865222886,0.07645724027052077,0.8327695230664524,-0.27086851366010617,-0.06698300338966497,-0.02958196559732225,0.0163446123244527,-0.05107906302314595,-0.18623562715155756,-0.09543233230317852,-0.10661457963286106,0.9388688108634146,0.21119283129846206,0.7463832938238901,0.3312899644688087,-0.0500888646411862,-0.19589628926048727,0.21775241862406042,0.8333479276523503,-0.43439168583958104,-0.32006252299537674,-0.46617596718178056
12.0,6.840145826339722,-0.11635179637405309,0.6651334257130957,1.031251510107837,-0.010519884557279733,-0.05005387175595555,-1.5563894100337827,-0.2818667631125957,-0.13478156015073903,0.059500216631129775,0.8833692360946395,-0.44739506842460325,0.11938796377168642,-0.2980454094601291,0.19187659647424227,0.07421483964051037,0.8338331749222181,-0.2734487540985684,-0.06665245696359454,-0.0301305018823649,0.016226636660826993,-0.050125145348593025,-0.18710609384600613,-0.09577291185196238,-0.10685062199979364,0.9405252346707658,0.21280080428936599,0.7461072856825399,0.33616955780770996,-0.05351995151099793,-0.2035345485612175,0.21619364190960627,0.8278909130642911,-0.43557870483262695,-0.32161788661123336,-0.4633473205345488
13.0,6.878900766372681,-0.11768467413463454,0.6650390987148291,1.0308611140916915,-0.00930674948633023,-0.0515701459476506,-1.552454297527388,-0.29121600162812467,-0.13003094927444322,0.06737288117900637,0.8959998572757865,-0.4391182171270218,0.11901149888060297,-0.2995665394473896,0.19144902397953606,0.07246808222219792,0.8353358690180814,-0.27610024611984574,-0.06663112671765153,-0.03112633102600533,0.014935104506770588,-0.048983226634849115,-0.18805308363935802,-0.09716659440140965,-0.10639632916712902,0.9421313308855783,0.21348169541766537,0.7458298030406482,0.3407365073084341,-0.05625774195840528,-0.21154766788529078,0.21473548065956308,0.8217731940070998,-0.4371311255290531,-0.32566927122861405,-0.46156391069780867
15.0,6.926355361938477,-0.11881077452790365,0.664942317694057,1.0305083778461344,-0.008770863175695597,-0.05307174734776605,-1.5493968640676539,-0.2993046339420065,-0.12468361497367916,0.07617995214828016,0.9074828947595522,-0.4324250585207585,0.11966343081731645,-0.3004252848890967,0.19106538891733132,0.07149042911524187,0.8367568287978194,-0.27847588397424855,-0.06667602279121498,-0.03182810323183613,0.013858007335432795,-0.04661645027787825,-0.1874671784016858,-0.09883479321166737,-0.10604180217363998,0.9434195314251839,0.21393078596342174,0.7455370046685303,0.3447646797573641,-0.05740435431038017,-0.21870596143886392,0.21260846440360306,0.8154818119878652,-0.4381387933727455,-0.33024787926606275,-0.46129820851922276
16.0,6.985433340072632,-0.12020768211003324,0.664256396549573,1.0302082961265668,-0.00953725902042015,-0.05509833588928388,-1.5467331288102355,-0.3077164289471247,-0.11654828836928921,0.08979247531586469,0.9223773266101278,-0.42619501353722317,0.12203394080858969,-0.29947028702893,0.1903795624463465,0.07082036175295468,0.8381457555472271,-0.2800126263529449,-0.06628682033132476,-0.03150220874814711,0.0130441375075005,-0.042934654089588825,-0.185603968548812,-0.10046685633873943,-0.10540581154848014,0.9427323128328746,0.2141347586648371,0.7417567305516721,0.349276481854064,-0.06063844623215113,-0.22764066895418683,0.20850303802768777,0.8080941366958263,-0.44001547318962075,-0.33370245317608593,-0.46500379967244265
18.0,7.0234081745147705,-0.12144463842940895,0.6635769272624983,1.0300272674275406,-0.010260126435944865,-0.056130450851081364,-1.5443960196822641,-0.3158463926973475,-0.10830593806456384,0.10184166414176613,0.936443718402294,-0.4217048298764853,0.1246307041726826,-0.29821535081710054,0.1905919088386492,0.07021204477404316,0.8386977589685636,-0.281455232756423,-0.06582380072347006,-0.03105019940096962,0.014136326175031445,-0.03956136018085246,-0.18471148695320133,-0.1009599488756076,-0.10419787008780867,0.9419529751064628,0.2143278199289499,0.7396988852494064,0.35377507431119803,-0.06433826615800395,-0.23454430712009808,0.20466675030191733,0.8009153113118728,-0.4424014534716333,-0.3363787210567105,-0.47068044226382755
20.0,7.0859456062316895,-0.1230366601975893,0.662799818964213,1.0299750263509135,-0.011154639045821806,-0.05729778146307242,-1.5415658610920964,-0.32570966546791347,-0.09849971214468109,0.11501502940342731,0.9521963786393337,-0.4195998499486494,0.12846292880189106,-0.2962697503506611,0.19072569559039593,0.06908339554849749,0.8384436874308255,-0.28278551547096153,-0.06565521157694779,-0.031051540407831053,0.0159113634975387,-0.03470155087168591,-0.18245301994004492,-0.10068631323307627,-0.1033475817064582,0.9409638280075432,0.21473906624630115,0.7377198544501853,0.3575278522639958,-0.0682641668591217,-0.24195541785653507,0.19993260967437093,0.7921746055238694,-0.44517105785652356,-0.34167653774111273,-0.4793991786766738
21.0,7.144155979156494,-0.1248229167642669,0.6617233147804531,1.0299496764541431,-0.012238383559669615,-0.058948123351877144,-1.5384574563101228,-0.3362243560972832,-0.08894049808835838,0.12822344428498683,0.967338578547833,-0.4210434339491501,0.13242492199865374,-0.29336600053038664,0.190692479909583,0.06817832498523614,0.8377495887474882,-0.28439214184062883,-0.06553406750417289,-0.03037907639036176,0.01644166967639005,-0.030052836664358866,-0.18095078824878877,-0.0991213110627771,-0.10144041992557712,0.93973440195952,0.21482318742651052,0.7354309770275843,0.36160221359610656,-0.07406683746272455,-0.2483409088242449,0.1950145124118125,0.7834071878840417,-0.4470591587991043,-0.345480247811785,-0.4860236481493373
22.0,7.171919822692871,-0.12630804047756294,0.6607923268838956,1.0299288954002048,-0.012995390669121266,-0.060065337541460144,-1.535954706239108,-0.3454454196316257,-0.08099826084888995,0.13846339256503387,0.9791861955929195,-0.4240097856542909,0.13575639396194417,-0.2909575041062533,0.19109698645878556,0.06762200467617997,0.8370014772942977,-0.2864068082181126,-0.06553878557818264,-0.029197487030161964,0.016928194532475113,-0.026511259789273635,-0.17992044233204102,-0.09778657510279043,-0.10036043162871225,0.9386945522727859,0.2148554677014229,0.7334830819010585,0.3635465539619228,-0.07903315652655926,-0.25380563029768866,0.19073598457369134,0.7757951489942865,-0.44829329385860306,-0.3496991544339787,-0.49054673422727535
24.0,7.227006435394287,-0.12757981182963876,0.6599511266507911,1.0299097513115898,-0.01343325094888144,-0.06096121590726951,-1.5338334862839518,-0.35383557457412934,-0.07465394500268889,0.14633317748055916,0.9885059927782913,-0.42806916707072606,0.13870280358290887,-0.28908526082513764,0.19166766152945425,0.06725625322947237,0.8363753952497883,-0.28822588370179625,-0.065530256544666,-0.02862290143955113,0.017318088225005614,-0.023648048607508253,-0.178767926576353,-0.09715822541159319,-0.09951183173227787,0.9378291638940561,0.21453100762874758,0.7317658153962149,0.36438294234572033,-0.08288201027427401,-0.2591717845790525,0.18744865573866426,0.7687659659974615,-0.4502029161258654,-0.35473159931098974,-0.4945427947228055
26.0,7.281411409378052,-0.12911588485139508,0.658780554020478,1.029991296271267,-0.013681193849181688,-0.062206266872017,-1.5308748870399915,-0.36369560347472696,-0.06848586319329142,0.153809625751183,0.9960900083121913,-0.432248105380289,0.1419205820732483,-0.2866291026947785,0.19343463960561041,0.06846183064401537,0.8352477131565847,-0.2909461995297021,-0.06531280125673486,-0.028609326883529677,0.015435741453778191,-0.021064933105478516,-0.17614065568355444,-0.0974752564043946,-0.1010600717463357,0.9386740590290712,0.21564687346138034,0.7308872663293569,0.3647683184671156,-0.08632356943086084,-0.26577352613394956,0.1830469337517614,0.7615268651127362,-0.45193996393630587,-0.3580277159548766,-0.4984922698571953
28.0,7.3507843017578125,-0.13077561607704197,0.657347697904804,1.0301490675173892,-0.013631378386599845,-0.06345087715247552,-1.5268456869854221,-0.3751403294056962,-0.061852010968375684,0.1618674200776355,1.0014094912272762,-0.43412937648378425,0.14561389823170776,-0.28345141458242,0.19508157058505773,0.06931442749159278,0.8329829422374313,-0.2951231359378899,-0.06546680287848394,-0.028985251434067796,0.014964130742300517,-0.018749331405487433,-0.17245999943955181,-0.09564215657075284,-0.10245848181529912,0.9398947721559511,0.2171016884221153,0.7323121650153169,0.3645082938453608,-0.08976758471875089,-0.2705530445823175,0.17887103870307514,0.7530555037045179,-0.453455038087742,-0.36234119567542833,-0.5032047204190613
30.0,7.407268285751343,-0.13260749506307862,0.6554818726195408,1.030338989835184,-0.01332754016996555,-0.06498498426227786,-1.522821165545283,-0.3884211234511109,-0.05724569878036635,0.1676019366807654,1.0043382396002978,-0.43267148111165443,0.14791471390192834,-0.2800204701141024,0.19676696402296548,0.07033018052184806,0.8307411970260585,-0.3001176167591451,-0.06601004926047123,-0.029329051320210475,0.012458667996470508,-0.01583843914494403,-0.1701088612406758,-0.09528993412831252,-0.10438369162981773,0.9414140316898825,0.21868356878053247,0.7334457699906773,0.36453558385910756,-0.09502418345024341,-0.27734633352701415,0.17358869928610798,0.7430205038220026,-0.4546038489686454,-0.3678815011583009,-0.5070234021222185
32.0,7.468567132949829,-0.13420124243944745,0.6534286178991647,1.0303766906039225,-0.01213041615990595,-0.06602174707210076,-1.5202623347051212,-0.40359476409833184,-0.05459129634226731,0.1710206106401826,1.0039700230927915,-0.43025908934456975,0.1494744542791908,-0.2776870288709842,0.19759501940426644,0.07043402563139141,0.8284320488917194,-0.3034219035638491,-0.06639421972029616,-0.028087813767304123,0.012095127632184002,-0.013882967009588992,-0.1688463003720279,-0.09273592845087057,-0.10504453322495033,0.9426231818906456,0.2192297231015522,0.7351889358148056,0.3622516617649493,-0.10144023374768221,-0.2816406144535459,0.1678031293849626,0.7324927684324152,-0.4553804564494666,-0.37384558064807677,-0.5132421292400173
33.0,7.5417399406433105,-0.13577083719075742,0.6513242424300414,1.0303599800317786,-0.010790581803764094,-0.06685309472384424,-1.5174495271160056,-0.4193944303151299,-0.0556372329165152,0.16964625456749688,0.9997181515040803,-0.42721158176477325,0.1490795044924251,-0.2754663366801973,0.19795843725817552,0.06940664731897776,0.8263279769586628,-0.30675600588704705,-0.06702086048590872,-0.026614440847785636,0.011614658064186,-0.012125455849552347,-0.167335372723817,-0.0927279694754583,-0.10074736821116778,0.9436416651490351,0.21616015866407828,0.7389393247653573,0.36280553359356577,-0.10662149562500532,-0.2856218477132382,0.1612400009228226,0.72195105212739,-0.455467303042584,-0.3814244185628949,-0.5203852355251777
34.0,7.578489303588867,-0.13696258820992457,0.6495505888749817,1.030350978057114,-0.009298501546578011,-0.06750396149249145,-1.5153778050962847,-0.43244411267708593,-0.05790471951066507,0.16707084607120096,0.9940951047477606,-0.42447542293443274,0.14828483014620286,-0.2739837304863343,0.19792680934684598,0.06840296037231297,0.8244945357669872,-0.3093371998859391,-0.06754644338004509,-0.02571196712007231,0.01119901770663496,-0.011382388886212942,-0.1659320654334095,-0.09243362358167469,-0.09721312540750543,0.944225997610447,0.21353808261991267,0.7413807766123223,0.36290136578998755,-0.11037862339630866,-0.28737683613473686,0.15536440371702756,0.7134259748662621,-0.4552449351295121,-0.38697901101624677,-0.5268255189989071
36.0,7.616479396820068,-0.13786867832712332,0.648043618602417,1.030413409029261,-0.00758924279757767,-0.06789014351483103,-1.5139817661800419,-0.4433260419338174,-0.06053922218567368,0.16406063709043234,0.9874997194145836,-0.42264149512340604,0.14736103861045097,-0.2732329642294545,0.19765757342790094,0.06736276957283094,0.8227951818128658,-0.3110278645759325,-0.06797443208847867,-0.024827032073770697,0.010676598944193243,-0.011765019318345461,-0.16463823284179283,-0.0919947450900357,-0.09439972123291614,0.9446162974768015,0.2117052587635024,0.7428279212163225,0.3637897067827611,-0.11326016071910708,-0.28777185892343615,0.15044637539955993,0.7070730854352214,-0.45477534904586536,-0.3903620787668699,-0.5312155102165972
38.0,7.666234254837036,-0.13885588534563975,0.646175410017877,1.0307463468814069,-0.006266669124638162,-0.06822978018171452,-1.512549513470263,-0.4546751365008314,-0.06422550979714498,0.15964440383514114,0.976865026242193,-0.4203993677019868,0.1460398604649413,-0.27125575202832486,0.19780184713097304,0.06687957857765511,0.8200075964050224,-0.3124938014976675,-0.06809067024856083,-0.023678762794113933,0.009883275153480172,-0.011720171045684999,-0.16201193718487428,-0.09251183705042113,-0.0927360281624033,0.9454610452586161,0.21085150292570987,0.7454041584290492,0.3658520215462343,-0.115043380697498,-0.28761822739791787,0.14438117466646136,0.7003787539268056,-0.454039963145795,-0.39156836141858875,-0.5372039937647992
40.0,7.738861560821533,-0.13997936409887618,0.6439181122732496,1.0312660656332875,-0.005080888706249102,-0.06904546227200045,-1.5112413524498491,-0.46652427022023624,-0.06999956652524875,0.15273830798329918,0.9628049408527657,-0.4197703055860122,0.14441707276933094,-0.26826588350221375,0.19751416355258472,0.06647902723090286,0.8165209584293278,-0.31525340795359025,-0.06865785934829974,-0.02251850142739207,0.008968305420441552,-0.010684039141800699,-0.1594502290405302,-0.09175806063716171,-0.09239136946192394,0.947182827749304,0.21040237615096097,0.7481781294261912,0.3648605578427814,-0.11734196539740428,-0.2870374589422171,0.1392322681935544,0.6928404502897367,-0.4532697472983848,-0.3950911883499292,-0.5420435109889333
42.0,7.809622287750244,-0.14121668016957356,0.6413910367517984,1.0318127731341447,-0.003283346347112903,-0.06941598310492611,-1.5101521890862033,-0.47973940207646193,-0.07412759027444303,0.147422825574948,0.9450419136819665,-0.41891443393050054,0.14312966816579792,-0.2653815685446465,0.19695892106120313,0.06486638223474593,0.8118881896275735,-0.3170009198526812,-0.06932404301423037,-0.02042351116053108,0.007546306299264649,-0.010890586576918004,-0.15525903740101926,-0.09301769988172101,-0.0929095285721526,0.9495596770835188,0.21013275303680753,0.7509022127431189,0.36430378677324365,-0.11863676918641325,-0.2872901487067897,0.13319553279696758,0.6856365603545975,-0.45009088648341816,-0.39864704594090317,-0.5430790404786845
44.0,7.874995946884155,-0.14234511200797295,0.638425172431772,1.0324695804161705,-0.0017639447784350013,-0.06965502040534659,-1.5095871827753664,-0.4923354952226068,-0.07736497823605232,0.14348247862750854,0.9245700698858339,-0.41992070419458394,0.14257067080059302,-0.26144620675306307,0.19642160404815698,0.06349785139696851,0.8065805362423888,-0.3186326694270045,-0.06992880532766935,-0.018188226736919808,0.007611025821636261,-0.009841016684181192,-0.15354830685254478,-0.09094194701432434,-0.09223534169838152,0.9513797332301578,0.20940013120989792,0.7536250229902803,0.36207518224476715,-0.12376763787187323,-0.2851335584303513,0.12930637959022093,0.6788819799578423,-0.4457119838498915,-0.40108768013837204,-0.5383533481156639
45.0,7.933274984359741,-0.1434418598982948,0.6354207460527743,1.0331602235563326,0.0004908941971363939,-0.06992775339269847,-1.5099293465313315,-0.5052283032679632,-0.08070204111972719,0.13947785842303967,0.9031021893042328,-0.4235709887004052,0.14250875934660895,-0.2582195139280516,0.1958559149933064,0.06256175993087607,0.8013845554278586,-0.3205745761574232,-0.07091457425608409,-0.014707378542603962,0.007871247754980867,-0.009728847395457652,-0.15140854962570902,-0.09004915608795772,-0.09227282951004151,0.9529951542141506,0.2083880584424142,0.7549773642358335,0.35848957298966844,-0.1284242913334528,-0.28460929180808014,0.1263613336148379,0.6719144250041765,-0.4437103002748929,-0.4092453431203916,-0.53657665748079
47.0,7.984685897827148,-0.14425427619898556,0.6327469813278058,1.033855053998912,0.0026694772482191574,-0.0703210961275303,-1.5107825138108437,-0.515094492624001,-0.08376434468288757,0.13608569445958912,0.8851226806640182,-0.42774180371494547,0.1423898640720196,-0.2554114243700604,0.19504571633187906,0.062017445560799966,0.7967407737963079,-0.3220075744328904,-0.07185372432287696,-0.011956338222396638,0.008702984204944274,-0.009894568222632488,-0.15169203728882694,-0.08866251324516003,-0.0914753673930626,0.9539253697348425,0.2072532670908871,0.7560642360117997,0.3559433693684988,-0.13401828490243628,-0.28379487986367313,0.12500468179359622,0.666498757564437,-0.44394155460796714,-0.41601810691362134,-0.5352945564542244
49.0,8.045729875564575,-0.1449833871075335,0.6297245582087703,1.0348747303597545,0.003565391822278167,-0.07039807111497785,-1.5128687664808416,-0.523721170142148,-0.08611857241199408,0.13330488538764104,0.8658470316493114,-0.43270684987969865,0.14234090206661842,-0.2505160736389906,0.1941715202581492,0.06131576385837166,0.7908152911829532,-0.3227401191887801,-0.0729763856804068,-0.008796852276584943,0.009485813960010775,-0.008632747660749776,-0.15050851719238367,-0.08835262279222494,-0.09072815620210055,0.9553606221059843,0.20626517294135757,0.759695810246052,0.35456208941781464,-0.13834564719440248,-0.2826025435924514,0.1252747403335343,0.6625798518593036,-0.44597349776281636,-0.4196796084262024,-0.533524447166206
51.0,8.107621431350708,-0.14568900626935885,0.626431277325724,1.0358014504506405,0.005078572858967342,-0.07076793794600685,-1.5142191213192835,-0.5334946902645619,-0.08900437346985349,0.13066101703932193,0.8462112814004866,-0.43865969901120644,0.14227604837161822,-0.24579303931335852,0.19327768752625563,0.06072014851433901,0.785026789116198,-0.3241564687944888,-0.07418775740535105,-0.005995188581278146,0.009366158062305022,-0.008221896414581258,-0.15041556363790345,-0.08871549999171688,-0.08944943537585814,0.9568739334403589,0.20494505598571994,0.7629992257902334,0.35397887378839077,-0.14389420883415255,-0.28134589981628594,0.12619033215522776,0.6601653474491267,-0.4513816523121692,-0.42140418663591217,-0.5365878953892405
53.0,8.184845447540283,-0.14635293915691422,0.622987606294745,1.0364149153241253,0.006516335405387881,-0.07079120097074389,-1.515518127579897,-0.5439849782216234,-0.0919399738272824,0.12838649922323905,0.8261942719943912,-0.4435293041981653,0.14163800472879756,-0.2409801885861237,0.19259311893868036,0.05985138217405883,0.7792832952192701,-0.32564832969055535,-0.07538819549695133,-0.003247558811318214,0.010007641707873133,-0.006942517809892159,-0.14813098801157254,-0.09007999861601601,-0.08913822013002086,0.9580456015498169,0.20392040938812725,0.7648958343731027,0.3532476705559704,-0.14783171519430555,-0.280185570424696,0.1280086116803357,0.6584239602707662,-0.4572219083989216,-0.4248110999315199,-0.5400802648008484
56.0,8.259098768234253,-0.14698944935868005,0.619454107345607,1.037103262398058,0.007553686745102087,-0.07030708272527184,-1.5162482328172757,-0.5545382683562194,-0.0962975952908019,0.12376282669293749,0.8058672012294337,-0.4480226110634314,0.14061049439111195,-0.23545072518871998,0.1923733540807876,0.05879516583243127,0.7728761348444749,-0.326101715126461,-0.07610919722304715,-0.0009738292901881714,0.01112298185463715,-0.005070311862684473,-0.14341663955134246,-0.09037125180320635,-0.08980246146849188,0.9589984249141887,0.2034628217561124,0.7660848902890782,0.3513525313276876,-0.1500829972456564,-0.2769540330093573,0.13032266661993339,0.657108450483593,-0.4618323881317147,-0.4268271724775241,-0.5427260003772403
57.0,8.333141565322876,-0.14756270484405215,0.6148169041028686,1.03752907094711,0.008902497482377987,-0.06995725588853041,-1.5172327721734382,-0.5677700121558364,-0.10313273047390137,0.11723313671685423,0.7846689159464217,-0.4530685710440762,0.13861051340963532,-0.2293270881771197,0.1919159322441391,0.05758614051586458,0.7668567738303772,-0.32608976446532933,-0.07658560222618238,0.0008801707626651556,0.012598959746244552,-0.00475043127963376,-0.13863808816426915,-0.09023984172073429,-0.09082183072007691,0.9588418118103224,0.20285049105798642,0.7644984129728303,0.34804392073786206,-0.15407537815813874,-0.2723416610927754,0.13339360150674215,0.6559646723970622,-0.4666854276196396,-0.432885960872718,-0.5478243684497301
58.0,8.389342546463013,-0.14796264433184853,0.6110933175504604,1.037912800935116,0.010150711178591744,-0.06886617680652908,-1.5185414975045304,-0.5782046431534209,-0.10711566647616116,0.11313300945192233,0.768319229402441,-0.4524968298948099,0.13686970279835592,-0.22439287230432414,0.1920478902562158,0.056349319385339935,0.7609588838552839,-0.3246757853044152,-0.07680378608407179,0.0026270134454500055,0.014609544868077442,-0.004043232873652814,-0.13382321147736637,-0.0906081472240268,-0.09243321801423733,0.9588751386907561,0.20293543649231705,0.7646472078307565,0.3457089181370487,-0.15592662284575817,-0.26841895649383096,0.1357771494781484,0.6557273226146868,-0.47001279297223586,-0.43702730299984394,-0.5508392337967897
60.0,8.42739224433899,-0.1482197275074162,0.6079894214002101,1.0383193874636614,0.011760440854008538,-0.0675819901385129,-1.5198172739098812,-0.586741357803626,-0.10959243460937398,0.11020521262525462,0.7561944141074532,-0.44967361554804525,0.13550363171225016,-0.2206425842896747,0.19216920357297168,0.054991580525440495,0.7553782386301126,-0.3228759364687359,-0.07699064921083786,0.003989021436993132,0.01640304203158944,-0.0038129298667482683,-0.13118144123891823,-0.09093086692202534,-0.0933742545948297,0.9591070418931021,0.20290141946351065,0.767002579338516,0.34407698686817356,-0.1580969277068195,-0.2649804573948258,0.1374729254110477,0.6561217701226052,-0.47306227022937997,-0.4392576393484557,-0.5539517343976625
62.0,8.483357429504395,-0.14851484261113151,0.6045450903158761,1.0386741969089763,0.01349282254085302,-0.06704823906839413,-1.5207630267622112,-0.5956405815175643,-0.11267300223188931,0.10786153107079424,0.7453175218267015,-0.4469795899071056,0.1341828980593198,-0.21657243950994848,0.19147437097677156,0.05357113229578655,0.7497381964210469,-0.3227042939374233,-0.07776513188829218,0.004525992320426991,0.016502251790300914,-0.003579639700934609,-0.12973338704503262,-0.09187731469586932,-0.09306742523537334,0.9594069702408976,0.20211372987667825,0.7686206998525107,0.3435823385769656,-0.16031753851691727,-0.2616958574828583,0.1399734105562739,0.6568407004723462,-0.47507612252413445,-0.44114249500584873,-0.5534766529229092
64.0,8.547486543655396,-0.14880231824721024,0.6007877642072612,1.0390054409939447,0.014488843519909663,-0.0664192458804441,-1.5219033476999546,-0.6038556178522776,-0.11498785391467922,0.10661167917017952,0.7355306264133448,-0.443114851305473,0.1330923713762293,-0.21132610773205807,0.19072807453778384,0.051798569766297126,0.7442405270366433,-0.3226744911381584,-0.07865985515935614,0.004721151778260142,0.014512242204081488,-0.002011748981902033,-0.12764967305229794,-0.0938707995700582,-0.09210994081323873,0.9587794972821775,0.20132633170846753,0.7681418181004885,0.34589031103808066,-0.16202765883955456,-0.2581508734616228,0.14208709428208827,0.659012260304942,-0.4764117863427424,-0.43844117610688593,-0.5515325479322617
66.0,8.604544162750244,-0.14908118403777817,0.5962721125027588,1.0391551344176513,0.01546471667933998,-0.06562712119679376,-1.5233031604445109,-0.6116212977498079,-0.1174605906483919,0.10523873796340853,0.7257055952364149,-0.4414482718461933,0.13278434999888067,-0.20561729191767691,0.18999993206055507,0.04965061839974368,0.7390359074483381,-0.32283310822500877,-0.07955499045882797,0.004852920638040011,0.01321778236126906,-6.472411343843285e-05,-0.12798250290011146,-0.09650985765483229,-0.09109139573194944,0.9592252767578036,0.20051980530885205,0.7703382089828277,0.34824433085690465,-0.1645933694919126,-0.2557947655151,0.1456586316616004,0.6607083693106697,-0.47704359521648354,-0.43819686940593516,-0.5451256218298193
68.0,8.679622888565063,-0.1493032138015925,0.5913264333547373,1.039130603441649,0.016783487085225528,-0.06501505259976122,-1.525445876479845,-0.6191832554942422,-0.11971708625712582,0.10418915932883324,0.7166673034226668,-0.44173074059357176,0.13277588195610202,-0.20013416937160913,0.18971126579364822,0.04877558467713489,0.7342791849646662,-0.3218842117087801,-0.08002360194071502,0.004080577743717064,0.011507051053658558,0.001832788008272416,-0.12838582435613882,-0.09970051536667485,-0.08923849974697709,0.9595082392225808,0.19884936675593873,0.7718457375979384,0.35045591324725733,-0.1673942038808352,-0.25320987033952386,0.14966386544115304,0.6626568656142788,-0.4782346615494546,-0.43662018319489837,-0.5388688076635519
70.0,8.740648746490479,-0.14931382262476484,0.5861501228428849,1.0390173035535104,0.01702725367513094,-0.06336920413743914,-1.5279059260851118,-0.6248882749151996,-0.11980383773108147,0.10470932039542849,0.709851166571728,-0.44174942282002483,0.13329330365184897,-0.19372644759102098,0.19090819303827222,0.048448327069403246,0.7304430023638029,-0.32074890173379267,-0.0798707054211765,0.0037780432572319467,0.012028026570914792,0.003895821214139107,-0.12764747353265088,-0.10261519669417568,-0.08788332332667426,0.9600379978702773,0.19739843729110484,0.7735036706512479,0.35202593313963737,-0.16812758147021745,-0.24951322418813454,0.152784940382594,0.6646712547108542,-0.4793299591949679,-0.43759407166880604,-0.5374728807721957
71.0,8.804202318191528,-0.14916083725485085,0.5806603723875986,1.0386239458952566,0.017838093069815337,-0.06188502984176596,-1.530758540569479,-0.6300216245653465,-0.12002006414608998,0.10488656205854167,0.7043679471942292,-0.4442112803606175,0.13394088813415003,-0.18803539082329507,0.19185461720498903,0.04820036363862476,0.7276683104581331,-0.3194819872400675,-0.07966845553849257,0.0027994521386906913,0.011790343072190547,0.004762045695468178,-0.1290682696745563,-0.10616016584916146,-0.08557667771943997,0.960647858627413,0.19533907623679422,0.7754144204180646,0.354304104211598,-0.16956248065364288,-0.24672846692960237,0.15590944099134568,0.6671438904501661,-0.48110170808521946,-0.4397195160816317,-0.5372121992409333
73.0,8.857023239135742,-0.14899524989280927,0.5761568983250893,1.0381780875525533,0.018279714009621785,-0.06054649706324354,-1.533343666860185,-0.6334645046669025,-0.11968592737839281,0.10533834110338657,0.700682387343315,-0.4460034476285767,0.13445142571649868,-0.18321749513916885,0.1930662103802959,0.04851766448643076,0.7255142741523655,-0.3187137550937842,-0.0794685782494345,0.0022298058615530976,0.01073784950793513,0.005143245258460416,-0.12956411697834277,-0.10866996925544284,-0.08440753701848272,0.9607732644177254,0.19404947109023524,0.775015818757719,0.35573028605660056,-0.1701409784697765,-0.24441455346582716,0.15825334825700332,0.6704210218419899,-0.4824478127024797,-0.44132264503085733,-0.5376604948480668
75.0,8.923489332199097,-0.14876488052839915,0.5710766884209699,1.037626372084855,0.01773553010110587,-0.058825741326423556,-1.5368913462816614,-0.6347325957508546,-0.11874131590462353,0.10538644417557008,0.6972144581316961,-0.4486028313319525,0.1352736808903921,-0.17707522424843036,0.1953632221313628,0.05007547856744583,0.723697623822102,-0.3180354101010112,-0.07913020813141752,0.002176318123004884,0.008783328079040965,0.006246855020213505,-0.12778928909111315,-0.10995311410670025,-0.08397910692167057,0.9612640533627103,0.19322574241542614,0.7742417734052398,0.3560448374922024,-0.16758761603270486,-0.24045670221890392,0.16135408767074993,0.6747699968722041,-0.48154132051196585,-0.4427111176147116,-0.5346067168836222
77.0,8.973417282104492,-0.14853311535668967,0.5653770052745557,1.037036141270577,0.017594504169393354,-0.05711742997823753,-1.5416592527102253,-0.6348423404740947,-0.11764320943799014,0.10491587633606808,0.694101652932456,-0.45240574826440627,0.1362483327214365,-0.17090964125430125,0.19777462770243626,0.05220497267529711,0.722274581146561,-0.31653138984986984,-0.07866084507746986,0.0023141053083768743,0.00519221159904974,0.007102939161799642,-0.12604706237385357,-0.11165360204243646,-0.0836409469461824,0.961689394102124,0.19268107841896914,0.7740527188457942,0.35731527101813065,-0.16423854686539247,-0.2372629494043359,0.16522890514958705,0.6794231496628258,-0.4823041269692109,-0.442528217051103,-0.5320045306161769
79.0,9.036627531051636,-0.1481303395493596,0.5589992945741649,1.0363305272685028,0.017478646375418468,-0.05532596795126525,-1.547138828381323,-0.6344696276312669,-0.11529752694569212,0.10639127910422105,0.6929243040195523,-0.4519354858553724,0.13674406204857822,-0.16409412985808747,0.20063923611483103,0.05563513644035201,0.7216339333009416,-0.31508808968627083,-0.07799906664498824,0.0007472658635315479,0.002248065244718263,0.007740670303638801,-0.12630307626226475,-0.11156999485177027,-0.0815133224980179,0.9612704053666101,0.19082972463180709,0.7739344081336467,0.3570800752613815,-0.1627678352490463,-0.23313036092743683,0.17188583320851625,0.6844164959037842,-0.4855980884657557,-0.44198055986154494,-0.5291469175216427
80.0,9.1127188205719,-0.1477134783982989,0.5521878848731695,1.0354376831021708,0.016430534021790035,-0.05332027759197626,-1.5540285810953205,-0.6317938986368781,-0.11313691544764795,0.10641226440112089,0.6919811537632924,-0.449284135112624,0.13701221479148376,-0.15624559948319788,0.2037630192082543,0.05972507141212541,0.7211438012274116,-0.31230370192989987,-0.07740274398276581,-0.001471005512213481,-0.002314317783369973,0.01051898982930868,-0.12359302709324652,-0.11247617103133034,-0.07937731634374777,0.9611342886373143,0.1892195212924182,0.7751277751001417,0.3586353011734895,-0.15785667363145517,-0.22953395968441953,0.17961288265095593,0.6894038113508549,-0.4884249641275737,-0.4400537324160768,-0.5228072325666282
82.0,9.1591796875,-0.1473434047909293,0.5466074619640683,1.0346813522605762,0.01562732804082285,-0.051964105703904265,-1.560435774774341,-0.6289059607434457,-0.11197225906196491,0.1052936545439167,0.6916293478911011,-0.4472127363361309,0.13707265737236024,-0.15010942602309452,0.20552657092095403,0.06291877883582962,0.7209835709711814,-0.30863029871880066,-0.07697243954001395,-0.003427548162474434,-0.00711294687941689,0.012569395065163443,-0.12108059443785174,-0.11335641398090114,-0.07768802208831144,0.9607234589584027,0.18809605648070007,0.7759016593759219,0.3606352078045495,-0.1536807564824889,-0.22729944790350481,0.18608927380717516,0.6934342996770773,-0.49049555017896374,-0.43861521950748605,-0.5166694734183489
84.0,9.227163553237915,-0.1468382643230294,0.5403961182591843,1.0335908194867047,0.014210279007392183,-0.05035299266207719,-1.566499732070971,-0.6248783336797387,-0.11067737407011685,0.10494233256561926,0.6924787595624402,-0.4416595124197164,0.13657380650721151,-0.143468058167741,0.20729468094056266,0.06561199482712285,0.7221838510741967,-0.3054131527665499,-0.07640695466270199,-0.00730323858321026,-0.013269049291115938,0.014536584355277958,-0.11788929091322117,-0.11465055699441477,-0.07643604532573296,0.9607617283131906,0.1875578203133848,0.7773328766805856,0.3637511502025217,-0.14823573966311165,-0.22555217851701598,0.1926860805505266,0.697606293684069,-0.49171704199940003,-0.43939928739560896,-0.5096856015510921
86.0,9.277094841003418,-0.14626783411732802,0.5336151253601722,1.032355735550977,0.012647526768905919,-0.047894056646712285,-1.5730375113802597,-0.6194043790601027,-0.10856535196012224,0.10516380637376571,0.6937604729191047,-0.43351726978918037,0.13592612902202442,-0.13663887874662362,0.2097186950985217,0.0681882138860159,0.7241781524796178,-0.30021294571337526,-0.07524636006396891,-0.012823859033337649,-0.02129127023352414,0.016956280301248138,-0.1122213073563971,-0.11729871016233945,-0.07560757962100982,0.9599738783563755,0.1873446454993402,0.7774494412300985,0.3683762567477548,-0.14009977139329446,-0.2250166493829093,0.19908190321348218,0.7018189928061904,-0.49256246673773113,-0.4391144318736298,-0.5013470634746138
88.0,9.34297800064087,-0.14570355792790465,0.5260738085015255,1.0309525710707623,0.011891788583955922,-0.04521749246463132,-1.5799569678282848,-0.6138750423733745,-0.10566570385167373,0.10647144626991437,0.6971922002301376,-0.42145027719943046,0.13512814170376553,-0.13019621830550082,0.21201295512257812,0.07040468494777201,0.7270327859392669,-0.2955180330399262,-0.0742039929722953,-0.02061426183082598,-0.032785863253068794,0.018219432692429812,-0.10798900296862535,-0.12208591347919126,-0.07396013123588084,0.959398079011623,0.18619236124225624,0.7771437952448739,0.3737212601285409,-0.13196002423649533,-0.2260887865145746,0.2040301803778866,0.7059105196101192,-0.4929987349498756,-0.4381232447462047,-0.4935703671888405
90.0,9.406532049179077,-0.14494193364302257,0.5178632081662843,1.029342688683991,0.010715416015044223,-0.042018589347958185,-1.5875499683623868,-0.6065941954413456,-0.10158620440136001,0.10896244502316765,0.7020268795500666,-0.4081807071234398,0.1348933787797985,-0.1232184388175262,0.21433116184236556,0.07212051332288455,0.7306076179832102,-0.2893303942140913,-0.07280038175781128,-0.030259030045823483,-0.04410393253738755,0.019504636858677704,-0.10054417181920187,-0.12803285982254684,-0.07271104407406145,0.9595261764544465,0.18457892808532553,0.7768047893100443,0.37792588677807537,-0.11990556310471612,-0.2290367624370019,0.21034194214110907,0.7099291788853097,-0.49308063488395837,-0.4418014530289149,-0.48306415776488015
91.0,9.477603912353516,-0.14395158897901378,0.5092256372922662,1.027979291828414,0.009697041662293722,-0.03879780328161097,-1.5947553931201832,-0.5981135259333941,-0.09536556835799377,0.11515635622293416,0.7074026011831414,-0.39722256359726704,0.13562378199581088,-0.1156005453966289,0.21578773225853082,0.07330302152095206,0.7332237835743548,-0.2838293753385627,-0.07180602116653007,-0.04066100587562935,-0.057628238944628526,0.020434200749611515,-0.09465342731272991,-0.13353666799009684,-0.0711769029132159,0.9601209435650997,0.18341672278744853,0.7770257862565797,0.3836667906248141,-0.10820637191552107,-0.2311951485186773,0.215356092023347,0.7142465172283595,-0.4920171743246616,-0.442671989597871,-0.4725759614472795
93.0,9.524025917053223,-0.1431116614148426,0.5021234099664744,1.0272058357016018,0.009207316712382601,-0.03687175866105284,-1.6005634792983867,-0.591621392739751,-0.08869850724860098,0.12355761186734472,0.7113222271595747,-0.3907671250537311,0.13706810536661027,-0.10928959140680591,0.21565308654416887,0.07386042219757039,0.7346979849394624,-0.2800900427457569,-0.07168573269659786,-0.04972869515965954,-0.07073403809710346,0.020212447871414976,-0.08967856359683268,-0.13884018598207537,-0.06971793793000441,0.9611338173898667,0.1824082745161606,0.7772239390688318,0.38946474417635935,-0.09806009567361398,-0.2334210484217682,0.21823134667352923,0.717579683224502,-0.4904766734527398,-0.44363826364956527,-0.46545845065290425
94.0,9.576524257659912,-0.1422419571757007,0.4943767828461461,1.0272921289626595,0.008676811000319522,-0.03696332071411026,-1.6069228641041065,-0.5847046587864955,-0.08102015932210993,0.13586149683718113,0.7123489156591205,-0.3942841496680405,0.13993640785766198,-0.10213149760830731,0.21283684364414351,0.07493032381088513,0.7360782358313774,-0.27840241529605225,-0.07294174211032163,-0.05945611941778485,-0.0869557897452086,0.020311545170025203,-0.08407408825575274,-0.14356146573311063,-0.06807124815981377,0.962459734378752,0.18153766833805676,0.777900861431035,0.3956849008334812,-0.08577130996909293,-0.23529574564342948,0.22157056079603116,0.7212005400972958,-0.4901363105315241,-0.4448478949444501,-0.46074379208103977
95.0,9.61312198638916,-0.141510731706451,0.48791787866435,1.0276258374602807,0.008614390422795618,-0.03847191322842797,-1.611825500039707,-0.579546478326243,-0.07470663076784839,0.14825026766298502,0.7121190702239916,-0.397521280949754,0.141960328340335,-0.0963327202398081,0.20882603938218025,0.07600753065407562,0.7370585321090217,-0.2785619390252298,-0.07460249914377312,-0.06765906260644586,-0.10120321629400655,0.02041464147351842,-0.07990487095267074,-0.146027222569573,-0.0667691471890331,0.9627319106085086,0.18119627382210374,0.7788284954688651,0.4006551256932862,-0.07579021220295563,-0.23548158492965166,0.22472281542720873,0.7242331293405285,-0.4906574984553307,-0.4441764071043067,-0.4585462629359964
96.0,9.637426376342773,-0.1408753338170075,0.4823174985115506,1.0279682930473604,0.00850220064759788,-0.04063533236008942,-1.6145196648530225,-0.575596400744167,-0.06990229924628122,0.15983763120771977,0.7125291227115025,-0.39587969519133315,0.14292927591254176,-0.09131706425073431,0.20478115575059147,0.07675438286420701,0.7388092939534203,-0.2806255889244173,-0.07631852951406508,-0.0758960365480755,-0.1138593097477037,0.02044323249738808,-0.07674854685836492,-0.14709125066393955,-0.06601655937711959,0.9621149004612061,0.18109971696488905,0.7784626318814432,0.40387540164311186,-0.067771874053518,-0.23497317581032112,0.22744474559042874,0.7273126233146803,-0.49104572991394835,-0.44267340669349864,-0.45704475591043703
97.0,9.66658353805542,-0.14027236852571523,0.47701944615892267,1.028229151304942,0.00771249048597729,-0.0424916077386205,-1.615493344016689,-0.571782653571384,-0.06588555794289516,0.17030376779741652,0.7148479741246043,-0.38630274574671797,0.14277137759375552,-0.08636939483214978,0.2014556779553662,0.07696642299379924,0.7416399192847227,-0.28360004526226495,-0.07787048894474356,-0.08455688353525631,-0.12466585768893053,0.020959418418638742,-0.07454111249255765,-0.14703173095273317,-0.06551185613907506,0.9613947778774696,0.1811700995891391,0.7781544650612156,0.40591651673173895,-0.06056991324796643,-0.234029463343971,0.23011166521297866,0.7304149230254657,-0.49117963897611655,-0.4413812806260612,-0.45559822677172834
98.0,9.698267698287964,-0.1397025886066809,0.4720869026456273,1.0282538728731494,0.006638871906488198,-0.04318408902746042,-1.6157828571546595,-0.5687655407069131,-0.06238590815111013,0.17813603979660744,0.719214244174365,-0.37040550682660156,0.14182543076276882,-0.08207476920314748,0.1989588918708798,0.07602084533011408,0.7448158979227234,-0.2861593494058394,-0.0792525955922557,-0.09238057101692432,-0.13320321210962582,0.022101758494521933,-0.0730676944699997,-0.1465639471182061,-0.06483219470682673,0.9611860091750865,0.1812702220876075,0.779580774540888,0.407826631979465,-0.053265194208748826,-0.2329542701367262,0.23235807934824584,0.7334123536690302,-0.49114984753353674,-0.4404449318292238,-0.4552130967381508
100.0,9.741549253463745,-0.1390673859312592,0.467268313202023,1.028152376923541,0.005659151155052873,-0.04301021036120365,-1.615905903941643,-0.5665245698400526,-0.06026275372495875,0.1822713134879792,0.7246101203460634,-0.354681685602405,0.14085343281823237,-0.07799067086483433,0.19657728868690166,0.07393365946409984,0.7480104573282912,-0.2878136857956792,-0.08059967166602333,-0.09962447436911602,-0.14082865714603135,0.023911250450110298,-0.07274381526513285,-0.14589800034551492,-0.06399442416336601,0.9616529744233351,0.18140779786131145,0.7826626628598254,0.40974566533090895,-0.04576451174283099,-0.23143937065502684,0.23391703677278144,0.7369478457971322,-0.49062635196663096,-0.4383315529462045,-0.45552010703733065
101.0,9.800969362258911,-0.13809478744464185,0.46071131400751425,1.027564571010189,0.004056049310397262,-0.04308418288250759,-1.616685766981663,-0.5638166549851878,-0.059932952592281034,0.18389586960581572,0.732451997073206,-0.33961159813224123,0.13982154113132594,-0.0718399811938217,0.19261642522330796,0.07081011210954645,0.7526370358078722,-0.2878969857628755,-0.08198625688906276,-0.10854570321173604,-0.1505241828028931,0.02669774543980955,-0.07262896355779926,-0.1458088608256892,-0.06264612860467875,0.962521589335815,0.18074625719139317,0.7851253855833886,0.4108879150232017,-0.035088831376366175,-0.23098779863074698,0.23562821447203403,0.742415459764459,-0.4895168008871005,-0.4356130927765666,-0.45394164120253466
103.0,9.841532230377197,-0.1371551475896376,0.4545166603266472,1.0272439464920706,0.0024931376610658976,-0.04319854566824475,-1.6173006507351144,-0.5608557973129775,-0.059597565069665376,0.18541689089936209,0.7395303484570845,-0.3297087797824281,0.13942802031131163,-0.06622291805382066,0.1880428635695406,0.06713380818218807,0.7569738134007655,-0.2863695653923574,-0.08356660422993828,-0.11687795511874105,-0.15893015426370444,0.028304542818612905,-0.07425173864008938,-0.14613164852263227,-0.060872321555147275,0.9636151814357948,0.17964709759527664,0.7881631551406713,0.41182380881291847,-0.02630073018438934,-0.23118564460259397,0.23671631941489568,0.7480195594904997,-0.4877694584421336,-0.43208892572836854,-0.4510157009762381
105.0,9.909295082092285,-0.13579654602519384,0.44663695673505277,1.0269716317988176,0.0010139619338874121,-0.04331754924073333,-1.6182346877252738,-0.5561891853268945,-0.05950872250503384,0.1872165908182402,0.7465468014147402,-0.32451359677013336,0.13964984578315298,-0.05967554036599747,0.18297744582305098,0.06399768129322844,0.7617946204074245,-0.28285952157992367,-0.08499699298898228,-0.1254762402968544,-0.1674087826309453,0.028647451584258986,-0.07666124354140252,-0.14420531421240007,-0.060379204482662825,0.964374768252847,0.17972501469062452,0.7909652840270636,0.4114195982496752,-0.014826339413601735,-0.22985440413034663,0.23827780255094036,0.7553087020383318,-0.4844876320337692,-0.42771841222322293,-0.4457348958087924
106.0,9.978392124176025,-0.13424596100575775,0.4373628335008205,1.0273079591730216,-0.0004912664644835054,-0.04314079232267827,-1.6206571000891579,-0.5489088966075562,-0.059386989766905623,0.18895981612181886,0.7519417671531567,-0.3225954589813195,0.13933928625337064,-0.05367740814421103,0.17731288027423686,0.0612939274746649,0.7685442947641183,-0.2749349340892391,-0.08678177441388413,-0.13246880492953012,-0.17649990212906502,0.027417311908989064,-0.07950744865974622,-0.1422985064935893,-0.06032922629552855,0.9658028629175364,0.18055488447333778,0.7953591360763481,0.4121256564956063,-0.00020263844833947556,-0.2286683916035231,0.239582031414529,0.7641271851307146,-0.47935534272408953,-0.422504924195911,-0.4373481927864262
108.0,10.020114183425903,-0.13290388036559952,0.4294027269498094,1.0279910991819645,-0.0020449261151384308,-0.0434731190945036,-1.623509800104748,-0.5412758962540777,-0.06012684345525477,0.19031285251731458,0.7548603991986487,-0.32208922624607095,0.13840143079476203,-0.049572354748336225,0.17219010594365147,0.060187373837811003,0.7758186368844228,-0.26536364957459535,-0.08843159925534744,-0.13704637743636564,-0.1843777847054622,0.025372991950202515,-0.08165021356022484,-0.14069860482947386,-0.0607065071921488,0.9666527418535327,0.18134949350755186,0.7980686839364886,0.4121495313235068,0.012298076768035422,-0.2284195492469504,0.24148691477158726,0.7717657538238571,-0.4751614322578179,-0.41834227371485855,-0.42834691579381723
109.0,10.064321517944336,-0.13129360907852555,0.42028191969402007,1.0289785096288553,-0.004099125511369918,-0.044154227432042226,-1.627796991057965,-0.5310329137373497,-0.06183570097592024,0.19129750653405994,0.7563014228829712,-0.323181043929718,0.13688201788168503,-0.04572086092742008,0.16615944308395192,0.06001145306534825,0.7860593738928342,-0.25349508221144584,-0.08991770543909516,-0.14019314224921675,-0.19289854023795044,0.023153596183905223,-0.08371736669878305,-0.13843744873260633,-0.06198448831050257,0.9671354668345904,0.18246486982599175,0.8007439548541206,0.41042175730903563,0.028219801921735437,-0.22828245424921972,0.2435152488781191,0.779836766135338,-0.4724131856355769,-0.41503121047927893,-0.4236252952014843
111.0,10.112611770629883,-0.129935313432805,0.41275536435046234,1.029844498836932,-0.006242779731037314,-0.04521223019833025,-1.6313440160371664,-0.5217601664602113,-0.06298294188158388,0.19393914041999222,0.7568226947249045,-0.32337425385929186,0.135660670707534,-0.04281289516143796,0.16035620215261714,0.059571280764509627,0.7956416906213509,-0.2428096580869596,-0.09098433588909416,-0.1424486339638377,-0.19999127297311467,0.021126361261331283,-0.08586285402847946,-0.1367251810439317,-0.06317883222184845,0.9670397409216767,0.1835557223754139,0.8030885829560175,0.4092630663309421,0.041094054561058996,-0.22839517979429635,0.24514180844650435,0.786618545550297,-0.4712726071829494,-0.4111927800587475,-0.42228383707528006
113.0,10.183645963668823,-0.1284130892880328,0.4042348869156477,1.0307013193249341,-0.00879422027999044,-0.04693573452807724,-1.6348586939572556,-0.5110608649691065,-0.06501749650059203,0.19719757436389668,0.7572718967915973,-0.3250280331510237,0.13459118533820885,-0.04011222561679814,0.15281006245164674,0.05766874207592636,0.8073105729341807,-0.2289853479198899,-0.0917648099042988,-0.14558784055540777,-0.20953696875422734,0.019024348596609536,-0.09015765792286132,-0.13485516918949597,-0.06427555258517045,0.9656474394326715,0.18460981699127488,0.8039437893442469,0.40798666886121365,0.05266876486263293,-0.22948309936415656,0.2473606848235485,0.7945634963172796,-0.47074625068422393,-0.40493018351215987,-0.4187121628049441
114.0,10.242956638336182,-0.1265508497542991,0.3949260975202773,1.0316829122696123,-0.012188289934281121,-0.04848348729946199,-1.6381581167342376,-0.49833287408508187,-0.06929399899123778,0.19802331560123443,0.7562190515426531,-0.32744866608843715,0.13353416117303446,-0.038361123070147884,0.144499190069415,0.05488881325561361,0.8210317473556572,-0.2113318613014234,-0.09165168896695003,-0.14930146695644442,-0.21846057739697416,0.019428621942411607,-0.09290242665407146,-0.13291337001863288,-0.06563843241313333,0.9636611471609793,0.18627860138930702,0.8053687221859744,0.40793162522250653,0.0676988886858695,-0.23157025103237183,0.2517555441124106,0.8036468333819713,-0.47105243161597243,-0.39585863494872564,-0.4105241663499511
115.0,10.27077865600586,-0.1249083304830495,0.38710527305967213,1.0326784878832473,-0.015428637138853403,-0.050322265586854736,-1.6408424715227317,-0.48667147012170237,-0.07419440182448264,0.1982986225172541,0.7543073335934471,-0.3296454009965899,0.13279441966073713,-0.03775405596867414,0.13659792496351153,0.05221843995221198,0.8337655587548498,-0.1951084044637675,-0.09126970273837648,-0.15237464506673143,-0.22652645484508568,0.020100775797171858,-0.0960536556612746,-0.13224763829420041,-0.0661688333913082,0.961995112227602,0.1870901617350071,0.8077330848100267,0.4080221197013159,0.07966859605758558,-0.2349689166620874,0.25616510919449614,0.8109158298412038,-0.47139527107444923,-0.3868779138393711,-0.40034501075608875
116.0,10.29840874671936,-0.12344327876378028,0.38023093329273655,1.0335748669116496,-0.018387816402619855,-0.05199068722920965,-1.6429157553417877,-0.476058526483956,-0.07921423139745776,0.19783975508871804,0.752219543717062,-0.3318623993125247,0.13232345968778808,-0.03786421770682484,0.12943328524336428,0.04945676709670054,0.8462624326260223,-0.18012587425991877,-0.09072315632709044,-0.15515919477625914,-0.23268012661590604,0.020097850976766377,-0.1010384392188501,-0.13139043740705464,-0.0659195217496149,0.9606688362315303,0.18723307584717092,0.8114462002518901,0.40734058791812255,0.08837266740668076,-0.2385885885864169,0.2603065992383391,0.8168290157095567,-0.4715651405660999,-0.3784377901171962,-0.38970673948941026
117.0,10.339828252792358,-0.12219895091583984,0.37444290562700294,1.0342045087015233,-0.02086882506362846,-0.05285782104816199,-1.6442829418119242,-0.4671886542001746,-0.08380488406984968,0.19613516196115174,0.7504405314135743,-0.3340254212468492,0.13231736951850326,-0.038893069324360374,0.12368269735497282,0.04655517058925815,0.8581844410914314,-0.1663233726761154,-0.08998843704201359,-0.15758911648721524,-0.23592753016453577,0.01943243591797822,-0.1058663482351633,-0.12978088175151756,-0.065404931917071,0.9585356786217727,0.18722503299124155,0.8132110777849351,0.40634553592850875,0.0944655976129613,-0.24125145764984074,0.2639894865081621,0.8218716624060853,-0.47125511248129437,-0.37007348393419237,-0.3795221636367514
118.0,10.376703262329102,-0.12103622346730827,0.369282208145705,1.0346769411555798,-0.022659957501053117,-0.053392037491782424,-1.6453155108091577,-0.4598890258281858,-0.08817790551579088,0.19387678764185834,0.7492810121619868,-0.3366698744854182,0.13269049694073254,-0.04118666037950469,0.11860263248518368,0.04374651542971773,0.8700647285827459,-0.15239417681727838,-0.08905663670704755,-0.15937183454868648,-0.23825352431791352,0.017870988039942165,-0.10995530192139989,-0.12805274796949023,-0.06550055562166052,0.9550540314424701,0.18761106207356937,0.8107284923242408,0.4054793170543191,0.09897798934029436,-0.24306624696975743,0.26656067916373793,0.826400336022743,-0.46953958170073923,-0.3621557374103229,-0.3694484306715282
120.0,10.421003580093384,-0.11981491498317542,0.364293951943654,1.0350875717989658,-0.023969035892713424,-0.05392235922110723,-1.6465268191125564,-0.45344180152435887,-0.09254639631775194,0.19157867987288862,0.7485621122564302,-0.3400721585825506,0.13323686352215552,-0.044624414293939534,0.11418858599472034,0.041980598794807936,0.8826688083974956,-0.13716143499909206,-0.08742615149437281,-0.16050395198042422,-0.24057299685281783,0.016069850308060928,-0.11341440493545116,-0.12638661114203675,-0.0660076774894124,0.9509851049556156,0.1885100991825937,0.8061138259345776,0.4054854899711371,0.10380380132814741,-0.24438399943950168,0.2681794692603603,0.8302112309785552,-0.46701742840649724,-0.35530773829686013,-0.36088425496946464
121.0,10.462343215942383,-0.11805682163527753,0.3577403427769557,1.0353012696624615,-0.025412167728415334,-0.05400691119855368,-1.6479524167790711,-0.4459096043140569,-0.09777691925480252,0.1884031309747744,0.7489731590612521,-0.344811408486427,0.13405767983759648,-0.05051212572105292,0.1097483312563483,0.04067364537703812,0.9013999602315911,-0.1138544262306849,-0.08401541608575669,-0.16275108861272947,-0.2413188257793276,0.015109292237675468,-0.11792328928871385,-0.12420827184010191,-0.06634792155620092,0.9458892984480154,0.1890858406729847,0.800700224550468,0.4043420652493007,0.1115257631485707,-0.24640783303313057,0.2695060339508168,0.8344707658337577,-0.46547809808022617,-0.3473500574465447,-0.35526114080375915
123.0,10.517225980758667,-0.11648244536431207,0.35176699687808954,1.0353488779837985,-0.02658221308539719,-0.054046828623112955,-1.6493829813490415,-0.4394043662876606,-0.10238311389413077,0.18557683654184293,0.7498656855231729,-0.3495465682323067,0.13478817744748756,-0.056972791194581804,0.10673149976234952,0.04029556764167762,0.920085675876019,-0.09105891058828007,-0.08006019573749312,-0.1646432722934653,-0.24105613931709005,0.014221599749595337,-0.1231790646743244,-0.1220345634844483,-0.06674203108644708,0.9413680695907791,0.1897697140581512,0.7964802484458142,0.4031035383358047,0.11794451649755347,-0.2484958582116072,0.2702034557654198,0.8372424600365833,-0.4640011012265522,-0.34091383305356326,-0.3514999582665297
124.0,10.58742618560791,-0.11475908358471744,0.3445210244399003,1.0354894852477918,-0.027464626366201145,-0.05375453836709323,-1.6522245204397181,-0.43190500515500985,-0.10703038443628744,0.18230351830003902,0.7513444994306804,-0.3567705703352673,0.13557884880913165,-0.0674107496057008,0.10636427175221788,0.04238644007553813,0.9451543387755746,-0.06707351817606663,-0.07373111077445711,-0.1659818875080877,-0.24024000895398562,0.011791842359331015,-0.13211100710402485,-0.1195566517594023,-0.06607653863692704,0.9366734640156227,0.189460537153467,0.7928233276450054,0.4005721153530007,0.12335691863897097,-0.2507621176374943,0.2690497501892859,0.840899682893383,-0.46060008432396726,-0.33353050170262216,-0.34677138564744747
125.0,10.621738195419312,-0.11326207002964667,0.33838954459755555,1.0356461679931608,-0.02796690885140618,-0.05327129804953405,-1.6551483094136352,-0.425659416541742,-0.11072958149643958,0.17941813156071285,0.7524143427472005,-0.3631990002839506,0.13611092305165431,-0.0785904275483105,0.10735077265048834,0.04527744231213105,0.9688070855545843,-0.04722988990032286,-0.06759658192096064,-0.16638425540844787,-0.23828562643740037,0.010622939694969507,-0.14170533331920637,-0.11663428922000263,-0.06476877762294837,0.9323440480789494,0.18897610247554636,0.7908502334790853,0.39831337333172806,0.12649013087297137,-0.2521012391285771,0.26810420066851937,0.8435307005439682,-0.4573432068157217,-0.32586750872214154,-0.3416823259792613
127.0,10.655722379684448,-0.11198929984979752,0.33332463756470654,1.0357882128619802,-0.02850553294342239,-0.05295520221932126,-1.6581552311615835,-0.4203189658189658,-0.11342713034713509,0.17776659653455013,0.7532514016705865,-0.3687276412907893,0.13628299674207456,-0.08993864815258062,0.1090819073321814,0.0487429526804497,0.9912224798266869,-0.03208056715701482,-0.061864296503935226,-0.16634267467217195,-0.23614915816196674,0.010004727745604892,-0.15122429452980077,-0.11360361474694355,-0.062862720340843,0.9284572302209555,0.18837988831842195,0.7895084895948952,0.39690205185039207,0.12808938582788162,-0.25319581726658336,0.2669815733200095,0.8440456204165518,-0.45518760064216546,-0.32078108641742,-0.34052303989194804
129.0,10.722293376922607,-0.11050255788234452,0.3271423224420108,1.0359463407596126,-0.029271818011482584,-0.05292322084839993,-1.6621198671474002,-0.4137647074075155,-0.11546268408786697,0.178361532256418,0.7545316349892143,-0.37308869992610116,0.13609226975381183,-0.10565828489971262,0.11186326665472046,0.05327422881578324,1.0206810436390779,-0.01728097542179466,-0.054698076617527486,-0.16582775931690136,-0.23311459809702828,0.008138725288055227,-0.16445595605723862,-0.10920251214061691,-0.06097493118998516,0.9250297100582076,0.18781248167636197,0.7889454181655311,0.3939736175125901,0.12944417639995637,-0.25337736470200123,0.26242157099455005,0.8430699705892548,-0.45210743427860517,-0.3183779959266826,-0.3480631654148147
130.0,10.7694251537323,-0.1087587801609599,0.3203355466108713,1.036027036211289,-0.030126979354026,-0.05229273181723143,-1.66749803376891,-0.40659739647005944,-0.11669744963400594,0.17984133724664192,0.7566969536104031,-0.37947378377812313,0.13586095195629586,-0.1256796361746036,0.10986936147629373,0.05208086203237369,1.0550011680191935,-0.007042253654624258,-0.05021855374529561,-0.16265359869035867,-0.22636269161222283,0.006202057680490269,-0.17960322118094535,-0.10186209317435399,-0.05971331194016508,0.9202107254162044,0.18749720238079354,0.7855985895008246,0.38799107531138843,0.1294900204308682,-0.25052687665043805,0.25541847123333494,0.8400961830814251,-0.45051684565815053,-0.3203408140182228,-0.3703908804825975
132.0,10.81729793548584,-0.10724709274361487,0.3145297640600748,1.0360673935654812,-0.03062952706695847,-0.05196452982984302,-1.6732447540533721,-0.40050665319136725,-0.11732099781589471,0.1821884476766453,0.758342924996444,-0.38580107063034635,0.13559828499334634,-0.1449368099636471,0.10331759594426346,0.04629972283397156,1.0855047786143484,-0.0016164332879806517,-0.049330027520418415,-0.1582469540421488,-0.2199051338894422,0.005100665459218947,-0.19328344565974528,-0.09467265688955401,-0.05866687616077177,0.9159892442684006,0.18751092498387392,0.782479270795561,0.3826824767334903,0.12851162551231135,-0.2478544756306752,0.25004234845667966,0.8377928558665892,-0.44955032497155106,-0.32258104043290703,-0.38893044256642584
133.0,10.863686800003052,-0.10553286842090648,0.308036457698006,1.0360695608631272,-0.031013987226738073,-0.051005812873249845,-1.6803220969371284,-0.39357900405062085,-0.11791435664465558,0.18402488121487925,0.759933855118919,-0.39401513641971564,0.135685614076816,-0.1677943830716857,0.0872716497034642,0.030781971061610347,1.11765846921379,-0.0003584347635075515,-0.05510122408461236,-0.15180549096411136,-0.2112000221468885,0.004863780180450739,-0.20868720125134083,-0.08659807951177967,-0.05848061181826787,0.9114964543779183,0.18820244799005947,0.7782691884799378,0.3765974087688011,0.12519064072155894,-0.245180424066876,0.24488929165074919,0.8366155808831133,-0.44828062671441127,-0.32448336994685545,-0.40480990995298716
134.0,10.915163278579712,-0.10406712072056538,0.30281152009002194,1.0361845172851116,-0.03075725515477456,-0.05007595267517864,-1.6861498099232546,-0.3882130664300987,-0.11901409919028537,0.1844377498415709,0.7605202671175852,-0.40194386782597813,0.13595793740625997,-0.18816462166595388,0.06878822365791817,0.012928362618233418,1.1430850359243723,-0.00210323329440673,-0.06413515009297055,-0.14514744467820626,-0.2029578064098605,0.0054377027389643385,-0.2217551914934441,-0.07991238463095399,-0.05879626375963147,0.9080214925647372,0.18904282636266778,0.7751261367922375,0.37101085498450015,0.12115685718624672,-0.24252774168509705,0.2410334241082358,0.8365861622473563,-0.44678809585147433,-0.3236471820437191,-0.4147621604848742
136.0,10.960695505142212,-0.10286661459581797,0.29835737723452826,1.036453869162639,-0.030270913111978284,-0.04890197364469185,-1.6904165572757068,-0.38351837497674435,-0.11996275314401467,0.184088160199621,0.7602208828696932,-0.40864610268519086,0.13637360009117663,-0.20614037132361296,0.05017852388874798,-0.005660510950672266,1.1632654681360433,-0.005074807908708971,-0.0746161656934845,-0.1399183301169054,-0.19623823094951215,0.00653136145172988,-0.23386635536658557,-0.07514665554665646,-0.058823674663508255,0.906037761088132,0.18985240317331872,0.7745369776726583,0.36739318972574886,0.11666316881038385,-0.24081497257422724,0.238033414203502,0.8375865080315179,-0.44437427447071653,-0.31990412079827135,-0.41731998324586933
137.0,11.010411739349365,-0.10149487760254777,0.29287683531265074,1.0367345402451802,-0.03027821491276735,-0.04757064357220731,-1.6941414401829102,-0.37709436602777535,-0.12163576104997373,0.18325677290481707,0.7599013469621732,-0.4169325702648474,0.1369543199737415,-0.22727595513805743,0.026101010264287593,-0.029331600670236786,1.1850396422180545,-0.008648440558409696,-0.08898394415574998,-0.13608412122954883,-0.1877266535936657,0.00739805435408755,-0.24965358726336523,-0.06858326210086294,-0.05830775884349257,0.9048060199738039,0.19057689782001863,0.774419936409653,0.3628895995748438,0.11027501801654203,-0.23889676911967872,0.23512059167920463,0.8374875451380721,-0.4426212500100823,-0.3188448373075013,-0.42192960331934914
138.0,11.056694507598877,-0.1003199591754681,0.2883016193846382,1.037092464995195,-0.030384111136247727,-0.04658088221221373,-1.6960559122503605,-0.3716024003363842,-0.12351382665460535,0.1821315462930956,0.759244970252901,-0.4235483246702836,0.13750615101947977,-0.24568932419685002,0.005057194365451167,-0.049970177359357965,1.2022552368219077,-0.01087434288993861,-0.10222009183167471,-0.13379868599845435,-0.18130542627157958,0.009316929043030293,-0.26309728079460637,-0.06413362277112303,-0.05734034605800864,0.9049633823781116,0.1909372681407272,0.7761456153476454,0.3601747159377023,0.1056721694048389,-0.2382478129697121,0.23228269205781304,0.8365269755934277,-0.4412283457099488,-0.3193877336860034,-0.4266731486647748
140.0,11.090124130249023,-0.0991849025983893,0.2841412858858191,1.0374990707145908,-0.030574490917373326,-0.045242176578251386,-1.6969268587170536,-0.366416295120643,-0.12527118812708676,0.18041790819436848,0.7582131208564372,-0.4291516868729341,0.138153633418983,-0.26219609714421277,-0.013765072818808118,-0.06886726673352142,1.2158805553330962,-0.012089511960315005,-0.11482524251404042,-0.13179600751523768,-0.17533393852291523,0.012644096159911614,-0.27433357456869073,-0.06072254836537773,-0.05675771933353825,0.9041582398388615,0.1921338868741731,0.7762429511073314,0.36032644997556074,0.10201659312069147,-0.23685957111478378,0.2287121437784957,0.8360156003899908,-0.4383127968065742,-0.3174232143246015,-0.4291953539959692
142.0,11.137216567993164,-0.097864160169738,0.2788010657583736,1.0377732474535688,-0.031434468417493346,-0.04329597197848949,-1.6978073859922345,-0.35943559191554675,-0.12842817789297245,0.1763028130535847,0.757567203211061,-0.4372411456923776,0.13895782764973272,-0.28140890707879096,-0.03345276205533189,-0.0888038654016989,1.228366600463099,-0.013563434393539507,-0.12909092674341782,-0.13079107452775626,-0.1666828592205143,0.016810978522444904,-0.28722804844589944,-0.05536119062568707,-0.05634373241794893,0.9021315401548855,0.19381002768545058,0.7735752811580638,0.36002425074468675,0.09763196567107929,-0.23451165595310242,0.22442713811982273,0.834362102894525,-0.43548570495482597,-0.31596903680540894,-0.434575324729084
144.0,11.21822738647461,-0.09654937244305481,0.2727650954601515,1.0380274039653365,-0.031892411145822905,-0.04072228638860787,-1.6982532751675037,-0.3523251496938563,-0.13085845370368937,0.17209624978470522,0.7575827130694526,-0.4449229355418936,0.13990400975258888,-0.30261440678732954,-0.05174822739710826,-0.10911180451806374,1.2372402669001163,-0.01794344263408867,-0.14364817598470012,-0.1301201289240814,-0.15794417110311293,0.021011012238653384,-0.3012688127491173,-0.050879846479093375,-0.05552624695048971,0.9012863954739929,0.19478239568673303,0.7731658667762185,0.35900519357212995,0.09341699838516235,-0.23267035934543714,0.2195547478603951,0.8322416783781066,-0.4317057335244495,-0.31489668488234857,-0.43828387065915847
146.0,11.284852266311646,-0.09525088853062032,0.26593355744128394,1.0381950615463829,-0.03197868510459462,-0.03786212785910452,-1.6987252752141893,-0.3453564281806093,-0.13156295188489928,0.17025828825916461,0.7586662764827542,-0.45138442134273765,0.14088373370934001,-0.3262865862885415,-0.06849978676919286,-0.1290127227673622,1.2424916666239714,-0.02660635608057569,-0.1577343250632287,-0.12964017298027797,-0.14871560634942743,0.024504177421598928,-0.31635636524727007,-0.046151502945087165,-0.05449984415041014,0.9002722163499524,0.19558550271990596,0.771284513998842,0.35787373113512155,0.08931723734661898,-0.230536042335142,0.21435104997280652,0.8291501760149622,-0.4276013199921954,-0.31552423753713843,-0.4425281940918215
147.0,11.354604959487915,-0.09397917267575984,0.258716088811213,1.0381143594552296,-0.03199473238903256,-0.036143728729085015,-1.6988454358887788,-0.33848883197894497,-0.13352223741149066,0.1686712335315404,0.7601254684035249,-0.4560046479378772,0.14100343233777862,-0.35100919667153774,-0.08260166298041721,-0.14584772178394384,1.243150136417498,-0.0401151831202503,-0.1703663003323003,-0.12978616082125088,-0.1401814044668665,0.026916395181105376,-0.33214489657872437,-0.0395472604629751,-0.053085063063324535,0.899304933628438,0.19616745737697383,0.7693245672864625,0.35535901142312254,0.08535204109670225,-0.22682447861941463,0.21057134092334764,0.8250648092679718,-0.4247322934756012,-0.31785310451950866,-0.44795414945008705
149.0,11.386546850204468,-0.09312011974852205,0.25298867957947524,1.0378880196670186,-0.03154415593672433,-0.03546604021473018,-1.6979328975240873,-0.3340319357466398,-0.13525010705892637,0.16777338407962156,0.7617977393523454,-0.4580241878921707,0.14068125864307857,-0.3710602330838665,-0.09193103691786181,-0.15776735198208375,1.2411099569811432,-0.05337740768828679,-0.1794168913654819,-0.13006374379020672,-0.13513372642576998,0.028047246246838145,-0.34478169125756375,-0.03556295159230719,-0.05257476746137942,0.8992830337625608,0.19712655498775258,0.7673541707575473,0.35443820402070536,0.083301175596717,-0.22468185823538495,0.20772199299423724,0.8211436692187031,-0.42292019605586517,-0.32210806674243914,-0.45265508929758536
151.0,11.43763256072998,-0.09225994893081829,0.24702059135439597,1.0373723728205346,-0.030838004359597947,-0.034597535391608224,-1.6965184711000256,-0.3300327073604437,-0.13777502684144324,0.1651011948262223,0.7641756372888849,-0.4608494205400676,0.14056323491107361,-0.3927471480050191,-0.09526141864797652,-0.16536128487333174,1.2338078690500316,-0.06835549609171652,-0.1851083075804399,-0.13103086418241622,-0.1311241779964803,0.029407470802852644,-0.3547695987100735,-0.03253705173295681,-0.05408064698806272,0.8976364402067667,0.1989503352581527,0.7612303810996024,0.3529603449694083,0.08345635514875532,-0.223201287862759,0.20545334556708922,0.8175255003066533,-0.4223591656279552,-0.3270067475895064,-0.45866852228184923
152.0,11.504940271377563,-0.09145384216435111,0.24066468000560817,1.0366008646956626,-0.029723787864041885,-0.03423548488639615,-1.6943082707320192,-0.3263474801456624,-0.1417383549656638,0.1610400017093756,0.7668855414589142,-0.46478722830775154,0.14011250236886857,-0.4156082499285576,-0.09268932349797501,-0.1676329522408661,1.22140146298924,-0.08712719999085827,-0.1865524838358143,-0.1335855681090571,-0.12670304942324262,0.030533901476833353,-0.3652264182084939,-0.02897249211045027,-0.05794764451363051,0.8975457844405402,0.20145237996745488,0.7591480343297602,0.34704155906089806,0.0835855893781838,-0.22180457275055143,0.20343396652742723,0.8140528556998342,-0.42257688602170695,-0.33368780998405656,-0.4662689904587959
154.0,11.556816339492798,-0.09082893237548571,0.2353319360510469,1.035958066819238,-0.028396097705436444,-0.03409895683758628,-1.6922517601115339,-0.32365654890600215,-0.14517854819372747,0.15753763449219851,0.7691062727328781,-0.4687397810651454,0.1397669342861096,-0.4349744415578874,-0.08742031634219687,-0.16652034750867786,1.2086963601523562,-0.1036091945866473,-0.18547900087549868,-0.1356644888386949,-0.12339207883666833,0.031507793619738274,-0.3731718923586695,-0.02644509178699851,-0.06141672702539437,0.8976043781698857,0.20422881487237776,0.7575950496980357,0.3437880389826359,0.08414705593187867,-0.22072317061069882,0.20174089895788672,0.8116827198416803,-0.42302811042349053,-0.33882758824393366,-0.4726427334850276
156.0,11.605161905288696,-0.0902884918008264,0.22899483386878994,1.0351643327381765,-0.02689972478151296,-0.033718836214714665,-1.6892376018518802,-0.32022051909978677,-0.14870507299980168,0.15347788009107416,0.7715775616228748,-0.4741634808927123,0.13950182861975238,-0.4561880798005348,-0.07708859495394214,-0.16136330845115454,1.1908542396185635,-0.12363671127654874,-0.1814642460199712,-0.13835004991487967,-0.11876958129639656,0.030848093514021346,-0.38333747045179967,-0.023206909739732128,-0.06407285702690355,0.895833714788753,0.2064646682303658,0.7518689481603658,0.34039232107868433,0.0812311100401128,-0.21929459922519012,0.2005355322874515,0.8104808928633069,-0.4236187378707341,-0.3432498938240673,-0.47744394174308946
158.0,11.679785251617432,-0.08989374579290053,0.22210136987655804,1.0346626379452553,-0.025746714026363866,-0.03389121406925347,-1.6855603340378789,-0.3155379552979971,-0.1527642530731077,0.1493528925585516,0.7732373761333876,-0.478032313448731,0.13809608049084313,-0.47701914662742173,-0.06413108560618214,-0.1523780289808398,1.1678407495292047,-0.14513298985105388,-0.1759565256014724,-0.14168945742107697,-0.11561287446512969,0.030863320839747348,-0.39311451945081566,-0.020916192197443142,-0.066673716516614,0.893768144099862,0.20799292758882865,0.7462528791481822,0.3357591256664138,0.07845103346162818,-0.21854421910937877,0.19988104833989725,0.8102081999838012,-0.4241373949917784,-0.3462707971393568,-0.47947307345099927
160.0,11.738117933273315,-0.08936585863246138,0.2148719096353873,1.0341779310869286,-0.02509257940476397,-0.0333719867545887,-1.6816564825943696,-0.3095379815822073,-0.15651572133342456,0.14481308126623857,0.7737983236902175,-0.4817419937600008,0.13659646206303552,-0.4970844939218447,-0.047849719467700565,-0.1407694490728591,1.1397225029715334,-0.1671221948684181,-0.16804504312577806,-0.14441112554037705,-0.11211710466186928,0.03300812195038606,-0.400948455956626,-0.01962802071621869,-0.06867620322330788,0.890713418646776,0.20979606473132348,0.7402898904527226,0.3342699625520103,0.07778091504537404,-0.21726673450883294,0.20011904699406746,0.8109990277748437,-0.4245591409679894,-0.3480630285383005,-0.47970967563442896
161.0,11.806666851043701,-0.08880556860648386,0.20700109892262122,1.0339470051485367,-0.024970809157979775,-0.03323640530305514,-1.6773808612387557,-0.30169463470956037,-0.16026086935842238,0.14119758910712762,0.7733338988585087,-0.48474204809773863,0.13493197099042797,-0.5160465554995224,-0.030561237368435162,-0.12646048522109127,1.1069904388279288,-0.18741944877265443,-0.15956559368321774,-0.14689943863385507,-0.10896300617512564,0.03517465859806445,-0.407061651624532,-0.018086293489003875,-0.06988391646143283,0.8852167287764336,0.20979827019010255,0.7301628053596145,0.32964505275118516,0.0767119874075507,-0.21383612517636852,0.2009113976590145,0.8132369521301509,-0.42432905732100323,-0.34701972019368055,-0.47837747952915244
163.0,11.854155778884888,-0.08840166824244558,0.2006355042227512,1.0340048707759277,-0.024798336195620444,-0.03299357695140767,-1.6740150261757747,-0.2945637285399877,-0.16281990995355813,0.13859115072123024,0.7716017164789892,-0.48697502667800785,0.13367695085847714,-0.5302918328039002,-0.01502808613853205,-0.11252749851642024,1.078204786819427,-0.20164783013984952,-0.15211652793559546,-0.14866398517060397,-0.10707310073077977,0.037585546318593066,-0.4101600220887869,-0.01859761952681392,-0.0706092520715207,0.8801363283013359,0.2090478078033633,0.7210084330015475,0.32579176457067166,0.0771634174815921,-0.21196508829191651,0.2010807262632261,0.8152193680809611,-0.4238905635442005,-0.3468683347761109,-0.4774142813400186
165.0,11.913934230804443,-0.0880860875147656,0.1937341409830564,1.0342116241130017,-0.024801631271165837,-0.03314924283262525,-1.6705259006240891,-0.2859315713845352,-0.16621731222594047,0.13516886667919537,0.7679091382860593,-0.4907627673089001,0.132303231535283,-0.5439278431043598,0.0010874430650369468,-0.09557859523539083,1.0452838123419517,-0.2136274345328048,-0.14515120775050985,-0.14995541597493905,-0.10557855678156819,0.04003355387325391,-0.4123247148987199,-0.020385029312757732,-0.07187017079003623,0.8757003277590597,0.209481110928128,0.7139428767794114,0.3250481666229958,0.07889322183771258,-0.21124837692696685,0.2010388720551404,0.8171261642600984,-0.42330178715675604,-0.34663904555695046,-0.4758569746937902
167.0,11.988839387893677,-0.0880011701164353,0.1861179256098729,1.0345882715632666,-0.02486883505004693,-0.03344492403298915,-1.6661273137101729,-0.27593290955025224,-0.1695400819866525,0.1312557828352742,0.7629152440764659,-0.4939841646509654,0.13086859889827623,-0.5564591969294697,0.01996369472817315,-0.07365622916234364,1.0089162634159252,-0.22490902692335812,-0.1378989419288135,-0.1519516402563225,-0.10586282664743785,0.04237142202301293,-0.4148569949890971,-0.023229772183736817,-0.07237284168036623,0.8719380556247275,0.2089655505045124,0.7083811298947225,0.3239472098176607,0.08032277029938356,-0.21098648141572562,0.20082748122769517,0.819786429947691,-0.4210312954236122,-0.34459134609115966,-0.46949364625165657
168.0,12.039978981018066,-0.08790202382107487,0.17790173169948592,1.0350905282529617,-0.024365814951413205,-0.03486489763227735,-1.661482888873563,-0.2655352730334775,-0.1730972507486286,0.12883728811406756,0.7566533601054577,-0.49495688866924137,0.12871058733466084,-0.5690596883299923,0.039477580172320635,-0.0479125042869528,0.969903864665105,-0.23859640814286667,-0.13080997611418096,-0.153700179311351,-0.10684786601351415,0.04314725427941396,-0.4154067044277282,-0.025335361678577403,-0.07318762369534663,0.8688281566624685,0.20907574748969313,0.7037593884534203,0.32335255722241274,0.08343661241188333,-0.20983806330760707,0.20117050567051584,0.8225204926139736,-0.41942464491745135,-0.341972291326352,-0.4646386339646176
169.0,12.081149339675903,-0.08780386106969625,0.170814093541931,1.03555980695387,-0.024215993546464844,-0.03575084944904993,-1.6576949165512578,-0.25594322817615495,-0.1753862246000829,0.12740658900287083,0.7504942750904324,-0.49465814384664225,0.12674279685069736,-0.5788283751933436,0.05579618657802866,-0.02545546330307886,0.9368964274353672,-0.24530721335998013,-0.12543073929420986,-0.15428701951885693,-0.10713412875524755,0.04375299039284419,-0.4146553083738749,-0.027579448834029418,-0.07333157629539269,0.8664978568016093,0.20793643542185336,0.7004389729329777,0.3207755251390043,0.08730224452488983,-0.20860832559492265,0.2016200228365494,0.8250181503422233,-0.41794081536746297,-0.34034630948778366,-0.4606157233621924
171.0,12.125087976455688,-0.08769374797084559,0.16487621391149931,1.036026114306686,-0.024168908166821365,-0.03645198233708007,-1.654560830857195,-0.24751633753196256,-0.17690105693376865,0.12672901207037549,0.7447533435870715,-0.49300157512916387,0.1249616586975072,-0.5861817835892812,0.06902188207556467,-0.005678708733251873,0.910522988792319,-0.24624055167448144,-0.12171414464571845,-0.15440589870536178,-0.10707946588020417,0.04398122328716745,-0.4133666367051188,-0.029212657952131585,-0.07342398070292977,0.8653743196794421,0.20675024783115323,0.6986451342359062,0.31756618670323356,0.09080442182869286,-0.2068656797864045,0.20215856622589068,0.8273362970447439,-0.4165794833298899,-0.3390009285932016,-0.4573887737796031
172.0,12.167232751846313,-0.08769351237863213,0.15793563354928802,1.0364532967324183,-0.02379698096280661,-0.03797354769832942,-1.650559445189729,-0.2379749283183416,-0.17928870126831836,0.12573555550601592,0.7376691522899981,-0.4909993937827919,0.12245616942585219,-0.5945204019791518,0.08155485285767805,0.015725219061961192,0.8829586670150039,-0.2506703681524427,-0.11949128276024493,-0.15543760491530445,-0.10642131071681168,0.043958921616126856,-0.4131112164657391,-0.02969933896173052,-0.07399218886525538,0.8652052693983454,0.20775168357942841,0.6996109363094399,0.3182038275297855,0.09310794474654889,-0.20559789955343608,0.20282388561435774,0.8292471069190988,-0.4158482168515558,-0.3374146994175471,-0.4546636529944015
173.0,12.204931735992432,-0.08768500982568869,0.15184913066877612,1.0368948117723749,-0.023613756435105614,-0.03899669697423189,-1.646922718903502,-0.2292851020790622,-0.1815935113949403,0.12383562892619346,0.7310491785574831,-0.4895340613982301,0.1200772482884912,-0.601237282700593,0.09364642424441835,0.036704749204040175,0.860312638149549,-0.25475874059487663,-0.11811562306932856,-0.15632198698068345,-0.10526144528038851,0.04444405823254962,-0.4124856997957095,-0.030706948347675525,-0.07446912588476373,0.8646262642841245,0.20810534898992095,0.6990098379927165,0.3179597661411211,0.09468600199925761,-0.2047431055292428,0.20324736376626798,0.8313694113128911,-0.4157036353597302,-0.33528971188820605,-0.4535061864304987
174.0,12.25653338432312,-0.08776401596982555,0.14619406456606038,1.037344804221801,-0.023607213713317685,-0.040167403817076605,-1.6430332640305334,-0.2211734087201747,-0.18394974277523346,0.12171163813385652,0.725017215211439,-0.48756929833830676,0.11764696350820388,-0.6068838489458903,0.10575637826390535,0.05867299478451121,0.8409250456864683,-0.2592992549192269,-0.11740008888082358,-0.15699413241382026,-0.10541658543095016,0.04512856457571239,-0.41120625661706844,-0.03291238750543612,-0.07507308120873603,0.8635302606925765,0.2073196904625737,0.6961064732450306,0.3156585687595219,0.09629001073707208,-0.20453779815165204,0.20352595358904912,0.8333461879006933,-0.41567278106253064,-0.33372903717777447,-0.4527269203180363
175.0,12.29208517074585,-0.08796486140491948,0.14096589454896857,1.0377004441782334,-0.023478991881466106,-0.041206753488094425,-1.6392107475517355,-0.21368715902152166,-0.1858765655100973,0.11965441434907856,0.7192613023490606,-0.48569315751576714,0.11556839748556148,-0.6115613457384389,0.11720583087955616,0.07978053441125185,0.8243193595452182,-0.2670261990943081,-0.11742245185667319,-0.15706330187142042,-0.1063421856936419,0.045655761727004834,-0.40895314055655246,-0.0360194630294068,-0.07613606691420297,0.863002431756609,0.20695217862942225,0.6931444282645458,0.31450066022716405,0.09861641258273396,-0.20497497379936472,0.20321522059010358,0.8349321588680068,-0.4147634373268717,-0.33396948841729546,-0.4514934443626397
177.0,12.323478937149048,-0.08815290110046536,0.13611094074574942,1.037928658171684,-0.02354122114875891,-0.04172413905157549,-1.6357031342019472,-0.2064431619712706,-0.18725963409652055,0.11754858644600577,0.714012207121725,-0.4842920204488091,0.11425406163622984,-0.6149978622206778,0.12845127546742707,0.09993204257748191,0.8105745729491811,-0.2768670686340493,-0.1175263940374485,-0.15675376190603585,-0.10642548114466449,0.04613888745730362,-0.40499191985719746,-0.03930136052910591,-0.07774201641504785,0.8636051939526961,0.2075313094872337,0.6913405714918982,0.3150754796584758,0.10253452243388614,-0.2052607685689442,0.20254538736555686,0.8365871845311734,-0.4129309176309451,-0.3352629079169297,-0.44976710985594626
179.0,12.365426778793335,-0.0883004573866227,0.12900462641701282,1.0380096598552089,-0.023698182988668028,-0.04233755615945538,-1.6305661341539688,-0.19659838236532393,-0.18957160141099383,0.11398969137167929,0.70848005355755,-0.48356561965849254,0.11296793121822815,-0.6196158885054233,0.14443230708537053,0.1285559681864456,0.7966309499353612,-0.2887828786051002,-0.11745847355519617,-0.15786220930335437,-0.10483619492571386,0.04640593894734443,-0.4023471065892124,-0.041857726565526,-0.07808090302208257,0.8662916149752364,0.20762473562140488,0.6936040983806573,0.31590747493607446,0.10506691082271458,-0.20552769191863052,0.20240937535562326,0.8388832889806535,-0.411635275286026,-0.3347006927789341,-0.4470372872681828
180.0,12.435052871704102,-0.0885159779981225,0.1203553808627002,1.0379056940510836,-0.02350360893238503,-0.04356588625707437,-1.6240877213264213,-0.1855577665561326,-0.19329671356878042,0.1087661989705524,0.7027743892587266,-0.4835387988500794,0.11196373713213756,-0.6249984882782145,0.16476820925520563,0.1662829540664359,0.7837329187128124,-0.3081653178090582,-0.1177630969782637,-0.1586810569720099,-0.10324719305078148,0.046216846296782486,-0.3971585930988251,-0.044558380071726404,-0.07974253901981315,0.8688144878325539,0.20867770117821688,0.6920730862362818,0.31749672539352053,0.10784914464577604,-0.20454113450926104,0.2008032953561744,0.8422113320756945,-0.4087057642693489,-0.33147716890564205,-0.44458047466198797
182.0,12.489116430282593,-0.08865407165784636,0.11258236774386626,1.037779204534813,-0.023153159071425372,-0.044981356496859116,-1.6187090456807909,-0.1759014073476176,-0.19702611467058767,0.10420793599677025,0.6974101222335728,-0.48276744942016253,0.11106966079221872,-0.6291871631764454,0.1819021654531465,0.19922337777165783,0.7743162218937567,-0.32632377185652217,-0.11814973625592956,-0.15838706691854723,-0.10106994733699097,0.04488527465489246,-0.39123657343255125,-0.04776992200831372,-0.07984343156112914,0.8702751655241762,0.20827641561305804,0.6881206648649749,0.3193544452084478,0.11037744027767377,-0.20295748199372055,0.19914681626316116,0.8460060024947673,-0.4058730581048377,-0.32551286446750816,-0.44218811055392565
184.0,12.543704986572266,-0.08899494837124912,0.10352898908295359,1.0372897033780262,-0.02206557750151717,-0.04676073417115545,-1.612921923160354,-0.16583742349430333,-0.2008176907789667,0.09967934407809598,0.6926294267646463,-0.483588201379776,0.11039944744688675,-0.6331649279358835,0.2003738901913518,0.23552859918143348,0.7677526073646791,-0.34934919218639854,-0.11890053079831629,-0.15871322501507343,-0.09772910213220606,0.042748320312600424,-0.38761428606291176,-0.049511357224145444,-0.07923619445302632,0.876136193328283,0.20851138924504015,0.6909031990462542,0.3224580682207089,0.11095716213101989,-0.2022940163951391,0.19766599222300688,0.8487282094542851,-0.40405601623570025,-0.32189334744087295,-0.44145446548982864
186.0,12.613675117492676,-0.08951693992674237,0.09371027684913033,1.03639691217689,-0.021433045460781744,-0.048424024261840226,-1.6072324068549313,-0.15475389780439464,-0.20528660831291828,0.09345894669896597,0.6885875734543518,-0.48658551959738405,0.10989561162398949,-0.6348164851357625,0.21745599591189269,0.2697694942028139,0.7639469137477115,-0.37318259193786113,-0.11966769786733955,-0.15780542432084804,-0.09394599244295472,0.040973334592819335,-0.3824539125490436,-0.05316398742068716,-0.0775064908298213,0.8851060577301768,0.2071991772089239,0.6993164094041284,0.32498239745774843,0.11373658562251751,-0.2020244160539605,0.1961371563145356,0.8509035145473509,-0.4023797362494249,-0.3210200818119979,-0.4423147617293399
188.0,12.683847427368164,-0.09006921828615905,0.08315046278911284,1.035100338486351,-0.02042726123324094,-0.050554917141626174,-1.6026641435675861,-0.1435159701032528,-0.2099707651753521,0.08814321812424182,0.6848600973210397,-0.4898748196097441,0.10930327815149458,-0.6370898639897151,0.2265085149997825,0.2914830454960362,0.7621949144526419,-0.39158743975766486,-0.1210765811161626,-0.15580377545686813,-0.09055459788998783,0.03965010863164986,-0.3764609263445881,-0.05715037713627937,-0.075613616533677,0.8952009583453853,0.2058130380327161,0.7103646350040572,0.32802232993887104,0.11595855133898876,-0.2023889200547239,0.19394504499345727,0.8531555238559521,-0.4003741574642451,-0.3179694379703135,-0.4425481120751573
190.0,12.74523115158081,-0.09072805716887941,0.07183709634983013,1.0332672936168399,-0.019807111200235438,-0.052842833714868004,-1.59915235791873,-0.13151677232794434,-0.21484179954378269,0.0831808518256734,0.6828239241511931,-0.49588872707838716,0.10957718102454148,-0.6397247560150151,0.22795612373191598,0.299748277001089,0.7629915581156245,-0.39950620616827437,-0.12272071802362305,-0.15296949061118098,-0.08709560514831786,0.038149025330052745,-0.36788035612608716,-0.058606393011344765,-0.07497422278564511,0.9051112533545671,0.2048353502329447,0.7168082097534503,0.3282399426685413,0.11650964873318323,-0.20167093273451245,0.19192566758814056,0.8564515574502533,-0.39742177992012606,-0.31207760027772946,-0.4396725732657423
192.0,12.816742420196533,-0.091547475449236,0.06024944091925887,1.0311899591965434,-0.02000890759172335,-0.05631602989837737,-1.5963689554991203,-0.11911267748158041,-0.2200681036440716,0.07997472618923479,0.6819110412863361,-0.502109648622483,0.10990317029210217,-0.6426889706533613,0.21852411685904624,0.29095920375952444,0.7669256449243231,-0.3934587475863328,-0.12466833726130314,-0.1486025307424472,-0.0854881386587323,0.03777265313925688,-0.35724458135012893,-0.061508277381999876,-0.07637813861422824,0.9151644854532581,0.20396850214719078,0.7216045482616806,0.32585160778343586,0.11880405884357984,-0.20350258185649078,0.1889056773444672,0.8568139222847275,-0.39542922947387693,-0.31225836259303186,-0.44163792687616843
193.0,12.87893009185791,-0.09260144049440473,0.04831802737754813,1.0288600819974967,-0.02073989234894042,-0.059923163700921295,-1.5934614327320689,-0.10632426787607582,-0.22519140374669389,0.07665560182177483,0.682259293819711,-0.508767351587172,0.11035708252210268,-0.6454390337353763,0.20278885836236266,0.2715674819459483,0.773243696930654,-0.37729732125745996,-0.12679369676819313,-0.14499679166020468,-0.08397702831924171,0.03808342398448353,-0.3463487809087348,-0.06357782175824422,-0.07752930346047318,0.9263336097435055,0.20308659474825058,0.7290835950619403,0.3232075003229059,0.12070619887296091,-0.2060018764801011,0.18610470123036005,0.8558362604236281,-0.39486035224954186,-0.3157071920286826,-0.44682525826527625
196.0,12.927526950836182,-0.09362476922372086,0.03852846036564101,1.0269486580927345,-0.02145782284573014,-0.06262839017347992,-1.5901209731129706,-0.09606812876979468,-0.22907964945210535,0.07315839936612172,0.6837220638651405,-0.5141599334055929,0.11073574212215789,-0.6467730641909426,0.1880492956849984,0.2525813215271732,0.7794604809249652,-0.3607710765437398,-0.1286822975127114,-0.14273993460821727,-0.08298810054040369,0.037726383722095136,-0.3365686864148272,-0.0651368395147871,-0.07853271710703782,0.9350363263800798,0.20264372101516404,0.7327784545663659,0.3223916297917622,0.12231126982571669,-0.20800455706123752,0.18416266482219357,0.8551023595552898,-0.39468770880693,-0.31958362141792535,-0.4511286278846882
197.0,12.99515676498413,-0.09481187990382628,0.027893165833195073,1.024928827328075,-0.02189229950135653,-0.06501769693086884,-1.5850508089704278,-0.08567104486043015,-0.23205985934894768,0.06949162023620878,0.6862573998614352,-0.5182730155437747,0.11109340732889561,-0.6455667864945323,0.17041898681902026,0.22986527697377554,0.7852852540774307,-0.33862887360023397,-0.130670351153259,-0.14124953227018755,-0.08277289533810747,0.0377689583322383,-0.32338261129736945,-0.06785612605202228,-0.08098071849217282,0.9447595896239431,0.2031213892311834,0.7385555650913329,0.322145050380957,0.12595262762811094,-0.2100389663262821,0.18143983049752907,0.8554601366723389,-0.3928898733916828,-0.31947421837782497,-0.45213254855570817
198.0,13.047363758087158,-0.0962500202051501,0.016428105304769153,1.0229156618880446,-0.021500751938042663,-0.0670724881346374,-1.5788207843630324,-0.07554242332486157,-0.23498769717966733,0.06395901571812145,0.6893269199307377,-0.5208619976213036,0.11138689759715428,-0.6435025104138627,0.15058725295194716,0.2028847277132137,0.7911744270737429,-0.3106011777289413,-0.13274912016874926,-0.1401248800524125,-0.08089995403393596,0.03703027413261435,-0.30781874325118874,-0.07094877068298588,-0.0844338974869216,0.9542155137173467,0.20456443158653767,0.7434435975370479,0.32324171101349386,0.12929495427773535,-0.21071212031497621,0.1765635668932164,0.8576195526788797,-0.38792520160481203,-0.3120017188829137,-0.44948787762518433
199.0,13.083509922027588,-0.09752839144049223,0.006689917865205054,1.021435971274606,-0.021348945167163014,-0.06873195453376688,-1.5727464751557034,-0.06672047465783232,-0.23763725040132277,0.057935722155813205,0.6922214051833462,-0.5224921731280511,0.11155990252938353,-0.6415804787082484,0.1305591706352782,0.17472581806136026,0.7958035266996095,-0.2837171117972118,-0.13482491290570237,-0.1402242413417511,-0.07894948235372054,0.03610156532714868,-0.29479251891906877,-0.07330678983018403,-0.0875744650530472,0.9620020297227201,0.20613723219002497,0.747870092535039,0.3247675836753211,0.13125168912458463,-0.2111547508803656,0.17237807207520484,0.8583862963584334,-0.3842010208772263,-0.30518674880915764,-0.4482607204413344
201.0,13.116629838943481,-0.09868234362080416,-0.0018882814395847149,1.020446605705891,-0.02166999007546705,-0.07028062970899375,-1.5669946832825217,-0.058686810114611264,-0.24050690808831657,0.05122398799304227,0.695296734074871,-0.5235105483312463,0.11153643656535184,-0.6402024185327861,0.10987528421939391,0.14545379793062782,0.799696773747121,-0.2581293617830812,-0.13713653548739016,-0.14096332579472295,-0.07658504177736511,0.035442367473966056,-0.2836712475037006,-0.07467022756536444,-0.09046792104597617,0.9688076892099635,0.20836137549334335,0.7525318724122982,0.3279789848137439,0.1326605486271218,-0.2113946529104581,0.1693613102089797,0.8570283849380969,-0.3825393479549868,-0.302266519237609,-0.45048521116912515
203.0,13.176713705062866,-0.1001714950570936,-0.011705253739715791,1.0200483728410261,-0.020310211120416345,-0.0699229864070964,-1.560252175533742,-0.051722884393492895,-0.24119932078134115,0.042897427489695925,0.6993706394545623,-0.523253139083728,0.11185198002817875,-0.6409676942524426,0.09095662313195252,0.11573603949249966,0.803543001313864,-0.23062069188545437,-0.14014312039612015,-0.14103165623308936,-0.07283824903216665,0.03413382912020459,-0.26988909623197355,-0.07885309481640836,-0.09456974723401651,0.9773288041626234,0.21070391339424271,0.7588424533825278,0.3310398324860645,0.13531363262168686,-0.2132888246182872,0.16410598335844345,0.8564792122364633,-0.37846985325579985,-0.2991204049099419,-0.4507805199017483
205.0,13.25339150428772,-0.10195585264549616,-0.022828579227736175,1.0195541027745607,-0.018550823373240093,-0.06847792042215031,-1.5540172834522779,-0.04537288393331036,-0.24004667740762575,0.035621075175189566,0.7064633387448056,-0.5223765805539015,0.11283773022341187,-0.6414945682426452,0.073440074271139,0.08571307702999778,0.8089242718017502,-0.19945405667112745,-0.14309104403453554,-0.14061475383274455,-0.06827510808404683,0.033660727444958925,-0.2538888091189614,-0.08348183659083774,-0.09843482131153411,0.9870066831742172,0.21151699108210303,0.7660974587184465,0.3301681059285808,0.13856280232183102,-0.2177445797225076,0.15879485042409677,0.8548822310523615,-0.37635461058305414,-0.30065002417948233,-0.4550156187474184
207.0,13.324974536895752,-0.10403645238129412,-0.03532826571132691,1.0188210059471523,-0.01719884356300996,-0.06709020583509925,-1.5493691166896948,-0.0384386270102756,-0.23761450723913485,0.030779297773780717,0.7157632106463463,-0.5206083037103121,0.11440391614820458,-0.6402208864742844,0.05895272385012493,0.058976468970722035,0.8173908218352601,-0.1617104985310316,-0.14546993362819494,-0.13696921021387953,-0.06297920652169192,0.034416876435941955,-0.2360337583597774,-0.08800055923674481,-0.09907773824013902,0.9966849590845894,0.20958742567898175,0.7749664202978847,0.3285863655454898,0.1409619851790238,-0.2217174493890356,0.1530733812245905,0.8539735077278078,-0.37336903393365306,-0.30077759554099903,-0.45773462107330243
209.0,13.393948078155518,-0.10627706530637694,-0.048654424988237854,1.0182815171313928,-0.01536856024607436,-0.06566343654793277,-1.5465498240072155,-0.03197079813067853,-0.23360542969542247,0.028827684028093006,0.7259900755576587,-0.5146902018455027,0.11590530145217823,-0.6380360232444343,0.05198871448565075,0.04161838766725272,0.8276628980470362,-0.12787679636579674,-0.146435015419899,-0.13183095110835816,-0.05700014873986836,0.034192195784719936,-0.2190265377646955,-0.09124715997748503,-0.09656596412044735,1.0069091774367438,0.20568902879747997,0.787522757837346,0.3272587783358596,0.14081774943318898,-0.22321738974342614,0.14694520234460803,0.8550731157681116,-0.3689885001695974,-0.29361303265687977,-0.4577352724269915
210.0,13.448731184005737,-0.10869251721442208,-0.062082566505408464,1.0182111313914703,-0.014067382303158188,-0.06453372063345353,-1.5447513403734054,-0.02592913494888175,-0.22909001695482714,0.0280306258427457,0.737075788005533,-0.5053556930844337,0.1167264793341851,-0.634433883221212,0.05223805368529743,0.03384218836018386,0.8389251602965914,-0.10204408101616566,-0.14643550286317117,-0.12567754231492387,-0.05192983034452238,0.032081998010804094,-0.2029167961533171,-0.09225379130403052,-0.09244519665161849,1.015177994330506,0.20128657209400433,0.7974277837620494,0.3269589716123359,0.1374413568591427,-0.22321617577069042,0.14233586867403147,0.8564915489483095,-0.36529126185408967,-0.28551485321081993,-0.4561611431466487
212.0,13.492974281311035,-0.11075029426570432,-0.07292673836295767,1.0183929062659773,-0.01300765009989022,-0.06350796607630362,-1.5438187341273966,-0.021372616030173573,-0.22494220664024178,0.027712254609668897,0.7462724557423988,-0.4966443859342369,0.11721134899678473,-0.630643841643939,0.05645289313045076,0.03237198388506981,0.8475216809372885,-0.08430513520044325,-0.14594322525592987,-0.11970318132462543,-0.048296614126461565,0.029136006691837003,-0.18987585119042166,-0.09339918286283111,-0.08938331620917424,1.0204139603897486,0.19790041290933047,0.8036324077022012,0.32760541984977765,0.13342714344118226,-0.2233302873157429,0.13840512382194228,0.8578935499836047,-0.3617516354257214,-0.2773793118382717,-0.4529797490859673
213.0,13.539398908615112,-0.11314663781199644,-0.08466023976547418,1.0188983850600446,-0.012747117751759572,-0.062201165305415335,-1.5421127010941276,-0.01681631335967973,-0.21947182255192083,0.02750654638579584,0.7581712949587315,-0.4839078479932606,0.11739717656183551,-0.6232460476415194,0.06555385625724922,0.036468801404262854,0.8547895792667841,-0.07461281399123568,-0.14429351804789747,-0.11522401607380711,-0.04431608754238146,0.026435790870301457,-0.17484284117238985,-0.09578957593011247,-0.08637870904615093,1.024984215287259,0.19441140528943357,0.8089108049736405,0.3291689795490238,0.1301595186829793,-0.22659816813972092,0.1358797013582944,0.8567211349254695,-0.3610406107438816,-0.2770916665207497,-0.45252313725234805
214.0,13.568783521652222,-0.11478775340259093,-0.09409538373944798,1.0197311814424157,-0.01327638735445114,-0.05945160824497388,-1.5399189525666344,-0.013550389328497857,-0.21319453472806754,0.027475888251301366,0.7689060536202614,-0.4703953115612566,0.11806827660587792,-0.6138898310286074,0.07517733814959894,0.041508606337495174,0.8568450286577112,-0.0687453724856881,-0.1417382814015149,-0.11280424883180352,-0.03137338666942499,0.02827843070866313,-0.15744446041044674,-0.09301544718470946,-0.08640605804696025,1.0257995253743288,0.19325805141254646,0.8111528139743677,0.3269079853383312,0.1312127693221469,-0.2249325796703921,0.13667089257044351,0.855460199448016,-0.3623628274176305,-0.2759428879392443,-0.45420765120838347
215.0,13.605997323989868,-0.116125752108453,-0.10208870207862557,1.0205693123146395,-0.013381896813109632,-0.05659976935645683,-1.537171983322092,-0.012108419830126966,-0.20636680349661757,0.028615508296467442,0.7792443548766106,-0.45597627736133495,0.11863730608678168,-0.604883689081109,0.08374506636949436,0.04619462668448,0.8570977813233305,-0.06537697574089743,-0.1391816236109762,-0.11162547719734381,-0.018361762390993745,0.03024775424828422,-0.14145177077451382,-0.08956462506353688,-0.08834895145013844,1.024642091306612,0.19329986289738954,0.8110537297547629,0.3230312585831564,0.1324864831759407,-0.22293360038807392,0.13802396237537287,0.8541316021437158,-0.3641334732464969,-0.2743511874839226,-0.45594443273733853
217.0,13.649403095245361,-0.11742454932474428,-0.10948454428407146,1.0212875840557922,-0.013770509328295127,-0.054149355183299094,-1.534086237537935,-0.011408533964377233,-0.19990156344821422,0.02994834547967857,0.790396348060536,-0.44128050898318005,0.11864618389519714,-0.5961470486327796,0.09151478225159532,0.05057391502790626,0.8577043088197513,-0.06417384700114033,-0.13692997452568104,-0.11077969618823329,-0.008780523879056347,0.03136594629559537,-0.12804745102121315,-0.08738473683047157,-0.09141546331917894,1.0232967942491515,0.19412055955514146,0.8107809070243085,0.3194499768895277,0.13306131315709363,-0.22314804029454927,0.13929914902872542,0.851610792389552,-0.3668471780704618,-0.27700334160454887,-0.4592618379001508
219.0,13.706420421600342,-0.11913617928405203,-0.11920084068904896,1.0221719694884837,-0.014370134216365994,-0.05214395892278775,-1.529019434183123,-0.011670236198853025,-0.19204954862621418,0.03254063725784351,0.8060581033331524,-0.42013984659222897,0.11841404991076218,-0.5854754523882906,0.09990632013459207,0.05598261888586423,0.8599057363519069,-0.0653736305372301,-0.13411954111802743,-0.10969348645584655,-0.0011316689191966012,0.03137085994122897,-0.11707594486622083,-0.08696321598512076,-0.09573888475364818,1.0239982040497897,0.19567372649837433,0.8148006484295114,0.31562690258532217,0.13085421157226623,-0.2266884752952615,0.14009596837190927,0.8484266115905925,-0.37049141627953674,-0.28175292524488704,-0.46293415243418906
