ccrpRepo/mocap_retarget/src/mocap/src/data/output.csv
frame,timestamp,posX,posY,posZ,roll,pitch,yaw,left_hip_pitch_joint,left_hip_roll_joint,left_hip_yaw_joint,left_knee_joint,left_ankle_pitch_joint,left_ankle_roll_joint,right_hip_pitch_joint,right_hip_roll_joint,right_hip_yaw_joint,right_knee_joint,right_ankle_pitch_joint,right_ankle_roll_joint,waist_yaw_joint,waist_roll_joint,waist_pitch_joint,left_shoulder_pitch_joint,left_shoulder_roll_joint,left_shoulder_yaw_joint,left_elbow_joint,left_wrist_roll_joint,left_wrist_pitch_joint,left_wrist_yaw_joint,right_shoulder_pitch_joint,right_shoulder_roll_joint,right_shoulder_yaw_joint,right_elbow_joint,right_wrist_roll_joint,right_wrist_pitch_joint,right_wrist_yaw_joint
2.0,2.1465494632720947,2.1018695250673347,0.032946127249793795,1.041450184004197,-0.12555423992991405,0.038425967001010676,-1.6160208407284293,-0.22290887182895464,0.09670281384464625,0.17131995440820325,0.9177836193120045,-0.5669962431593162,0.05216043817665596,-0.21415207127332384,-0.10333221173695509,-0.2826012620975126,0.8702794676791653,-0.5155605053726802,-0.052929322327705246,-0.005025580154494158,0.012555385349622701,0.17454820461610676,-0.049535590843365535,0.21157152662873108,-0.2957148938197142,1.1115206261199324,0.39352943141120134,-0.05519345115543772,0.08730935296882052,-0.09003416004775618,-0.22758399510372634,0.3298354011337334,1.114640191842885,-0.444898707705849,0.018272848317362284,0.09726707904687783
5.0,2.2297370433807373,2.1018220036894095,0.03296278281178063,1.0414495017849779,-0.12550397447114287,0.0384239079783346,-1.616086066285349,-0.22301029689207033,0.09677446429737839,0.17132789788213512,0.9178341847001907,-0.5669713331152995,0.052116657150959464,-0.21427071761137517,-0.1032574328848363,-0.28256222670279985,0.8703174249444161,-0.5155506146818509,-0.05295642613503465,-0.005058580644072611,0.012547407347786994,0.17460934955100818,-0.04959193996564221,0.21148015718908464,-0.29589524356634056,1.111460231691046,0.39328269917020997,-0.05530602984919107,0.08741143612123797,-0.09005553573494354,-0.22764967657580243,0.32997923767143605,1.1147043144184643,-0.4447281144180969,0.01832120066249685,0.09720064028478773
7.0,2.312373161315918,2.1016209752437844,0.032977979618787484,1.0414436452600846,-0.12547162264978046,0.03847369148535585,-1.6161853478475656,-0.22314704503916827,0.09708888842834915,0.17123301248517936,0.9180090018510623,-0.5669256950737377,0.05197752037271389,-0.21436139435964804,-0.1029500958216503,-0.28260365919829344,0.8703130572473403,-0.5154776045217744,-0.053103093338187,-0.005211393280516211,0.012571118840225451,0.17484476730028975,-0.049611803670207275,0.21112360027334381,-0.29615274650263634,1.1111859642050508,0.39289108984453286,-0.055740761436010366,0.08759497211876435,-0.08994893275033629,-0.2278088304641711,0.33013782401651803,1.1149465871836293,-0.444680565102305,0.018495052716952575,0.09715158084086535
9.0,2.381413221359253,2.101368342964731,0.03299661284258954,1.0414351679165192,-0.12544575762344,0.038547458701593575,-1.6163336716752552,-0.22330130612534338,0.09751059868780948,0.1711207129785332,0.9182415211869269,-0.5668902143551051,0.05181781505758183,-0.2144601613867851,-0.10254994399317126,-0.28265669823843675,0.8702961046193686,-0.5153804438721098,-0.05329566269317143,-0.005361490096253092,0.01261627939882419,0.17513456021076115,-0.04960161241813727,0.21066664839234528,-0.296465605487214,1.1109147519859754,0.39248969175518855,-0.05628783463895327,0.08785122947741818,-0.0898151221640818,-0.22802820377949712,0.33031420839425263,1.115270976599711,-0.4447795756626548,0.01872743894226031,0.09722226957106031
11.0,2.4413905143737793,2.1010974584723714,0.03300565729200544,1.0414239064364539,-0.125439342681813,0.03861525055488141,-1.616460998543194,-0.2234343130067828,0.09795864918423061,0.171013900448503,0.9184809322273071,-0.5668710749256797,0.0516212304256751,-0.21451737142381716,-0.102141651760077,-0.28273427474257407,0.8702692194646081,-0.5153234836677105,-0.05352102153687869,-0.005478822234535668,0.012663168246705471,0.17539310048568374,-0.04954972147943902,0.21019311504521446,-0.29686533719206865,1.1107371063353386,0.39214109671777764,-0.056896814335206616,0.08810015027364512,-0.08962641629463003,-0.22837386624009243,0.3305112129800646,1.1156465047175266,-0.44499815183671604,0.01897182985676532,0.09748442795306642
12.0,2.5110435485839844,2.1008424075788783,0.033011332431544055,1.0414053465967796,-0.1254219685715303,0.03865954477874644,-1.616571897291234,-0.2235660950008151,0.09837432897217177,0.17093596713278986,0.9187263625335411,-0.5669094237037717,0.05143640021744347,-0.2146240857321634,-0.10179246451604859,-0.28280676474949196,0.8703094587708422,-0.5152548326983101,-0.0536771593697621,-0.0055699338573781225,0.012740276647304205,0.175558842655141,-0.049451605201073556,0.2097363482988503,-0.2973526183987461,1.110776047359307,0.39189062863686075,-0.057523943215164366,0.08830168935355702,-0.08937673879642162,-0.22874522670335756,0.3306805169104024,1.1160542479635824,-0.44526210192055643,0.019211085236691267,0.09789684380852841
15.0,2.5621960163116455,2.1006616003179315,0.03301515175721581,1.0413864202544139,-0.12539940061449373,0.03871599904237061,-1.6166157223232798,-0.22369911099277345,0.09870317769974142,0.170856649788778,0.918957028161806,-0.5669716197972849,0.051299434464779956,-0.21468969959719036,-0.10151832814879691,-0.2828902470340397,0.8703319274124989,-0.515252944277549,-0.05379970949715156,-0.005655175418362825,0.012861168001236508,0.17564332549527295,-0.049345337430899104,0.209405022393797,-0.2978231721722448,1.110922123041298,0.391727295961279,-0.05801186100784426,0.08843696164021522,-0.08917143340143902,-0.22900497246988685,0.33075050482657103,1.1164238447382877,-0.4454543663682482,0.01938528550630419,0.09828472241119228
16.0,2.6432995796203613,2.1004391034390495,0.033020890663870386,1.0413559872334783,-0.12536340787220646,0.03870587923600706,-1.616649470446942,-0.22387038569216955,0.09897247787788353,0.17074910909032726,0.9192217032183022,-0.5670327284723021,0.051144391701314657,-0.21482104708310673,-0.10129056124678154,-0.282970338467889,0.8704595287785458,-0.5153394977286033,-0.053916327496242776,-0.0057692666218833785,0.013009803386617766,0.17565968403121468,-0.04908170742927773,0.2090411322638298,-0.2983841856169687,1.1112496149421838,0.39166204057037424,-0.05856563741945435,0.08848625528932462,-0.08873999245188521,-0.2291052582511792,0.3306015904659262,1.1169089526520206,-0.4453780331010577,0.019622478579698302,0.09865920098571332
18.0,2.6978471279144287,2.100260742219004,0.03301722674332557,1.0413308988972092,-0.1253170327605455,0.03869118997015851,-1.6166740448851469,-0.22402191177411923,0.09918433891723023,0.17066965588880478,0.9194475773857944,-0.5671148979658739,0.051030955315798,-0.2149403598792291,-0.10111455619891879,-0.2830346882250499,0.8705777591650896,-0.5154541685948025,-0.054036126523753905,-0.00588244238713353,0.01313347963941212,0.17556712743920286,-0.04879809737867745,0.20878100798097293,-0.2988548394318366,1.1116208120292146,0.3916012370133276,-0.058999862026222635,0.08850123312009903,-0.0883390353808457,-0.22911135972712549,0.3304810469825368,1.1173336722962965,-0.4452845758887908,0.019843773719338806,0.09888392924258291
20.0,2.7492949962615967,2.100115551621024,0.03304597686044317,1.0412849222887595,-0.12516547070423728,0.03854572018656563,-1.6166547205459612,-0.2243484228602422,0.09920915389286211,0.17064223987419003,0.919609977540532,-0.5671552412515827,0.05101782546209842,-0.21530684437540473,-0.10115329308267809,-0.2830370339422389,0.8708358643072356,-0.5156379755097509,-0.05416673519590666,-0.0060964337307447365,0.013240130156460483,0.17539399113928955,-0.04850028509605178,0.20846511756279512,-0.29926269567758573,1.1120367478969617,0.3915242859218072,-0.05937164813288094,0.08847737544389625,-0.08787912217016541,-0.22904170921962047,0.3302367940551932,1.1176666530285382,-0.44493837131318187,0.020109998786862537,0.0990679874831781
22.0,2.8181395530700684,2.099944902538626,0.03305162500221843,1.0412399773373655,-0.1249172782954581,0.038336172245263755,-1.616584789632319,-0.2247524474429652,0.09917680491422182,0.17058862283612183,0.9197302036039569,-0.5671987384106534,0.05098967144393354,-0.21575879406322024,-0.10125127437227655,-0.2830629430031031,0.8711310129668441,-0.5159016527011652,-0.054317844834166504,-0.006287199534385748,0.01328931327779162,0.17511726305777614,-0.048121469780833204,0.20824880219805392,-0.29965752112752947,1.1124769001870538,0.39148964504252415,-0.05971907952749315,0.08839972498851023,-0.08748647222106495,-0.22906163969875848,0.33004398166399257,1.117966377895557,-0.444489757740266,0.020400707626435907,0.09928167896820375
24.0,2.881484031677246,2.099762757477753,0.03306497624441313,1.0412048721795832,-0.124674244058516,0.03808369411716633,-1.616522982722456,-0.22513121501288152,0.09909712526897477,0.17054376972330554,0.9197867513587608,-0.5672092916299447,0.05095394287232665,-0.21621994736200997,-0.10139408163010873,-0.2830929600931399,0.8714422613421915,-0.5161592906504786,-0.0544755602643654,-0.00645313834661951,0.01323562841658715,0.17487608756902617,-0.0477593642628998,0.20815423962371254,-0.299989962301969,1.112949544963145,0.39147735246337223,-0.059990728911818864,0.08831403231013843,-0.087212692196751,-0.2291572525925724,0.33004164290079396,1.1181656896580199,-0.44415311939787483,0.020723749055428467,0.0995211016505233
25.0,2.936371088027954,2.0995590395675094,0.03305808645958966,1.0411790903856426,-0.12439054686690075,0.03780780107069413,-1.6164678450310883,-0.22551721218669468,0.09901092612719634,0.17049124308515873,0.9198162231612179,-0.5671896195774839,0.05089406645929112,-0.21669015216857945,-0.10153995193635623,-0.28313041145742374,0.8717504503519836,-0.5164008722635112,-0.05458952369531385,-0.006542303779762387,0.013130467844119312,0.17457445856537882,-0.047374676146754495,0.20818748792262615,-0.3003384728930348,1.1134681390084198,0.3915219339517517,-0.06023292143311283,0.088180695371532,-0.08696234471938113,-0.22927249445258557,0.3301743284204344,1.1183209228885003,-0.44388382095063883,0.021074891424923706,0.09983974079045496
27.0,2.9738354682922363,2.0993926856862455,0.033047141488385834,1.0411514937371815,-0.12412946412713335,0.0375802025667931,-1.6164085750424495,-0.22577094134452463,0.09891674012848192,0.17044431952206696,0.9197784942939121,-0.5673140671366104,0.050596065072967204,-0.21710799357232108,-0.1016656529081795,-0.28316133398765087,0.8720029022972702,-0.5166421403021392,-0.05466999431261753,-0.006593418882991338,0.013024743309425527,0.17425045156601088,-0.04707008498690672,0.20827983490670798,-0.3006547630518185,1.1139275975482454,0.3915630951376696,-0.06039991897477354,0.08804130273545355,-0.08671942730223334,-0.22934500003261263,0.33039809155073724,1.1184116744886756,-0.44368735047857266,0.021361884189937085,0.10014936459804955
28.0,3.0332047939300537,2.0992240159850004,0.03304596397787516,1.0411228510804607,-0.12388365863296663,0.037360172396097985,-1.6163898405663875,-0.2260223648927649,0.0988343673013487,0.17041630497093718,0.9197389147957016,-0.5674462755596829,0.050280086141194696,-0.21754879992332798,-0.10176257832541755,-0.2831468180078234,0.8722714200729593,-0.516909832193133,-0.0547252876682165,-0.006615102309624938,0.012952889142834758,0.17396774759857553,-0.04677526643242786,0.20842779491865332,-0.3009604819943361,1.1144557335398013,0.39162403883334296,-0.0605443249324711,0.08784116525077217,-0.086458867809564,-0.22932295981027895,0.33065414570793494,1.1184529815369053,-0.443539821549903,0.02165155121328625,0.10055925537167852
29.0,3.0716702938079834,2.099092506054092,0.03304715094961119,1.04109574843787,-0.12367540248172915,0.03718723153004015,-1.616394294734771,-0.22625714946889425,0.09879275950339134,0.17043323152011597,0.9197415894164732,-0.5675575991091816,0.050047313686494406,-0.21795188458019832,-0.10183795312450127,-0.2831016388014951,0.8725319942008071,-0.5171296935114709,-0.05475584715484093,-0.00663793737262934,0.012927594291717144,0.17371098050024386,-0.04653099401061932,0.20855720884819462,-0.30120819408011834,1.1149403299924199,0.3916697683676259,-0.06065473292055673,0.08764675136655692,-0.08622919670578341,-0.2292332626698511,0.3308561606953451,1.1184821244987744,-0.4433777768450871,0.021893192177784977,0.10094158122660363
30.0,3.1143147945404053,2.0989813666745976,0.0330581156704945,1.0410718742186402,-0.12350374213618873,0.037064533769136876,-1.616419023393843,-0.2264945528521627,0.09879347147751383,0.17044785085136321,0.9197938168727464,-0.5676379512556227,0.049891346434818615,-0.21831283381050337,-0.10186584078479724,-0.2830469630749406,0.8727673762123971,-0.5173141936863727,-0.05478974794220638,-0.006653284283546444,0.01294094218713837,0.17353697845072394,-0.0463485353000862,0.20868442497286063,-0.3013935133781219,1.115372714364743,0.39172104485475306,-0.06074030045597944,0.08745747813534847,-0.08605101700069934,-0.22909800358868432,0.33102276872358416,1.1184711453749825,-0.4432304273490446,0.02211512179314843,0.10129963497705005
31.0,3.1490204334259033,2.0988811241499463,0.033073345616999955,1.0410505902778835,-0.12335873045116938,0.03697437168616503,-1.6164648910081465,-0.22671640933986018,0.09884740579086697,0.1705033222720027,0.9198748538583459,-0.5677086014899415,0.04980905643025601,-0.21864795837632778,-0.10187524159234562,-0.2830088457835913,0.8729939738325023,-0.5174323340395313,-0.05482537438806198,-0.006648130084236977,0.01297635216741793,0.17342602042122152,-0.046199656842439756,0.20881038989575385,-0.3015401811315698,1.1157809984563867,0.3917934056343195,-0.06080345139921817,0.08727302596947949,-0.08591228221005848,-0.22893714404445742,0.3311426018440954,1.1184370310392797,-0.44306836765204116,0.022322908554960073,0.10163674975141365
33.0,3.1947836875915527,2.0987841784252366,0.03308726702883582,1.0410321144831702,-0.12323982855115398,0.03692456416568861,-1.6165014360419039,-0.22692063976022206,0.09891947655814745,0.17049831801838916,0.9199832495215801,-0.567724744549328,0.049745441166371376,-0.21892606999423028,-0.10185061843625073,-0.283013340342864,0.8731790798237904,-0.5174924505639271,-0.054874706930744366,-0.006652121501235809,0.013021308050280869,0.1733469744786854,-0.046086516439791836,0.20894608678470108,-0.30164819516762614,1.116147554607914,0.3918947306114393,-0.06081769484732324,0.08708534287704717,-0.08578409669426376,-0.22876346961126653,0.33123328993523254,1.118387060080854,-0.44289135776963307,0.022503264411835477,0.1019331076475527
34.0,3.2383410930633545,2.0986423009612976,0.033108822868158576,1.0410132392462272,-0.12312260747720995,0.03692513397238624,-1.616526910124337,-0.2271589786636494,0.09910461132280107,0.17044096893299826,0.9201369857195154,-0.5677127264557029,0.04968504906521136,-0.21917967651993536,-0.1017415033939635,-0.28309730976181635,0.8733040939210716,-0.5174824503367481,-0.054964024900248126,-0.006618899015206009,0.01314148329950511,0.17333169752402322,-0.04596328212545732,0.20919330521488266,-0.30179047539449383,1.116557464249803,0.39208469680733693,-0.060752176084044526,0.08677776933244716,-0.08563360034877227,-0.22854891890934975,0.3312853541542794,1.1182632311706358,-0.442633056758927,0.02271246182151816,0.10230133951781739
35.0,3.274066686630249,2.098504453989012,0.033124886945481706,1.0409989079500148,-0.12301614729770238,0.036944217151929463,-1.6165381552696827,-0.227383092720854,0.09929584944783897,0.17035831275520946,0.9202898284492311,-0.5677142778393511,0.04959368866461979,-0.21938522990364,-0.10161674627615576,-0.2832056647831512,0.873386207091448,-0.5174733772221889,-0.05505659258152032,-0.0065834887270283,0.013261861624917484,0.1733154495384643,-0.045854796518062194,0.20943956716997503,-0.3019032995436315,1.1169368473619314,0.39228928493671666,-0.060666669287305755,0.08648380777366475,-0.08550450874509694,-0.22837978002181739,0.3313500849079914,1.1181480921166702,-0.4423926811373181,0.022880752410965124,0.10260880730694008
36.0,3.3139524459838867,2.098374642396701,0.03313794799194281,1.040989425708545,-0.1229087299299694,0.036979405391149994,-1.6165442157292036,-0.22760321705535497,0.099489741478648,0.17025614568230268,0.920436965020438,-0.5677082831659919,0.04952830160343667,-0.21957090431883447,-0.10146445544888891,-0.2833093942957659,0.8734302713017835,-0.517436379728147,-0.05512223910353406,-0.006551619828199921,0.013385310020135764,0.17331209976885883,-0.04575285756137989,0.20967588585088737,-0.3019716127187133,1.11726275364204,0.3924995654918373,-0.06056493919694528,0.08622281541264326,-0.08543067691217865,-0.22823373383318105,0.3314293287283656,1.1180222001135594,-0.4421716861977598,0.02303717349526517,0.10286734388511856
38.0,3.3620543479919434,2.0982601449530875,0.033149398271258346,1.04098423987412,-0.12282014069329146,0.03705537604410073,-1.6165128497986392,-0.22781559339063143,0.09969783150744463,0.1701159896425654,0.9206057357741866,-0.5677175044058289,0.04945918882003382,-0.2197047528678543,-0.10129032008757781,-0.28344877111948785,0.8734315186385319,-0.5173918241336385,-0.05519015147965057,-0.0065243555685294795,0.013546527022345321,0.17334240542040832,-0.04567436042274048,0.20988994875463077,-0.3020299184463514,1.1175148439446791,0.39270294056415656,-0.060430018634338944,0.0859883028769821,-0.08537107285726359,-0.22809260135421572,0.3314786321525559,1.1179475654559246,-0.44194967587612194,0.023131173396990057,0.10303846839363595
39.0,3.401526689529419,2.098106427581453,0.03316630508864347,1.0409818408350746,-0.12270898390631688,0.03709869524294508,-1.6164990656514044,-0.22803865167497564,0.09989920956869577,0.16995661226243933,0.9207372839301285,-0.5677005246376924,0.04941726220683043,-0.21988988461970418,-0.10108827169295531,-0.28355253930119473,0.8734265651601385,-0.5173399391567504,-0.0552568467401723,-0.0065303968642485034,0.013685450475712428,0.17343392035144,-0.045544122296445416,0.21019146516743903,-0.30201087469436155,1.1177705512130156,0.3929182253241431,-0.06023820140489296,0.08574608011127502,-0.08535130859896506,-0.22791472490165232,0.33157401152512767,1.1178321989100957,-0.4417165070598915,0.023190656430990657,0.10318098555967763
41.0,3.4540114402770996,2.0979603080076927,0.03318211817267833,1.040980511809219,-0.12258883475874431,0.03712313861201097,-1.616480954991659,-0.2282497344394621,0.10008508338365102,0.16983637004736601,0.920829481444515,-0.5676934011857242,0.04937505789559443,-0.22007757312945114,-0.10091113193040055,-0.28364316312824606,0.8734126724721559,-0.5172791774263911,-0.05531752874446377,-0.006535346492111313,0.013791906935878475,0.17352412577432896,-0.04544986782699034,0.21046644506399692,-0.30194183749333087,1.1179835093121446,0.39312483994521663,-0.06003711047070172,0.08552890023281337,-0.08533489656167503,-0.22775671630250366,0.33167964686402807,1.1176798448243488,-0.44148309950852344,0.02322635644200831,0.10327728745329996
42.0,3.516207218170166,2.097777699527305,0.03319898114696604,1.0409788214975537,-0.12241845184132967,0.037102777288200564,-1.616453059461832,-0.22851076360506284,0.10026795964521154,0.16971730582266406,0.9209015812073058,-0.5676659987057471,0.04930837051855831,-0.22034820383874515,-0.1007592045525537,-0.2837406294538407,0.8734350098612327,-0.5172430795528198,-0.055407691368376165,-0.006583588053196133,0.013885667740203217,0.1736275368205183,-0.045339993837508474,0.21079155833766874,-0.3018200184306823,1.1182117049685585,0.39332458594143954,-0.05979551356050747,0.08531179057345142,-0.0853193625276634,-0.22755875657245894,0.33182300290362576,1.1175126344775606,-0.44121110056619417,0.02318545082482852,0.10330780964740652
44.0,3.564225673675537,2.0976070672802503,0.033216431333127454,1.04097287419711,-0.12222545668081122,0.03705290457422755,-1.6164450851485412,-0.22879765054084536,0.10041134738962697,0.16963400388308605,0.9209507421708163,-0.5676656551197783,0.04923449931365996,-0.22065163579208705,-0.10064881179919175,-0.2838111876712916,0.8734760542757851,-0.5172380337033099,-0.05549441407807521,-0.006622468205673168,0.013926682534810528,0.17370103278321808,-0.04527288263631528,0.21106641769401674,-0.3016888088557078,1.1184126409109367,0.3935133918710173,-0.05959213990268635,0.0851628452887106,-0.08534499177597735,-0.22737703260391876,0.3319835098835905,1.1173419722661146,-0.44094769389124944,0.023142921344596695,0.10330043735446337
45.0,3.6073360443115234,2.0974115924226586,0.033228545788728484,1.040965305736251,-0.12198104923073906,0.03697589245643869,-1.616407560108649,-0.2291274206673724,0.10054445582867036,0.16952146887405434,0.920982360369966,-0.5676711859030662,0.0491452922309329,-0.22100988197391574,-0.10053448410721372,-0.2838812137785348,0.8735278621693148,-0.5173004006304392,-0.05559651864339664,-0.006684288004538647,0.013970148270216105,0.1738088441241367,-0.04524320667011669,0.2113605729777771,-0.30157395409743265,1.1185933130011292,0.3937252423379025,-0.05937173061638067,0.0850608417848963,-0.08546046790467547,-0.22719826458481066,0.3321525944458228,1.1171897275273484,-0.4406764473859927,0.023051750356369242,0.10325410691890011
47.0,3.6499311923980713,2.097244020787176,0.03323109035688159,1.0409614459060772,-0.12174978364742314,0.036910915260428105,-1.6163230769586563,-0.22943240429090783,0.10065283627164026,0.16940316215082127,0.9210076158002796,-0.5676921110798026,0.04906677126440563,-0.22130444136122285,-0.10044317218478538,-0.2839802204732357,0.8735622378232057,-0.517371621943039,-0.055685506402681974,-0.006797954430113532,0.01400510566849166,0.17389400831873114,-0.04523494419880145,0.21159473008737711,-0.30147472342926146,1.118738493504435,0.3939361260141151,-0.059172637194210585,0.0850041173628483,-0.08560429824599416,-0.22709469878434352,0.33234728414381753,1.1170685605561608,-0.44044693845911853,0.02294897402280572,0.1032201282001087
49.0,3.7198026180267334,2.0970501975628393,0.03324198636482944,1.0409563856781836,-0.12143181692344288,0.036824968538727104,-1.6162765917040205,-0.22983547851079134,0.10074106871965857,0.1692532670371752,0.9210068381007409,-0.5676700604674136,0.04898626799078881,-0.22172614822293146,-0.10032460886123284,-0.28404616716909276,0.8735877126247786,-0.5174655697641003,-0.055791725803021414,-0.006890540538858013,0.014057942694697477,0.174001441553514,-0.045329304532825965,0.21182409700170324,-0.30138978280073186,1.1188580626265503,0.3941741347091844,-0.05893743460759486,0.08496347548179052,-0.08585132030820912,-0.22704760181047862,0.33256273927731406,1.1168662439783896,-0.44024070861204556,0.022832937478724575,0.10323358040318087
51.0,3.781903028488159,2.096840062544966,0.033249933587321034,1.040950798466052,-0.12107938174236298,0.03675875274994535,-1.616188520628177,-0.23029560887584022,0.10085722158551019,0.16904311053147777,0.9210436241238501,-0.567652836792663,0.04889008525251319,-0.2221851715939135,-0.10018211961884285,-0.284162158218904,0.8736269928042018,-0.5175737966058488,-0.05590862596684534,-0.00700165350484494,0.014160644471781988,0.1741241065458529,-0.04551399124924518,0.21203234054115627,-0.30135303187529194,1.118981491908803,0.394463338145752,-0.05864813236078349,0.08492419268745968,-0.08613369810005941,-0.22703994342553876,0.3327717447738426,1.1166880135162367,-0.44007908431370535,0.022639118510313323,0.10326706964697821
53.0,3.8455522060394287,2.0966236467147,0.03325008434559165,1.0409489180445135,-0.12066425949995874,0.036738014588559825,-1.6160809759234531,-0.2308090429499175,0.10100774379507885,0.1687718567428593,0.9210727951485709,-0.567660603622276,0.04876697774973636,-0.2226884946140614,-0.10000152401844789,-0.2843284552714609,0.8736152936069428,-0.5177056933915484,-0.05605026522293353,-0.007175425094058208,0.014330723694738139,0.17417871450863953,-0.04563382166191886,0.21227850571295734,-0.3014390712502978,1.1189073065373447,0.3946876740545883,-0.058328475773811,0.08487263776813664,-0.08659707239492641,-0.2270828531210136,0.33295487414372604,1.1165324645268506,-0.4399620921621166,0.022481524812521088,0.10347169505677296
54.0,3.8991475105285645,2.0963535782807705,0.03320163254282226,1.0409649906020397,-0.1202075500344629,0.0367461728498463,-1.6158876533418134,-0.23128690908816785,0.1012299232480305,0.168399323883074,0.9210300918109964,-0.567643285331551,0.04854888030923161,-0.2230837205546447,-0.09974335006808013,-0.2846452012429125,0.8734529299812008,-0.517858407487291,-0.056235357347397805,-0.007468810420921169,0.014403733831501848,0.1741070025403662,-0.045612708390739526,0.21273226109355958,-0.3015958316977402,1.1184714899903505,0.39484051909322576,-0.05793307201697091,0.08471940935341149,-0.08736145554618899,-0.2273458519783642,0.333148059496618,1.1163541186839332,-0.43991876891374804,0.0223352804593902,0.10406228097423253
55.0,3.9434523582458496,2.0961249660660504,0.03315413290247542,1.0409867514674438,-0.11974636197971321,0.03674923850917525,-1.6157415114475708,-0.23175709922806698,0.10143597965212106,0.16811545565242475,0.9209561477771286,-0.5675874278320678,0.04833473903977421,-0.22348671420934185,-0.09952087096739594,-0.28491328666058835,0.8732785850656677,-0.5179556106562571,-0.056393805755385634,-0.007766027538230443,0.014421163512162175,0.1739586335389391,-0.04555234413125348,0.2131893182708507,-0.3016511719986912,1.1178051666483777,0.3948626970532224,-0.057563921967029794,0.08449328854338448,-0.08821011715157566,-0.22767153487208597,0.3332243766101666,1.1162069298510346,-0.43985709658805927,0.022222202523931263,0.10476637398829577
57.0,3.991220474243164,2.095884521678367,0.03307653439420313,1.041029456039551,-0.11929977870149489,0.036759817941286424,-1.615698111452013,-0.23211682355870406,0.10170125713188242,0.16790403280703858,0.9208590333368947,-0.5675014046088194,0.04806836994814649,-0.22381912755228212,-0.09924807708495939,-0.28516039814801536,0.8730787910594118,-0.5180057219911904,-0.056566728462867574,-0.007950454053880143,0.014333161484501433,0.1737535960568909,-0.045502267648627914,0.21366203096891878,-0.30145624122509784,1.1170537145739274,0.3948873425498771,-0.05725164642215434,0.08419694953648635,-0.08917185068864097,-0.22798439346147853,0.3331660270140707,1.1160541751276893,-0.43976818451016786,0.02219138992580332,0.10555977920100929
58.0,4.042139291763306,2.095611341764242,0.032955631106705165,1.0410961006785449,-0.11878487272302596,0.03668090476696709,-1.6156305390041188,-0.23239735153542418,0.10181806998736212,0.16758212218317198,0.9204926908545504,-0.5672878664803432,0.047657022546314244,-0.22415614186781646,-0.099008590806474,-0.28536955183190044,0.8727749691117441,-0.5180607587567492,-0.056776303345503445,-0.00834929482611934,0.01419222857181474,0.17340172926700667,-0.045352198676665734,0.2142325926177086,-0.30073395226733657,1.1155910447913178,0.39458148565449624,-0.05693945777947704,0.08361237231449964,-0.09038564931793869,-0.22800248850944332,0.3312878100352031,1.115696312513049,-0.4375228105112505,0.021591812267996835,0.10661713499649997
60.0,4.090627908706665,2.095367980362932,0.032858167299186454,1.0411680851220246,-0.11825095779480288,0.03658375040063583,-1.6156570144357085,-0.23266663057235287,0.10192307433781284,0.16737567161106384,0.9200485702099164,-0.5670285350598459,0.04723143629110351,-0.22457384888757786,-0.09879071679730503,-0.28548702981062646,0.8724630952338431,-0.5180383347816917,-0.05700182415904057,-0.008816307589582798,0.01410602999805566,0.17304267822625383,-0.04514846254978369,0.2147770283970148,-0.29960922026729675,1.1137818553097687,0.39382837992682096,-0.05688994615890586,0.08300584003699078,-0.09146754926912293,-0.22757364729106255,0.3275873959674359,1.1151873337642364,-0.43295336864764883,0.020279353478503365,0.10662991696601774
61.0,4.142844200134277,2.0950877963686088,0.032759118979112926,1.0413089716139596,-0.1174611228673115,0.036506208980620604,-1.6158454625398184,-0.2330904480612949,0.1021461284643645,0.16727691849345733,0.9193245115293487,-0.5664317222833263,0.047008616101525506,-0.2252586105133425,-0.09844183891922753,-0.2855320617607336,0.8718913603804479,-0.5176450383475103,-0.05723298124471424,-0.009214355275868367,0.014061386753396438,0.1726502901334308,-0.04496534376132555,0.2149865370718645,-0.29469233858426147,1.110560192406926,0.38805914066227554,-0.06049696696744047,0.08355068601612692,-0.0931157959046508,-0.22715746084508967,0.3225111316787451,1.1137302325525475,-0.42652193113905884,0.017014911070830682,0.10509183980292178
62.0,4.179093599319458,2.0948495302531134,0.03271440524128875,1.041468513171637,-0.11649737390855784,0.0364903348898912,-1.6161627382625245,-0.23371692592308352,0.10242292300914393,0.16723391732192364,0.918504779768416,-0.5657022131833579,0.04682514617308479,-0.22618841426740818,-0.0980087452300822,-0.2854929424685567,0.8711472584895494,-0.5169871712488123,-0.05743187779157895,-0.009488760300042223,0.014119917322274324,0.1724669697467902,-0.045122338655003494,0.21523534298886493,-0.2894459498622784,1.1069429570905538,0.38142689175773037,-0.06428595726578848,0.08387528393862666,-0.09514134141565735,-0.22694445853063752,0.3181326524755429,1.111927070965075,-0.42076641782556046,0.01366705229184728,0.1031600370441971
63.0,4.207367897033691,2.094625692883318,0.03270978699441956,1.0416503506808514,-0.1153500982422784,0.036535650292143104,-1.61651304642198,-0.23448169181223086,0.10284595970393245,0.16732807031901406,0.9175136189414463,-0.5649959417718635,0.04664901235154688,-0.22729839925968284,-0.0974811562307624,-0.285456038389173,0.8701421144840058,-0.5161252224375478,-0.0576582053187998,-0.009661676188695935,0.014261380549315509,0.1723198145479949,-0.04551510522802593,0.2156580582020375,-0.2843158032853248,1.102992934702622,0.3742074042378275,-0.0683487895216576,0.08378429992499768,-0.0974048309491692,-0.22720815164920694,0.3149186223328553,1.109732758107149,-0.41621622434494565,0.00997588674084765,0.1007937197262824
64.0,4.246474504470825,2.0944312801276,0.03272537554398679,1.0418252365275453,-0.11398619858728667,0.03649414302914298,-1.616746292401749,-0.23543901775888382,0.10314008090794728,0.16744259390228186,0.9163430080563004,-0.564347553500633,0.04615587478452343,-0.22865804961933694,-0.0970994826868454,-0.28544335609813665,0.8690674576184736,-0.5151626882360016,-0.05785599093474396,-0.009965306482331526,0.01429170557694397,0.17221657969699533,-0.04632160242263246,0.2161509264489891,-0.2793322846683779,1.0987530386370192,0.3668604904260738,-0.07243963367842861,0.08374578384867455,-0.09994944166064487,-0.22796728788484671,0.31268144389090013,1.1071746896808787,-0.4127272048726663,0.006121842024845981,0.09819260150324127
65.0,4.286824941635132,2.094239004154034,0.03276487596561177,1.042017912234192,-0.11244777520739294,0.036457205679169734,-1.6169887472890123,-0.2366446132958911,0.10337628915076784,0.1674300015663382,0.9150165264442176,-0.5635623696825757,0.04550279305341755,-0.23018448192864463,-0.0967091434561654,-0.28548387881339415,0.8677863653794058,-0.5141007486877528,-0.058096980405024784,-0.010326294294123415,0.014395055739142095,0.17224135465410062,-0.04767058961763847,0.21686393554634192,-0.27488531200404237,1.0941505748441127,0.3597964631125098,-0.0758096206778236,0.08333621192385848,-0.102841800977797,-0.2290096189851994,0.3108934008994453,1.1042395871523336,-0.40995315139340904,0.0019717593332462683,0.0951127097754596
67.0,4.327420234680176,2.0940241377459143,0.03279245054526887,1.0422687716462609,-0.11088798670955613,0.03640914466513429,-1.6172082972489326,-0.2378535345434421,0.10363275966505066,0.16742038808648377,0.9135583268269516,-0.5624185385333248,0.04509493334490831,-0.23167375923214328,-0.09632280066226527,-0.2855858381521631,0.8663575920536521,-0.5127937365914854,-0.05831277896687629,-0.010693852892485853,0.01445309190287515,0.1724896626938623,-0.04945501560149724,0.21761752965688463,-0.2697961573212301,1.0889035226014034,0.35187631097849703,-0.07895596223899491,0.08309921108763052,-0.10611720180986192,-0.23029391336128863,0.3090026920676057,1.1008143103100176,-0.40721520216234824,-0.0025813799352635627,0.0916860589617949
68.0,4.376203775405884,2.093666250240439,0.03281488877068032,1.0426630906581407,-0.10886135622194319,0.03628242260844541,-1.6173897697449875,-0.23923522745318393,0.10390637682809548,0.16731079674764868,0.9112358238741324,-0.560684584624038,0.0446400518273424,-0.23332275834053728,-0.09578415348569014,-0.28585441174283066,0.8640591676124613,-0.510996299918764,-0.058646511363828605,-0.011233345129974173,0.01433376475250835,0.1733780906130093,-0.052815835397940464,0.21859147077955976,-0.2619132599513689,1.0803139789015543,0.34033332713275344,-0.08467852450253928,0.08397925830474218,-0.11160380488961347,-0.23200163353723322,0.30480950071359403,1.094904208590513,-0.40181514749201064,-0.008810632586212664,0.08714746373855782
70.0,4.426133394241333,2.093143299834201,0.033033179614360135,1.0433478466674302,-0.10534366485273426,0.035886455134199365,-1.6174130773483957,-0.24166427299016763,0.10396457322259518,0.1671408065944321,0.9067034233691946,-0.5573492309778593,0.043745539401535305,-0.23621961048447288,-0.09515044325103326,-0.28639972042087264,0.8597745104079721,-0.5075148823200835,-0.05923460088212622,-0.012717567851866122,0.013931090334114,0.17606161731543107,-0.058732697694093894,0.22063309188742716,-0.2503289415807175,1.0643266446908108,0.321214492462576,-0.0944710559552137,0.08631525979722088,-0.12127608700727162,-0.23482331346951868,0.29689125707002334,1.0841311539845053,-0.39106821804791436,-0.019154941963883947,0.08018165168592642
72.0,4.481477975845337,2.092742016328014,0.03305170743986547,1.0438539957715895,-0.1035054256755934,0.03573350603390052,-1.6174899373986489,-0.24245008945043622,0.10413505167280451,0.1670917242923175,0.9035362337033632,-0.5551627916599747,0.04342521385614269,-0.23715740532990098,-0.09448992895793824,-0.28675088424820794,0.8565824092412518,-0.5053285888005874,-0.059519964031916284,-0.013575755217065659,0.013876787076539153,0.17795624496908602,-0.06313991877290276,0.22215551084343138,-0.24396882878748824,1.05387302300733,0.3099441775075104,-0.10029074457154609,0.08715200915218865,-0.12744982657503837,-0.23598089489592788,0.29095959433915874,1.07661871028056,-0.3831622666245491,-0.025096140778190765,0.07664665368794489
73.0,4.538409948348999,2.092174375232438,0.03309558176512174,1.0445865163349777,-0.1012081624565116,0.03558157075468727,-1.6176454797178366,-0.24306988618753123,0.10440685856894846,0.16701544321714457,0.898908219724779,-0.5521404975369821,0.04312168008146852,-0.237925899354341,-0.09342781962210603,-0.2872460987800469,0.8518032185078643,-0.5023218746415512,-0.05990906690091334,-0.01462894901533508,0.013993343853422508,0.1808104996985146,-0.07019832807574855,0.22439287229050592,-0.2367605500554288,1.0392922274076795,0.29700172903402644,-0.10769711880561258,0.0892200811826456,-0.13616355230184615,-0.23731257207491568,0.28317169655053254,1.0655549601552732,-0.37268986756145106,-0.032777816119643,0.0719736635221463
75.0,4.593766927719116,2.0916418633699765,0.03326728068902675,1.0453361781150812,-0.09858869366415961,0.03528411397417364,-1.6175803719525157,-0.24417193783902455,0.10444918680481721,0.1669011247715102,0.8939778184740592,-0.5487937004239871,0.04286355928858568,-0.23914330065482103,-0.09254231418025975,-0.2877523472666885,0.8468513815440382,-0.49906639694700755,-0.06031199834067444,-0.015931448084002278,0.014043502176618235,0.18408323679379943,-0.07802167553376081,0.22661537115579786,-0.23034752438492911,1.0245033534966281,0.2849737311680439,-0.11460180891613152,0.09158472852476231,-0.14523932140459678,-0.23869096337306323,0.2759352183555904,1.053981624566153,-0.36268627079812155,-0.040120703303246866,0.0671905027335463
76.0,4.647480249404907,2.090924541153672,0.0334093581895971,1.0463502651206484,-0.09493914577111857,0.034816182084768,-1.6173230478369303,-0.24561687750622999,0.10434251993626312,0.16667267778830053,0.8871278702942031,-0.5444521209047929,0.04216055500451814,-0.24064868956178825,-0.09150723364112066,-0.2886535798447828,0.839971810753793,-0.4948421204322292,-0.060849112285670734,-0.017699591092629932,0.014089431521247323,0.18777648232197558,-0.08902467014904536,0.22957222135100747,-0.22321477038731558,1.0052838447494317,0.27089903041203445,-0.12328070269514049,0.09401596872973615,-0.15745420576681662,-0.24136294198566385,0.26819360566497125,1.0385260828246712,-0.35166720448328503,-0.04981220942355727,0.06133454625793173
77.0,4.675889253616333,2.090287005190641,0.03354540609142911,1.047305659412908,-0.09165985994968587,0.034383593678156084,-1.6170553965496808,-0.2467568740718567,0.10418328595145582,0.16646077630705014,0.8805096860961393,-0.5401798757352037,0.041478097364521495,-0.24177662823441698,-0.0905166653411707,-0.28948681226839645,0.8332634491481733,-0.4906454395503492,-0.061315091225632036,-0.01927958230445647,0.014132799699960522,0.1916161085303471,-0.09921446513323581,0.2326305688351835,-0.21845558457945724,0.9872976132503593,0.2597251298787042,-0.13093477641922113,0.09656775111285397,-0.16880548705886245,-0.24419666763586265,0.2624788040915297,1.0242293583896371,-0.34288358805019836,-0.05829574139436561,0.05628357084821073
78.0,4.7204577922821045,2.0896776915106527,0.03365438661462795,1.048211932555917,-0.0888307958556282,0.03401303768831358,-1.6168068961302988,-0.24744781605874816,0.1040435682679984,0.16624126428546587,0.8741179484813508,-0.5360758712684119,0.040868399818416626,-0.24239879489667798,-0.08949629611800722,-0.290271142378847,0.8267044319700347,-0.4865995665051728,-0.061752301753017526,-0.020786874041654205,0.014120446034345667,0.19539242551655905,-0.10870373011695807,0.23586968148200999,-0.21562625923409517,0.9704256192037908,0.25130639039765595,-0.1379341796946314,0.09920336353672865,-0.17931745402324667,-0.24698550009480508,0.2583270507816212,1.0109123677669378,-0.3358784830998899,-0.06588153045271576,0.051730068374486286
80.0,4.760827302932739,2.089069951259801,0.03371562260881184,1.049119925243552,-0.08640248557405758,0.03371276275755385,-1.616510684340425,-0.2477323130510709,0.1039194713261036,0.16591516555013025,0.867889436723468,-0.5318779894131245,0.04057973568342989,-0.24242706613302611,-0.08838819185359334,-0.2910612107426861,0.8201305940133481,-0.4826376710617767,-0.06214995452210127,-0.02220104389156937,0.014138424236725806,0.19903548528274254,-0.1178274452971175,0.23920998767129356,-0.21382484720762837,0.9540775776312012,0.24476575693803237,-0.14468182881363562,0.10207294801033642,-0.1893761407523153,-0.24964920053064588,0.2547779093374549,0.9982157435385961,-0.329660461991654,-0.07270029112430712,0.047418027670182314
81.0,4.810238599777222,2.0882363346994754,0.03374214390245033,1.0502996316351094,-0.08288327073089155,0.03324497866520971,-1.6162883214827697,-0.24812147453819958,0.1037489788361543,0.16565522584424858,0.859483843669837,-0.5267485025057295,0.04006962124700435,-0.24261141407470782,-0.08690604775323384,-0.2920023786486545,0.8113488999937064,-0.47783650612031126,-0.06265576605435044,-0.023893498630452002,0.01430205943509407,0.20234231314065698,-0.1306386723942422,0.24362054190195137,-0.21183029257531955,0.9329646423853548,0.23885382070305716,-0.1532440886044219,0.10669651869681672,-0.20317941577751933,-0.2526054143954509,0.24913973492538777,0.9821856753519903,-0.32151858619557283,-0.08076969209094856,0.04129758383356031
82.0,4.854929685592651,2.0868716531534686,0.03378431532727937,1.0522499454352487,-0.07766388037611378,0.03252511986451028,-1.616053523876337,-0.24782293035939107,0.10347130773317234,0.16529429985635458,0.8449563249871996,-0.5177578021437012,0.039023101407263255,-0.24191486494264502,-0.08422754837133889,-0.2934896731690606,0.7960219965545818,-0.4693602374644956,-0.06358294380413049,-0.026420299196971374,0.014508090610423166,0.20845222650480655,-0.15069815219612953,0.25079504910053446,-0.2089819181295725,0.8986337833503257,0.23068996635016137,-0.16580320130765203,0.11532646277864403,-0.22442372082954784,-0.2569435047336034,0.24028314719596627,0.9557480207189775,-0.30741622467273894,-0.09296822608287036,0.03145539801993833
84.0,4.896116495132446,2.0860259778205634,0.03392300546627239,1.0535224321872032,-0.07465329964438747,0.032138760532093136,-1.6159990037414438,-0.24696322634070755,0.10333993281938464,0.16522965588512045,0.8347083155977771,-0.5113007880814714,0.03825029731703015,-0.24078586079704448,-0.08225960843732566,-0.29438754603113937,0.785055525431511,-0.46303385604581004,-0.06427142998079302,-0.02787565298591988,0.014697292621645567,0.21345365650460546,-0.16314273957948183,0.25521480217541315,-0.2073814342171154,0.8762951272002035,0.22601433626624495,-0.17249302564345842,0.1213975303036418,-0.2373068798846632,-0.2595282446726075,0.23520923839495603,0.9383063775959859,-0.29776755243756603,-0.09986685938843408,0.02577878711573071
85.0,4.93526816368103,2.0852840839277462,0.03382181319498613,1.0545342978129684,-0.07219525870520074,0.03168208301317672,-1.6158637197347145,-0.2463516806458509,0.10314203635630971,0.16512882277229138,0.827254156721901,-0.5068653799076259,0.03798861056068752,-0.24011912612965874,-0.08100936817796395,-0.2951264914879944,0.7774511779751568,-0.4588457638593043,-0.06466648729396422,-0.029012395685474392,0.015005076793852701,0.21500566941051907,-0.17409300778055475,0.2578940731224154,-0.20519782049227248,0.8602065588158732,0.22213946565312184,-0.1777320219009464,0.1251304562573915,-0.24820725190583487,-0.2613589830930951,0.23083492851227844,0.9256336889948036,-0.2907131696549785,-0.10544308385338082,0.02286659269273935
86.0,4.98096776008606,2.084467832232539,0.03371751577794574,1.0556585137690733,-0.0692296857414488,0.031116769894785117,-1.6157483526018326,-0.24587833222505437,0.10286006511114479,0.16507277164719675,0.8188225227324941,-0.5019158225127425,0.03774711297631392,-0.23964884939069112,-0.07958763193679483,-0.29585147297532977,0.7689220834027042,-0.45420107518086505,-0.06496938938477026,-0.03025496868604521,0.015468545988344634,0.2163201178866891,-0.18658186580512004,0.26082113299888376,-0.20265477054585612,0.8424063499648264,0.21761527313470713,-0.18345541779566615,0.12900724071163264,-0.260451382747453,-0.26348602529807363,0.22540565864713374,0.911879230760555,-0.2825760507921079,-0.11218235215733291,0.018857181576878053
88.0,5.028621196746826,2.0836168825996824,0.03358647121890185,1.0568125448564685,-0.06630892954976979,0.030537257325283472,-1.6155057517680478,-0.24520301477858147,0.10250075552174756,0.16492675833676287,0.8100673016712975,-0.49669473326297015,0.0374656244340376,-0.23889596684139625,-0.07814483120867617,-0.2966704351105081,0.7600208375363966,-0.44940137268124203,-0.06525169185043733,-0.03162086209611174,0.015907636864194726,0.2175653972213137,-0.19932873206024684,0.2635893742688393,-0.19995627492277449,0.8243826716531791,0.2124160945788503,-0.18920786177018012,0.13221355032258061,-0.27270754396711794,-0.26555371340564415,0.22049559069322183,0.8978426766518284,-0.27505966946725513,-0.11935553696714235,0.01454592143503073
89.0,5.075674057006836,2.0823138899601066,0.033304029453166274,1.0583737189369191,-0.06231130872806006,0.029676199534693918,-1.6155283589210736,-0.24387250994117277,0.10218842898537905,0.1649915973719258,0.7979673772809015,-0.4900973763440464,0.03658197094898718,-0.237734447832117,-0.07607645530654902,-0.2975809632177806,0.7478918163555921,-0.4432969878003507,-0.06584421492056322,-0.033209359382299034,0.01635681152686702,0.21801356638139494,-0.21751208717404252,0.26706092202214654,-0.19545967341162382,0.8003183849213575,0.20522220675607492,-0.1970070781585546,0.1352821271940553,-0.2900612369215519,-0.2684072566944009,0.21440144617126192,0.8789377126551563,-0.26649825114095443,-0.1285657250362296,0.008683186310571555
91.0,5.11932635307312,2.081166567968735,0.03311009147836721,1.0598220137220418,-0.05873897512251508,0.028876467190943785,-1.6154296560090415,-0.24242385311458445,0.10177710985513178,0.16506628558352832,0.7862909543688232,-0.4835676399141653,0.03575983877469718,-0.2363733292776027,-0.07414818938288069,-0.29839598263130224,0.7361282219727254,-0.4372212341047216,-0.0664288797111811,-0.03473799202994511,0.01668083793852739,0.21865273120781586,-0.2338803546395813,0.2702126756250867,-0.19165581992711117,0.7785176045095941,0.1988247414309362,-0.20361952708697945,0.13742242765350493,-0.3059016827026498,-0.2710224047896705,0.2092946014091398,0.8616143604775437,-0.2593831950085399,-0.13582669040854284,0.003308262273294399
93.0,5.17289662361145,2.079610760896773,0.03281568562817509,1.0615934403136167,-0.05433384672625831,0.027845206829853378,-1.615520850312944,-0.24067798597265572,0.10143831379982597,0.16523087220812022,0.7720812574687071,-0.4754329553582967,0.03506907731073135,-0.23467572517895854,-0.07163366919672388,-0.2993366970543839,0.7217387448118082,-0.42992299861521716,-0.06718876418359992,-0.03638426872285429,0.017053970456312514,0.21818142118406475,-0.254486763963033,0.2747306019736663,-0.18771931975039535,0.7525391257494243,0.19295085162965314,-0.21219865277662547,0.1415083903825951,-0.32595253036185146,-0.2743499459417091,0.20320863931630279,0.8407577907037563,-0.2513825144176168,-0.14403861703852916,-0.0024115143959137528
95.0,5.242541074752808,2.077763064526124,0.03241699242652679,1.063615692758707,-0.04911265466682116,0.026636235180461196,-1.6157087904190814,-0.23864900673661116,0.10110003598949599,0.16548686245887928,0.7555360555471533,-0.46603771170502356,0.03431059744799997,-0.23273615374754847,-0.06858339941086986,-0.3002725263560331,0.7049488776523654,-0.4214399363934141,-0.06804152641739726,-0.03827476839134221,0.017590236868784817,0.21652658924080131,-0.2784401776482017,0.2799510915994478,-0.18406101553186993,0.7239469623169199,0.18565883062287905,-0.2214139278925201,0.14433360528693995,-0.3493230922830115,-0.2781975466018064,0.19616477661031517,0.8174496260103881,-0.24262416710448054,-0.15301743463142264,-0.008021314252418834
97.0,5.305689096450806,2.075723735440515,0.031973385935680276,1.065724756457824,-0.043542371120972166,0.02509450268698537,-1.6157902705161096,-0.2362699371502241,0.10050842201587713,0.16586549264600908,0.7374635778887403,-0.4557827411758979,0.033251147276928766,-0.23060311741202144,-0.06549272583309629,-0.3011989345629342,0.6869303776963234,-0.4123452385341054,-0.06896314008032826,-0.04061955440083517,0.018282510954506302,0.21391301561375026,-0.3046478926943044,0.28508965407206033,-0.17951110421816757,0.6946701689551915,0.17799910446796807,-0.23022739698631492,0.14661658415665202,-0.37396405642617037,-0.2812851334243458,0.187313592697671,0.7926627949975037,-0.2316560493884701,-0.16258147908280374,-0.013543894527284033
99.0,5.3868796825408936,2.073448375254058,0.031466762207735324,1.067901632681314,-0.03762550070342347,0.0233532672676401,-1.6157032690805189,-0.23373391741145327,0.09978950364764,0.16614611755528555,0.7181736124485387,-0.4446876637704592,0.03199550003064604,-0.22825977389182178,-0.06221019346353285,-0.30218387390404267,0.6677414234333844,-0.4026791882798938,-0.06995067830402331,-0.04334393281344001,0.019187528116638784,0.2103404261071337,-0.33288021155884795,0.2901625845003948,-0.1738354259188669,0.6651061079093763,0.16878925551748697,-0.23849966115652202,0.147656906060215,-0.39942492599652535,-0.2841249107384607,0.17715802730438313,0.7671987171069279,-0.21952789807180279,-0.17140281414658326,-0.01844129885403261
102.0,5.464585542678833,2.0710352516557915,0.03094347537916687,1.07004069028998,-0.03185143916613228,0.021511507733189668,-1.615600400324252,-0.23106272278158935,0.09911639424711385,0.16644523081540458,0.698706778058023,-0.43298284139203974,0.03069982463234342,-0.2255716080179222,-0.058721380003070284,-0.3030467013438366,0.6481413217270042,-0.39268790880651694,-0.0707652631964109,-0.04624429529247796,0.02009863833700527,0.20617509600583006,-0.3616544630344943,0.29481727422708814,-0.16693466267590945,0.6369702727921243,0.1577890271916846,-0.24567070372578953,0.14737795995252653,-0.4244298007983929,-0.28646160210049765,0.16618007621198744,0.7419647133572196,-0.20780029705867314,-0.17886156178218757,-0.02398686358397498
104.0,5.537265300750732,2.0679286290459786,0.03024674889075455,1.072425554065358,-0.02540712433869188,0.019051401142870805,-1.615347308607618,-0.2280923924434488,0.09831287446144775,0.16665674354907994,0.6769361670562453,-0.41930612615119056,0.028925548527557667,-0.22245403465321015,-0.0549155322468218,-0.30407018028962235,0.6263725416217027,-0.3816447863615916,-0.07176654386951643,-0.049717861445306974,0.02123300449964203,0.1998768049714472,-0.396098102325966,0.29896541061115045,-0.15687436330428214,0.6066372386015362,0.14050338099978926,-0.25393582979715434,0.14755605691240894,-0.45308906314486885,-0.2888605385551348,0.15127965802278498,0.7135265161078512,-0.19366592253068832,-0.18772285589520876,-0.0305566251341336
106.0,5.6144115924835205,2.064761669030742,0.029615559958701188,1.0746676113437932,-0.019323013468675605,0.016650365626387803,-1.6152048926957892,-0.22539720486554904,0.09773314603792879,0.1668122073224349,0.6561092420355269,-0.405277928950975,0.027396746196209056,-0.21919411968503583,-0.05096132693783922,-0.3049487501149606,0.60500465086633,-0.37062442592328415,-0.07286767126274894,-0.052884676754738735,0.02247522678945673,0.19359149823207533,-0.4289702324026976,0.3028582244195563,-0.14661243807911098,0.5792776555007164,0.12174095712318111,-0.26137306798744486,0.14835333186799232,-0.4793334253325149,-0.2910105504604089,0.13582810274205287,0.6867280685258137,-0.17967619506925903,-0.19581561503667738,-0.03617162374869231
108.0,5.685600280761719,2.0615834861711027,0.0290667069334197,1.0767199295319494,-0.013773148158167652,0.014354081896640551,-1.6150391764726226,-0.22283673471454124,0.09733616319111578,0.16685814344232547,0.6364396386115964,-0.39135540760683063,0.025839376292183795,-0.21571821444135514,-0.04698063648406818,-0.30576841923134795,0.5842923141778655,-0.3598586863785874,-0.07404914767670195,-0.055840251786482845,0.023966965856572396,0.1875343274172142,-0.4601107018061905,0.3066828437502165,-0.13650193280928438,0.5550046170335599,0.10290381249162406,-0.2674799358743496,0.14991811523398912,-0.5031599390079307,-0.292822704623211,0.11970012140223918,0.6618884980606278,-0.1661472862578336,-0.20307497963349708,-0.040798746643711734
110.0,5.753681659698486,2.0583790597914584,0.02856876350458075,1.0785814165459136,-0.00871887662368606,0.012028267912349294,-1.6146138789627138,-0.22052827366728722,0.09697070753318937,0.16679048627988635,0.6180639818297289,-0.3775446050490473,0.024182279763138657,-0.21219478133520808,-0.04323007814108966,-0.3066883891406399,0.5646305638014693,-0.3494590229863671,-0.07540428777865332,-0.058763420849394135,0.025563473979542048,0.1816614223058831,-0.48942237129779065,0.3105351462552174,-0.12680692772446817,0.5338494194099855,0.08394267559670607,-0.2723663620872871,0.15086823512015057,-0.5241449230031587,-0.2940784591139321,0.1033041949517024,0.6388199407842866,-0.1524308124092332,-0.2095911612493529,-0.04486149825330581
113.0,5.827285528182983,2.055129490680074,0.028085356100436814,1.0802107462343575,-0.00423919101860348,0.009730335855760728,-1.6142257128907076,-0.21841947643484683,0.09682038341091145,0.16669676127876032,0.6012962765727015,-0.36414916532138397,0.022409823469601575,-0.20856779196715738,-0.03953236823746997,-0.3074746322389496,0.5461408963584021,-0.33966054350571984,-0.07682478161181562,-0.06138143543514447,0.027157111339139978,0.17593052195436248,-0.516504951335839,0.314665659360296,-0.11770127586744689,0.5158586145418576,0.06590415400937272,-0.27601915444928776,0.1507897181450917,-0.5422010236850325,-0.29493395460312377,0.08683459771747944,0.6178686308405853,-0.13844381212751794,-0.21510155867836528,-0.04898481607952073
115.0,5.917803049087524,2.051001818273019,0.027456467076111782,1.0818569832635085,0.00038979062781151013,0.006695052341258705,-1.6136550328048287,-0.2167958913406867,0.09684797413249677,0.16655283055574288,0.5845927757198872,-0.3492785321802947,0.020162586121291376,-0.204821969764226,-0.03570237100110014,-0.3083957345166321,0.5272928478041315,-0.3297916050682862,-0.0786532441737634,-0.0643459348428855,0.028719155923838377,0.16863100771617479,-0.5472242836943862,0.31921311917917516,-0.10646934891640843,0.49785028905320783,0.04516374389585333,-0.2802311409542055,0.15005401254366313,-0.5614578879257746,-0.29679865467306826,0.06788108078185127,0.5958090222956326,-0.12359382064172894,-0.22154532231167356,-0.05342290789881385
117.0,5.992321014404297,2.0469040789716124,0.026897128406225546,1.08331026764917,0.004422934517229894,0.0036857107719247633,-1.6130398927494776,-0.2155390074184105,0.09699914226040049,0.16632586538388905,0.56963519705868,-0.3347276137405115,0.017944391793065933,-0.20107880595595534,-0.03206363540369779,-0.3092847910506489,0.5096957616378776,-0.32031351194098306,-0.08063679224333992,-0.06684987402330955,0.0299597856711286,0.16184742961064622,-0.5753473252881622,0.3237218469612737,-0.09608233079021741,0.48258922965627676,0.025869187565716933,-0.2839024648081434,0.14941738399514987,-0.5779466123173114,-0.29958601013784025,0.05055578364327067,0.575866205536829,-0.11251786339345807,-0.22716077643741622,-0.05769201984962051
119.0,6.06036376953125,2.0428398609112843,0.0264173618804364,1.0846018646790572,0.007965013036132172,0.0007250712441403149,-1.6123422112377934,-0.21484609500371077,0.09732675836427204,0.16622472127277912,0.5565857495011693,-0.3204301248739397,0.015904810344759712,-0.19749359257486032,-0.028650988719188163,-0.3102045429056811,0.4934161869389009,-0.3112229995196935,-0.08261270714883787,-0.068803210016692,0.031003082222358733,0.1556455400100852,-0.6006797277792697,0.32814740190380726,-0.08683029173268249,0.4697622731981913,0.008751489282444767,-0.2864743149942842,0.14923108095017815,-0.5921393702209545,-0.30269174689593314,0.034553718953694086,0.558314705736603,-0.104148075568253,-0.23220683369351774,-0.061355606951472144
120.0,6.115092515945435,2.0388658795726347,0.026009714067179328,1.0857217393718117,0.01101582904633585,-0.002257976360209999,-1.6116325105006086,-0.21485886658016437,0.09776409428221966,0.16635399081138436,0.5457213541442452,-0.3063675151820498,0.014190636520753953,-0.19421482947596802,-0.025575895905146827,-0.3107092089874868,0.4787939959962502,-0.3027264579655667,-0.08442304146152618,-0.07040841929604821,0.0318409503306196,0.1502158474883622,-0.6229370765915847,0.3322526571811436,-0.07842643747543537,0.45918409982577957,-0.0060383091017882536,-0.28833123269662075,0.1498045317726251,-0.6036752595577299,-0.3056653506095077,0.019525261394072048,0.5428945324736881,-0.09653959038575782,-0.23680951085602103,-0.06463747351177795
123.0,6.159626483917236,2.035737782945861,0.025748191107280733,1.0865606603382385,0.0133313732070853,-0.004483021610875886,-1.611021182808018,-0.21513524754400587,0.09828003793111392,0.1664294677860889,0.5374284599372949,-0.29452024545242583,0.012994970743817972,-0.19121176408377882,-0.02288052082570345,-0.3110758679333642,0.4663923286066233,-0.295436252871683,-0.08580412991424488,-0.0713297366475699,0.03246060341408109,0.1465943455184412,-0.6388720516735296,0.33566079405785754,-0.07261660040080992,0.4517151522015426,-0.016823721140173685,-0.28960714568330914,0.15064633926327026,-0.611116887554454,-0.3081697283726071,0.007725298291294912,0.5315376536820913,-0.09125994476268565,-0.24054298988328726,-0.06671820466343478
125.0,6.244158744812012,2.031613914869219,0.02545005735553777,1.0874716437650656,0.015418069180112685,-0.007511876865008978,-1.6105939702032042,-0.21717449261715954,0.09939457701439902,0.16699613140645714,0.5318337331721058,-0.28027861736758763,0.011914378994962303,-0.18800037911370585,-0.020137973905100852,-0.3115812267203403,0.4543832568224815,-0.2884316151865997,-0.08702263317084052,-0.07262644904610221,0.03301937711972912,0.14242012806705648,-0.6563191289713097,0.3401389497298477,-0.06538241731219338,0.4451812245672534,-0.028568769063691116,-0.2914110178866998,0.152154537972266,-0.618610347417947,-0.3112207852735408,-0.006321754409544786,0.5198270848662778,-0.08277392633840723,-0.24504272634800858,-0.06898508256376998
127.0,6.313527822494507,2.027469705076123,0.025206646521386315,1.0883091797229645,0.017229023082007,-0.01046540780878005,-1.610227710570308,-0.22069187975616097,0.10091217834024158,0.16740691249735823,0.5291583431629907,-0.2655213585501371,0.01110642410267819,-0.18484659563935707,-0.017301734022303054,-0.31156612830781305,0.4432151891908461,-0.28196251730779087,-0.08796743700926526,-0.07376713050806563,0.033378066473317446,0.138718676671682,-0.6719224525410605,0.34474719657226216,-0.05873674510696246,0.44060336186389015,-0.039306286000764495,-0.2932528818387071,0.15312053955662208,-0.6247741896256926,-0.314454913628305,-0.019421024584447145,0.5096326282325404,-0.07399750764033175,-0.24846491822973832,-0.06969346138509802
128.0,6.374250888824463,2.023284378051725,0.025010082401402945,1.089114070927434,0.018928235931616022,-0.013545835240916543,-1.6101188916183968,-0.22620315398155683,0.10265702917727432,0.16737127774949168,0.5299067140893862,-0.24933613204107768,0.01042167155167699,-0.1818650956312661,-0.014483268784003784,-0.3111948427368009,0.4327533770820521,-0.27600390918395823,-0.08877063553284156,-0.07445833742543916,0.03334179129123509,0.1353419705581993,-0.6857267355273802,0.3497836000154181,-0.05297153533855324,0.4377351631743438,-0.04947015553579408,-0.29476729494047116,0.15254879565029886,-0.6298635614332356,-0.31807880092986396,-0.031449477888613804,0.5010334801034076,-0.06512149855479415,-0.2509482388631833,-0.06839897885411139
131.0,6.428618669509888,2.0198953352027678,0.024894277824947297,1.0897500972177818,0.0204363885787174,-0.015914348979243726,-1.61001032228388,-0.23208955890131938,0.10435598961305537,0.16698553346933492,0.5323762845963599,-0.23523298651579622,0.009922182895247815,-0.17932267933529217,-0.011895818555688189,-0.3108649969805821,0.42360089637648657,-0.27067979255609725,-0.08948072054805137,-0.07486901699059961,0.03326898578344108,0.13289474885385288,-0.6960862672109356,0.35397978603867086,-0.04872319632647767,0.43636814915181765,-0.057365228406333645,-0.29599936513155656,0.15144014657983962,-0.6332529823754347,-0.3212644657597088,-0.04084564842252318,0.49468583186510584,-0.05812484609803691,-0.25250906938287454,-0.06618853752541617
133.0,6.504366636276245,2.0158244648369816,0.02481359877195713,1.0903762484709951,0.02163184973568711,-0.0189123171928754,-1.6102574174741044,-0.24257525547931863,0.1069028071148714,0.16643395542708483,0.5419168673845484,-0.21659261589857579,0.009964439148592425,-0.17671950465498962,-0.009239896938100192,-0.3099937923899791,0.4150248811289,-0.265513316426643,-0.09028498627939238,-0.07513339015139722,0.03280790399096687,0.13102789457583242,-0.7052889058210198,0.3591150989917422,-0.04425462562633546,0.4369246923748113,-0.06596708700742271,-0.29731325311584367,0.14871425868117522,-0.6362443988775293,-0.3251927196676758,-0.05049978715986107,0.48975130327493677,-0.04888287468902951,-0.25372537866814937,-0.06073522485558483
136.0,6.587456464767456,2.01184469540075,0.02483753065686422,1.0909284306887783,0.022568863191475524,-0.021716771334057108,-1.6107197440459897,-0.25669339941178027,0.11032244918665485,0.16617306013815686,0.5575314902963964,-0.19537443050552206,0.010588507313488968,-0.17450354235364118,-0.00642580881853286,-0.30867407782856604,0.407594773379962,-0.26052905037539437,-0.09102092058411937,-0.07518417774553876,0.03236688354733351,0.13009933967747275,-0.7123346445357721,0.3643464178865796,-0.040404467049628315,0.439050135782449,-0.07321229908860702,-0.2988364068432322,0.14570685423098775,-0.6383339184917125,-0.32869555210509016,-0.05936339885449666,0.4864749884076525,-0.03866125963392027,-0.2551844169398367,-0.05375459490637639
138.0,6.676635026931763,2.0073780428785892,0.025030686431202077,1.0914684503344332,0.022976107032718844,-0.025059088704312765,-1.611772108443893,-0.2784103430851329,0.11568882580312193,0.16767818428100728,0.5852814245052312,-0.16682208722448186,0.013664461730845385,-0.17235785458738093,-0.00391326520207609,-0.3072940459403034,0.4013967903320013,-0.2558522911000153,-0.09151659429397771,-0.07507883511330364,0.03149745518675302,0.13060664313867815,-0.7167063458926386,0.3708518445957219,-0.03669581644359507,0.4433748352895702,-0.08067533407544064,-0.30142072618721205,0.1417952095152608,-0.6390785026873481,-0.33239433492196835,-0.0680010579707605,0.484427474576991,-0.02489959302488955,-0.2577858001031377,-0.04451709559456739
140.0,6.757690191268921,2.003308858732587,0.02540367843307418,1.091858495035357,0.023272731863366466,-0.02791027468447857,-1.6130156455781945,-0.3041153402481044,0.12241273724252558,0.17086029882913803,0.6199565456152176,-0.13829391538179014,0.020094997844541662,-0.1711491751466254,-0.0012238773345961814,-0.3053593428677642,0.39670038437570726,-0.2519005200143516,-0.09190241245397035,-0.07483073019453854,0.030566180365560962,0.13192883196301958,-0.7181578154681965,0.3773876036218984,-0.03398482190367588,0.44887470645425886,-0.08691264729275036,-0.3057843431431301,0.13818239973794239,-0.6384029157364798,-0.336290641028075,-0.07478292200054137,0.48333871448993804,-0.012104007985792408,-0.26055744553182947,-0.03590937396158014
142.0,6.826184511184692,1.9997854271277418,0.025914424321993305,1.0920666278552627,0.023372787318591,-0.030195588181274435,-1.6147606589187888,-0.33317674378862683,0.1295865144378237,0.1737656683156764,0.6610311249881672,-0.1133139833569356,0.03239635436445915,-0.1708564598788458,0.001316240639458873,-0.3031346790715489,0.39409409865556705,-0.2486790435451357,-0.0926473668706994,-0.07394282676715178,0.02967756030311595,0.1340770269267678,-0.7157528614785899,0.383977746802581,-0.03246630287834449,0.45477580001262696,-0.08743976942777387,-0.3093637346772937,0.13587318742824586,-0.636030589753504,-0.3400270351069824,-0.0790707068516886,0.4833240597312523,-0.0011186425158240297,-0.2639277691126063,-0.0278292504252533
144.0,6.8900651931762695,1.9967235125755658,0.026550955517245484,1.0921420298048203,0.02326300189666415,-0.03229209199658546,-1.6166220848235784,-0.36564793270454987,0.13747429369241843,0.17896918684418175,0.708237969261736,-0.09482813784495173,0.0492977925637058,-0.1714263311062919,0.003281634810012626,-0.3009769637771291,0.39356362702120146,-0.24648182543972377,-0.0937312133175496,-0.07283337887822573,0.028584167881160284,0.13674809784816855,-0.709515268744416,0.39016329491635204,-0.03117634449845289,0.46054879317168873,-0.08606483931800285,-0.31124349077266855,0.1342779628723229,-0.6319534911867716,-0.3442523474603838,-0.08093462045138505,0.4836457702432131,0.00864124461403485,-0.2681251243623072,-0.020306728222898085
145.0,6.943738222122192,1.994100927573708,0.027266182551913706,1.0920787020344727,0.022773100773506166,-0.034040797119915915,-1.618588827088451,-0.4010674320061707,0.14664386323625866,0.18620332219193253,0.7608937333204957,-0.08488209522173593,0.06634842202963807,-0.17263994966043272,0.004861385352868735,-0.29905076010905435,0.3951668599287189,-0.24535658232545582,-0.09489972352679864,-0.07145438819393593,0.027139957503548185,0.1398953221371648,-0.6991842456767612,0.3956437080851338,-0.029751566450568805,0.465691871549757,-0.08666643865514821,-0.3135738348061008,0.132370831581946,-0.6260944276382218,-0.3488164408486258,-0.08007238881310803,0.48396992404472894,0.017800127982860518,-0.27344820486498145,-0.013222559955135238
147.0,6.981019973754883,1.9921708532856082,0.02787092250251374,1.091874957654844,0.02254267076870496,-0.03478642600079282,-1.6204162069111934,-0.43283562800969444,0.15600207662548182,0.1933272660736552,0.8086530411378208,-0.0815117179945572,0.08104299325208655,-0.1745042941733983,0.006531799352240742,-0.29765092637528956,0.3979414683094701,-0.2449338327439834,-0.09592360685576955,-0.06999721663106193,0.02641119800844608,0.14198108229131662,-0.6887023902147378,0.39963808218233576,-0.028516196920332755,0.46968962188708263,-0.08931632972989384,-0.3155180075209997,0.1302633304250873,-0.6204628107821247,-0.35302945420776494,-0.07760262860282698,0.48445512479596914,0.02580290909194862,-0.2785154790075726,-0.007582344266583661
150.0,7.0543212890625,1.9903678921781607,0.028536713623639694,1.0915738491828528,0.021364859920665613,-0.035615377013926364,-1.6226572827248542,-0.46748249606032294,0.16692520675472994,0.20320223137149224,0.8619663593076068,-0.08218443896163478,0.09740898081754193,-0.176570061624752,0.0076516584315440336,-0.2961265014645881,0.4031621139920662,-0.24553104633818348,-0.09680290555065132,-0.06818239307969648,0.02509854543769529,0.14483985457859755,-0.6735326380432483,0.40335840650961635,-0.026667465564934045,0.47279748298890434,-0.09720770334717921,-0.31804525437116415,0.12670921493441162,-0.612353578766001,-0.3580239652875582,-0.07275324323995914,0.4845968598843141,0.03464865346510888,-0.28451485582490277,-0.0020947044890572424
152.0,7.136549711227417,1.9886265522282554,0.02924545509602462,1.0911509645175876,0.01905033305281776,-0.03665946374116722,-1.6253131204567879,-0.5053108896294622,0.1793481057236678,0.2151625493250855,0.9214586961942661,-0.08457391985183774,0.11622016293235911,-0.17882094437911705,0.008091190164938188,-0.2943161273402296,0.4113604840640166,-0.24730590651362092,-0.09763981145920746,-0.06571749961510051,0.023161679828286243,0.14864123438019744,-0.6529430320941972,0.40724558441906006,-0.024725312421380555,0.47500771927614993,-0.10971532292573462,-0.3214735676318792,0.12172195285787882,-0.6014411995084222,-0.36375389859272755,-0.06565676507296792,0.48459011216065795,0.04600293010966815,-0.29091713581373124,0.003812318446187144
154.0,7.214737415313721,1.9866655639854545,0.03019501721249452,1.0905081231887985,0.013794820905929674,-0.03851405283040027,-1.629254508036624,-0.5531230747817644,0.1935672603829394,0.22917303972879016,0.9983110120214151,-0.08647362203644283,0.1418623745823488,-0.1806583841140625,0.0073566123406715285,-0.2918483452811998,0.42497251902842226,-0.250531556721289,-0.09821623928851221,-0.06154969200179927,0.01939303778157799,0.15511012968755983,-0.6202338920817132,0.4128884636061384,-0.02280668619471897,0.47630731668881066,-0.1280003259904737,-0.32607059817813944,0.11482161007707478,-0.5842875571732346,-0.3712791633013609,-0.054391639190231655,0.48374543250567137,0.062315929262996055,-0.2994756581081135,0.012146487576379272
156.0,7.27677845954895,1.9848632395203016,0.031146992521549753,1.0896395142568513,0.007480236904447027,-0.040274551111225666,-1.6336448690848144,-0.6024276127687112,0.20797223222521483,0.2430576767848086,1.0779028138862852,-0.0881139576512995,0.17015034977865265,-0.1828367475557031,0.006044483873820424,-0.28946573621673044,0.4419416497655695,-0.2556245947455954,-0.09871571285231703,-0.0565195234109103,0.015306694202012562,0.1614608786586303,-0.5827486436770933,0.41852508344016565,-0.021518466635673666,0.4762082473824569,-0.14826710086843325,-0.3308632563844986,0.10800077051258286,-0.5646743976726465,-0.3804401236338274,-0.04016316243770198,0.48269358202618085,0.07882132482646403,-0.30874044178121685,0.020579954250097225
158.0,7.3598103523254395,1.9832812471208934,0.03206084608188635,1.0885238432836923,0.000300815651841316,-0.04172932408168367,-1.638532958681266,-0.6517402580236299,0.22077423904106408,0.2539124702731596,1.1568521972920929,-0.08843809347976445,0.19767025495623416,-0.1854191067496322,0.0045572025845067215,-0.2870095568651416,0.4617111165959828,-0.26239104460533097,-0.09877047790689363,-0.05048301276871247,0.011072942139105832,0.16733285584890867,-0.5420465857953527,0.4243277014250787,-0.02063145926116445,0.47477086738085567,-0.1691177886334786,-0.33664502198686175,0.10177754480335253,-0.5433945549057666,-0.39125364233813775,-0.023237418706616192,0.4821920971960547,0.09368393983397563,-0.31851119105484127,0.02849829609398958
160.0,7.419030427932739,1.9819369827108972,0.032952503319213476,1.0872256302485437,-0.0076544230508332756,-0.04311301528961173,-1.6432725545539024,-0.7006729697094353,0.2313486336673759,0.26244366521986656,1.2334001301473494,-0.08704845600414157,0.2236231134445013,-0.18818011070332483,0.0025530340203005074,-0.2844065705955095,0.4837384283166257,-0.27077586426213746,-0.0987906585147493,-0.04388038975089599,0.006573478910327113,0.17263570245233884,-0.49852214354388025,0.4307929181327914,-0.020201756943712554,0.4722705777440987,-0.1885460972398096,-0.3440759170418537,0.09503202276007469,-0.5205345258477992,-0.40455417418707323,-0.003953972385431894,0.4825533415985662,0.10415832061518619,-0.3293527814229441,0.03501497105159951
163.0,7.486455202102661,1.9806790708786521,0.03384023196305558,1.085767605984872,-0.01693520715414995,-0.0441464128993886,-1.6485920048864515,-0.7484470982925413,0.2389991586634374,0.2671352000637809,1.306523073217127,-0.08340992148346144,0.24332176082884344,-0.18993368562668914,0.000539949872739612,-0.28217036586263594,0.506939122718338,-0.2800824846149731,-0.0994379361765839,-0.0362786323604718,0.0018540617634127806,0.17747300217095605,-0.45286557755087875,0.4381796468969327,-0.01978772962104746,0.46945882262065264,-0.20387594882550142,-0.3527448770739726,0.08839999282934821,-0.4959017312745011,-0.41890909017437633,0.016687610354518302,0.48366847760490295,0.11168225057641153,-0.3388233657132007,0.040572602532637406
164.0,7.566582202911377,1.9792463410623626,0.03467669904755799,1.0841648356948808,-0.02776618562438348,-0.04510109931964641,-1.6547263984904705,-0.7970907228402009,0.24324129360661106,0.2676347404916271,1.3784495195233788,-0.07838334066032879,0.2540388965320073,-0.19023489050533382,-0.0010463064411291017,-0.2791701055534906,0.5308764776010486,-0.29044136123417447,-0.10070783376957962,-0.02723386177511606,-0.003589612536140053,0.18173646937192475,-0.40320319416337785,0.446645547711396,-0.01881708345407717,0.4667560513301608,-0.21413923878749408,-0.3619741802226837,0.08344199546889011,-0.46898576051403623,-0.43265766061189126,0.03811168942007942,0.4855583482950796,0.1211419892626239,-0.34669459316369317,0.045362017846025365
166.0,7.614853382110596,1.9777087525617494,0.03554957735835436,1.0824900178291055,-0.03969049003364075,-0.045807914879486177,-1.6614323837754479,-0.846898880305949,0.244920561282172,0.2649116891206436,1.4485230811731116,-0.07056934350257994,0.2592356097399435,-0.18928034485287565,-0.002118224698669419,-0.27577684072599407,0.5546515182938057,-0.30093039211483086,-0.1026207484698739,-0.016746926657030637,-0.00907365290509073,0.18521667922465795,-0.3508939558527872,0.4547773130732846,-0.01711839500431233,0.46476871738816644,-0.22206733196746958,-0.3701582780535989,0.08162556640630035,-0.4391938367732313,-0.4463741082982706,0.05975183569647311,0.48836253130498614,0.1326613369369174,-0.3540811781095321,0.049487858875940746
168.0,7.669696092605591,1.976215126589159,0.03642741161916374,1.080816101623414,-0.05230127538079654,-0.04647117910497899,-1.6679906574532057,-0.8978486583614824,0.24483604339345905,0.26099594535516757,1.516026316160831,-0.06157194994060598,0.26089720027988766,-0.1873141257380077,-0.0032531150437146365,-0.27257679401954443,0.5778568616406918,-0.31111421820185026,-0.10471956775366639,-0.005764697218737369,-0.014378896964449215,0.18691523311541763,-0.29656008661452443,0.46161925345491106,-0.01444947702153947,0.46411979234303435,-0.2314422013481402,-0.37571588585440674,0.08151951119315873,-0.40644711908248243,-0.4601676552898919,0.08135586691971798,0.4923346477693109,0.1458399053024189,-0.36083354238404164,0.052814136676701144
170.0,7.749075174331665,1.9747288190747232,0.037384419508921886,1.0792068294137693,-0.06581653869124661,-0.04674836625604206,-1.6744853237362798,-0.9490009553001619,0.2442028907766069,0.25666468814329824,1.5800419908648748,-0.05195955722025863,0.26126631792548494,-0.18377648309998618,-0.004276207954624432,-0.27005818641384594,0.5996277746094999,-0.32071766140640945,-0.10724927201734431,0.0056978623408495445,-0.01908436939927028,0.18677969085663693,-0.24120901129670153,0.4669131392778866,-0.010933391274253633,0.4650809950812381,-0.24686882680351735,-0.37836019433253365,0.07974667110419133,-0.37069053137294,-0.47405591887012866,0.10286127104072877,0.49765646283672527,0.15796647717795978,-0.3676598052486568,0.05477337253197043
172.0,7.8081512451171875,1.973250267790358,0.03846437070718384,1.077717014302222,-0.07958999627362227,-0.0464850122464852,-1.68064446194128,-1.0010783931188048,0.24398829155308,0.2524350191118184,1.6404962860976555,-0.0401511868905093,0.261520376548955,-0.17913418963525468,-0.004690554776826901,-0.26816969734518015,0.6193158804533763,-0.32901748929129404,-0.1098849259824034,0.017151849094211018,-0.02296226097307561,0.1839246041110934,-0.18512115255049327,0.4706604824951025,-0.006270591752959643,0.46799941578312754,-0.2716904817708449,-0.37801392424565594,0.07429138049683337,-0.3317943582120658,-0.4874376401822214,0.12447418245486569,0.5047498571830893,0.1691502859692311,-0.37428769501562476,0.055557301372893435
175.0,7.879073619842529,1.9717942454445012,0.039626441283718256,1.07639577227936,-0.09351241894003239,-0.04601574016832358,-1.68599348843919,-1.0533606563377262,0.24407091843270362,0.248976896452625,1.6961814537910134,-0.027234876228709,0.261612579284208,-0.17303822889078452,-0.004818652920969294,-0.2668093380690557,0.6361515807748954,-0.33595394560364966,-0.11264978471345974,0.027655862815124485,-0.026071934477274777,0.17752980155608522,-0.12832199133691885,0.47335843092710334,-0.0013094339450867654,0.4737749434534717,-0.30323221313363363,-0.37445276045710685,0.06557146812034226,-0.289997364206342,-0.49908758638533146,0.14562641462183812,0.5133828155077936,0.18156734459830542,-0.3787208409391578,0.05520154678491869
177.0,7.9696784019470215,1.9702297996698044,0.040879216854788805,1.075313815045189,-0.1071922964978243,-0.04554681065576863,-1.6908801251372116,-1.106133278931621,0.24444305231524993,0.24579051169779198,1.7465455839094601,-0.013201973524235825,0.26165556176655114,-0.16586664520943628,-0.00458467859923729,-0.2657236332001517,0.6496901834211699,-0.3411351127697867,-0.11532574760386276,0.03758058697965504,-0.02877158296782727,0.1671330407320482,-0.07112990228021698,0.4742850333536049,0.004741226165431548,0.4829686378120233,-0.33649898255632865,-0.36779359333186545,0.05696904706863282,-0.24551156286591932,-0.5080876584813173,0.1661057898005051,0.5234187804447634,0.19706186474572118,-0.379920105455667,0.0543670757432468
179.0,8.056315660476685,1.9684629790197414,0.04266763714714546,1.0746969596026656,-0.12338530237787523,-0.04569402290539562,-1.695669984898415,-1.1664669510994254,0.24452232736565158,0.24376503775845443,1.795295970241242,0.004773455019836264,0.2616801095609822,-0.1549961848394669,-0.0046228979731973855,-0.2640242621154819,0.659243869379849,-0.34390316730049353,-0.1183615144890472,0.04753485654327552,-0.031064853229524382,0.15003487430840456,-0.00432052281239333,0.47213187499856757,0.012474721166760495,0.49825419923162423,-0.3738939957903924,-0.356244654222265,0.05156621951094266,-0.18900231656030958,-0.5144146712217929,0.18644541302821926,0.5377574891580555,0.21724527367079444,-0.37783211785478477,0.054544768466924756
181.0,8.11702275276184,1.9669078715549726,0.0444843642733125,1.0747302930388192,-0.13760473146327018,-0.046239426576769764,-1.699357474560181,-1.223457194413915,0.2430734319938206,0.24252123793529307,1.8338834523142435,0.02366221149410675,0.2616931812180681,-0.14368036566937065,-0.0049431425300966,-0.26284115125864427,0.6629337850201742,-0.3437220399125771,-0.1209000061755505,0.05536734400656187,-0.03242916105964987,0.12930181029489846,0.059679962312710444,0.46879507796471465,0.02055224807536791,0.5138903873446073,-0.4038332391827969,-0.34326317260396244,0.04696888208060675,-0.13299537452401747,-0.5181898619572601,0.20471215313639424,0.5529752857080009,0.23540409168276266,-0.37438673512212883,0.05306511271803424
184.0,8.186193227767944,1.965494661756028,0.04615509178249148,1.0754319566432944,-0.15002795484661136,-0.04704267944389653,-1.7025566831145997,-1.275918513865168,0.2402415588449726,0.24128229229840178,1.8626513032873273,0.04296520936843891,0.2616984185777304,-0.1314036428621474,-0.005252492059424211,-0.26186496013749916,0.6602361926057227,-0.3406313527702852,-0.12266838043769854,0.06143106573065171,-0.03331632978498669,0.10624595034271908,0.12108133896305606,0.46387745651353174,0.030239000550331997,0.5282493955533627,-0.42209835447421074,-0.3329864863693156,0.04139288867215455,-0.07838084709352156,-0.5198289270932788,0.2206445275134235,0.5680973353334218,0.24757948089177784,-0.36933697324146075,0.04974411218839829
185.0,8.273157119750977,1.9642072828746815,0.04824410484653636,1.0773448122193365,-0.16308044271768302,-0.04908252666508847,-1.7049491359206872,-1.3291225581822625,0.23442776125175496,0.24180137513271566,1.8819219681512802,0.06563572074844332,0.26169758015895667,-0.11535513951861569,-0.006453617784990633,-0.26044400999370876,0.6486423308793203,-0.3325666195726943,-0.12341832086033924,0.06528716250974621,-0.03454722164808068,0.08093983076205899,0.1884928728721844,0.4540705008064556,0.04514712418887187,0.5424214423295194,-0.41992107918085764,-0.3268896976687714,0.04306855225857134,-0.017093083896605056,-0.5175001978286504,0.2328012845625542,0.5836501384843853,0.2532784452855181,-0.3624472286969561,0.04375146916947231
187.0,8.32253098487854,1.9633283294318262,0.049674069553352324,1.0793166217355235,-0.17040815880084514,-0.0505963733221408,-1.7059802864435683,-1.370420339082791,0.22792867479060508,0.24134124026668347,1.8918697414799703,0.08377599619452758,0.2616963320943474,-0.10285426728728983,-0.006695050490571674,-0.2596154289847377,0.633844900977963,-0.32339249138610765,-0.12338689786304252,0.06665268486357903,-0.03514130603476123,0.059594666086981066,0.24131188207905513,0.44368797217433054,0.06058009208796082,0.5512402117251476,-0.4097087728533907,-0.3233223723651496,0.04847811326810629,0.030565520698291982,-0.5144865567662973,0.24058663057012059,0.5942224530761817,0.25393909430400713,-0.3568115096637398,0.037719308779928344
188.0,8.37727427482605,1.9626771234278277,0.05114403899819436,1.08179838236509,-0.17673090966380112,-0.052564560985513736,-1.7063880318233937,-1.4076253453338978,0.22040505712224948,0.24180779607320968,1.895044312203663,0.10093524569617547,0.26168635560992826,-0.08966347496631405,-0.007332124150165178,-0.25861414434747276,0.6147340211250868,-0.31140423747992285,-0.12240829213343773,0.06644859656045898,-0.03595935531912222,0.041552779025936654,0.2918204565225263,0.4286905365217064,0.08121129074814398,0.5570393149262961,-0.3973569977288234,-0.3188564136900055,0.06051359271730611,0.0776495960779906,-0.5089751564363367,0.24243443908998746,0.602137081596311,0.2504664742223134,-0.35137196312826785,0.03138723704994292
190.0,8.426026582717896,1.9623222458353244,0.05223341074882791,1.0839880256473686,-0.18032599901594687,-0.05371886193418828,-1.7060373550047596,-1.4362417273538766,0.2133401789489665,0.24163125973278055,1.8945551467378268,0.11438328022217062,0.26168183451464755,-0.0788888432744312,-0.0073393218629647546,-0.2585691520195802,0.5960270170156856,-0.29955802829453954,-0.12104162650824833,0.06519463282177096,-0.03609963545283618,0.02872731367554953,0.33064977689878894,0.41358825526290777,0.10130138408018466,0.5583728703735802,-0.38787263962306906,-0.3134477503864688,0.07245225617590292,0.11457009886491853,-0.5031423905492717,0.24049653499514734,0.6065176740246769,0.2449872047462697,-0.34703981401924033,0.025671221613176073
192.0,8.468456506729126,1.962193491295067,0.05319614843177799,1.0863451714818178,-0.18415779557680684,-0.05529064337518008,-1.7041633324436312,-1.462111269537329,0.2051349012995089,0.24313409014006315,1.890219134244376,0.12622812898556268,0.2616766199580104,-0.06721310674809425,-0.008364236292894414,-0.2590841419056779,0.5764457565341968,-0.28668407395742673,-0.11862451044411088,0.062594562485599,-0.03684051123549691,0.02037396028686371,0.3667586445525135,0.3951077187747154,0.12440698851531419,0.5564822332462169,-0.3851394644241566,-0.3080797849553428,0.08274276985978629,0.15133998891055456,-0.4953908867887711,0.23379109319898994,0.6088153091184958,0.23829800627721043,-0.34302185137751884,0.018735488865900013
193.0,8.546571969985962,1.962213684691538,0.05411919457077505,1.0887060659193837,-0.1891930180957604,-0.057131253016796626,-1.7019919692732546,-1.4863218196230281,0.19691537910787904,0.24604698742813558,1.8835046744807626,0.13586154862467228,0.2616708184634182,-0.0544570227710783,-0.010279373955160563,-0.2602137057931361,0.5573154984404664,-0.27348093497508397,-0.11603833473956493,0.058951462218117284,-0.03804732701084789,0.015883025111552127,0.4019523527605001,0.37513381774889887,0.1476825522600616,0.5525575950833538,-0.3843629266099965,-0.3055853295385666,0.08917313920229208,0.1892972873913792,-0.48380080163741124,0.22216135062106637,0.6092289828368906,0.23342479867974342,-0.3381105800871056,0.009929395246180011
196.0,8.596781253814697,1.962290916698258,0.05468414950773917,1.0904263605829927,-0.19280663859879577,-0.058279785353652226,-1.6996500658244242,-1.5057378614340156,0.1893666782392392,0.24802586959550216,1.8773465432992107,0.14252828664048564,0.26166459820677496,-0.04405936847503776,-0.011577238225619287,-0.26215840291038606,0.5414652127498074,-0.2624806479120479,-0.11407761411145187,0.05507033315317542,-0.03871891195377944,0.01392514808638776,0.42883902249082206,0.3586620526212114,0.1663199509064347,0.5480252940844288,-0.3825807220272853,-0.3048919630438927,0.09208910215881438,0.21923317919257546,-0.47272905481591954,0.21018068479311325,0.6079851761228574,0.22890754862465512,-0.334364208033588,0.0027304209469987757
198.0,8.678577661514282,1.9623849334534391,0.05524201158886837,1.0918662414644587,-0.197671065065956,-0.05966595181197101,-1.6975178379813425,-1.5285801582819278,0.1815335019051898,0.2510288226025342,1.8688906755838988,0.14714195818988954,0.2616542025450919,-0.03370988499045438,-0.01368017907520854,-0.2647946183496921,0.5284449675603229,-0.25249429614419716,-0.1127939039060695,0.049958101846789185,-0.03921346727996719,0.015094074132925607,0.4546542494412008,0.34064046698459444,0.18363391692115144,0.5436356036007088,-0.3757413855925639,-0.3057771403214446,0.09603084097122144,0.25060510219998466,-0.4568871219884927,0.19419613531782545,0.6069908509143427,0.22016489929690997,-0.3313798917289335,-0.0058791743283227935
199.0,8.738542795181274,1.962488005636632,0.05562719379188903,1.092504295223889,-0.201391993313092,-0.06029350703124117,-1.6959612719905601,-1.5495417137557848,0.17516326939731938,0.2533142576743974,1.8606418149630817,0.14909983206731464,0.2616407547099546,-0.026719633875560218,-0.015531886486122935,-0.2686930797900728,0.5207457087705119,-0.24544411789005433,-0.11250003936447485,0.044963764258429115,-0.038690533222439275,0.017649260239983533,0.4714348760452611,0.32620243780279634,0.1960309677527377,0.5403573481976589,-0.3658389541486361,-0.3066713490042073,0.09884743456026326,0.27390118670559327,-0.44102693688760153,0.17901752360395062,0.6061875123570095,0.20927826416882633,-0.3289046822708696,-0.01164239971024176
200.0,8.780057430267334,1.9626026811112691,0.05586568737378134,1.0925740861365385,-0.20375622521757367,-0.0602266667207962,-1.6944298732861804,-1.565903942166334,0.17010294417591107,0.25462553829664364,1.8542878273379508,0.15024543236256147,0.2616277164785684,-0.022786746932560088,-0.01666992917147775,-0.2725411651225656,0.517166695611566,-0.24112649916117337,-0.11276124159291202,0.04071142310869727,-0.03753406710335645,0.020211413734227492,0.47981501731651693,0.3165765729587902,0.20368855962727825,0.5385107962742123,-0.35604198474683324,-0.30748015949632257,0.09899679998083744,0.2885328344894801,-0.427995967438252,0.16656996797689103,0.6055711271078859,0.19950941331649363,-0.3268065848760524,-0.013778324941442927
201.0,8.814263105392456,1.962723413622259,0.055982360745065275,1.092283551238792,-0.20509000546644382,-0.059860941779096774,-1.6932048873514378,-1.5785869102887518,0.16603312977917112,0.25524267883143803,1.8492530253832116,0.15031507977991282,0.2616143842192775,-0.02126870990764998,-0.017412660500450493,-0.27568307917139223,0.5167862655096691,-0.239150847385794,-0.11325749534088422,0.037247388914686756,-0.03609477090158515,0.02225992617536221,0.4821408019010993,0.3103206405319874,0.20800216693579437,0.5380080425434702,-0.34803639447599055,-0.3081912181109832,0.0965389690930481,0.29669303646283474,-0.4176081942590075,0.15668206584066036,0.6051463913427328,0.19174623222374138,-0.32525953627250803,-0.013213124459761975
203.0,8.845847368240356,1.9628338974153894,0.055963463289218786,1.0917218473682506,-0.20559246920536195,-0.05932832378691132,-1.6924040290946394,-1.5876094822833755,0.16316991286465526,0.25531831092858454,1.8457229111810656,0.14973839442132472,0.2616028678473956,-0.021801449077532564,-0.017882168294552036,-0.27798392692435536,0.519170203459778,-0.23919701353010636,-0.11385611637948627,0.03475846841342517,-0.034502443899913256,0.023652571680620186,0.4795901116376892,0.3071810237284006,0.20937684786938748,0.5387311038454263,-0.3425104085234538,-0.30848098902606685,0.09180645415321165,0.2991329602394334,-0.40980605928466163,0.14955866761168682,0.6048727234399821,0.1866920115729131,-0.32438479671753384,-0.010266437252149424
205.0,8.913898229598999,1.962990124870222,0.05575687060130885,1.0907206698172285,-0.2058190274279374,-0.058861590285489,-1.6922403984885042,-1.5967864403244347,0.16080899029982693,0.25530450143888345,1.8421778907862127,0.14750039823473635,0.2615910256159218,-0.024580684787334973,-0.018744699305134824,-0.2795315873429698,0.5257676257685232,-0.24176675153490032,-0.11469299612172022,0.03251304961611,-0.032501413617277965,0.024803637603676168,0.47159160856344373,0.30553249100525454,0.20828667420870942,0.5410407235704895,-0.33819009382951926,-0.3073159705441114,0.08602213413038293,0.2970073251705873,-0.4029576947059157,0.14452001284424784,0.605239829066891,0.1822523005390696,-0.3245716761601516,-0.0053789926901167935
207.0,8.98751425743103,1.9631917517663462,0.055422317181919256,1.0892684284677878,-0.20522517376806376,-0.05853656863515696,-1.6927531169969536,-1.6062466355197813,0.15856712799900644,0.2548418416457348,1.8386025576102176,0.14371287858288448,0.2615822396084363,-0.030115671338126072,-0.020009670297285564,-0.28019088311749,0.536322296843095,-0.24690481047792845,-0.11559168594524999,0.03055871447722361,-0.030142126636659945,0.025501499457716823,0.45844139209306267,0.30516100265285484,0.20481243635427515,0.5437909078622815,-0.33483430418124016,-0.3064986317511209,0.07673775369667428,0.28968379093922364,-0.39818014726523215,0.1416026011708099,0.6061067568410478,0.1746467176016867,-0.32653813427879264,0.0003259610723740703
209.0,9.064458131790161,1.9633271113256114,0.05489634555960201,1.087496538824701,-0.20361719188960337,-0.05808177317007818,-1.6938855084847666,-1.614813367942752,0.15716971534743474,0.2536077540586975,1.8357653059585857,0.1391841158686977,0.2615796746255452,-0.03782551756870154,-0.021008220427352967,-0.28007013663010416,0.5495277724180574,-0.2542322616587865,-0.11665511849265298,0.029153375981832513,-0.027565100444824374,0.025686272302366045,0.440961756046395,0.30627142680999186,0.20045215763156604,0.5462152904279626,-0.33347738984351544,-0.30548988118223774,0.06763475492085205,0.277751631614454,-0.39487697193792315,0.1399043306085468,0.6066927077683792,0.16439692063024225,-0.32944229920164786,0.00584243513042196
211.0,9.10623049736023,1.9634161565359496,0.05421266755386046,1.0855415873634398,-0.2012502802687397,-0.057543383003316656,-1.6954143662166026,-1.6205639274411263,0.15728985097273662,0.251958912272511,1.8336097852759323,0.1335288069871282,0.26158207939883005,-0.04682379132901908,-0.021720741142199435,-0.27942571441917585,0.5643185346257407,-0.26332228333222507,-0.11785862355867086,0.028047824551142297,-0.024793724119135965,0.02562999089674641,0.4205770597927894,0.3088811033028964,0.19500250980646738,0.5468007659474169,-0.33356381884637953,-0.3051783478535378,0.059140513798339525,0.26197206539671225,-0.39211725105096407,0.13844365716865997,0.606246246075,0.15356652034712998,-0.33361262621738424,0.00945682175596336
212.0,9.175731182098389,1.9634147217132014,0.05349520344837543,1.083557350555559,-0.19790497873935706,-0.056876167634520455,-1.6969532371046636,-1.622827741434337,0.15839232982735252,0.24991851456914105,1.831949023375285,0.1283253491093422,0.2615904443082045,-0.056746389937991915,-0.021906933877469024,-0.2787432249371824,0.5792342729893942,-0.2731265464998228,-0.11933788309201146,0.026781523975221103,-0.022163911805152092,0.025108347655717164,0.3993544067201415,0.31295857236443236,0.18892422493537678,0.5452838374455129,-0.3332006109848596,-0.3070741492816427,0.052398457139548035,0.24345849246186838,-0.3888575437864755,0.13607463165062894,0.6045876553918071,0.14624780565555293,-0.3383683081034218,0.011831094301129313
214.0,9.223469972610474,1.963353008485687,0.052836071830697086,1.0819893943662675,-0.19518324709776552,-0.05645662887834545,-1.6982460573091787,-1.622023841734238,0.15995517761902994,0.2483939521392211,1.8309527605445184,0.12425904606057243,0.26159825565989697,-0.065045335848961,-0.0221356240460906,-0.2781424063218729,0.5921265639483375,-0.2819334804111669,-0.12070661216228598,0.02602981844285137,-0.020381470147798522,0.024845550770116652,0.381882450647271,0.31709497566722183,0.18374566731105535,0.5430448894025774,-0.33257659327794586,-0.31012979974864874,0.04832454507352434,0.22775258277241175,-0.38588847481500643,0.13338298909338678,0.6022107372382396,0.14304566002293867,-0.342555710141088,0.014333716762631468
216.0,9.28896450996399,1.9633008924333875,0.05202749189100955,1.080399054264053,-0.19270129232189115,-0.055412155151378595,-1.699642552243402,-1.616964589790817,0.16229684827096996,0.246406036054892,1.8306317268516072,0.12053295839565939,0.2616068424641408,-0.07271040463227865,-0.02163322814824583,-0.2777500167739702,0.6049140324110905,-0.29065407157506146,-0.12227453321300603,0.025546909897306416,-0.018114021063696972,0.02536111972956328,0.3631953507350646,0.3218077282615339,0.178558521885913,0.5391749461197409,-0.33253820126502687,-0.31420939125037994,0.04571980289070024,0.21087373557238687,-0.3825208337027276,0.12973325972312993,0.5979711568817513,0.14189031133029922,-0.3472773349102244,0.01627773928746538
218.0,9.347430944442749,1.963268288541458,0.05098446949817333,1.0788457403733456,-0.18980563241034656,-0.054299386667779434,-1.7004478961968994,-1.6080101261957798,0.16396666980942798,0.24446529663987265,1.830374363057076,0.11751191321999017,0.2616137074235374,-0.08016541106176617,-0.02110040656200423,-0.27795377916207265,0.6173880310613158,-0.29939559343420474,-0.12378092641302976,0.02524272876672111,-0.01600834607164933,0.02642424246258529,0.34248186579910345,0.3266732427792479,0.1740708724082364,0.5334031392592399,-0.33560078537566196,-0.3188522197674982,0.04391575541963598,0.19239457744290153,-0.3799341676810988,0.12584369647376864,0.5915568996512036,0.14277628026207548,-0.35242776402340403,0.018100760535583342
220.0,9.411752462387085,1.963248773642027,0.04973079872083443,1.0773665965990586,-0.18627199635051947,-0.053154597651746946,-1.7004183896697282,-1.5955432686184792,0.16565024796537364,0.24308871961676487,1.8298097179258317,0.11472575987868605,0.2616200246890613,-0.08767575559756872,-0.020597318046652963,-0.2788046988824499,0.6294198914281036,-0.3078898922697769,-0.12519169549791434,0.025164944881863768,-0.014249257314307031,0.028209692730032692,0.3194533202126828,0.33190116410825565,0.1699436110752257,0.5260474182959274,-0.3452371412314602,-0.3231347268941975,0.04015164207165908,0.17213044313124934,-0.3785753406920753,0.12256634211304368,0.5831204199535264,0.1442634700020276,-0.3577832214565248,0.01816218669186312
222.0,9.487510204315186,1.963209991616644,0.04840458645010513,1.0759265381657248,-0.18253372896927378,-0.051918547455039835,-1.699188171175386,-1.5792349613956356,0.16686591961224412,0.2420557733350282,1.8284841452221685,0.11179440081420997,0.26162635711310656,-0.09508509302174499,-0.02024002572066036,-0.28065784309395836,0.6414883271472083,-0.31606016823907274,-0.12645859983347163,0.02456123700943884,-0.012451737593388568,0.03186014976037949,0.29371181894940224,0.3377801810899337,0.16545090482890357,0.5160468143664267,-0.35693255226958215,-0.32696243559848936,0.03825375799572558,0.1491792355168565,-0.3779264539083883,0.12025828688227705,0.5724300410710647,0.14720804828689188,-0.36476981464199676,0.017620052725228826
224.0,9.550271987915039,1.9630346078882335,0.04710288982464256,1.0745498981642618,-0.17776771878980585,-0.050564084072082335,-1.6974180012457016,-1.5606521591903353,0.16800118565333177,0.240700987031899,1.8262431588245036,0.10780282250153,0.26163339134869074,-0.10310466797641343,-0.019499981830858555,-0.28310207233720325,0.652482568713062,-0.32348339567822004,-0.12772454830586905,0.02413775482235965,-0.01096009909442245,0.03602281115333206,0.2669497073127302,0.34332594677879746,0.1623082117062793,0.5038011733019856,-0.3701063320729909,-0.3310813628470797,0.039063519320118256,0.12463747855303785,-0.37802739606152075,0.1190616449802788,0.5601688323695098,0.14976662896460513,-0.3724303773529988,0.01676337248476769
227.0,9.629967451095581,1.962745756341178,0.04576039277952111,1.0732944758528817,-0.1723368214100467,-0.04879763035536559,-1.6954231063315623,-1.5399910648614221,0.17008510350387213,0.23904775670351297,1.8231728160106764,0.10283122087942112,0.26163032864282454,-0.11113307173767523,-0.018027478768065854,-0.28606213000739467,0.6619984508136134,-0.33004788777683813,-0.12879659817872743,0.023407764025599437,-0.009233415972898413,0.040980450637100554,0.23908356454189006,0.349694309964489,0.15921424227083597,0.48878691969393395,-0.3840260123617548,-0.3361003763031059,0.040891655388053616,0.09865732648388853,-0.37699737641705205,0.11864931313920848,0.5462746807263964,0.15353027627776483,-0.38054122755082614,0.013894904226474016
229.0,9.719358921051025,1.9622799793242263,0.044000149119994725,1.0719423732379854,-0.1644755560471638,-0.045994460896901464,-1.692393960308955,-1.513516657969959,0.17311018780441212,0.23552355294777355,1.8185435648620722,0.09492851951901371,0.2616272046213168,-0.12019771453784403,-0.014898727703806538,-0.29031955826137656,0.6696449517702016,-0.33650096711362454,-0.13024489330955924,0.02175753484767381,-0.006843270638787703,0.04730263245634753,0.20384076900056677,0.3588828563496608,0.15495762649034978,0.46670029285384684,-0.3997551854240814,-0.3428210568283656,0.04473853399921008,0.0657278611397016,-0.37631907646758844,0.11841095081720292,0.5275999344860302,0.15470733219072713,-0.39098481017330755,0.008652710704023767
231.0,9.792695045471191,1.9618019663021442,0.042308496819173154,1.0708510891163854,-0.15625208773525734,-0.04300274422418393,-1.688776358206406,-1.4866351811179417,0.17646295576211582,0.23154743089877275,1.8127891152609428,0.08562286204301528,0.26162679752568085,-0.1284933442454031,-0.01137711433108824,-0.29499475757420895,0.6747941084077076,-0.3418983769367534,-0.13161367037434682,0.019882028516838124,-0.004756779635867199,0.05528787093980026,0.16747370386940308,0.3692956737652633,0.15070816316707797,0.44220820395667787,-0.41551506859121345,-0.35023359745665494,0.04721343369843352,0.03183207263603909,-0.37662940703171266,0.11760265167640714,0.5072251686638389,0.1524435526176906,-0.40139149755174885,0.0017855780739021686
233.0,9.858362913131714,1.961217832466784,0.04058735943505623,1.0700316966869174,-0.14805972735254724,-0.039964990949075394,-1.6844973035688806,-1.4590605449486653,0.18074569178944305,0.22762203219070526,1.8058574516767356,0.07473660559684811,0.2616303175123915,-0.13523624008942717,-0.007488979434609185,-0.3000170069151672,0.6770141168616715,-0.34633623797655533,-0.1329264482766142,0.017556344236832635,-0.0030238213438784824,0.06449210972206873,0.13065737708908043,0.3811221353062609,0.1463759066692969,0.4161494116946435,-0.4296230674757784,-0.3575546168963005,0.049181884114251145,-0.0023675368951439346,-0.3779888611540637,0.11518709911844396,0.4856794144536102,0.14883566168762158,-0.41145997425759495,-0.0039129594046239885
235.0,9.915306806564331,1.9606168043610401,0.03890927750852799,1.069512183479607,-0.1400013375376493,-0.037172955654323214,-1.679531578018156,-1.4310674591479597,0.18475585205926678,0.22370028872352865,1.797502874855795,0.06351035789574216,0.26163576801301075,-0.14059047590158863,-0.0038102682524741535,-0.3054039765740215,0.6766076204235956,-0.3496496288870936,-0.13399324656878672,0.014631133789930039,-0.001696584848063596,0.07484963617241222,0.09338386918550062,0.3941100539170711,0.1427411060965469,0.38962280948435724,-0.43968948853137174,-0.3647117183975114,0.05234482285350285,-0.03678546315240097,-0.38008793269514884,0.11042961784235447,0.4632243576167854,0.14318052394118364,-0.4215304585219884,-0.008155998785945962
236.0,9.985459089279175,1.96008312140692,0.037367467219711514,1.0693459233405702,-0.1324162300757682,-0.03476284830580745,-1.6736664337278175,-1.4027965272230822,0.18815953660306226,0.22014863879510688,1.787355233639766,0.052602848335674544,0.26163843088082755,-0.14438021004248824,-0.0007286399305781017,-0.31114260519438464,0.6738271116218575,-0.35159284006144187,-0.13454388941518863,0.01087576298968138,-0.0010382454810036366,0.08617198241580745,0.05534460661995713,0.40674744742543023,0.14031621462659588,0.3638145359159537,-0.4463111119822405,-0.3715522753258968,0.057444812077813094,-0.07036141678517398,-0.3820523267824403,0.10380854965406441,0.43996467162828323,0.13761576967546602,-0.43010879685645964,-0.01262901701700874
238.0,10.028996706008911,1.9596336969005517,0.03614686502442602,1.0694063860302911,-0.12701708747486856,-0.032952426670850736,-1.6684917199011682,-1.3786061114066583,0.19043753844485964,0.21718125239450722,1.778141252465454,0.04370479589591832,0.26163827325180894,-0.14584009348415977,0.0015743399635618932,-0.3160686675962049,0.6698671193358843,-0.35241798366570715,-0.13478264310653254,0.007333398471368823,-0.0008648792858462955,0.09673853049411157,0.023601836165260792,0.41763154710317624,0.13826248179847164,0.34272402800913426,-0.45060084489007346,-0.3767729356420287,0.06338302182471517,-0.09744294262671313,-0.383464508294134,0.09701672440429004,0.41990913628731463,0.13308816531895099,-0.4354055155476595,-0.016913357548942458
240.0,10.093916893005371,1.9591554019001722,0.03470109698969453,1.0697291095532313,-0.12098433613523507,-0.031205717582385283,-1.6624913328046056,-1.352793441768659,0.1924701516684894,0.21370324077263908,1.7673956568085116,0.0345651785682605,0.26163237312745957,-0.1464319107656163,0.003941321745899542,-0.3213306836243313,0.6632717269582638,-0.35223654992652864,-0.13458829931756647,0.0031061711829448806,-0.000597883662881761,0.10695263065111171,-0.0112782331342502,0.4289602319575082,0.1366302986085502,0.32187064907406493,-0.4541167547604078,-0.3813032188664365,0.07064652186890727,-0.12599232362462515,-0.38469489327517115,0.08832610515821196,0.398822948061734,0.1287968503284203,-0.4406186573849189,-0.02197114123599127
242.0,10.163226127624512,1.9586527982820576,0.03306860182422396,1.0703361981899233,-0.11362421193834689,-0.029466196187577204,-1.6560396744801045,-1.3257431656480458,0.1947240968773537,0.20968073412897292,1.7547691163721097,0.02526900360504589,0.2616279499758124,-0.1470068080118968,0.0066638174793858355,-0.32676828081956655,0.6537128884574213,-0.3507313545906027,-0.13422744320898022,-0.0017902776476349286,-9.539776612801297e-05,0.11575612657555139,-0.04927521630321628,0.44080723488292606,0.1353082697736216,0.3016745672081861,-0.45761204705708614,-0.38469026855031185,0.07799122047985416,-0.15622162009366722,-0.38647822526221953,0.07819806201101853,0.37749632933920607,0.12273628298682651,-0.4457994037046519,-0.026542090071352456
