ccrpRepo/mocap_retarget/src/mocap/src/data/output.csv
frame,timestamp,posX,posY,posZ,roll,pitch,yaw,left_hip_pitch_joint,left_hip_roll_joint,left_hip_yaw_joint,left_knee_joint,left_ankle_pitch_joint,left_ankle_roll_joint,right_hip_pitch_joint,right_hip_roll_joint,right_hip_yaw_joint,right_knee_joint,right_ankle_pitch_joint,right_ankle_roll_joint,waist_yaw_joint,waist_roll_joint,waist_pitch_joint,left_shoulder_pitch_joint,left_shoulder_roll_joint,left_shoulder_yaw_joint,left_elbow_joint,left_wrist_roll_joint,left_wrist_pitch_joint,left_wrist_yaw_joint,right_shoulder_pitch_joint,right_shoulder_roll_joint,right_shoulder_yaw_joint,right_elbow_joint,right_wrist_roll_joint,right_wrist_pitch_joint,right_wrist_yaw_joint
3.0,5.384663820266724,-0.1033382444824758,0.5154915428167354,1.0170672410435369,-0.00027477121553996407,-0.00621375248880757,-1.6870622108683109,-0.27266064619281283,-0.11870451809421692,0.048068457664001384,0.925576831801411,-0.5708561803647583,0.12597325593110628,-0.3371757418565394,0.27728076211398556,0.14876436340045104,0.8747716437818785,-0.04267879192783653,-0.04257529712082232,-0.026125503351075482,0.09237711719136601,-0.07394064680143755,-0.17100139659233782,-0.02760633499689002,-0.07059818256412516,0.9401837026691122,0.17659278020025032,0.7648003865416368,0.26776527195469196,0.019689099461728508,-0.08602484208221214,0.08127059745686957,0.9049546178558474,-0.31738108995876246,-0.27414014105338413,-0.6080516459671425
6.0,5.40797758102417,-0.1047860727823705,0.5148171173657428,1.016940263728767,-0.0007729848040120565,-0.006003681291420817,-1.6845179633742862,-0.27171814048681153,-0.11843892746287299,0.04523366072802015,0.9260285332414395,-0.5713340153091231,0.1248250576194036,-0.3355110482694247,0.2770229722899029,0.14583760337421486,0.8733466150547833,-0.042826049511005534,-0.04387544836360483,-0.028220891629239433,0.09181710679173435,-0.07525149891348797,-0.1677994681040128,-0.02412540631586342,-0.07167066563652434,0.9387511646876581,0.17733760486991915,0.7646197628022477,0.2648194496082985,0.022831051428945426,-0.08265228460716559,0.08291907353164799,0.9041332950258945,-0.3186821796285414,-0.2735807882490585,-0.6107830108184619
7.0,5.431631088256836,-0.10801063174202011,0.5125380160029702,1.0159733408796554,-0.00047170098850802275,-0.006889084366261054,-1.6767582606915452,-0.28490199096207325,-0.110739695429344,0.052716989506691556,0.9514359059955321,-0.5540019963120866,0.1239964444847877,-0.33398398885317404,0.2774388182168113,0.1414236156564107,0.875280036221701,-0.043489205902954756,-0.042108700324758885,-0.02803897260839021,0.0965001705693111,-0.07153324493868457,-0.1689910437169177,-0.026634626795375083,-0.07824052465547417,0.9392875240026022,0.1809137779855274,0.7656859575224995,0.26201531647665544,0.02064052797556213,-0.074104908137864,0.08468685220551964,0.9054362864350299,-0.3213568382059797,-0.2772824155628065,-0.623536963004398
9.0,5.4436540603637695,-0.1110594604430946,0.5105835631478213,1.0151679645999088,-0.0003859846982287913,-0.00706550453830329,-1.6696134353699614,-0.295240779536993,-0.10431478267259174,0.05701276949241865,0.9720409815321193,-0.5409973606802557,0.12277603533849565,-0.3323155685018646,0.2778857173818263,0.13631888476815376,0.8760678652508169,-0.044008181516443784,-0.041352905592162564,-0.028873596114608376,0.1001958355405986,-0.06918766124840603,-0.16873037646573058,-0.027082710499524418,-0.08389364935912952,0.9389431570059403,0.18406887608629507,0.7665918645459202,0.25843323324584544,0.01994330179336714,-0.06628348533967167,0.08667551204532407,0.9067837769454536,-0.32402937612776084,-0.2803395771090672,-0.635010147734808
10.0,5.456998825073242,-0.11446319832691988,0.5085763291363627,1.0145150874181135,-0.001323889393197073,-0.006817449765698284,-1.6625449468562046,-0.30120408936414356,-0.0994907709152173,0.05734307479193383,0.9871387837692441,-0.532650354475327,0.12075117908667946,-0.3291339599832013,0.2780988732232764,0.12995796640808188,0.875318850685951,-0.04456913157209824,-0.04216676880769894,-0.03129272876600722,0.10233671321757555,-0.06811265960069807,-0.16554332728231103,-0.024042185684097078,-0.08892300823226944,0.9371196233960417,0.1870007290287523,0.766975433652683,0.2529498461132428,0.022013327689510434,-0.057876471295504675,0.08963099544660344,0.9078173822131858,-0.32725524342350254,-0.28243755690972544,-0.6461208118242807
12.0,5.470412969589233,-0.11740998183207835,0.5062024007680457,1.0136059102384503,-0.0014037310988524294,-0.008818838973614075,-1.6543754409989266,-0.32540191710621275,-0.08416616791805423,0.07531203053140409,1.0294667057804714,-0.5088451037318145,0.12615515082953274,-0.32683509306043645,0.28138370700724835,0.13091790155812452,0.878295010019023,-0.04969130139393519,-0.038463785649820004,-0.027093992956848355,0.10694735093751802,-0.0594663249137974,-0.17208003547602316,-0.031041314565085576,-0.09198616523614367,0.9377029146413486,0.18903408730377003,0.7678282336224374,0.2567805051067569,0.011107332272402784,-0.05556762720304634,0.09495021885516994,0.9095235645128438,-0.333916718564002,-0.2883425674254366,-0.6532385821502432
14.0,5.485246658325195,-0.12050836099580489,0.5037005266481767,1.0129538572347156,-0.002087461306901424,-0.010622857860192595,-1.647314853549788,-0.3496237787661913,-0.06816398807761392,0.09275559394608068,1.0702730067210593,-0.4906532607668276,0.13304987313190814,-0.32330288593747547,0.285149182208938,0.1324708894539172,0.8799353723377352,-0.05526419424473844,-0.03534956095312518,-0.022360020706832538,0.11006371206565477,-0.05176396992488087,-0.17708606821330353,-0.03717188379879469,-0.09266223270186941,0.938242921064973,0.18938118841432877,0.7680623394103939,0.2605492141616671,0.00018996355779225815,-0.05722960912227086,0.10360908727660262,0.9107714918353356,-0.34394678805141354,-0.29436589371649524,-0.6562603415166237
15.0,5.498135566711426,-0.12368683150579567,0.5010455202443462,1.0125352447203886,-0.003078258265774605,-0.011251405470874413,-1.6417542360384394,-0.3657888670468369,-0.05564387673964681,0.10379957793515093,1.099855283706595,-0.4787437830928484,0.1371957611900826,-0.3189260986136867,0.2886347488587866,0.13237291438297263,0.879529161600602,-0.05928807765165042,-0.034045987522418275,-0.019595417348141866,0.11249330726186854,-0.04727535007443416,-0.17721250040012254,-0.03940744006048187,-0.09367257398706821,0.937966450167576,0.1900270916273561,0.7670980128951904,0.26176506812378175,-0.004857294327527476,-0.05653361393727813,0.11142968453684549,0.9123230787344083,-0.35235680256333923,-0.2994706767964401,-0.6607610443666965
16.0,5.509823322296143,-0.12620754369796722,0.4988747866645263,1.0123517730819007,-0.003839478039790463,-0.011014195063986577,-1.638222069507841,-0.37471301713714394,-0.047299941286807146,0.10928379868005425,1.1176498973184779,-0.472762664621604,0.1391567052173452,-0.3151310860212984,0.29136138106569087,0.13144187190558188,0.877944566513071,-0.06159128097343828,-0.03396701016367062,-0.018430742131781436,0.1142187302859811,-0.04550100384227175,-0.17456646515547805,-0.03924310052419247,-0.09460918549872416,0.9371108099214109,0.19065964577286476,0.7656266971183412,0.2614126561836383,-0.0058969488234395205,-0.055016128390266456,0.11737793987107309,0.913978721105271,-0.3583045539817129,-0.3033616924615809,-0.6652496014870658
18.0,5.522297143936157,-0.12827307484021444,0.4970759556136115,1.0124082399052317,-0.004521885432244136,-0.010215047512483512,-1.6361689087261544,-0.3758516984974261,-0.043722419038820584,0.1086153896156138,1.1230143338119665,-0.4726992341311853,0.138619146578967,-0.311563554671627,0.29284627199143404,0.12918845242608307,0.8750223491701332,-0.06219450621118917,-0.03538095456214604,-0.019305059254822406,0.11481915502275464,-0.04656455141474417,-0.16853691900144135,-0.036037302904323595,-0.09576910484730683,0.9352768092335708,0.19144328524994975,0.7635699713322319,0.25881071506116615,-0.0023119461888698495,-0.05208050352430611,0.1216396983646102,0.9154458188326338,-0.36196953280816246,-0.3058387954734769,-0.670207182327295
20.0,5.537947416305542,-0.13098272853540496,0.49395340726314724,1.0125563912772226,-0.004213814157308902,-0.013750463220344794,-1.6308762916546058,-0.4034083378685891,-0.03120301459525409,0.12534954105891793,1.1513641411541393,-0.4669801301383081,0.14872421042700634,-0.3067364442305443,0.29473620295208114,0.13254371238546178,0.8744207694186423,-0.0696892814340281,-0.03405167061084461,-0.013234021802072126,0.11577768619069663,-0.04451773903629304,-0.17122386879755608,-0.04200589540815655,-0.09218399997475028,0.9361483001900961,0.18783707827171192,0.7660281337041319,0.2604660190623909,-0.014324074850052214,-0.06264847010960306,0.13401615143421428,0.9135548294198534,-0.37567318223651336,-0.3166470678519332,-0.6652337409355342
22.0,5.552973508834839,-0.1338399584675869,0.4904712551111149,1.0127361209216745,-0.0036568642320712473,-0.01741750661446204,-1.6261700067420926,-0.42833265455051006,-0.019833624750905908,0.1409324951640492,1.1755511984720308,-0.46214473106993725,0.15799087424564742,-0.30185652333434587,0.2963408648477491,0.13577146217712302,0.8734588624351143,-0.07661599967866578,-0.0331944325932024,-0.007767903943946655,0.11564640341099142,-0.04416781819408261,-0.1713735206664348,-0.046888962452036276,-0.0891399886616729,0.936543795746064,0.1844940093678771,0.7671188826076105,0.26124774393392525,-0.023968195853108755,-0.07262820693318739,0.14645444435855984,0.9117732143851118,-0.3891263948663086,-0.32689630803722525,-0.6605823387931975
23.0,5.566202878952026,-0.13668118527160553,0.48668428787284634,1.0129790527802744,-0.00365031738514977,-0.020115183009314714,-1.623196747485097,-0.44341545776238167,-0.0113497989069789,0.15143187107874118,1.191733650714819,-0.4598077356234294,0.16380191922422188,-0.2961108952167138,0.29782136931597075,0.1380758196151226,0.8712312594115427,-0.08176145459674346,-0.033534979690382855,-0.003907308873836977,0.11511985040537619,-0.04571028095695781,-0.1661340332864653,-0.04830949138793647,-0.0879035183000215,0.9355451967981708,0.18270088357169106,0.7663426753051418,0.2604083034189215,-0.02628097912763004,-0.07765194161226749,0.1571335009850055,0.9106361559489218,-0.39988669531945176,-0.33503610477008405,-0.6598852566651986
25.0,5.578428030014038,-0.13890424364767612,0.48350824311539864,1.013213692862823,-0.003794419477709361,-0.021543962169446068,-1.6218971973411245,-0.4501180780828719,-0.005905966987753525,0.15701637533199686,1.200291801697327,-0.45945330457684364,0.16652656596076248,-0.29109441209424786,0.29912554015742643,0.1394491964399684,0.868519866351519,-0.08479244162706556,-0.03448738270806724,-0.0017356759194773815,0.1146819761174539,-0.04808022772473654,-0.15862618802258172,-0.047595423551302585,-0.08796080665082862,0.9334560927581947,0.182141218856318,0.7647060753416604,0.2588530635488966,-0.02403272680614494,-0.07910290219588037,0.16483307035652134,0.9101379801986107,-0.4069759410466566,-0.34056214658339357,-0.6616501078999013
27.0,5.593482732772827,-0.1416232560270244,0.4793211512405189,1.0133257256588775,-0.003081307630722765,-0.024733643168449657,-1.6199497599662431,-0.47685625577824875,-0.0008852511147572923,0.1703327053004943,1.2053910344523346,-0.4556389434640579,0.17333429147986623,-0.28587998298516343,0.3009316247349536,0.142860114461316,0.8674925852017032,-0.0885016333111428,-0.03371714848107312,0.005215383599586618,0.11384874390940031,-0.04777760053933621,-0.15692872786315515,-0.05416443877268494,-0.08620998539053885,0.9321087088747135,0.17949954667269497,0.762143446154051,0.26096718588860757,-0.03876513672974772,-0.09745905070886884,0.17744802978734153,0.9063056915496978,-0.4206369266577415,-0.35056385196471784,-0.6467966186988185
28.0,5.6069841384887695,-0.14424964795761525,0.4750123201572013,1.0135121627628068,-0.0021794047454274774,-0.027520460694952474,-1.6189938844677516,-0.4996592780501446,0.0015365560490770854,0.18041017448073843,1.2065574340044185,-0.45280672325973587,0.17790295216238702,-0.2806138680315597,0.3026718355439815,0.14622141097664837,0.8655882847704046,-0.0912483715329692,-0.03325882798774121,0.011350115838598025,0.11330761733224745,-0.048151115870393175,-0.15299402342664503,-0.059592938069975426,-0.08525486339727484,0.9305747523193117,0.177466125310844,0.7596439327725999,0.2623491730938267,-0.0499977929474842,-0.11404654528912132,0.18933667780605465,0.9021758202171701,-0.43336446754859137,-0.35969269346719784,-0.6338573699944694
30.0,5.619134902954102,-0.1462680710672863,0.4715361353231107,1.0136983025574478,-0.0011651000862201602,-0.029478746025210896,-1.6188065259313873,-0.5149120440480995,0.0034027500441930402,0.1873797471774526,1.2069279701491893,-0.45113980107420604,0.18080693936450976,-0.27650017335066734,0.3041088592192753,0.14905665214821923,0.8634072930007535,-0.09301912429658012,-0.0331438805702613,0.015746104030011372,0.11294502486993255,-0.049528893174981575,-0.147793767896652,-0.06282868770227178,-0.08486725509059127,0.9286328261510888,0.17621385223858327,0.7572759960804079,0.2630357550034647,-0.055918078886833755,-0.12513082456506613,0.198508383220552,0.8988562707431966,-0.44257766122234815,-0.3663267368529225,-0.6254085333671512
32.0,5.632387399673462,-0.14825903064134183,0.46784387959420537,1.0139978808436054,-0.0002480397513677522,-0.03072344004506821,-1.619742168944963,-0.520927867560679,0.005074117072476302,0.190985637688614,1.205899709302496,-0.45139408031860195,0.18136382552486316,-0.2717038663423761,0.3054929002116798,0.15152680144736927,0.8595724861923872,-0.09383569399924988,-0.03409616163471027,0.018853506315792776,0.11238589885711558,-0.05325436555985755,-0.13736776447293592,-0.06256449810572265,-0.08587146154920614,0.9252339709690025,0.1762630297348205,0.7540149167368055,0.26205182623878426,-0.05298338014977941,-0.1292898770042596,0.20609787709743616,0.8958671227794429,-0.44931013973842115,-0.3708269462577801,-0.6234112485884811
33.0,5.651097774505615,-0.15071428828565522,0.46302837815006614,1.014024845231395,0.002756662609218647,-0.0323585597498947,-1.6221494683389936,-0.5463259131506091,-0.007212829314023542,0.19087625038984868,1.1846957026965765,-0.45083569717374106,0.17684119478105648,-0.2680474691862391,0.30687064807255426,0.15359079518305563,0.8567872621919773,-0.09286216577110473,-0.03342249127646481,0.02613527207785385,0.11254207309247961,-0.05341091800390252,-0.13580376710441874,-0.06778244055563959,-0.08829181416665215,0.9270594723159478,0.1760613535329884,0.7570997740236112,0.26008420215971007,-0.06866917299790352,-0.14939820492238234,0.21375842902180375,0.8902940175156809,-0.4583946229637845,-0.3781835590584558,-0.606299583043296
35.0,5.6638336181640625,-0.15261111800549315,0.45903650346364344,1.014204983826706,0.0051106426126159505,-0.03357218050792645,-1.6241894895894338,-0.5639095785616706,-0.01653243272361398,0.1903734639665864,1.1682519653984318,-0.450547050640537,0.17308943703606766,-0.2645627171610412,0.3078554012138987,0.15548687026209376,0.8536037282291413,-0.09179403858051019,-0.03305674876555846,0.031616221431167324,0.11261946543024395,-0.05421163106666679,-0.13280823644777046,-0.07124072437223035,-0.0904770050715981,0.9283231008936393,0.17616119885311465,0.7584976128107574,0.25842117336583326,-0.07840092119741257,-0.16371412004613975,0.21979867060712477,0.8859533323758451,-0.46505935532670983,-0.3839536975626249,-0.594268803156416
37.0,5.67721152305603,-0.15452781992127718,0.45466005820271627,1.014674799098327,0.006078089530270912,-0.03436050531002562,-1.626474985292695,-0.572576137408956,-0.022391336721128988,0.18961350076629996,1.1560922186368856,-0.45148358160015756,0.16959303927480662,-0.25857983968130716,0.30894320410809645,0.15772096776271755,0.8484898842551134,-0.09068507183775218,-0.03359921118046645,0.0359867929821743,0.11247127600988052,-0.05614596146822418,-0.12470350224917642,-0.07222507337453593,-0.09301172580535852,0.9282765119035956,0.17687762928795203,0.7570250457487517,0.2565553508020917,-0.07963591516878679,-0.1719980410384238,0.22571599507384627,0.882176938006133,-0.47085280573102717,-0.3888843630529534,-0.5883866612001042
38.0,5.69280481338501,-0.15682441760417143,0.4492794356153229,1.0148844764770406,0.008492543113831318,-0.03458085893449527,-1.6297718005500805,-0.594880122711128,-0.033481056260995866,0.19160920844859253,1.1221089027956683,-0.4491245789444942,0.16479680084260495,-0.25321775984521216,0.30829642223944104,0.15611820732363446,0.8434030032249886,-0.08794643356322687,-0.03402341972907439,0.04113701452147707,0.1135917398106255,-0.05500282266263781,-0.1254395592392705,-0.07699138616085255,-0.09599668783180038,0.9315894233786095,0.17707965038225387,0.7617696076523428,0.253701836666415,-0.09755417286239393,-0.19230346508822976,0.2291891470126119,0.8765627434853601,-0.47866520482146846,-0.39108624101852624,-0.5760060392149711
40.0,5.70591402053833,-0.1586078355065943,0.44490196230580364,1.0151138732849994,0.0105099227146894,-0.03457809393998482,-1.6323080046469545,-0.6096710428077194,-0.041925101374839666,0.19296338026647583,1.092642546043291,-0.44700730884741524,0.16092926550534875,-0.24861516796325023,0.30726951969565264,0.15427648610548408,0.8382244738672696,-0.08565672635772126,-0.03479880018816464,0.04405570303580822,0.11438045292790358,-0.054573751988990976,-0.12495965916996346,-0.08023164323056262,-0.09854077313569604,0.9341698373449597,0.17730366746163972,0.7645113481668953,0.2509949921051233,-0.10977565683546794,-0.2068645776001736,0.23087800208450476,0.8723958548389965,-0.48388318638207467,-0.39115564022052146,-0.5684632021681654
42.0,5.72162652015686,-0.16050299424780834,0.44006256255098064,1.0154717606123753,0.012202970766335693,-0.03455482838637461,-1.6343808361541323,-0.6212150785682544,-0.05011543119301985,0.19326006499828136,1.0643844289053057,-0.4461393173913111,0.15692049915382877,-0.2426718294590212,0.30617976261557156,0.15248199543239746,0.8316346000669683,-0.08365146658419509,-0.03600832344559622,0.04619817383773229,0.11463556474636344,-0.05514136884579424,-0.12144584767106764,-0.08274090604017648,-0.10138785273367953,0.9363381973483824,0.17778602677548505,0.7655155125261133,0.24829096894852104,-0.11772196441862878,-0.21909970361611675,0.23239458377365402,0.8681617211758985,-0.4885215525500749,-0.39084509621745234,-0.5630977493444811
44.0,5.736570358276367,-0.1622958846253488,0.4351565308885767,1.0161054151862927,0.012959839985205536,-0.03472143018155839,-1.6356395042870444,-0.6247756397844836,-0.05534229401162606,0.19259925360286506,1.045693553915571,-0.44669225531336176,0.15367635062409032,-0.2350383498530884,0.30526332417344526,0.15187777066814656,0.8235116559360427,-0.08196195157848256,-0.037612792495657923,0.04720250572501196,0.11425317750958483,-0.05767581879251633,-0.11193521746470353,-0.0828589482577747,-0.10435695828340262,0.9367739884559578,0.17882175175709658,0.7629429923099249,0.24605060871632167,-0.11570051089403485,-0.22487196439363188,0.2352078916098753,0.8639245058204458,-0.4927132490101387,-0.39134188234016565,-0.5626006716843797
46.0,5.752706050872803,-0.16446345563993564,0.4291790844133001,1.0163869458205996,0.015899379230275765,-0.034050713345455653,-1.6374418259799546,-0.6391791205860726,-0.06639228663383345,0.19322284829416556,1.0032549647235014,-0.45000974437686164,0.14877627802821972,-0.2288773123069504,0.3030975541956311,0.1469751157461961,0.815522956510097,-0.079288407055484,-0.03958669643282424,0.0478893637156629,0.11545744304519467,-0.05750863466773855,-0.11224910509060282,-0.08574074903082998,-0.10653784494575386,0.9395092036179238,0.17900802887152345,0.7660351038762503,0.24364269326797933,-0.1283150247737946,-0.23914880071533268,0.231442943093418,0.8589289888969796,-0.4940852826436813,-0.38930547359936984,-0.5587674974852103
48.0,5.76813530921936,-0.1666003544165069,0.422912063249096,1.016833502037425,0.017999701116977993,-0.03308672363343733,-1.6390514645996972,-0.6495170429131911,-0.07527704259277782,0.19392118929722685,0.9655770797609258,-0.4533451640839129,0.14456130323760114,-0.2210754750568707,0.301500587963785,0.14291720881127778,0.8064343624725976,-0.07668801452575708,-0.04168170815231993,0.048183912120974774,0.11684552974680146,-0.05820443367607027,-0.10944976026602787,-0.08715646893757312,-0.1088923710044287,0.9415846234360876,0.1796638600845763,0.7672186141978261,0.24160177851935272,-0.13591612078159657,-0.250038815962156,0.22836206294607964,0.8538728714122208,-0.4953811017959259,-0.3878242115713433,-0.5575426585114434
49.0,5.782654523849487,-0.168580780600849,0.4167420448992209,1.0175031142599158,0.018508499224082306,-0.03232752614968182,-1.6407632270084807,-0.6525299848391761,-0.08059025280188487,0.19406159418304245,0.9399125483684527,-0.45709587718386485,0.14117239406988571,-0.21105498361923508,0.3005522781931643,0.14118021514542548,0.7960136693926093,-0.07417945179441841,-0.043874717317954254,0.04861394134236646,0.11752684136672102,-0.06035293128647731,-0.10039407334677243,-0.08683054016219414,-0.11158107437030258,0.941974715676253,0.1808530350079874,0.7652398476927172,0.24005324022163338,-0.13410561932249693,-0.25570427880248925,0.2279441381798834,0.848443662924346,-0.4975260489285691,-0.3877026474781775,-0.559197055649678
51.0,5.795952558517456,-0.17010759711369106,0.41180548750326373,1.018172821415128,0.018279295970306003,-0.031853090853210836,-1.6421270909903187,-0.6512431684268598,-0.08324814572725552,0.1937829846667008,0.9247588547238582,-0.46017192207598856,0.13877498093349744,-0.2016506953328005,0.30004225034338755,0.14103290133175228,0.7862717530271134,-0.07191940949195184,-0.045728270273636365,0.04902709240335966,0.11771543201457227,-0.06285022121396673,-0.0895838651302219,-0.08569132736260704,-0.11408674246551197,0.9410464477878552,0.18214709898476483,0.7618536344892741,0.23893134160915458,-0.12758983286965303,-0.2578090222482311,0.22901381283156147,0.8432714069505438,-0.49981992768090455,-0.38807814466739443,-0.5620215722068811
53.0,5.8124425411224365,-0.17208302535584213,0.40539395546269963,1.0181142174392095,0.02122977110796566,-0.02955947922878193,-1.6448350466127248,-0.6648062481767593,-0.08989594528847225,0.19872944991708857,0.8840144069032072,-0.4610703119243925,0.1351955250739359,-0.19538542848634147,0.29876442399913783,0.1347424110727874,0.779372327542667,-0.06734080864063902,-0.047131024871469904,0.04826838085434086,0.119388985642593,-0.06279491252666283,-0.09506203951103263,-0.08576896073505497,-0.11600839694822052,0.944146163800391,0.18327662547574058,0.7674702238420352,0.2366601214168313,-0.1403433681428387,-0.26586287379918344,0.21951681816265212,0.8392321817609003,-0.49545838481107307,-0.3826769775784049,-0.5631245285827012
54.0,5.82643985748291,-0.17407871574379197,0.3987943309836378,1.018132084646711,0.02311679578475813,-0.027523739951619056,-1.647444325858775,-0.6749939857439988,-0.09567435421800696,0.20272118623294094,0.8490142829335102,-0.46249978033285644,0.13170491146905028,-0.187643383092512,0.29748029879748267,0.12928295514980734,0.7717470016239285,-0.06293238491462907,-0.04859363405977231,0.0475576810681365,0.12050844563385377,-0.06330440100842494,-0.097114593415697,-0.08509937067489978,-0.11827661225417362,0.9469720464588007,0.18471512103259544,0.7719367039656782,0.23444823439434329,-0.14804708297124242,-0.2714984989464503,0.2113027675838619,0.8348360481759255,-0.4916548262444765,-0.37890921946668044,-0.5660298023222765
56.0,5.838405609130859,-0.17565559227706407,0.3934214521220325,1.0182734826903745,0.023895720870977116,-0.026267303235592947,-1.649361578444549,-0.6800974151156673,-0.09975680827608838,0.20537420113994342,0.8241190212305971,-0.46372404209736084,0.129052276258832,-0.1800832487101649,0.29630859246674396,0.12588194118799387,0.7644131814054287,-0.05935837852049676,-0.049880796177279516,0.0471610393616366,0.12090762880777808,-0.0643293274702291,-0.0957554473303535,-0.08421599703723168,-0.12039959454570885,0.9487603555351223,0.1860593023897341,0.774187447882932,0.23279973464560166,-0.15031872892848253,-0.2747503190934167,0.20605613889015476,0.8307056532687016,-0.48945471839013666,-0.37655806317487156,-0.5688456327221366
58.0,5.851913690567017,-0.17722917009191197,0.3876116295098843,1.018667839224997,0.02252012779540544,-0.025354150340666296,-1.6515816325106165,-0.6779938090100303,-0.10104793671730534,0.20661729427762388,0.8110138488190413,-0.4671677807289201,0.12682300673481223,-0.16876705403636919,0.2959035924906016,0.12561590666856964,0.7546985240936073,-0.056507456173764806,-0.0515387430676321,0.047582853112140576,0.12061707628323842,-0.06722117695763564,-0.08489464647205472,-0.0823856481010389,-0.12327949126876328,0.9478411413010841,0.18787795264692447,0.7729007901770315,0.2317121350918211,-0.1418276413509221,-0.2747783602417355,0.20501649756744383,0.8249423948578325,-0.4897821164029801,-0.37627898365649637,-0.5727396228998602
59.0,5.867305278778076,-0.1790948125191422,0.3800420521212644,1.018006832202638,0.02467412973891884,-0.022893560648488506,-1.6559097024893703,-0.687442422005411,-0.10776323854082018,0.2062401531254585,0.783238295795593,-0.4731759319362705,0.12547609755412265,-0.16148391480766877,0.2930142513585574,0.11745100679940906,0.7493035707461458,-0.04796877746384919,-0.05223642755594077,0.047341511401312444,0.12038233784469293,-0.0671136901187768,-0.09077104264873528,-0.08033734530847716,-0.12483135303856661,0.9492855531827016,0.18927776589614395,0.7749683297195527,0.22956901320107773,-0.15123483902663118,-0.2773059855663998,0.1961159464566548,0.8216218651699408,-0.4845586524552784,-0.37196552082473255,-0.5756724337148523
62.0,5.879338979721069,-0.18058782109027588,0.37381100899957953,1.0174814388239002,0.0254933507662423,-0.020858358271915706,-1.6591594378748442,-0.6928207396548833,-0.11253825964973999,0.20550290375992092,0.7636096282056107,-0.47856148414323896,0.12451528251329774,-0.15400130140973908,0.2909053217383246,0.1115623337753849,0.743644249786078,-0.041084416102775,-0.05297141100089717,0.04718323237542475,0.12020298220074022,-0.06774230322994662,-0.09264887052899635,-0.07868425969568146,-0.12643107116315147,0.9497162504685007,0.19057127522584455,0.7762518196266471,0.2279457437073647,-0.1555795267156011,-0.27875419660083306,0.18989978229078364,0.8180868206102145,-0.48098750940150176,-0.36865460719218757,-0.5776627103127229
63.0,5.897711515426636,-0.18254493561921997,0.365622295528501,1.0169091668185013,0.02226924481201461,-0.01842938897524658,-1.6634682105350336,-0.6906868847512158,-0.11344861738216604,0.20490195967480856,0.7551911462396892,-0.4881726477042366,0.12310945826572087,-0.1384343517278771,0.2906352385199791,0.10983645283839968,0.7334955643655591,-0.03586710913839494,-0.05470768757947782,0.0481318083143176,0.12005984294140692,-0.07177137706070212,-0.0795138105359601,-0.07593877789930335,-0.13007644419102476,0.9448024121771397,0.1929352952832908,0.7771256401916126,0.2261756891326559,-0.1452878441879762,-0.2776550482782039,0.18787621157681997,0.8092753625128815,-0.4800465106368833,-0.36611708792460507,-0.5796436942747683
65.0,5.9140589237213135,-0.18442953619274227,0.3575055988046043,1.0148571262752628,0.024966170635746805,-0.01603997470775321,-1.6686579474145535,-0.6990194833085366,-0.11733162186647544,0.20483388366219235,0.7398301165222361,-0.493430166589772,0.1250986516715171,-0.12961676860738147,0.28782357649318846,0.10100050916106063,0.7280418594277999,-0.026212472015607512,-0.05520259150665302,0.04772362362263709,0.12017707986732525,-0.06977040872317523,-0.0878012877327579,-0.07310409847803662,-0.1286771250126374,0.9460380673281854,0.19247189750781551,0.7797565201977217,0.2241057022221243,-0.153096562040624,-0.27838550484215197,0.18254107300310113,0.8063518124762825,-0.4766077428518932,-0.36620922416156054,-0.580524793099102
67.0,5.929493427276611,-0.18642771927907695,0.3489158918851084,1.0130493634931175,0.02720336711159695,-0.013637149102164965,-1.6740051778832095,-0.7027553937281292,-0.11780042613783212,0.20649096624605953,0.7313726127061515,-0.49698352346530716,0.1274873528231611,-0.1203977067270686,0.2858993305733478,0.09380085766625962,0.7229716113155058,-0.017237651284864604,-0.05567753382260225,0.04783082715506963,0.12000012841737354,-0.06963138165819587,-0.09313373734519372,-0.06943133721689056,-0.1261395204468392,0.9474124903299905,0.19156571135249756,0.7811151033047967,0.22321582791863234,-0.15638812688996384,-0.2772702789746104,0.18082447774332772,0.8042091699020573,-0.47551854042520664,-0.36832152436683085,-0.581267316043088
69.0,5.942872524261475,-0.18846749991695888,0.3401645896836033,1.0119917433363868,0.02665068299116562,-0.011383734114640384,-1.6795303526754821,-0.7016408731256671,-0.11626472898169729,0.2081001270666264,0.72862780014234,-0.5034584808578012,0.12871125211006107,-0.10676036155561108,0.285140997642858,0.09084778350222353,0.7141471044779713,-0.00991088944901661,-0.056731170658081975,0.0489181699550859,0.11969698534592518,-0.07174135689034286,-0.08759332246365298,-0.06599447295136969,-0.12555837767861652,0.9466416092782459,0.19170400954632927,0.7802186315673656,0.22285293530051695,-0.15001575722905974,-0.2751079606624923,0.18127936609201095,0.7998696577180082,-0.4761063241172536,-0.37107283156564225,-0.5831525817600423
70.0,5.957874536514282,-0.19046368395158628,0.33150215201109795,1.011653979261602,0.023294658056344033,-0.009319343887272437,-1.6852496959736665,-0.6956685000434126,-0.1127930405879243,0.20976040073305088,0.7313212744262286,-0.5127592270874917,0.1287256027814182,-0.0888592275318283,0.28547496919125914,0.09236144891135237,0.701648080308581,-0.004220816214995895,-0.05828432529204341,0.05109505831053039,0.11934342556234356,-0.07535476549765646,-0.07147894693887988,-0.06281201440959108,-0.12706002715526718,0.9425814934411516,0.1929423109158339,0.7774718701303522,0.22290048956259478,-0.13430791370243428,-0.27226127818992735,0.18363474810162161,0.7923631448906805,-0.4783048608602282,-0.3739608264009701,-0.5859227138715184
72.0,5.971437215805054,-0.19253123835211924,0.32251467664593403,1.0103299785669737,0.025604598764192153,-0.005679402325212965,-1.6914349568756704,-0.6926577747201184,-0.10817312864237083,0.21309395962765323,0.7306630862696958,-0.5116976022480229,0.13041359781285694,-0.08361120074908572,0.28630859455937036,0.08676477821571123,0.7036216448802709,0.0046549167190096516,-0.057591301880682094,0.051664482677609265,0.1183997226119565,-0.07611936267086854,-0.07914011866879918,-0.05950585787384405,-0.12189615185538258,0.9429369260629631,0.1909595837712323,0.7789706663760104,0.22492935354879345,-0.13675651992566415,-0.27044132927874787,0.1858208482001538,0.7927695084042454,-0.4803868440268009,-0.3755591486704112,-0.5848572420161551
74.0,5.984987258911133,-0.19466327674562958,0.31302759549068804,1.0092100491404898,0.02607246205638859,-0.0022867951881856844,-1.69861306615283,-0.686757163383187,-0.10218623345886024,0.2173811170198352,0.7327295431180394,-0.5118602954078534,0.13155001392618715,-0.075447235607706,0.28735193426235156,0.08372428030378884,0.7043364629053462,0.012903066496724304,-0.05713527950289496,0.053279232018961946,0.11738625225914916,-0.07781150327211604,-0.0805110764328986,-0.05612510805146102,-0.11776534965121942,0.9424182757082328,0.18946887709734006,0.7795049981378438,0.22686274226813702,-0.1337919577952456,-0.2676484570303086,0.18917910946703964,0.7923902716266218,-0.4829890325641484,-0.3773881301941469,-0.5843709633474745
75.0,5.999996662139893,-0.19683188525424639,0.30320780886145204,1.0086128877164255,0.023391915542670387,0.00010992117544499677,-1.7066647060496642,-0.6774472664556185,-0.09578487171948821,0.22210495369969746,0.7372018129647757,-0.5166532445758552,0.13163349429790885,-0.061170127320770276,0.2881643165488821,0.08541101224949424,0.6997553023189029,0.01924026876098555,-0.05748944847990128,0.05645388973679881,0.11596826879591683,-0.08113338415400044,-0.06988571989372963,-0.05283374383662531,-0.1163870271129758,0.9389438746744136,0.1893612197042419,0.7781627135007583,0.2283751260367498,-0.12126518502562642,-0.26437003362380274,0.19357743322704696,0.788088376151622,-0.48639613966392914,-0.3796702293835378,-0.5854440272656566
78.0,6.012350559234619,-0.1986104025476852,0.29503200628564025,1.0084789022830094,0.019467359015511467,0.0016080753074201772,-1.7137965339973955,-0.6678745280437128,-0.0900887661743047,0.22627056407558344,0.742436264999089,-0.5235988121491457,0.13101499169095027,-0.04552136609590028,0.28879273208486517,0.08980768372884705,0.6919460590138966,0.023776040158035264,-0.058270158138061814,0.060092382371384576,0.1147251623184942,-0.08449719055686078,-0.05362316942281275,-0.050185735781798496,-0.11706308169993995,0.9332850414389174,0.1902095748002521,0.7760005297474615,0.22936968384358833,-0.10490600095404397,-0.2615395276494039,0.19760881675153308,0.7812868489197142,-0.4897768774898804,-0.38169244345662534,-0.5872786465766557
79.0,6.032242298126221,-0.2015319208355303,0.2807162864601592,1.0073177423715103,0.02224905673715177,0.005096138527333909,-1.7240901125928239,-0.6580012200423617,-0.07801167209149022,0.23768061966981424,0.7500358709602801,-0.5063959811785668,0.13460318552255918,-0.039026718022691906,0.28622408282977246,0.08344480391481371,0.7008955972566964,0.035957452488965626,-0.05814774660892984,0.061471380278538754,0.11112962064289118,-0.08698696584161814,-0.06122098435511931,-0.04374706823246258,-0.11003520687656804,0.9344349111737049,0.18725909612968383,0.7808989650439729,0.2298008866042061,-0.10194693786950376,-0.2534650382206887,0.20306966633643767,0.7867587740199022,-0.49093931182737305,-0.3802201131466233,-0.5835045064268536
81.0,6.0454490184783936,-0.20390832303212436,0.26909433597750976,1.0068166075327587,0.023595664858876493,0.006697226284115129,-1.7322362610808129,-0.6485319506321525,-0.06934363494446036,0.24732627059193601,0.754732271857973,-0.4938044087160666,0.13697271483514095,-0.03176210521275042,0.2831664544494822,0.07989128578063945,0.7056273777471074,0.0451334974999336,-0.05830543521327057,0.06280948961457089,0.10718550813168774,-0.08981913012782038,-0.06287617438922705,-0.038614800607990364,-0.10518256289792728,0.9354531603567999,0.18532357848447267,0.7828448987094658,0.23031604343446527,-0.09622457441414897,-0.24683735686257768,0.20810219714978523,0.7908574653892104,-0.49253864229608996,-0.3802196106706657,-0.5820866733109255
83.0,6.061392307281494,-0.2063276408643409,0.2573181116264542,1.0072582857803811,0.022891667016282216,0.005252984423786766,-1.7389161842236565,-0.6359871428157741,-0.06494737518668263,0.2561541903331132,0.7560077667777814,-0.48779762746874916,0.13773878641901927,-0.0187357494854898,0.2781349080086656,0.08051531246033987,0.7020968754503386,0.05182612817258214,-0.05886077333650892,0.06411492159723428,0.10114412735142367,-0.09547074506152842,-0.04990253535219708,-0.03362437520727733,-0.10350388825608321,0.9343128379145633,0.1850960511988926,0.7789999333703906,0.2310289093416361,-0.07938689924010425,-0.24061285697944024,0.21465476797588587,0.7905444642277937,-0.4962129299523388,-0.383116742592824,-0.5851766997984496
84.0,6.0736753940582275,-0.20879450180370318,0.2454971222133847,1.0083812836356947,0.02007983234081525,0.001344374095001589,-1.7431430419456697,-0.6207452392771207,-0.06512361628632476,0.2630396853315704,0.7545119885009688,-0.4888195475469839,0.13694059195819913,0.0005487963994609546,0.27157115877838206,0.08439302313234306,0.6892451295113731,0.05631051105868582,-0.0597987786806905,0.06450632343821615,0.09364561358093373,-0.1035627739801536,-0.021883719651142792,-0.028607552145893937,-0.10533849974569098,0.9288302423431118,0.18675189461271802,0.7703689579589403,0.23161886053035402,-0.05095617904407178,-0.23522206955158925,0.222421508228129,0.7835717542610621,-0.5019227186183817,-0.3880457448383138,-0.5921690852824235
86.0,6.088450908660889,-0.21119154893497105,0.2337424877599425,1.00833042113363,0.024312574077728757,7.026471115295378e-05,-1.746530164208853,-0.6255120563668785,-0.06562331268501341,0.2575409837734098,0.7658006593561522,-0.4451261761209382,0.1370604429989545,0.0004323140240848882,0.2647069945388585,0.07831266645930704,0.7027508532894082,0.0641350870609594,-0.06223575776203426,0.06185345663585242,0.08491695830282023,-0.10823348316583022,-0.036606001525455435,-0.022013488405144215,-0.09878786024027975,0.9307300302616659,0.18384046828038103,0.7780293758801239,0.23001433332391266,-0.04950128968132736,-0.22293358886009365,0.22313436772839834,0.7927379906938279,-0.4979735083630567,-0.37733043585953885,-0.5902653509158117
88.0,6.1058430671691895,-0.21367097169504393,0.22137188502027164,1.008240203872642,0.02683519705106024,-0.000678829361408065,-1.7471861305228455,-0.627713252582926,-0.0684794549139055,0.25005635329642617,0.7770446238201865,-0.40529668028169386,0.13677025576945798,0.0032143703261836845,0.25769713251181997,0.0704421527313811,0.7138271638276006,0.07211035406462646,-0.06450793237282046,0.057181580934220363,0.07684445483449921,-0.11379110286226851,-0.04582023443973355,-0.016242287872856174,-0.09337729559690819,0.9325825577038032,0.1815861281870084,0.7846688298485403,0.22912464885865574,-0.04248218296877705,-0.21138956290791605,0.22426201402624563,0.8008147145956962,-0.49399138071643733,-0.3684671325604915,-0.5890184038207092
90.0,6.120243072509766,-0.2158846132506178,0.2094288587485871,1.0086228527574694,0.026081991060238,-0.0011390902404787803,-1.7457491620343635,-0.6236258762743352,-0.0727448645149367,0.24328587417856312,0.7842674862088856,-0.3790616270119384,0.13632185707052188,0.01384672399672719,0.2516802235878805,0.06447575311934034,0.7140453187871267,0.07845771891168442,-0.06629291292529362,0.0518500998864625,0.07074332913900058,-0.1201908257449128,-0.04071959456568476,-0.012470672049903516,-0.0912394929666463,0.9317664560517696,0.18100276483795724,0.7868554951274783,0.22933170078650672,-0.026363165495041908,-0.2034320910127479,0.226981418463435,0.8035512211272109,-0.4924446468511607,-0.3646513397195118,-0.5901075924509848
92.0,6.135092735290527,-0.21813271263853018,0.19539787953219317,1.0085225252443069,0.029655142862483663,0.0005969424002845441,-1.7445726471797016,-0.6242789917110383,-0.07265196008233067,0.23926951016140813,0.8004051266883302,-0.3536115688631051,0.13961961005332338,0.008243940899589238,0.235889326359492,0.03979211064409413,0.7379141352620386,0.09764352547458782,-0.07036603267929582,0.04652707259155227,0.06608721967084481,-0.1244443035227225,-0.06275994484925326,-0.00729300274192399,-0.08320344477771605,0.9393189166622601,0.17780401686118125,0.7992448593882095,0.23063455298175348,-0.017364482128747537,-0.18956850494932495,0.2238031700019161,0.8186475414918108,-0.48185702199811026,-0.35542204715895453,-0.5880466408484037
93.0,6.149121284484863,-0.22005731835808576,0.18200242397771277,1.0089788422895372,0.030233880566889186,0.0008457614188896387,-1.7442177227897395,-0.6183461886822312,-0.07495274423738074,0.23649413888900647,0.8111714716036864,-0.3458641911596193,0.14231840828339806,0.009354205044589937,0.21841902839562907,0.01786367580083803,0.7520322712530858,0.11563996497426329,-0.07468781257301539,0.04374829053023852,0.06203512970683692,-0.13099666536537952,-0.0694936475613625,-0.0037624609937029524,-0.07871032305325192,0.9446846229152117,0.17630820448860796,0.8054032642853893,0.23258535536292435,0.0008357544949938152,-0.1790367494088821,0.22278197997175656,0.828714193805183,-0.4744523826766887,-0.3514484710759659,-0.5888212242234901
94.0,6.161552667617798,-0.2214577888331179,0.17171614311734357,1.0095562302074697,0.02963780241561304,-4.366014990643519e-05,-1.7445241329728145,-0.6115539213291411,-0.07736859105715005,0.23561131642748473,0.817233664690705,-0.3429675622426219,0.1440529133836398,0.013151601735054273,0.20476682125017873,0.003178843183528498,0.7590793816568882,0.1282411692361862,-0.07815409457057662,0.042790551355376634,0.058177485002767065,-0.1370512650913107,-0.06929004224170332,-0.0015474485214409875,-0.07654155217833031,0.9482157219584983,0.17578542392019697,0.8081599216181578,0.23422317469264117,0.018022507064818744,-0.1720778516986807,0.22296225372891326,0.834731225225682,-0.46996701688703935,-0.35026044374856685,-0.5905689303350419
96.0,6.172099351882935,-0.22248640589249608,0.16383121111882948,1.0102741957027592,0.027898002809041825,-0.00200802358721814,-1.7456792661316531,-0.6036715688757793,-0.07999718945826381,0.2362411482915907,0.8190854542027657,-0.3432631664549449,0.14479198307646518,0.020119079420400074,0.19491263608138792,-0.00399759938557711,0.7592001261027616,0.13591026467725117,-0.08059349942866209,0.04344534137361668,0.054302011010581075,-0.14249115299701937,-0.061796275960724074,-0.0003064728865364118,-0.07649773579389033,0.9494094423325495,0.17615851624083886,0.8073666478974711,0.23552657670277077,0.03505698929985016,-0.16817842068067362,0.2244960234500611,0.8366865138053144,-0.46842084607691065,-0.3516307832619608,-0.593461380909069
98.0,6.184340238571167,-0.22346827749679155,0.1556710036553567,1.0116203267982748,0.02344135917773829,-0.005745002350343428,-1.7493884041992118,-0.5899020681844068,-0.08309358418398463,0.23962834428518587,0.8154824158322018,-0.3486120883236675,0.14424163813854246,0.03648820093808537,0.18800930929114354,-0.0006218433673492365,0.7470451934528923,0.1392145228074788,-0.08174405071907348,0.04691470723409571,0.04966672637630702,-0.14845434024599677,-0.03753596603143015,-1.7479908770176664e-05,-0.07971719582319665,0.9456270106465411,0.17807542271370871,0.7999182835997555,0.23703640930557918,0.060414702623113326,-0.16763245635153215,0.22905248910662057,0.8320316595977327,-0.47145337335962606,-0.35792289306238656,-0.5996408843470258
99.0,6.200249433517456,-0.22469271531132073,0.14351714421567993,1.0121711759099283,0.026263014113466678,-0.006123090726268201,-1.7589402210987886,-0.583242955309673,-0.08518049241678022,0.2352749401737808,0.8237757353135775,-0.35936278280253037,0.14560665167116976,0.013662673951106347,0.14726094161026396,-0.041933791096674417,0.7931059900929598,0.18769753429930236,-0.09221924807862975,0.052637032301399087,0.04976902073338081,-0.15009498321715234,-0.06454965964248695,0.004741348410368492,-0.07042426265276062,0.9447745376372702,0.17283638811437563,0.8037227527355107,0.2366054503216713,0.06303177938361172,-0.1580188759644071,0.23358295481954128,0.8475780184031112,-0.46887433972506454,-0.3474632326113647,-0.5899611967701887
101.0,6.2136242389678955,-0.22569930617912468,0.13362848109528877,1.0126610450825815,0.027730066306108848,-0.007478009838616643,-1.7677205455254632,-0.57686713154771,-0.08685174624723375,0.2335840531517167,0.8296052301536858,-0.3686029457537412,0.14654409204546975,-0.003441569707622223,0.11412161133986176,-0.07346014650395137,0.8293314860482524,0.22472319646210934,-0.10190802132840325,0.058509231171419526,0.04870074147011827,-0.15245974822662356,-0.08300182057130259,0.00839937069286817,-0.0635529060110704,0.9448620311036325,0.16890953090415842,0.806120040762704,0.23621600623023203,0.06687912653171525,-0.15053916584878274,0.2377672066845844,0.8599700469308258,-0.4670639927962048,-0.33983491489980744,-0.583018695406193
103.0,6.226572513580322,-0.22666544704875158,0.12401396333055847,1.0135495285834222,0.027150567519487592,-0.010203544133893879,-1.7774423984460315,-0.5672607175944553,-0.08797483956524949,0.23574564419869715,0.8314056433931403,-0.37748554027740167,0.14682436021984846,-0.010582916634745497,0.08905869202518282,-0.09203390567577205,0.8510351243263162,0.25048846452262896,-0.1098742787778978,0.06617743764899829,0.04628811418121494,-0.15701112007068901,-0.08563435575008188,0.01043768580268344,-0.06013964189398696,0.9440188091144152,0.1668619628987527,0.804701917735217,0.23640219906683374,0.078580331740317,-0.14583117763371437,0.24270878449262562,0.8677484950677521,-0.4671604332210927,-0.3374071739446567,-0.5807334392925922
104.0,6.2390429973602295,-0.2275209482651619,0.11496726887155165,1.0148366529285215,0.025044682743302717,-0.013521184165395063,-1.7873174694478968,-0.555031707535089,-0.08839445001268034,0.24088809388736626,0.829194943087941,-0.3855709956062049,0.1465142744932065,-0.007550132573609978,0.07340673903488498,-0.09754664430323523,0.8566681162995796,0.2651421839744591,-0.11529773549934111,0.0749559833513036,0.04339685272717973,-0.1631406776914618,-0.07276750406772647,0.010662194814331756,-0.060277006909905104,0.9412854181832462,0.1667662057711306,0.7994181613321352,0.23738904569764138,0.09769621007382724,-0.14439944822403225,0.24803959069008777,0.8702173917152969,-0.469110502106286,-0.34045258006404044,-0.5831833284223982
106.0,6.253008127212524,-0.22838655346027226,0.10560037482561135,1.0159105567570166,0.02784333838576702,-0.01341208547407933,-1.7957003074300484,-0.5479124589835227,-0.09051034867145492,0.23651534384449646,0.8312219926602187,-0.39724737541806343,0.1475108826919691,-0.042070967945759735,0.05065357132483938,-0.1103146968567731,0.909977472317006,0.2993196841432689,-0.1247700552730013,0.0764962874590302,0.04624073754862808,-0.16334837221940612,-0.09576500654681978,0.014898030480377859,-0.055195612478398874,0.9343316897155478,0.16375446507278288,0.7927438884000142,0.23569682765455563,0.08650255262093032,-0.14251621614962035,0.25846324902500123,0.8812097509838592,-0.4740465947774489,-0.32876146205653906,-0.5651573184731042
108.0,6.267000198364258,-0.22913858363603437,0.09601340612267656,1.0170933948576957,0.030087839261095057,-0.013052029906239174,-1.8043171847163806,-0.5397322372015397,-0.09201576657607069,0.23324826979681093,0.8321802720596188,-0.40833811660262986,0.1484553587008831,-0.07379544177042746,0.03376511953011363,-0.11709485512306314,0.9580776384583576,0.3214556118791664,-0.13168785849614362,0.07808578662694005,0.049931909103706214,-0.1642535665404758,-0.11286280562024364,0.018023737397420265,-0.05177698242395662,0.9270591354151825,0.16154584839109076,0.7851668561260117,0.2338476163049541,0.07875584592939752,-0.1420665127491968,0.2684407180879556,0.8901535363797985,-0.47879728330152926,-0.3193050954791085,-0.5490795896236976
110.0,6.283433675765991,-0.22962003557443444,0.08713300005416831,1.0182955327933894,0.031330262001638125,-0.01314765998554824,-1.8134556611308281,-0.5307904956065971,-0.09232283607802513,0.23318415871871084,0.83113021215363,-0.4179073320120592,0.1491568914147244,-0.09357607352507286,0.022324314421853834,-0.11833461005979343,0.9893905189497345,0.33617695343473053,-0.1366372583107355,0.08194420159949509,0.05290876862162732,-0.1680495581032157,-0.11599504860574197,0.0185136911160467,-0.050398805519023385,0.9198814191166971,0.16039296873450354,0.7780013628966365,0.23352870861642294,0.08068106984181966,-0.14351216426298896,0.27691108046521307,0.8948998916407302,-0.4827473450672115,-0.3147279710291664,-0.5387627100415285
112.0,6.298937082290649,-0.2299133854774539,0.07876840159591697,1.0196094026001046,0.031218737735679146,-0.013658009838742498,-1.823168534192959,-0.5202569379204064,-0.09141908830023213,0.23641242640805005,0.8278048858290206,-0.4260374194633021,0.1495045463469041,-0.10002089943772308,0.016371398812191053,-0.11386765517070951,1.0023786549720448,0.34388113809320786,-0.13940300495753924,0.08833434739130872,0.05503077321221281,-0.1740705585918983,-0.10436559602145781,0.016534063937796883,-0.05134706121410197,0.9120794036049632,0.16051237447915984,0.7709624488421638,0.23476893253414138,0.09312336868815486,-0.1468442704596812,0.28382310375532616,0.8950221600631577,-0.48606682139238966,-0.3156333129326303,-0.5349971964917051
114.0,6.3150575160980225,-0.23038857277307584,0.06831046289764373,1.0213350143598943,0.03519482933874421,-0.008130596082629716,-1.8320853872824627,-0.510846458458462,-0.08819034201388323,0.23218303135166984,0.8281259371970353,-0.43630006816314126,0.14954635998730847,-0.14902577697623356,0.013880388417959914,-0.11534482188090392,1.050124506619645,0.24779029865234525,-0.13829112765560755,0.08425398006342681,0.06845574628529802,-0.16807332791619847,-0.12784087150573803,0.02168826281012938,-0.05468582463649389,0.9017700699093083,0.16481011070378832,0.7539570151080588,0.234612352880126,0.07386277362249016,-0.14811482184080382,0.28571119900647723,0.8967910822950798,-0.4855442604376492,-0.3133318333270506,-0.5256327932644719
115.0,6.331910133361816,-0.23063083853522434,0.05878113274324212,1.0227149724109212,0.03435826150699438,-0.004666966202249553,-1.8372902553140702,-0.4982693124401717,-0.08870249846268072,0.2293251915197182,0.8267384506796409,-0.44471867094835554,0.14999492072531462,-0.17961728919098927,0.01041502944903102,-0.1156786198377851,1.0861267155579546,0.16933172732610158,-0.1359372908412351,0.07980730011643394,0.0775374792412527,-0.16278783560455656,-0.1396542707865221,0.02400074633321478,-0.058109414234847986,0.8930147204969953,0.1685277581975378,0.7404020499013878,0.23530849343541316,0.0648425251583544,-0.1504238836739947,0.2875712460963613,0.8966769144228806,-0.4851465690998086,-0.3131467118832512,-0.5192603139048569
117.0,6.344659805297852,-0.23071117064721358,0.05149062423099783,1.0236055350849784,0.03171797108322519,-0.002933320134873567,-1.8398577574417332,-0.4869451448679023,-0.09102323607269083,0.22752290313747606,0.8249524679796854,-0.45085349457525103,0.15061665383533,-0.19797211153568936,0.006934653216204225,-0.1153896272882547,1.1125995021717274,0.11114107854895086,-0.1333620839376017,0.07577726996501799,0.08294509042167156,-0.15856042590265246,-0.1450033468632151,0.024902333681296726,-0.060857629697634245,0.886035057193496,0.17132380700448063,0.7310148133077714,0.2359495435299594,0.061243833207582386,-0.15276737007783336,0.28923405754951004,0.895383795711727,-0.48476666512312494,-0.31334395132448,-0.5147754930723403
119.0,6.3594443798065186,-0.23075944855762232,0.0428327349645164,1.0243744517500155,0.03176361995403052,0.0015325656593102436,-1.841937063876128,-0.47692976699795336,-0.09277895794582224,0.22144473451419797,0.8254348091331432,-0.4588938600749226,0.1506656027335722,-0.24166770985407837,0.0015282730807837483,-0.12056214841737081,1.1422713036572958,0.004716468092686943,-0.135175084330446,0.0650686273335359,0.093373565127685,-0.14693949975438464,-0.1731045435214849,0.03037342525114022,-0.06332655676289381,0.8822432504612947,0.1759588778167982,0.7235536977655064,0.23623360146747935,0.04148026403492899,-0.15241820632978698,0.28369202051099646,0.8914316902907583,-0.48140003282563537,-0.3124513911675838,-0.5197717601524704
121.0,6.3740692138671875,-0.2307293226798395,0.034466451307628834,1.0249230695559257,0.02886108182145511,0.004022633660445631,-1.8419393411293985,-0.464748849206313,-0.0967574797520547,0.21724430294214744,0.8241374278360512,-0.4651959111377354,0.15076788300007418,-0.26718120569321524,-0.0035007945276644614,-0.12284576418920823,1.1563214400042379,-0.07348880036741409,-0.13648670920683828,0.05624436265835838,0.09996788540535773,-0.13933877251274984,-0.18736057198946363,0.03322216523909241,-0.06607439332728822,0.8798711990493286,0.179854607960082,0.7195711914293184,0.23659960266611313,0.03458419541473658,-0.1528453975080507,0.27891714071624074,0.8856218458730379,-0.47881905636577016,-0.3134035884568732,-0.5276372187392004
123.0,6.39443039894104,-0.23073802233778337,0.026077033407274075,1.025528586856308,0.02409876320831095,0.005873201013040312,-1.840430032697808,-0.4503109460996465,-0.10189637421991615,0.21337702964872923,0.8208678774086922,-0.4705561618763958,0.15121703258604507,-0.2780884544154029,-0.008165694994888208,-0.12437758769569043,1.1639726291863497,-0.13074278987132565,-0.1363757770156115,0.04900464266990309,0.10451537279310821,-0.13533434948471468,-0.18923592761599067,0.032884569992047245,-0.0695843369157241,0.875475486072079,0.18340368445637992,0.7166277714608755,0.23794456271445014,0.03850681806553908,-0.15514437353062036,0.27621018266691466,0.8786883950015019,-0.47749010242633955,-0.316023623504468,-0.533817070624296
125.0,6.4129626750946045,-0.23080076293503735,0.015924458753860594,1.0254575962806558,0.02304628485770653,0.008695516518349097,-1.837309264917048,-0.43933580141547734,-0.10702504104412697,0.20778295985119197,0.8217465830597467,-0.47633542873259216,0.15049499971344113,-0.3176667510340806,-0.003272305011802168,-0.11685473219205404,1.1628545844475666,-0.19915782584104066,-0.13422006977628304,0.036549742256897735,0.11470190195702282,-0.1275226321349153,-0.21575567344838395,0.04150851746714912,-0.0743805053641813,0.876172359540047,0.19044957185401623,0.7155952118826503,0.23599723219153368,0.024486934387199982,-0.15217823132806765,0.2688994432694429,0.8711235523760978,-0.47416247918606996,-0.3150571814276437,-0.5455464525556657
127.0,6.428347587585449,-0.23098455918799754,0.006147796976367697,1.0248918073873192,0.021030439021274043,0.010159771202070702,-1.8328839489710782,-0.4284802142618739,-0.11469133617861643,0.200747740213024,0.8229244326376102,-0.4824111648021663,0.14925111258541973,-0.35151827827714804,0.006835923187534995,-0.10243643225220954,1.154571102313085,-0.24259312005988268,-0.1287237547459777,0.025968114277843908,0.12176354610268186,-0.12155592198435453,-0.236047052855603,0.04879707597123616,-0.07967340692597626,0.8764477504862342,0.19771043654392292,0.710781437182775,0.23547297711714665,0.015578736828599305,-0.14977195582621267,0.26222951816355566,0.8638171584694978,-0.47026391872506396,-0.3143174048276569,-0.5538457209855504
128.0,6.4432127475738525,-0.23126786228224092,-0.0028259331494476744,1.0244770561442877,0.01726694753828479,0.01117142995544006,-1.8286120822174323,-0.41591824064956495,-0.12193079444226498,0.19478730630750613,0.8218601234254138,-0.4876896566126948,0.1484794241222508,-0.3686317358444826,0.013543105493642443,-0.09155502464878126,1.1472680113410847,-0.2727536017587329,-0.12369774795064568,0.018145907071424452,0.12619417498501423,-0.11992130726433052,-0.24238417194835654,0.051732266822772516,-0.08501354190672797,0.8741957045440971,0.2036247930394115,0.7077843303921931,0.2357929326848105,0.018448076670652926,-0.1496745270187119,0.2581885768805756,0.8551732707239407,-0.46792717020600455,-0.3146579195366317,-0.5591068582905505
130.0,6.454235315322876,-0.23153627615132144,-0.009664071073462281,1.0242282793447175,0.013387159037917276,0.01159131182558908,-1.8251402802453023,-0.4048393349675991,-0.12791921087192568,0.19033705841129012,0.8195800014223108,-0.49153714954578176,0.14830968386156568,-0.37429483619976867,0.017001834155118592,-0.08456359944013686,1.142259127733418,-0.29159691638131685,-0.11982624552303489,0.013169335591531123,0.12834677331814442,-0.12047717256176775,-0.2403911698031077,0.051969009471219435,-0.08939443832820673,0.8703862031903182,0.20784646201708845,0.7062387828198029,0.2363101214221887,0.026997082658501953,-0.1508350444398851,0.25609678682828824,0.8464268210846932,-0.4668532041035367,-0.3150640182217219,-0.5617674242834256
132.0,6.469732761383057,-0.2318979662486359,-0.018062907071478465,1.022937702037941,0.012350545702952943,0.01146357694651707,-1.819106579064047,-0.39751114093718976,-0.13766791290222347,0.18080973845720377,0.8229183528179775,-0.49595931863381604,0.14644105143326774,-0.4060433718757016,0.03812280915632875,-0.05564958741184439,1.125415350451513,-0.2930744977789972,-0.11168242153936903,0.006281576819808692,0.13178121477163648,-0.11477172792412013,-0.2564887516613273,0.05857813097372959,-0.09209317603027775,0.8673051144027817,0.21264669339935766,0.6968368939316573,0.23550847255076257,0.023356822420057884,-0.14728426216827423,0.24869012646539465,0.8394567170966578,-0.46213845897048045,-0.3169167826160342,-0.5714446786932079
134.0,6.485607862472534,-0.23231350934376876,-0.026561114000393096,1.0219452534258298,0.010634990176811267,0.011528226964300003,-1.813269374060181,-0.38873308666611506,-0.14603215773883874,0.17281350774234736,0.8247647407218577,-0.49941770383781436,0.14488960785941196,-0.43023003707759017,0.057442413671928795,-0.028643220213977,1.1086244027808574,-0.2909139520782494,-0.1047855338790328,0.0004995360241540573,0.1349990914291557,-0.11106058304229774,-0.2668104767905591,0.0631340654182244,-0.09483448868985,0.8633398534361014,0.21688286335281456,0.6882219395309752,0.23514138230961015,0.02468932457637698,-0.14502827793986076,0.24254997199978093,0.8324498572996415,-0.45858258491860626,-0.3206460082117948,-0.5806040212387231
136.0,6.504333972930908,-0.2327750952422808,-0.03496929339318615,1.0216339881131797,0.007433370357544649,0.01168377762603831,-1.8082560935423415,-0.3768874839472282,-0.15341126794709556,0.1660894351473055,0.8228176998766847,-0.5023161238499566,0.14410362475898567,-0.4409423072392161,0.07036952710653914,-0.009172084691381028,1.0947389120793969,-0.29016121533765316,-0.09936333584107163,-0.003947870332774552,0.13740294252922006,-0.11044929922627625,-0.2656648935444714,0.06402849073881217,-0.0983750855321514,0.8575223785502744,0.22069682833127938,0.6815720716463665,0.2358728116200792,0.03463923757795918,-0.1451368006697607,0.23870839902838753,0.82484649810433,-0.45691073341698984,-0.32557554566230396,-0.5877818305082019
138.0,6.518629789352417,-0.23327670774362227,-0.04495816152993667,1.021072254673035,0.0071978251426458705,0.011263446125154071,-1.8000613632790028,-0.3669733628097689,-0.1599747114322269,0.16091637358952443,0.8230066527227919,-0.5013536061300617,0.14120150441832519,-0.4738538373078946,0.0980960396826891,0.03221650348656614,1.064330575496229,-0.28602212946518835,-0.09714889213274452,-0.009518387968321381,0.14053090637565557,-0.10340325631751673,-0.2865934610871532,0.07089085860393832,-0.0985188428548192,0.8531487621016303,0.2229388139302479,0.6737703326282292,0.23198244705729235,0.030146923669671522,-0.14298267630557537,0.23434567496063904,0.8213946623295768,-0.4549748200637762,-0.3263214195246317,-0.5927234686082913
140.0,6.53551173210144,-0.2337626643947596,-0.0547227199451332,1.0211129068064586,0.00648124525589628,0.010855775948379356,-1.791721635147986,-0.3553058839366721,-0.1648604681094078,0.15776200635615822,0.8201367251181275,-0.49811242490755303,0.1383416317035874,-0.4978187530187336,0.12350823935501755,0.07181670784195304,1.0330775049747787,-0.28358511563237204,-0.09757903826620312,-0.014124922416954216,0.14289357818937387,-0.09816137742775757,-0.30399794781210054,0.07594668132834781,-0.09705755740254737,0.8500739898234563,0.22314384392739534,0.6704461779876795,0.22728300815394675,0.028352991261520164,-0.14140644207153477,0.2317324124127988,0.819631612214005,-0.45403565148571856,-0.32530087719586354,-0.5949012691774359
141.0,6.5502636432647705,-0.23423685488741763,-0.06393761358879388,1.0217687785179366,0.0037646304095324827,0.010880095958484236,-1.784170882278154,-0.340693881376014,-0.16980925189363322,0.15366623416160138,0.8136625351674558,-0.49544326041009257,0.13649342610993825,-0.5071220272484678,0.13961515932529892,0.09883326492094388,1.0095525980975935,-0.28376103008961784,-0.09803218175511075,-0.01865587382763051,0.14499574853322555,-0.0962478852865818,-0.30749978267520145,0.07670539468728739,-0.09741310632371586,0.8457661363610967,0.22380439089481619,0.6674741776437193,0.22513925582069416,0.03584588067140355,-0.14210099591172026,0.23058399772514762,0.8171112544676159,-0.4543159526038244,-0.32707664155475413,-0.5972520496482513
143.0,6.562389373779297,-0.23458118251853985,-0.0711146335743209,1.0226034067184537,0.0006348398550419727,0.011063336115569478,-1.7785045016385372,-0.3271460716445722,-0.1740054513327469,0.14975358243476014,0.8059917776429874,-0.4932932348766944,0.13552057720189553,-0.507256892704822,0.14821102057240498,0.11479020091029596,0.9939689743306614,-0.2848725674034162,-0.09821299008372822,-0.022252228871382437,0.14664005149517534,-0.09616914924705307,-0.3031861567483163,0.07514674849287042,-0.09861651097551105,0.8410361494599485,0.2247239368436889,0.6651700168481849,0.2247406305265714,0.04667291429095786,-0.1438771597438402,0.23013953537428922,0.8141404669210373,-0.4552048154567026,-0.3301096353236596,-0.5994378430609162
145.0,6.5775861740112305,-0.23486921741270333,-0.0798848997784361,1.0231154512542506,0.0004622371598447005,0.010440056154263397,-1.7689492700787668,-0.31530847283815644,-0.1796924864487054,0.14405114059246665,0.7992299874171784,-0.49123684111147814,0.13142336333279872,-0.5238557652708017,0.17001326480108372,0.15137676968324298,0.9623786470399407,-0.28062776024380703,-0.10193599434765271,-0.024983736411814183,0.14785542054839942,-0.09261998104718958,-0.31862398744339765,0.07842850043149044,-0.09490879962592288,0.8403970414100492,0.22308821729278822,0.6696309714331425,0.22090015269030586,0.044326840347620355,-0.1415915372425965,0.2292444443281076,0.8164618527140997,-0.45310582016849926,-0.32161535190693624,-0.5921387693430508
147.0,6.5913896560668945,-0.23511027270146861,-0.08886223347516549,1.0238150017141079,-0.0011361891450854442,0.010045280071090979,-1.7590146970817258,-0.30135929286267626,-0.18586252844222767,0.1371786000510063,0.7910247353784188,-0.4894261411838735,0.12766834925581588,-0.5346726002719169,0.1875382790735655,0.1821847442530254,0.9347681751048152,-0.27640870078936586,-0.10540554720289363,-0.028312265798301782,0.14887270724002263,-0.09052152990896575,-0.3273364092299105,0.07923030659119598,-0.09283532535043457,0.8384039720405037,0.22211987654474083,0.6726669319450029,0.21859910906846972,0.046954532720667554,-0.1414448073385687,0.22937045158308844,0.8180885580995974,-0.4519134601028224,-0.31477646806631865,-0.5844147799265087
149.0,6.6104326248168945,-0.2353009602350738,-0.09783345924153719,1.0247788049592188,-0.004751967870650014,0.01024688659742816,-1.7488532169227473,-0.2845968414959716,-0.192214170555891,0.1288957980299601,0.7809554067721534,-0.48774377163961824,0.12531092688534623,-0.5356388954667224,0.19738208221334286,0.20217391291152995,0.9144323313096981,-0.2756585660334153,-0.10818295870129657,-0.0334758856843074,0.1502281043981295,-0.09094455024547565,-0.3244895302503371,0.07681049827126928,-0.09323342392041054,0.8334701399715672,0.22227962757485598,0.6747886450162317,0.21833352175756743,0.05809771552868623,-0.14350389731123037,0.22989751663923985,0.8169617667270618,-0.451526781081115,-0.3123512164899458,-0.5793668514577563
153.0,6.629914283752441,-0.23534574138618444,-0.10839646383224978,1.0248898391792616,-0.005474390004581454,0.009551485571306233,-1.7346779856412988,-0.2708497574222398,-0.19979916316909577,0.11981076910459579,0.7742752749268741,-0.48515156457457,0.12014714646348812,-0.5563381205739848,0.21812395675154206,0.23409426853662318,0.882464399381428,-0.2669463331092955,-0.11105174231153556,-0.03551528528651958,0.1516193927330134,-0.08654675335531689,-0.3402382259738001,0.07917336445308368,-0.0899310042828127,0.8323190999901093,0.22061419957112005,0.6758161504738984,0.21531752124799408,0.05762043299690434,-0.14269154299364845,0.23175796906387097,0.8209894300121827,-0.45205477493157464,-0.30461271016378355,-0.5721364964637946
155.0,6.661012411117554,-0.23545697962378,-0.12198636663467877,1.0253010421734752,-0.009573420132200788,0.008139759260282,-1.7171763332949994,-0.24908599601875991,-0.2108831610027261,0.10594543716522946,0.7631463436814798,-0.48325791813639707,0.11581089599410917,-0.5685615440667243,0.22772436833580256,0.2502649602656524,0.8582685903792805,-0.2611739035960145,-0.11360690837777906,-0.04003794913816845,0.15184748170304757,-0.08678546434133211,-0.3405157926232879,0.07586412856073273,-0.08993963972612204,0.8269913194484708,0.21980801516243642,0.674188423547893,0.2145391352829328,0.07139280505363303,-0.1456314369564412,0.23374163499498202,0.8218777636757163,-0.4531055137490494,-0.3033100121568912,-0.5684352014979432
159.0,6.681978702545166,-0.23556690362738789,-0.13415692124454515,1.0259702883257127,-0.014785394721584915,0.006978655049921517,-1.7011366071232157,-0.2265572826780285,-0.22108943289037725,0.09174788271743085,0.7501454588205648,-0.4810897392048986,0.11317440534281159,-0.5711417484528527,0.2303458636835638,0.25811423664675737,0.8427935835724388,-0.2606296573086854,-0.1160034894153642,-0.04647531391406809,0.1520608711892881,-0.08950974499470396,-0.33030634182660396,0.07084837528110767,-0.09229906146583336,0.8181562889416185,0.22033908362015536,0.673406956495624,0.21485418434378917,0.09157283799649062,-0.149615236599226,0.23560639515190887,0.8192536612224041,-0.45438758817642766,-0.3051762311818908,-0.5673056062218872
161.0,6.706697463989258,-0.23578221862718327,-0.15045943218112812,1.0255397894675753,-0.018503864263239866,0.0037638418115785023,-1.6820676115244835,-0.20233797768139616,-0.23419046607028615,0.07564880869769175,0.7399528445760566,-0.4784926730943771,0.10891677765793259,-0.5955892284647721,0.2289672978709244,0.24643065217707333,0.8201507106307087,-0.24324127846792293,-0.11744517237351096,-0.046809818621190366,0.1503689166975952,-0.08612469827883723,-0.33336463145263906,0.0667027237701245,-0.09145515557043638,0.8141287893131115,0.21950450686804962,0.6737850450004932,0.21603278157142214,0.10206940925304624,-0.15098784208550023,0.2341904894915832,0.8225387285797541,-0.4510564691015678,-0.2972618493814604,-0.5598864585954149
164.0,6.730019807815552,-0.2361490298119004,-0.1640088661181408,1.0255517412117954,-0.02434888200446043,0.0018969063774559028,-1.6659558943692785,-0.17776080287453658,-0.24445698867221993,0.05995884258158929,0.7283524612739221,-0.4762581554266975,0.1066931269729855,-0.604042754301725,0.22190857829594793,0.23057861584086908,0.8089996237344729,-0.23507725148434983,-0.11902715965593202,-0.05031479267014054,0.14925700516647092,-0.08630995205341677,-0.32295905135147973,0.06113825918589037,-0.09387022724488961,0.8059246870136709,0.2205227718376177,0.6751692843777821,0.21774815358760513,0.12103876263882798,-0.1534327736277557,0.23348983071044027,0.8207859225545956,-0.44887429979646676,-0.2940124045426009,-0.5560607236830187
166.0,6.751893758773804,-0.23664601358547038,-0.17951560350753837,1.0237376506652822,-0.024471888876140324,-0.0016723598669191955,-1.6467155728308387,-0.16124307974556357,-0.2566298538602523,0.04351236075025651,0.7270297438717506,-0.47432879487695756,0.10352327426988894,-0.6282695111289776,0.2295091370214618,0.2263372244149957,0.7902054876135927,-0.21327035690380566,-0.12031573436139312,-0.04652319509146986,0.14783317280668923,-0.07552392163167004,-0.32926755737642444,0.057083059487441426,-0.08913827254823203,0.811766906375843,0.21610132290953943,0.6760583464259105,0.21727862376010582,0.12027205530984725,-0.15379013405644737,0.22917913326279674,0.8297092259881603,-0.44268290222187545,-0.27970938942564344,-0.5453875204939125
170.0,6.772176265716553,-0.23729663800734982,-0.1926433806011903,1.0225360573780982,-0.027253107812094328,-0.003617905249210321,-1.6304269478939224,-0.14351503301954627,-0.2655071527490316,0.027950881070300984,0.7238334541538065,-0.47330795791770375,0.10141083449364022,-0.6393710492604581,0.2339000346988626,0.2225660098277228,0.7798528013702257,-0.2015738521926653,-0.12226217299737505,-0.04637435846285652,0.1472714396475555,-0.07022325332032137,-0.32529045648018473,0.053035381211033,-0.0877887803414856,0.8136539576498115,0.2138157157885518,0.6768230137091424,0.21663908302373192,0.12858539600924535,-0.15444422219136436,0.22705653775669563,0.833893635818926,-0.438820786149912,-0.2709377358372685,-0.5390150434486911
173.0,6.7976298332214355,-0.23824532710317847,-0.20932494586708655,1.0202914217568575,-0.028751867783796785,-0.007282700163288446,-1.6114028499348179,-0.12579267407911487,-0.27615064448248006,0.01131414242806976,0.7261215773236115,-0.4723095711569183,0.09840668750859911,-0.646498651621965,0.2315457730485147,0.20902586465942713,0.7725619009638959,-0.16835411437451892,-0.12575931939239254,-0.04535720782379361,0.14618433782312712,-0.06502041587924848,-0.31850419474062314,0.04890998028200179,-0.08535312635281181,0.825354065579152,0.2108595697630699,0.6871769314262306,0.21597474050530224,0.13537542593398988,-0.15439058733251565,0.22370517359556302,0.839053011766398,-0.4339273792955557,-0.2617928664572846,-0.5338295378131501
176.0,6.824158191680908,-0.23939318547045157,-0.2267641811573869,1.0181717756749342,-0.03177832884145878,-0.010646824060024278,-1.5918535207228652,-0.10516156658428287,-0.28602314216470615,-0.006807148588627891,0.7281530728858618,-0.4713527293739096,0.0954384707575297,-0.646661990053277,0.22372621170837648,0.18956101742612624,0.7699609978061224,-0.13818860987782822,-0.1301605388340968,-0.04643487631596503,0.1461724457205497,-0.06403886951804832,-0.3050773326692351,0.04592288023956931,-0.08453715772245335,0.8351901507082216,0.20927438072935012,0.6957015196969918,0.21588814330385236,0.1461525456109194,-0.15274471326751898,0.22092543389688077,0.8424664658103183,-0.4295726816571411,-0.2537319574304303,-0.5316654923652825
179.0,6.848776340484619,-0.24086363736484961,-0.24349934488934633,1.0174262358994681,-0.039353463864770094,-0.012517042440846428,-1.5720236046350746,-0.07667265423661716,-0.2928580364379374,-0.02821685118266444,0.7218325309794985,-0.47073067806133756,0.0933618765858183,-0.6343300354902947,0.21115331199926207,0.16850471476687096,0.7740722773739792,-0.12688878879661164,-0.13533134794188373,-0.054332841766618865,0.14682125559510145,-0.0697556493525547,-0.2740558296596799,0.04285583215182516,-0.08983968158569276,0.830840337143859,0.2112581937685194,0.7016740823140475,0.2150058174316105,0.1759937669299249,-0.15207549989594027,0.2219956191885452,0.8379749077081806,-0.42922182093938577,-0.2534995507999817,-0.5358350821103101
182.0,6.874534845352173,-0.24202234342218032,-0.26311664741701246,1.0152100072217678,-0.03884164171758449,-0.01638351602489118,-1.5488476964152333,-0.06087259881844252,-0.29950876116372604,-0.04169274689869382,0.73189148109716,-0.46217709105945803,0.0899697894948073,-0.6289987204007529,0.19355488957718092,0.13786706189919967,0.7761231286450339,-0.09176034259580665,-0.14343915704095078,-0.05409686303188342,0.1449124012653084,-0.06686511081726319,-0.2528324015687085,0.03835585133154293,-0.08988960131116891,0.850079977486406,0.21050728741693486,0.7133854427885788,0.21760410315296932,0.18315267101446187,-0.15146037159800585,0.21320706616500826,0.8396209447319218,-0.4203860086883723,-0.24889133372579264,-0.5369570269899017
185.0,6.898589849472046,-0.24319741813090118,-0.2811871120337589,1.014553982667585,-0.04182845716353839,-0.016544663362146717,-1.526487777419132,-0.03891896335376457,-0.30140303455025014,-0.05966739472910243,0.7329639440587129,-0.4562213740461397,0.0875412044480694,-0.6155665997502731,0.17844500052366188,0.11059300350113907,0.7784469845556958,-0.07682604694431536,-0.1509375472225032,-0.05990260550159366,0.14670523087973408,-0.07008277720945866,-0.21907465550017485,0.03347008586917925,-0.09473075738260008,0.8554847261141092,0.2122616541089657,0.7181368318280603,0.21971122975971485,0.207682065945177,-0.1524249051942067,0.20899368442796254,0.8367525557162101,-0.416218604965595,-0.25207467947731965,-0.5425344022682755
187.0,6.925355672836304,-0.24388472223281354,-0.30132903287617935,1.0126919889217385,-0.03713414465867647,-0.01688228145818803,-1.5043652396714278,-0.03312375673231855,-0.3020243977379868,-0.0683537824783453,0.7554180025164356,-0.44143760345216454,0.08603678603067233,-0.6131677212077896,0.1594802192429066,0.0806701801648923,0.7892697121129345,-0.06014005787091664,-0.1601170936626179,-0.05392471770100208,0.1489660357087735,-0.06424118057132566,-0.19932039914701943,0.023803867153876192,-0.08652978387304565,0.887293309836798,0.20613151761138998,0.7430727208391374,0.228673337351129,0.20580783129820834,-0.15595179997540043,0.19428657506466784,0.8380647337020541,-0.40389885333473774,-0.24856146737049295,-0.5431948869738101
190.0,6.945906639099121,-0.24438836812593684,-0.3180298133483874,1.011836787213031,-0.03551428462455532,-0.016233458749634562,-1.486110073180146,-0.023326166139316686,-0.30144180846239244,-0.07885606160622505,0.7679692708729996,-0.43118645882197837,0.08510486146276497,-0.607195674879124,0.14464795413093656,0.05691349153359675,0.7981737137209133,-0.05424310799597805,-0.16733081337653027,-0.052332557862433855,0.1521314776352612,-0.06347684300865881,-0.17684220597228947,0.01618986255738676,-0.08224867151182298,0.9086979169609881,0.2023716770110444,0.7584767105319002,0.23588372733751006,0.21484051651966296,-0.15876567775315475,0.18502378909460365,0.8379001261072817,-0.39653020424928076,-0.24974850975746007,-0.5460175890454828
194.0,6.9693968296051025,-0.2450054442379027,-0.3341029779747723,1.0124784150035588,-0.038399170642656744,-0.014274901647353438,-1.4687606756739606,-0.0028758231824736833,-0.29894988517960464,-0.09543380445355476,0.765771768994568,-0.42529805807456267,0.0845325400532137,-0.5932280745136367,0.1331119098257248,0.0373106801622273,0.8052533587489086,-0.06249115997030549,-0.17305684161294888,-0.057751664524042,0.15738291267760707,-0.06883656608131108,-0.14102911653690284,0.010635115550137832,-0.08413017449889404,0.9141399008832201,0.20201771824013876,0.761728664426526,0.24062490110084736,0.2439187204234624,-0.16141782833173246,0.18266773841140307,0.8347588100834485,-0.3958056663832099,-0.25910279379424517,-0.554443592809969
195.0,6.999890327453613,-0.24505973688081428,-0.35540197826772524,1.0126986591657585,-0.03664211012145347,-0.01337742384153566,-1.4440622120079705,0.0015223275364939061,-0.29131166027347777,-0.09696494730932584,0.7918439275514676,-0.3931561381122178,0.08351137379613197,-0.5823049976530562,0.1207946313232568,0.01978682447894762,0.8232050042439922,-0.043953289690757145,-0.17511043228173334,-0.05461148640836139,0.16418430405035986,-0.07010475009901086,-0.11691715167117775,0.0052927682179517025,-0.07396074730923526,0.9399326275592648,0.19394471273046576,0.7855014626568552,0.2464893823057197,0.2458179840631077,-0.16552519249980796,0.1736405707435985,0.8331727729216651,-0.3906717151025647,-0.26318352342823575,-0.5594326059991409
198.0,7.015627861022949,-0.24506514134754376,-0.37083626380472073,1.0133863012853137,-0.03719942203851896,-0.012085822333973775,-1.424205464809798,0.00824075822956402,-0.2850190502735837,-0.1014339201898682,0.8068375604872737,-0.3701551845338459,0.08270143692986164,-0.5707643000882918,0.11187210979613603,0.006303431910514435,0.8345957520846276,-0.032402201803161605,-0.1760281334501274,-0.05681906118446884,0.1699618510758526,-0.07333463600715699,-0.09539131787665336,0.002250283217966003,-0.06884040013266407,0.9546414239601182,0.18917027152159843,0.7979463709011668,0.25014358833639094,0.2540156776906951,-0.16822541392333817,0.1692462846786711,0.8316824620156944,-0.38924618383001697,-0.2693630878082567,-0.5648778153135576
202.0,7.0367796421051025,-0.24478946250084405,-0.3883046833802205,1.0143103659288841,-0.03576164317211764,-0.012793326178441713,-1.396575317749115,-0.008675403811602502,-0.2635360520263256,-0.07667272785506084,0.8570564365642248,-0.30786295899345995,0.08240238661059643,-0.5579983765806216,0.10503363816333897,0.00030964910709609886,0.8493649911728302,-0.002243495270680426,-0.17211628194484013,-0.05011008367568778,0.1770966784823014,-0.06799510838353878,-0.0872054273903948,0.0017659708415281548,-0.07093357566986594,0.9783995126242878,0.1887698499065235,0.8229680705669058,0.24577701158132437,0.23819733360283218,-0.17333335659341137,0.1601447099720508,0.8312713919874897,-0.38499871197916186,-0.2630388307736402,-0.5639325953694521
203.0,7.0652501583099365,-0.24472593062025322,-0.4065611252354877,1.0159428054754815,-0.036800976550471445,-0.012406832891090326,-1.3658017483335645,-0.016923458776254945,-0.2414774004362741,-0.06167870847277901,0.8952424940128131,-0.25373951775389675,0.08247528035307261,-0.5388868768739812,0.09727985605085034,-0.010529381933166975,0.8574415464969678,0.01580603496683168,-0.1690223104844749,-0.05247687061169437,0.18426858807078952,-0.06710610607030257,-0.0672257308168004,0.00337677884704113,-0.07909065804884824,0.9936399011170054,0.19231707326127434,0.8329667708724515,0.24028227593191187,0.24005961800659273,-0.17656957878478038,0.15571519734265354,0.831130468560836,-0.3840077668881241,-0.2620326345359519,-0.5659757002069022
207.0,7.080022811889648,-0.2448223725463744,-0.41906802410820376,1.01740734085925,-0.03879536334430375,-0.010946967705684374,-1.3427723790622623,-0.018831377063391646,-0.2257295628959608,-0.056945517508668275,0.9159235077761498,-0.2201064329096413,0.08262142210129417,-0.5225919501540618,0.09154185482359176,-0.02120337086623186,0.8589032867647284,0.02277151111245254,-0.1673876857901865,-0.0593061938690837,0.19013136644947937,-0.06874249772658934,-0.04745839707226139,0.0053924336606780395,-0.08853979897410663,0.9991580558916187,0.196795249188857,0.8330874617720617,0.23542001016398387,0.25079754995180853,-0.17811302726307637,0.15477790675796918,0.8304190308027198,-0.3853697042177143,-0.2641879452546242,-0.5695438141491873
210.0,7.107306003570557,-0.24474370925374989,-0.43594375507079575,1.0192535178803048,-0.03600628087092762,-0.01111653436748547,-1.30493262289529,-0.05681544730706155,-0.1726063385737184,-0.0035693489704966865,0.9853265898053305,-0.14388540737076272,0.0928927627925211,-0.5040360563530695,0.09359209881789218,-0.018255221759949484,0.8623887421944687,0.034193560094723546,-0.1600568696362279,-0.053506833907614404,0.19597226087536054,-0.0666074496803106,-0.04623274043972768,0.008165559369419498,-0.10476801237632533,1.0005011119152578,0.2045602650030669,0.828605370370717,0.22162029269561087,0.23044501962703967,-0.1882325560611856,0.14922781078652236,0.8321971287806328,-0.382402398369145,-0.2498571676731573,-0.5540626959985755
213.0,7.133318662643433,-0.2447369679242984,-0.4505317817537931,1.0210445520225597,-0.03453122726560649,-0.0086903037275026,-1.27081229072461,-0.07958924039117574,-0.13409089108946845,0.023272575357830342,1.028976964246956,-0.0952228559140239,0.10148972553663994,-0.4860253625394302,0.09337095699915068,-0.024165670076585006,0.8599570834082352,0.03584805418924225,-0.15561318897300194,-0.058820530175203445,0.20213868243752642,-0.07003839764961806,-0.032781085595420964,0.011662969541706786,-0.11828372307349941,0.99686074639696,0.21098806598926964,0.8164950734485864,0.21170723935264732,0.23049142420433014,-0.19399634515549496,0.14784015600296446,0.8321167138165242,-0.3824771213496866,-0.24520365782778664,-0.5472216481020133
215.0,7.156545877456665,-0.2442807823651632,-0.4654945986900469,1.0228659966433558,-0.028740302866284553,-0.011019699452965537,-1.2280825148327121,-0.12864455811734338,-0.05952768511098887,0.10293884392553314,1.1033568372960305,-0.08233161528477805,0.1311916723700028,-0.46939655286962045,0.09632365563505779,-0.016975444643837167,0.8602698114893612,0.03853682265732576,-0.1464072288277545,-0.05138795009764758,0.20601025686722818,-0.06390328196523032,-0.044467483415289936,0.01474185938395464,-0.12638103775928283,0.9886215554308417,0.21300090789744552,0.8055437684874649,0.19756756703382636,0.20128264639916466,-0.2095926163618803,0.14322361677942352,0.8316690442804664,-0.3850676995980842,-0.23259793667431483,-0.5377707035872389
218.0,7.176384449005127,-0.243895965620468,-0.4778833396436831,1.0242153413899535,-0.0249294127281101,-0.012250554731334679,-1.192971092841689,-0.1651910618227559,0.003138002722968637,0.16664694460131846,1.1597957876494696,-0.0909116448020783,0.15935321583648732,-0.45493728975620107,0.09882287278334004,-0.013431329436010706,0.8592893631338783,0.039271610394338866,-0.13930671110872547,-0.047626962000218646,0.20910965829941908,-0.05935827808859665,-0.05130371376778564,0.017369230083489673,-0.13177070460316345,0.9799527494076181,0.21382292556402538,0.7949629561402642,0.1869217502564171,0.18163880544797983,-0.22221610853489868,0.14054103977655918,0.8300220919859522,-0.388664707358222,-0.22410416326416088,-0.5323931203852201
221.0,7.198958873748779,-0.24358433063452634,-0.48873663801136263,1.0253014744335402,-0.025073722752928247,-0.012898001860181621,-1.1659513534296329,-0.179610647754675,0.040175761544924964,0.19605546499133483,1.1878159075818595,-0.10901939724431403,0.17816576174219406,-0.4392650060926473,0.09776150565495191,-0.01883825459053619,0.855803209084719,0.03500109544251605,-0.1362039615901359,-0.05393907488160882,0.21133679223904028,-0.05835884326942245,-0.04170084399172058,0.02212735779056512,-0.13592808921701147,0.9711579515776714,0.2147030904757707,0.7828572275801026,0.17979845853446036,0.18467909449236464,-0.226760065681548,0.14200722831555931,0.8261500286697647,-0.39414764331903285,-0.2240242458882306,-0.5366358690352482
223.0,7.224085330963135,-0.24299853785568468,-0.5010909802433584,1.0261797062584757,-0.02061142248717529,-0.018672963617839298,-1.1311093124208165,-0.22028365229359986,0.0789505787487774,0.2510009330608871,1.2182497752025605,-0.19673107488952452,0.20425717684781564,-0.424699068653121,0.1072916208076532,-0.002267062009011566,0.8584450744732823,0.038056822035076016,-0.1277576134746053,-0.036788770149929095,0.2067611127502308,-0.047719038761565816,-0.05752696465231344,0.015356800262156398,-0.1300736514167916,0.9539775951611319,0.20953442570197336,0.768253556104947,0.1844726554103383,0.15401299198655138,-0.2513299541888409,0.13950367358253934,0.8254318887882355,-0.40159272749515784,-0.21091033486059552,-0.5252773863495503
226.0,7.242989778518677,-0.24226826838687635,-0.5111787137039214,1.0266776862335862,-0.019771022056833072,-0.022325501139800155,-1.1063251475109719,-0.24157163946643795,0.09827810896663658,0.2769415824592175,1.2329360243266172,-0.2631093289144319,0.21907519216696816,-0.41083794639864757,0.11373831224961692,0.005745506605171705,0.8587763800573669,0.03842892498666804,-0.12264407417044736,-0.02947553350113006,0.20370671085298958,-0.04211894939534062,-0.05829157632582656,0.011597637813401092,-0.1266099207002791,0.9391461234068705,0.20664291163440662,0.7564376162004632,0.1892005853631129,0.14307007302797914,-0.26603832555738005,0.1395472348708875,0.8225079262049877,-0.40757280577315147,-0.2033839278691328,-0.5193670227693268
228.0,7.267460107803345,-0.24067433178373915,-0.5229718436425305,1.0261002025848645,-0.0159940864802584,-0.025482879075067147,-1.076426554595674,-0.28783556242868347,0.09834611534904622,0.3004657776594385,1.2267675682310015,-0.33937501017136107,0.221305250491995,-0.39889964969893477,0.12924497769663187,0.02469457149686326,0.8651233183048375,0.04702145357758561,-0.11337280988350093,-0.005986643660136343,0.20374342447226695,-0.03373173059216295,-0.07956434391402577,-0.0017960481198082724,-0.1120985876254392,0.9194289423877624,0.1965389984557471,0.7447082389089728,0.20359287321954178,0.10185073160423126,-0.29730020042640004,0.13635851365811422,0.820292600648308,-0.41437797926122427,-0.19197683579638897,-0.5001764477847431
230.0,7.284579038619995,-0.23891306660045736,-0.5328079557090665,1.0252753897161049,-0.013675157298104902,-0.027068949275979637,-1.052175895852279,-0.32377608923108625,0.09157198368407143,0.31089430509976984,1.2167811040033318,-0.3938542940179586,0.21856542636739137,-0.3887834919603367,0.14155498197970978,0.03769368264575869,0.8698196533014582,0.05418346668518726,-0.10561161800311458,0.009673389226714537,0.204813776741968,-0.029395368606808806,-0.09256354432278668,-0.012418290957855576,-0.10045951146606116,0.9028210257109033,0.18835045989260152,0.7359740418868237,0.21500606901136898,0.0721078954632614,-0.32100032989297145,0.13437102129983367,0.816703428346792,-0.41966178024078293,-0.18472235916665708,-0.4855460463633562
231.0,7.2990288734436035,-0.23720518750709021,-0.5408264139915042,1.024645418556698,-0.013464375132531323,-0.027589247229954355,-1.0333637040168218,-0.3410024880041522,0.08098409775343618,0.30600447254554886,1.206838521030619,-0.42037993956069863,0.21310011078455715,-0.37875923359556696,0.1464119905230542,0.039467037518098234,0.8705076403389491,0.05632179088814884,-0.10127836133400411,0.010971430103603984,0.20593295486210467,-0.030484358722538657,-0.08880941350083761,-0.01630427751358747,-0.09495732496501971,0.8893368975935547,0.18451653118329858,0.7300538756205794,0.22079446833655492,0.06513737487803124,-0.3316736579782722,0.13505522832938827,0.810701619839398,-0.42351230692119635,-0.18245181465885063,-0.4796225246498193
233.0,7.31289005279541,-0.23588374009347746,-0.5467416946890725,1.0242913574477694,-0.013405169744437964,-0.027945856141366437,-1.0185054205251323,-0.34965015325578286,0.07245921811620326,0.2985660195232187,1.2008947214390762,-0.4358442837265898,0.20928482489024725,-0.3707259840829197,0.1472528190560369,0.0370801292098105,0.8694305214955259,0.05612863799381973,-0.09881928232987772,0.006634565307754868,0.2061463574769532,-0.032825317224817324,-0.07971433473162648,-0.017102779149657132,-0.09281911039824009,0.8776287671823589,0.1830504288322204,0.7263262020600577,0.22339018016949078,0.0671630662373678,-0.3362279706425001,0.13646634092308127,0.8041551260919972,-0.4263735690134428,-0.18131001813382353,-0.47761677017330506
235.0,7.32694149017334,-0.23412374345017822,-0.553819522054181,1.0229253498095492,-0.009500692721404719,-0.02664256859689523,-0.997314645944072,-0.3832729110722972,0.057208521535537,0.3001844960428419,1.1697692967285802,-0.45627428279591103,0.19814084461632148,-0.36628800231578507,0.16060492597079154,0.048892602795637646,0.8747563181688438,0.06489533278006886,-0.09110071094097298,0.0181518482502298,0.20740618875860362,-0.033196711988594085,-0.09119531159945121,-0.027109434026046524,-0.08860824928816116,0.8682340048879419,0.17814331567299052,0.722024020885699,0.2266787033613783,0.03856086068649992,-0.355592544488776,0.12977608668926327,0.7975644924774099,-0.4291933945074447,-0.18216254366107726,-0.4765857510993342
237.0,7.3434529304504395,-0.23218891427435812,-0.5610205313085803,1.0220584293423052,-0.005792875073966446,-0.025445986583988618,-0.9768696571659669,-0.41108856861348675,0.04411237575125892,0.30212952639334983,1.1398386681638941,-0.47269165481191155,0.18853260578066094,-0.36075923870123033,0.17178322900951726,0.058426375077625464,0.8775244051766351,0.07179263060661972,-0.08422883318438847,0.02660143047484588,0.20855413148382895,-0.03514308267175105,-0.09827286872785504,-0.034543953035539254,-0.08623901786858032,0.8605907744363822,0.17471067216357572,0.7173856849810049,0.22829558003225686,0.016339075584019556,-0.3710349246658983,0.1241038854026128,0.7911959658118883,-0.43199814192541897,-0.18450969298770128,-0.4782171452158704
238.0,7.357500314712524,-0.23000687516000368,-0.5681164351428846,1.021882698252457,-0.004022069766510127,-0.025167006345195697,-0.9593835569047409,-0.42669027241022517,0.03295556205425243,0.3001803367957063,1.1172127176006421,-0.48421181911134753,0.18107263722231212,-0.3522286781807801,0.17836959990906048,0.06272402641445725,0.8761885185560392,0.07568559256932711,-0.07962071902552204,0.02876308477382116,0.20889061718200388,-0.037926576405923076,-0.09532401394858897,-0.03832723723276436,-0.08596996908011897,0.8537138349846402,0.17326364190104238,0.7113641870548755,0.22884921519076562,0.00825527890681378,-0.3799412125518425,0.12117013564359261,0.7854286558506798,-0.43488427046623523,-0.18825672613444516,-0.48229979924935823
240.0,7.369957447052002,-0.22809858747693537,-0.5737982959178982,1.0221240477069438,-0.003647430727809717,-0.025320861894072882,-0.9464466629913045,-0.43231330354673136,0.024874852064800917,0.29582447866258055,1.1031346992227617,-0.49084802934611904,0.17630323281164728,-0.34347854431081626,0.18085513438179152,0.06277991397240408,0.8723523378946083,0.07707834198503968,-0.07708924842470533,0.02623886203932803,0.20883656492649383,-0.040689217667354075,-0.0865477342971549,-0.03924291573076916,-0.08703662502036699,0.8477611501728561,0.17331129792913402,0.7057341211581951,0.2286863437574425,0.010273799000271321,-0.3834106080253932,0.12036215938129169,0.7806380721895128,-0.4373532295469673,-0.19213915498739417,-0.487043286616173
242.0,7.385397434234619,-0.22528427561070513,-0.5808633394547746,1.0218793088417695,-0.0012315337183276395,-0.022127553629154632,-0.9281729065687372,-0.4561185366459031,0.02421046817247212,0.31459364619859087,1.063568742519539,-0.5044514035601375,0.1705758952519027,-0.3353373022769052,0.1904574420022273,0.06837465212081008,0.8695377506999998,0.07753478234419997,-0.07108711684677742,0.03736951383391594,0.2150842385389759,-0.043517202336386035,-0.0994851109729406,-0.04358513272991285,-0.08734004650366553,0.8459975508001023,0.17251073447165757,0.7086695784846884,0.2277485921113722,-0.023008305445066306,-0.39748036557621175,0.11429300020376432,0.7725037822376173,-0.4407853373941544,-0.19662952575815568,-0.4905000227145033
243.0,7.400792598724365,-0.22248904996182467,-0.5878619026446317,1.021815445205826,-0.00011141744308644876,-0.018564771961781117,-0.9109813579800062,-0.4752269245316326,0.025396439966268124,0.33184405094974306,1.028199916645785,-0.5144972961198027,0.16544484994982803,-0.3260460395144132,0.19938884562812267,0.07150252476372199,0.8642440495443192,0.07735478513938791,-0.06607174229934648,0.0451399359277624,0.22126612298299053,-0.04649009977117957,-0.10785923355549366,-0.046804469929185896,-0.08849324898108354,0.8447800026918716,0.17242350787327548,0.7105439180977533,0.2265465386195363,-0.049938421422379684,-0.40864305753222935,0.1089843975048254,0.7649952129590167,-0.443815656442998,-0.20183653075397684,-0.49491896692305476
245.0,7.412816524505615,-0.22028211196941913,-0.5933631909398203,1.0219760169800653,0.00020549308964816832,-0.015639112083206327,-0.8981116944204621,-0.4872467036768915,0.026354073319591623,0.34274743767826843,1.0031448500876354,-0.5213185346142688,0.16155163007518086,-0.31787745988006094,0.20581035589668306,0.07276962881353594,0.8580685789160512,0.07758517275071931,-0.06263140775013418,0.04915205722238564,0.225976507454756,-0.049321907863821776,-0.11104837801820085,-0.048643603704335084,-0.08968233856781638,0.8439429002712004,0.17264928605731994,0.7107442788035718,0.22561578861297082,-0.0661656231730096,-0.4156304267216918,0.10559104611544567,0.7598714458031879,-0.4463875715049473,-0.2064843470556162,-0.49904582186908764
247.0,7.426149368286133,-0.21801804057968457,-0.5990377021583948,1.022566641038184,-0.00134781750653826,-0.013842800166524272,-0.8870811355578581,-0.48983597419681335,0.026014060908140575,0.3446065629503948,0.9883272002132591,-0.5257999100097445,0.15819741014575903,-0.3069240540691729,0.20911756297627204,0.06994652442477256,0.848731830574008,0.07751215214827432,-0.06140223687697781,0.046735882800601314,0.22892389407387892,-0.05295443430499063,-0.10299408180732442,-0.0478927420604513,-0.09194183514389578,0.8415791419773753,0.1739002665971045,0.7076412781178032,0.22449680487900536,-0.06595943609671769,-0.41705628091558106,0.10492517635328297,0.7551162444336402,-0.44907103976790774,-0.2113682093036538,-0.5046155650505898
248.0,7.441422700881958,-0.2147191255259439,-0.6061445489167058,1.022533646458406,-0.0020035467801504214,-0.008660751623046394,-0.873472771730551,-0.5103651536039376,0.029159068258973436,0.3622802925764419,0.9510409118070521,-0.5185589579644635,0.14862475185981977,-0.2969599749037667,0.2155473330419178,0.06659892390007521,0.8406594193789754,0.07574144291065554,-0.05885646918547335,0.05555495313993346,0.23454565093344593,-0.053721774612524045,-0.11172711501728294,-0.05088132618675495,-0.09555297659401149,0.8432340527543684,0.17619710623262405,0.7098953647233939,0.22429130912200132,-0.0984658273107531,-0.42440015770656697,0.09669373747095897,0.7464879826136719,-0.4480154151511279,-0.21982211558437315,-0.5102816513335653
250.0,7.4552202224731445,-0.21183735074587004,-0.6120898900229413,1.0225480859393505,-0.0025410096460613063,-0.004300170597877749,-0.8625946833240763,-0.5282830509734815,0.030980625313899498,0.37649590024550306,0.9175151800062127,-0.5102920908032014,0.13982065750249772,-0.28846549268577004,0.22041638860951876,0.06341031203696106,0.8334331638240309,0.07478133128731364,-0.05690072230299878,0.0638730470216482,0.23887451724947062,-0.053771921656223784,-0.12079125601652593,-0.05370440597868405,-0.09836439518315904,0.8462657303887602,0.17824236524239495,0.7126565108589904,0.2248223890044695,-0.12837691945736784,-0.4304577217492487,0.08913955179614648,0.7400088298863454,-0.446843502424069,-0.2279894527929141,-0.5153868919044167
251.0,7.467922687530518,-0.20891110998417875,-0.6181649132069104,1.0228819502969637,-0.004762423330728019,-0.0020485870354029676,-0.8525924143062179,-0.5367662487070815,0.03131815330715506,0.38361126443493054,0.8936526362557283,-0.5047945276908108,0.1325937826602267,-0.27681315442880555,0.22354586525375236,0.05898199210048763,0.8239724494948724,0.07413789999563236,-0.05622136088219602,0.06643431715637818,0.24167819474064378,-0.054869567838039424,-0.12026518540003199,-0.05421247424729219,-0.10138191491032718,0.8475929195216296,0.18050340509155383,0.712602779664163,0.22486514816850495,-0.1425147422395034,-0.432485792295199,0.0847169952687129,0.7343638337718422,-0.44693544162793664,-0.23529562355084985,-0.5209800708450316
253.0,7.479863166809082,-0.20662573596585898,-0.6228874950897014,1.023344226444301,-0.007376305603740288,-0.0013381922036841728,-0.8452146183725322,-0.5382133479975368,0.03068105557862244,0.38528491601432313,0.8795373276904632,-0.5016017832107588,0.12771359522551226,-0.26581270364664605,0.2250320661737814,0.054849511220316255,0.8146854508089447,0.0741807299307012,-0.056340488409436604,0.06530540175110444,0.24315678214799008,-0.05599431717889104,-0.11488974937710056,-0.05348940217798703,-0.10382739101921591,0.8475793007665513,0.18239529457595757,0.7109779179639507,0.22472154781971448,-0.14541466717507467,-0.43201590160175507,0.08267944942955416,0.7305099049736316,-0.4478366500096287,-0.24086444249673508,-0.5256903262807512
255.0,7.4927637577056885,-0.20422069303352824,-0.6277783165959672,1.0241475451910826,-0.011648896012880465,-0.0025000097815076334,-0.8386614309865351,-0.5304896993995962,0.0287669507097435,0.37939109582493,0.8759020960656185,-0.5022955520720509,0.12462316887304264,-0.2514764852703125,0.2249704517388551,0.04941130753973987,0.8028468181920723,0.0745551645507366,-0.05774585300171603,0.058312731854059385,0.24341663865390412,-0.05806944710246002,-0.09875614547895417,-0.05058359813178793,-0.10665432203077777,0.8442534154787775,0.18454941645744616,0.7064822228285219,0.22411255270904218,-0.13151580877809743,-0.4279118354415803,0.08375773809344518,0.726067409552333,-0.4500644706495155,-0.24522532033239175,-0.5307950283627699
256.0,7.507566213607788,-0.20008004549738484,-0.6347127338481704,1.0237741303638228,-0.014017461467768165,0.0026301468481620765,-0.8282786604327356,-0.5480592345865858,0.03061471945119888,0.38899865544794565,0.8410308836653121,-0.5064914044354327,0.12157043749633925,-0.24049218061658467,0.2279543120576017,0.04030315139015922,0.7938117862286743,0.07495995631217652,-0.056157141442458806,0.06788356061828571,0.24682850771655257,-0.05585359752727315,-0.1070309181723274,-0.05119248900720649,-0.11007880605524631,0.8479006252537651,0.18732892629121933,0.712508968278461,0.2229481696998539,-0.16623270404971469,-0.42662130018524314,0.07661736128820335,0.7179267725620613,-0.44940332881256484,-0.25195103214643677,-0.541872075663481
258.0,7.520781755447388,-0.19674201623940313,-0.6402713981025216,1.0235188330524039,-0.016570053967331706,0.006221041832827563,-0.8199741585458684,-0.5601007723659184,0.03193080464294846,0.3957078218675514,0.814423963666518,-0.5098320649435042,0.11912163399021047,-0.23048829331350343,0.23035470644001843,0.03289860233597883,0.7854013565467408,0.07571814508613092,-0.055087834766636534,0.07424125338558848,0.24962331858891446,-0.054116143684844055,-0.11225245074437423,-0.051410633155419154,-0.11279275947358153,0.8506433906670319,0.18956122940511644,0.7171108917724247,0.22198019558037863,-0.19172424979103983,-0.4250850628114373,0.07125722673381579,0.7122771825834702,-0.44933823101525217,-0.2575388240695203,-0.5506564494049296
260.0,7.534505605697632,-0.19334121118653294,-0.6460416345964732,1.0234220831045358,-0.021064874439150522,0.0075307649245440166,-0.8121626914353846,-0.5642269834830926,0.03275126614779464,0.39760136269475743,0.797792713679397,-0.5139900450707878,0.1165136341830281,-0.21685990510485087,0.23256345893860042,0.025847104873437277,0.774975229569439,0.07637962001514839,-0.055033824806225956,0.07528101657146466,0.2519150791699186,-0.054012727139102865,-0.1083073931788695,-0.050077990338822015,-0.11586035903093747,0.8502450899179698,0.1919353443817244,0.7197925719441751,0.22069184507686593,-0.20219928029838818,-0.42190346858009053,0.06845107650357986,0.7062681552814647,-0.4502921048121792,-0.26192189454133546,-0.557768831607338
262.0,7.550557613372803,-0.18992781954833426,-0.6518504190077518,1.0234702832909763,-0.02701388058359873,0.006883836465410989,-0.805115046642862,-0.561093538987006,0.033166516924390224,0.3948489326318304,0.7912404547380891,-0.5189770706508448,0.11376280189869357,-0.20025689766604843,0.23460111568683453,0.019471335271052718,0.7625355125542695,0.07704646624187693,-0.05596616655104528,0.07137197441261717,0.25368268022065976,-0.055626558713122706,-0.09488951526777643,-0.04731731913510647,-0.11937012063874694,0.845396438198083,0.19447769611813057,0.7208243527602557,0.21910281254703218,-0.1974077328327291,-0.4174441088790796,0.06798785847151304,0.6986858818728738,-0.4521784833852576,-0.2647185679602655,-0.5627987129290474
263.0,7.566242218017578,-0.18491837389157886,-0.6592907929914437,1.0220472346783533,-0.030103555168273538,0.012861920029234935,-0.7935665138306061,-0.5690106366706963,0.04489452799408583,0.4158662109113903,0.7687997075166926,-0.5417748509805156,0.11696176701253203,-0.1895526871416755,0.24041765848810745,0.009561061391705237,0.7541129237087163,0.08026464610058687,-0.0530872408802959,0.07682401910457284,0.2543141281800559,-0.05346997541330991,-0.10237582041831081,-0.04550817024650443,-0.12048171266453435,0.8517861531679591,0.1968305499323308,0.7281121842517084,0.21947153335245922,-0.22215881636881296,-0.41088563138721224,0.06972983918113296,0.6930489622550737,-0.454155405018921,-0.2747182926026945,-0.5660072480622196
265.0,7.579521656036377,-0.18078339423169987,-0.6655061238606256,1.0209703998671305,-0.0332757856774273,0.016915087789623695,-0.7846069930342037,-0.5737983423929012,0.05448422075334801,0.4317672596097286,0.7530581371802731,-0.5605989746643087,0.11896884864689808,-0.17919242546246728,0.245194416101019,0.0018667991701581655,0.7459639114351185,0.08310117405918824,-0.05111054056699864,0.08013325618774805,0.2548999710595621,-0.05233319718524761,-0.10599868209089852,-0.04354263116525344,-0.12146837724406642,0.856570494205243,0.1987569619082254,0.7334925533229031,0.21954086510839826,-0.23920512517147563,-0.4049478271118844,0.0714492084210511,0.6888036816268146,-0.45624042956975175,-0.28268274379969716,-0.5686953192467223
267.0,7.592778444290161,-0.17664427815058198,-0.6717647888435543,1.0202653776135537,-0.03751537906087149,0.018185731114076054,-0.7771416495810689,-0.573508410422419,0.06151161627233935,0.4412361044906011,0.7450922032264586,-0.5765120054969944,0.11911906209344539,-0.1654670299675151,0.24893582051124968,-0.00425229460153425,0.7358825367136961,0.08514417442081043,-0.05036858346540282,0.07972929480012109,0.25515355561246644,-0.05347195712997466,-0.10017456245506592,-0.04045617144082868,-0.12330321980561298,0.8574052071697371,0.20084419319726363,0.7366558796889169,0.2188117430625452,-0.24334770794699795,-0.3984774968270077,0.07379381463336426,0.6828519326928935,-0.45886531656257856,-0.28816876357985466,-0.5712812078848509
268.0,7.6070709228515625,-0.17236188473310493,-0.6780299694718632,1.0199677908812124,-0.04284493372104213,0.01688761751984702,-0.7714229351812202,-0.5680803900000492,0.06595694028230574,0.4440443394757442,0.7447180780343226,-0.5893809874093332,0.11742294731744334,-0.14815748012141444,0.25175850985727627,-0.008502324729978323,0.7234159143414975,0.08649535563923172,-0.05083190525084184,0.07585348714053769,0.2553327024617822,-0.05670849046650566,-0.08385525951433975,-0.03660107832496759,-0.12624394863859484,0.8525881174636483,0.20320824722516373,0.7378737333128429,0.21748860229165531,-0.2336619108155936,-0.3920066180074579,0.07640217300837415,0.6736366577603099,-0.4618982147863462,-0.2909459837390119,-0.5733874371112069
