ccrpRepo/mocap_retarget/src/mocap/src/data/output.csv
frame,timestamp,posX,posY,posZ,roll,pitch,yaw,left_hip_pitch_joint,left_hip_roll_joint,left_hip_yaw_joint,left_knee_joint,left_ankle_pitch_joint,left_ankle_roll_joint,right_hip_pitch_joint,right_hip_roll_joint,right_hip_yaw_joint,right_knee_joint,right_ankle_pitch_joint,right_ankle_roll_joint,waist_yaw_joint,waist_roll_joint,waist_pitch_joint,left_shoulder_pitch_joint,left_shoulder_roll_joint,left_shoulder_yaw_joint,left_elbow_joint,left_wrist_roll_joint,left_wrist_pitch_joint,left_wrist_yaw_joint,right_shoulder_pitch_joint,right_shoulder_roll_joint,right_shoulder_yaw_joint,right_elbow_joint,right_wrist_roll_joint,right_wrist_pitch_joint,right_wrist_yaw_joint
1.0,4.19481086730957,-0.17131486209862284,0.7001457329440821,1.0062105176183127,0.017724289962225106,-0.058420478143014265,-1.5709457476630053,-0.428206204206495,-0.13528356480287107,0.025939758429123414,0.9641786955420535,-0.5337650906705793,0.15066411755565992,-0.3828957204287863,0.2843330268733714,0.18646731211871592,0.9621859016022691,-0.22694786497799896,-0.022550114813939467,-0.038918253804586536,0.024872328924086688,-0.0076684308614605075,-0.10938174166286721,0.01888666586353803,-0.04446189006848268,0.9125723916680061,0.19004771759271732,0.7337618589541175,0.32249256859116104,-0.026117426508170727,-0.13651325803375947,0.14515303514309713,0.8510618596146755,-0.41062967500632064,-0.41638296171506434,-0.6389324937776484
2.0,4.31513524055481,-0.17131488138039444,0.7001457595193559,1.0062105976645324,0.01772410652716035,-0.058420585085476595,-1.5709457547195202,-0.42820577515111174,-0.13528362893577817,0.025939758879068676,0.9641780559592992,-0.5337646987526371,0.1506640772589884,-0.38289534794200036,0.2843328957455122,0.18646742656903134,0.9621854279353849,-0.22694755879356782,-0.022550102536353516,-0.038918477859331314,0.02487242073158468,-0.0076687038508712075,-0.10938443175584953,0.01889910218189933,-0.04449433090335328,0.9125778436202088,0.19000381481657086,0.733760917307041,0.32250699040611464,-0.026121597803917332,-0.13653066655688273,0.14519862889401847,0.851064395339999,-0.4105908041962686,-0.4163765033609887,-0.6389499130669323
3.0,4.389893531799316,-0.17189310644441258,0.6998975889133838,1.0060498466997134,0.017453223369667096,-0.05872554503946068,-1.5710553269052112,-0.4285004757641447,-0.13478078976783936,0.02654420055797979,0.9655806774158673,-0.5335073060933098,0.15043792136185105,-0.38266840676559644,0.28499461651316904,0.18672741179864785,0.962788925756838,-0.22660623082317188,-0.021830559702201616,-0.038404252385299556,0.025489420926763547,-0.00760787020147947,-0.10793250942989802,0.01736159785540707,-0.045011967671396674,0.9126604085609781,0.1900362703439165,0.7338380434785136,0.3229376730824278,-0.024894108346561507,-0.13294378959255973,0.1452808463494071,0.8528329439309954,-0.40952117943060157,-0.4154186784859198,-0.6400877875439779
4.0,4.451701402664185,-0.17290682153999384,0.6994405689325761,1.0057666374911096,0.017496709460841534,-0.059308795861431285,-1.5711582855177784,-0.42957962847909603,-0.13400748976454846,0.02764322246901183,0.9683765283416557,-0.5333741367706066,0.150228257520636,-0.38275345427630225,0.28609266382861526,0.18710000442984154,0.9640541348767124,-0.22640329578872137,-0.020685506694574606,-0.03771907303320078,0.026485348906401807,-0.007978534957748449,-0.10639580219805725,0.014824596808867791,-0.04528503449398397,0.9127978835644543,0.18997816646463156,0.7343204384719302,0.3245043586026843,-0.023927192112921138,-0.1270227420999734,0.1458477368500797,0.8559627316525519,-0.4081783297948962,-0.41413718237442654,-0.6417870461032076
5.0,4.568689584732056,-0.17505889418224624,0.6984503164095395,1.005147900506198,0.0183065822105344,-0.06051230809043109,-1.5710376744696664,-0.4328381611137553,-0.13250419601880414,0.029942403295705793,0.9750843957699837,-0.5334520238433375,0.1501777528780086,-0.3836894775700599,0.2882484297066712,0.1874868388310868,0.9668669913641599,-0.22659508705088438,-0.018417232153035118,-0.037141990844836145,0.029030143795018247,-0.009249991933683917,-0.10378648482495469,0.009668034464171152,-0.044894313527692783,0.9128590379173986,0.1894675897098063,0.7362620753180702,0.32857411214339866,-0.023172506351659128,-0.11505818040809107,0.1480961516438664,0.8634122864507621,-0.4064208730027018,-0.41196500156155896,-0.6451912667563573
6.0,4.641017436981201,-0.17604676736956182,0.6979806012834732,1.0048417306433157,0.01895115645199561,-0.06105655957856368,-1.5707165149407536,-0.4348514348195266,-0.13185764991164972,0.03104097737491282,0.9787668799634734,-0.5336446122709202,0.15041467415512969,-0.3844117978719107,0.28911140156617576,0.1874033768584545,0.9682255650802156,-0.22701920202570733,-0.017475964139374602,-0.03739453952509381,0.030311897721348548,-0.010052262814611017,-0.10290357705634133,0.007325063790217462,-0.04436053023298503,0.912809092662569,0.18908698340085717,0.7375086956429067,0.33075578167277253,-0.02335948349727771,-0.11003108296949024,0.14955514380819596,0.8671732697978368,-0.40607302246867477,-0.4114360622100867,-0.6466691231930359
7.0,4.733173847198486,-0.1782659981422412,0.6969000024805423,1.0040745296543818,0.020633232649897273,-0.06215687559782111,-1.569219739993588,-0.4406785746396009,-0.13000113834911042,0.0340555483565804,0.9890928314673151,-0.5342971076880969,0.1515776288843363,-0.3864137535639669,0.2907878370658803,0.18647892334564847,0.9714213240742652,-0.2285987166023383,-0.015539967259502494,-0.03925779735466961,0.033135317418961974,-0.012448110869918438,-0.10091376316262282,0.0016650981259621347,-0.04294428220764616,0.9124617574727174,0.1880926191268461,0.7407791482214827,0.33612157346284416,-0.024496682503771697,-0.10002121591264566,0.1534266832352165,0.8770827182910963,-0.40571976901589224,-0.4117584058368057,-0.6502363632437791
8.0,4.8131701946258545,-0.17962695225735736,0.696222264922947,1.0035633511603863,0.021721558346596566,-0.06284762568082525,-1.5676385144664025,-0.44522744825906846,-0.1281764825320983,0.03703825609259324,0.9971493834493069,-0.5346495092797487,0.15284294577589597,-0.3876062253542527,0.29148934937396676,0.18546830726887803,0.9733691483222424,-0.23006544834487735,-0.014552175759152164,-0.041165702286891495,0.03441166083736759,-0.014326017249158357,-0.0999519216865419,-0.002314301585233206,-0.04238579638573485,0.9122914631255382,0.18770416626228897,0.7429803400166313,0.3398467471067783,-0.02559847212156538,-0.09541209430023034,0.15600237015266738,0.8840238618656215,-0.4055283805822363,-0.4134327048931291,-0.6527723097054644
9.0,4.89124608039856,-0.18070275993578488,0.6956650743228339,1.0031825069452935,0.022387779492425812,-0.06362299622399643,-1.5661450355377906,-0.4488118533353097,-0.12655451041193533,0.040191606640110636,1.0037979821292229,-0.5346881485891316,0.15406671777992417,-0.38810083632313486,0.29174841539013563,0.1847786439958535,0.9747514497755638,-0.23145112456751665,-0.01389276380261715,-0.042645036214917935,0.035166776626155485,-0.015492602111924101,-0.09976635797741354,-0.005697316311721998,-0.0423616783413162,0.9127949646000058,0.1877027124628166,0.7444868610804174,0.3428814328873524,-0.02588534157658081,-0.09261089942508449,0.15776023839532594,0.8882582102417629,-0.40562758028118967,-0.4147457105251305,-0.6547609848352336
10.0,4.976426601409912,-0.1820254318400204,0.694958237236554,1.0027313497594772,0.02309651132274427,-0.06466086762851539,-1.5641731093305038,-0.4534373952591001,-0.12443103128434782,0.0446828837553854,1.012503582656127,-0.5349298809214245,0.1558012450966702,-0.38840167995925057,0.29195850550047764,0.18408630455235492,0.9763170810281513,-0.23337030414415394,-0.013115839196863044,-0.04440693240679794,0.03617417965929867,-0.016699911807299544,-0.09999547725854026,-0.010143746084942788,-0.042519290397000906,0.9139953864770082,0.18794155968981902,0.7464470745859313,0.3470859423149055,-0.02572818619332759,-0.08982719989844559,0.15973201571231685,0.8925971917096114,-0.40610761455144273,-0.4161591502887413,-0.6572932458397345
11.0,5.066343069076538,-0.18329382491993648,0.6941962992691724,1.002304434545531,0.023712884364131236,-0.06548582578528912,-1.5622468919812065,-0.4584167440162935,-0.122058449985681,0.04964556201929417,1.0219231409556713,-0.5358172897247059,0.15786878448364977,-0.38846582372965155,0.29225248900798384,0.18345744310714918,0.9776298227308357,-0.23528730714692947,-0.012310407950591663,-0.04599510157596841,0.0375917928020744,-0.017693468613234814,-0.10065120291986332,-0.014881757673561617,-0.04266976608104502,0.9156253231514683,0.1883964613854323,0.7489649846831319,0.3521601803459694,-0.025328079731113565,-0.087760624603652,0.16152007714710404,0.8966170938996831,-0.4066989016405358,-0.4174058415568731,-0.6598966889259796
12.0,5.147017955780029,-0.18449069183089417,0.6933213803406546,1.001908340414712,0.024100181384972306,-0.06590116506434691,-1.5605884994431687,-0.46351996309884824,-0.11912584866458453,0.05514233743628255,1.0318279100450518,-0.5372941945731264,0.16036379552302796,-0.3881521616161686,0.2928047986619645,0.18279234808365458,0.9785345270032273,-0.236838927137066,-0.011449852718312267,-0.04719548070181609,0.03949894371893961,-0.018324610660319623,-0.10171499376851911,-0.019949466128433794,-0.042735447716502645,0.9175365101907662,0.18898601916980642,0.7520798459052321,0.3580744378981342,-0.024748202924134793,-0.08642905821545108,0.1629582062484855,0.9002148113879651,-0.4071110950891346,-0.4184784408172689,-0.6621736775233049
13.0,5.199888229370117,-0.18518207953904592,0.6927142463443665,1.0016975760884128,0.024107252615646786,-0.06599250555155176,-1.5598060131578966,-0.46644331019061436,-0.11696217923444538,0.05888011076541372,1.0377177375723636,-0.5381994404392805,0.1620723182694311,-0.3876244051227295,0.29325995084310985,0.18239749371600045,0.9788149736590925,-0.23747452552567516,-0.010925013796819063,-0.0476609264272575,0.04072937190185653,-0.018438992402780942,-0.10243441301542139,-0.023139218995748778,-0.042762470130777136,0.9186958466171666,0.1893412556968006,0.7539888473445672,0.3617624927946527,-0.024256477919347364,-0.08612020652628467,0.16360498343937696,0.9019753475987389,-0.40728271933471516,-0.4189805686597188,-0.6630492896159383
14.0,5.27103066444397,-0.18610030480921108,0.6918346066245976,1.001438408033279,0.023870522752317786,-0.06609023272110325,-1.5589905588754558,-0.47013280169145066,-0.1137410454044404,0.06433968589554048,1.045368316623234,-0.5391506157606192,0.16442377908164502,-0.38652797705961256,0.2939308242950106,0.18194383285370852,0.978956022043729,-0.23810105617350769,-0.01024971652545869,-0.04801993135679902,0.042219778706437255,-0.018366487929434808,-0.10330686984394147,-0.027509674548973708,-0.04285062465088367,0.9201662228052205,0.1897629932610764,0.7562285651918864,0.3665031519764883,-0.023407578779725897,-0.08624697723957694,0.16435123810810925,0.9039445773155452,-0.4075538089143371,-0.41932875361961464,-0.6634848425574533
15.0,5.349562883377075,-0.18713618277952732,0.6907795478675065,1.0011648200323149,0.0233420163731689,-0.066122684545802,-1.5584049713322146,-0.4742286563150529,-0.10974226269248219,0.07093277642359747,1.0539543547808692,-0.5398972998515568,0.16702400293816488,-0.38487321668033203,0.2948564418538389,0.1815465643822005,0.9788473886669538,-0.23864967969496637,-0.009538221763275255,-0.04801437639482581,0.043640083274161565,-0.01817928701732395,-0.10404906935572747,-0.03266424747169364,-0.04305038562018811,0.9217644557663538,0.19016308177729735,0.7582518083084973,0.37165005398027573,-0.022142432880085057,-0.08718503703584222,0.16521361760916856,0.9059411057855715,-0.4079350103949927,-0.41946227137840764,-0.663047777797642
16.0,5.468110084533691,-0.1889663166296635,0.6888196660341036,1.0006900638778162,0.02203984375822297,-0.06571700046538138,-1.55831292867581,-0.48181352996175564,-0.10194903805428983,0.08297605439470607,1.0697069717604437,-0.5407888556602178,0.1712874697228724,-0.38129055261785705,0.29724940324038307,0.18119883255278033,0.9781288170727467,-0.23934992528762872,-0.008352026361317207,-0.04683532607267288,0.04601680974244991,-0.01792596796224675,-0.10472754926752953,-0.04245456265564328,-0.04358897756796001,0.9246535483086822,0.19069526924393293,0.7606721485847141,0.38065999803116596,-0.019017695115085706,-0.0905223837879559,0.1670617129934588,0.909042683170546,-0.4088239481111924,-0.4198930710809752,-0.6607280164917628
17.0,5.514648199081421,-0.18975810701426243,0.6879011789182737,1.0005021516128099,0.021402907823576605,-0.06536663950899446,-1.5588727993512856,-0.48533789081196677,-0.0986374159394861,0.08800082291702568,1.0765143678026177,-0.5406890563121921,0.17275633365697682,-0.37953127499898487,0.2985989794084627,0.18126281735227406,0.9776223565353617,-0.23941287277967793,-0.007900196975340099,-0.04563142022966255,0.04702742673966065,-0.017929762796161427,-0.10464076357737645,-0.04682094759931696,-0.043904891715422445,0.9258312047552981,0.1907960094268233,0.7609630023389267,0.3842544645236196,-0.017246901142852725,-0.0927676642828777,0.16816946647642955,0.9100370472023845,-0.4095281908622852,-0.42058334926881963,-0.6592535871262747
18.0,5.643187046051025,-0.19115530847870305,0.6860943683225114,1.0002647456933442,0.020581342768526686,-0.06431993694190363,-1.5609393368962396,-0.4902972101779214,-0.09313318505932433,0.09487859918809574,1.0863991477293755,-0.5405344154761408,0.17412749368021507,-0.3764001538611319,0.3015870703387458,0.18169697170881263,0.9761450904432704,-0.23895337548479967,-0.00771377303477604,-0.04231510433663795,0.049102146648684175,-0.01871665873059082,-0.10371995277689675,-0.05272675428220226,-0.04458098405629783,0.9275688445310183,0.19093343010258898,0.7605927602620621,0.3888811224647224,-0.013580842482499062,-0.09627986342146191,0.1703350490947662,0.9108230823539334,-0.4110077981635274,-0.42237268199316436,-0.6575511103825025
19.0,5.727040529251099,-0.19237233084409228,0.6843888846355173,1.000078078350755,0.02043704613457304,-0.06383398688322085,-1.5632083654130442,-0.4985468506978492,-0.08848724249558253,0.10354354203556124,1.0971743397434826,-0.5366117368131045,0.17585344372140937,-0.37429364949109145,0.3038152245758803,0.18230913377079655,0.9752962257262634,-0.23787592905099564,-0.006856958548570581,-0.0389331562532533,0.05149225557141304,-0.019564757742676096,-0.10465257479561871,-0.05929759858743287,-0.04467129552516487,0.9292451384316169,0.19047394447783458,0.760137692026638,0.3935620647892507,-0.011700458884189632,-0.10087830456058429,0.1733959776059661,0.9117582528030577,-0.4137610044550255,-0.4245989997014027,-0.6553084443046221
20.0,5.815356492996216,-0.19361730422448686,0.6824861199368919,0.9999598228635781,0.021212759976103716,-0.06327463147617432,-1.5662934532626038,-0.5082119436814171,-0.08373856216616091,0.11244441530752486,1.1072702018914067,-0.5303164648724418,0.177051570313079,-0.37287825176243394,0.30635343561443457,0.18330269960354267,0.9741206826928293,-0.23599527708530565,-0.00610035899916042,-0.034820332964212906,0.05460343092811759,-0.02166454202699724,-0.10659726909661627,-0.0647999755354707,-0.04428393649529368,0.9313592379950948,0.1894343592831323,0.7591115773914643,0.3970505604990904,-0.011029387259409325,-0.10536853876282762,0.17749281732001448,0.9131367172688563,-0.4171509950635902,-0.42519086208447665,-0.6526055017871617
21.0,5.892689228057861,-0.1946451954538508,0.6808877491344629,0.9998992992459368,0.022089842880611527,-0.06322627518298357,-1.5687999536594135,-0.5159897773727861,-0.08152229898818794,0.1183268697339134,1.113426884012873,-0.5237465216931343,0.17712865611944906,-0.3719348080837377,0.30791583583994453,0.18401370655426463,0.9731400161786237,-0.23409675226579146,-0.005743382750364002,-0.03188558723806888,0.05685991510933941,-0.023714228633534735,-0.10845013647804153,-0.06815578013073659,-0.04381612571258993,0.9331470570043451,0.18814006048490686,0.7578044543200473,0.3981804033773801,-0.011512190454415098,-0.10880724081319688,0.18150564823260049,0.9145194568288573,-0.4201623090209552,-0.42296118486284895,-0.64918733718486
22.0,5.968172311782837,-0.19566288871041773,0.6792859219413212,0.9997975719895138,0.022854585197222256,-0.06340924958737536,-1.571141058961515,-0.523814460341081,-0.08114434815643146,0.12267912209891155,1.1182561054185318,-0.5163357362698768,0.17652382281818785,-0.3710160755451014,0.30888398435341385,0.1841977968443671,0.9723933484608954,-0.23176325853767565,-0.0054801447175061874,-0.029477962249320817,0.058834982608215264,-0.025499543097378816,-0.11019114433589754,-0.07126742557112188,-0.04337191675606453,0.934902924909762,0.18658777996475706,0.7566060758628927,0.3982869338952026,-0.012419615315723182,-0.11268185126705085,0.18586733149593723,0.9156293687517926,-0.42338835260738394,-0.4197465764006742,-0.6447539810225675
23.0,6.0631232261657715,-0.19675008104211558,0.6775401526895652,0.9996124512910994,0.02367606870248053,-0.0634004356971111,-1.5738212877739035,-0.5328456794968821,-0.08211805447741766,0.12581823587884525,1.122563402043049,-0.5077267200769542,0.175225608864307,-0.3702377818704173,0.3097865117344054,0.18380177563260425,0.971660317873378,-0.2279814980583315,-0.0051936292019729635,-0.02696474886208692,0.061282877054711984,-0.027229812259172294,-0.11196945782712726,-0.07469010362751452,-0.043045006934102556,0.9371604135244984,0.18465513037812498,0.7556317909348866,0.39761255305739723,-0.013471863367585098,-0.11783536951755257,0.19105952478756055,0.91609910831697,-0.4269614339413156,-0.41698096782741534,-0.6393881906258343
24.0,6.140631914138794,-0.19763002919172817,0.676079422405963,0.999437396668843,0.024174559951636733,-0.06330553519116,-1.5761731831248569,-0.5401307852888682,-0.08396423828145874,0.1272438509744953,1.124964317264565,-0.5008797964044608,0.17373287958570727,-0.36949190130368104,0.3105577865699056,0.1833272933509122,0.9711568019359189,-0.22410120220272833,-0.004941112706141092,-0.024788254280070615,0.06325193800423437,-0.028023548176086155,-0.11296079742374032,-0.0772373327486117,-0.043144665923159825,0.9384630955343691,0.183313076929621,0.7553436832134877,0.3965453604948566,-0.014277465674068294,-0.122329438309193,0.19517641310620779,0.9161816234468801,-0.4299089137837191,-0.41652674342683027,-0.634969369133759
25.0,6.2139692306518555,-0.1984059425455244,0.6747343772502306,0.9993034785429511,0.024516704373052995,-0.06318101652985428,-1.5785066035420843,-0.5464976917135876,-0.08607557230795691,0.1280633895962292,1.1262557958360304,-0.49491975686724393,0.17216972248831958,-0.36863971786887684,0.3115282111265505,0.18324285870243567,0.9706103028986365,-0.22073482530111388,-0.004660850062669781,-0.022665982068984455,0.06495129523967613,-0.028307941594108342,-0.11323514616634658,-0.07908808502102596,-0.04352871558518828,0.9389528354440824,0.1824607385925134,0.7549088667201556,0.3953507758526078,-0.014971315670054924,-0.12610797734584434,0.19869518055075402,0.916269876168306,-0.4325324389820472,-0.41684356653019056,-0.6307985071544849
26.0,6.315251588821411,-0.1993698143613954,0.6729873707666301,0.999204034669211,0.024823881263797316,-0.06294645032647181,-1.581771755341354,-0.5542617218280309,-0.08907452116683685,0.12870767457534013,1.1268428154512609,-0.48777979742747035,0.17000928422159017,-0.3672139060368232,0.31321111480075425,0.1837283958386896,0.9696074550363138,-0.21731475515245927,-0.004261200273042054,-0.019777237858364653,0.06701941419284675,-0.028208380100071588,-0.11283905217804589,-0.08084104440379056,-0.04437378795215473,0.9388624604098712,0.18181484534661535,0.7536541647493108,0.3936803484088827,-0.015931786144002466,-0.1305053311188879,0.2030650830779162,0.9164147270531307,-0.43573856887922313,-0.4170792558349131,-0.6249777905065842
27.0,6.398793935775757,-0.20033358690579084,0.6711566796511316,0.9992103223033355,0.02506763132733749,-0.06261726888965782,-1.5854433339518024,-0.5618717061397186,-0.09245628463472536,0.12889085676849366,1.1262487168628352,-0.4812872704959468,0.16770120968621632,-0.36533296682852046,0.31541124257995035,0.1848811226831728,0.9680756531821899,-0.2152606997243967,-0.003920854021592847,-0.016637747851398946,0.06896416201964922,-0.027774950121276985,-0.11184594449425862,-0.08206713925168682,-0.04564684137742632,0.9382826167429662,0.1816101111690509,0.7516102875268778,0.3919267716491981,-0.017214103178654808,-0.13482812925465246,0.2076233191856423,0.9164633812243649,-0.4388782402700695,-0.4164642252118073,-0.6181634937409933
28.0,6.448106527328491,-0.20092486326693015,0.6700051759071164,0.999249671306162,0.025141461314789032,-0.0624843021299606,-1.5877182578176696,-0.5662969301723182,-0.09479006740827009,0.1287780009092399,1.1253024326348724,-0.4781356514360985,0.16632366407359445,-0.3639667381837822,0.31675241744927646,0.18570265006832942,0.9670200237374624,-0.21495597416463236,-0.003898327492350935,-0.014757038501101875,0.06982170675915896,-0.027460294583438953,-0.11130870377686852,-0.08264478778563367,-0.046574786976002716,0.9379181459306676,0.18170733253210497,0.7504075706640219,0.3909166982127116,-0.01832641147323194,-0.1375305578527838,0.21036228273260574,0.9164471356678716,-0.44086309715565086,-0.4157396757176897,-0.6137415567896056
29.0,6.541999101638794,-0.20222705994654988,0.6674232463349097,0.999329837954912,0.025403488902147164,-0.06242677261818143,-1.5925288350534856,-0.575925872267773,-0.10033180117465978,0.12839395176987944,1.1223544301718404,-0.47261603437908234,0.1635167519296261,-0.3609308275883544,0.319399985951049,0.18745082546873706,0.9646913026343127,-0.21526601069459012,-0.004302024507626368,-0.01101329420817461,0.07106837885216319,-0.027188009864566348,-0.11092759942634732,-0.08396232376577452,-0.048697489755624976,0.937595912292682,0.18207820912332118,0.748472439483429,0.3887517818791168,-0.02155478709711913,-0.14401483634592066,0.2162421141033879,0.916086004357137,-0.4453346604630898,-0.41395616771575006,-0.6037995573426279
30.0,6.643806457519531,-0.20334638043711728,0.6651560596446129,0.9993383689391517,0.02596859986222491,-0.06259360718104043,-1.5962530536012856,-0.584361259983113,-0.10521614296319642,0.12824837789774068,1.1189113763671907,-0.4691456384512287,0.16154422636528804,-0.3585625565000628,0.3213637499904406,0.18881363220637504,0.9627576203865984,-0.21571950439473944,-0.005109860944515897,-0.008541846980642438,0.07159926453457455,-0.027705208293948333,-0.11167414911169313,-0.08536686159497783,-0.05048333628794076,0.9381348484834766,0.18230498922286564,0.7477135570014931,0.3867357145201634,-0.025076054723370343,-0.1504105730090563,0.22109615162386093,0.9152149801403398,-0.4490174515814273,-0.4126338440824038,-0.5950609245242429
31.0,6.7273547649383545,-0.204385856295069,0.663020660342261,0.9992892387254365,0.026780560741689635,-0.06288311127265545,-1.599150482439435,-0.5921860862197962,-0.10940525477236047,0.12866964827562538,1.1148821479158098,-0.4668729902690093,0.16034433808716986,-0.3565490977948901,0.32305006614259024,0.19002098700534603,0.961132087724665,-0.21600748383096924,-0.006118716809859391,-0.007255385948805357,0.07167016509901655,-0.028666865406232964,-0.11299860602145072,-0.08689769023123178,-0.051950069426939055,0.9393240927303605,0.18219573020913638,0.747477319916958,0.38443317897774254,-0.02862265286720255,-0.15682938557547968,0.22511517079774623,0.9140525417312747,-0.4520363732743335,-0.4120974373201404,-0.5871285401830402
32.0,6.811642646789551,-0.20544012912455825,0.6608301319643345,0.9992280426099212,0.02761907100928935,-0.06323636296773948,-1.6017428086724599,-0.5998358308331464,-0.11298082439383186,0.1299047679433411,1.1099886409523958,-0.46502381164455087,0.1597357575878135,-0.3543670150182952,0.3249192619387574,0.191581665457771,0.9595588979225251,-0.2165159392085252,-0.007101867055830482,-0.006788394333101298,0.07147564506972132,-0.02958974318121345,-0.11414227718984514,-0.08837439421776178,-0.05324855220213097,0.9407624559078456,0.18175555301921376,0.74682801946202,0.3815382183126337,-0.032074314686679095,-0.16322415525824535,0.2286517906640388,0.9128096064769045,-0.4546798729893897,-0.41182876742881,-0.5794934405094261
33.0,6.881128787994385,-0.20607940275047837,0.6594842095626556,0.9992150681209224,0.028018652566725418,-0.06344694281022266,-1.6032278280643322,-0.6041543531157096,-0.11473079767518499,0.13106860461157469,1.1065554499354944,-0.46418304436603286,0.15964904545923775,-0.3527983806522146,0.32618120622651847,0.19277705034845638,0.9585771222593792,-0.21708016630527888,-0.007587925229842938,-0.00678168635277354,0.07120233742900575,-0.02990794865884119,-0.11441971287457589,-0.08910042486280975,-0.054048618993938716,0.9415065787229948,0.18147815859822924,0.746082736894548,0.37961330541498406,-0.034003564363327604,-0.16676072444724613,0.23046185974324368,0.912191333298005,-0.456090115614883,-0.41135466596017745,-0.5751399226498652
34.0,6.928834915161133,-0.20693026350008029,0.6576619520973177,0.9992305752557871,0.028388514580868808,-0.06369936032607339,-1.6052331167497318,-0.6096067446784535,-0.11698430718572972,0.13266198264998044,1.101516460094804,-0.46348958488209957,0.15960385488773965,-0.35044149619205756,0.3279150991106463,0.19451671543177085,0.9571951117954155,-0.2179463391286482,-0.008094023894918645,-0.006830346814486016,0.07066954948509914,-0.030067883911286286,-0.11436624382495936,-0.08991155974143891,-0.055276694176908794,0.9422868555350401,0.18129015812017302,0.7448303778075431,0.377085290383896,-0.03646847216046628,-0.17111590294284693,0.23253804621237595,0.911542420256746,-0.45779971375338574,-0.4101648193625229,-0.5694736779698937
35.0,7.0072431564331055,-0.2078659309882298,0.6555731608753608,0.999270504243787,0.02870752732194836,-0.06392106359693146,-1.6075836572199387,-0.6154888490238861,-0.11978293545849701,0.1341201772798905,1.0952762609655147,-0.4633532583054213,0.15945283771941166,-0.3476159389825968,0.3298253424563259,0.1965215001069312,0.955545988941932,-0.21875467111548155,-0.008452761977174364,-0.006863528422507484,0.06995203347827764,-0.03010844392567738,-0.11406787025076894,-0.09063719530533716,-0.05689965707206448,0.9430986913521995,0.18134305328890488,0.743135197298459,0.37434046250275554,-0.03924251007587323,-0.17569787177183166,0.23447094281381253,0.9107720512538169,-0.45942702387701795,-0.40822957957181283,-0.5633465730139658
36.0,7.091247081756592,-0.20887277185864994,0.6532009059175505,0.999306300312049,0.0290500465193927,-0.06400354144235265,-1.6102745608314097,-0.621923890117333,-0.12334490402181146,0.13508459180952115,1.0879448937671792,-0.46392007051691025,0.15906000440252735,-0.34447143871253694,0.3317828679896099,0.1984477843783083,0.9536412242537373,-0.2191076359468809,-0.00864214490713201,-0.00679860130464382,0.06922627690131615,-0.030199695962522116,-0.11392944476887092,-0.09121605301710273,-0.05893308027238771,0.9440218297600145,0.18168098232094265,0.7412218001789634,0.3713610824756636,-0.04256141579340195,-0.18056948588255373,0.23615130254992484,0.9096709149603841,-0.4610172851538542,-0.4059447301687809,-0.5572368197873858
37.0,7.2311928272247314,-0.21039398087588906,0.6492954671593155,0.999354014348975,0.02979142802675369,-0.06375335081235418,-1.6146988239800901,-0.6321828535493406,-0.12991275430504493,0.13535447362816483,1.075161906701661,-0.4659390847545467,0.15805501601762384,-0.3395570886472278,0.33448369791880517,0.20081253483123362,0.950237221656472,-0.21813999078857027,-0.008474229162256043,-0.006567541070779488,0.06866174111886633,-0.03064472708471612,-0.11466868888235426,-0.0915110593886023,-0.06261246829147814,0.9461587878687658,0.182574702738865,0.73805426082677,0.36609845821651643,-0.048515884844563914,-0.18817040219050207,0.23804565364342584,0.9067584457392387,-0.4631933391834243,-0.40204012968580527,-0.5492155463741117
38.0,7.301859140396118,-0.21102479869011637,0.6475321701923249,0.9993722615353497,0.03011968986309791,-0.0633988251773175,-1.6165774216008848,-0.6366183597919179,-0.13278090082847377,0.1352272282601452,1.069266144911381,-0.467027010207681,0.1576140897694047,-0.3374058112142701,0.33542373934922354,0.20129777941581126,0.9485806508758512,-0.2169645213558697,-0.008246908957658443,-0.0064839309667279795,0.06884047797158971,-0.030848122638925272,-0.11555665463469966,-0.09126967747791903,-0.0643043468981109,0.9474410591293423,0.18301662643528643,0.7371242417816766,0.3633447896853125,-0.05132887415669622,-0.19133082853931338,0.23849889299510624,0.9050527211103878,-0.4640975485391286,-0.4005010086936195,-0.5469426825206453
39.0,7.395691394805908,-0.21216299029517174,0.6442023187262707,0.9994611073039068,0.030472162865174138,-0.06252274445890446,-1.6198697772706692,-0.6444120995755374,-0.13738096216272452,0.13561652004023841,1.0576969162718073,-0.4685215935637758,0.15716711812371703,-0.3330254912985794,0.33680167064882105,0.20161937363071114,0.9450171387518056,-0.21384507500390273,-0.00771514240993627,-0.006522487958707435,0.06964780741592005,-0.030754626403716397,-0.1173976980041253,-0.09031396629744814,-0.06755103732579734,0.9503444627718471,0.18379464799304687,0.7364366819626508,0.357283178556369,-0.05616521237238398,-0.19673107577012994,0.23894813146014593,0.9017198706175139,-0.46569277945159954,-0.3971632606083303,-0.5439750298966319
40.0,7.448308944702148,-0.21276593428303506,0.6423858019844773,0.9995400687878634,0.03043230817189295,-0.06204126387026559,-1.6215753510486342,-0.6482473526704471,-0.13941855932062738,0.13635522980497577,1.0511603731118357,-0.4688934380480397,0.15712060527204083,-0.3303843081589251,0.3373712991512614,0.2016604348292465,0.9428979780867293,-0.2118706420457676,-0.007426940974482708,-0.006699397070438736,0.0700106056753865,-0.030347076472988996,-0.11803452856278415,-0.0897541819642989,-0.06930168078305146,0.9519049448438688,0.18417949054546223,0.7365766848049276,0.3538247551160193,-0.05832346110599381,-0.19938309688632244,0.23896614195235086,0.9001416993151627,-0.4663606648950936,-0.39474520039171845,-0.5424094915565723
41.0,7.550398111343384,-0.21387221064320971,0.6389724069381446,0.9997441743760465,0.030063620137822544,-0.06136853848562823,-1.6247611573270908,-0.6546793083278393,-0.14286442494106874,0.13852053935216865,1.0380719312986564,-0.46852010717736203,0.1571566390261723,-0.32496473563149353,0.3381129962163564,0.2019433895754369,0.9384740572008767,-0.20762572910952032,-0.0068928873360692405,-0.0073425241067869365,0.07026777070944046,-0.029037250228011367,-0.11858751573161158,-0.0889116160683063,-0.07249353662973003,0.9548904645528042,0.18471223704768397,0.7372634323865139,0.34720140937638383,-0.06142039495386356,-0.20428520754077967,0.23859874690783187,0.8969174099618373,-0.4671518738063345,-0.38891657351229403,-0.5390510645312613
42.0,7.620835542678833,-0.21447420440714718,0.6370933075265692,0.9998481274733929,0.029870578077643116,-0.06107309418405352,-1.6265398082156655,-0.658083392638404,-0.1447404086323771,0.13975851784272253,1.030892001041066,-0.46793027565102374,0.1570642315830742,-0.3219897890022213,0.3385123210526154,0.2022413398187976,0.9360908431749166,-0.20537759976865105,-0.00666271747860204,-0.007739440529128928,0.07020308261599555,-0.028326961825183412,-0.11882510774369338,-0.08862364656817359,-0.0740462840444506,0.9563403543832159,0.18491915625774993,0.7377421609926841,0.3439167462162097,-0.0628827586481415,-0.20708657830296195,0.23812757472917756,0.8949412390373788,-0.467455320808707,-0.3860044204440417,-0.5374483739750798
43.0,7.731683015823364,-0.21562247412019953,0.6334868737380519,1.0000513070260624,0.029787248508115878,-0.06060546755105213,-1.6300307109672827,-0.6645360610506343,-0.14853545394478257,0.1417337374319507,1.0172217167656745,-0.4659466759334042,0.15651914121005203,-0.31644415676800725,0.3394310540269212,0.2032954222674625,0.9315595221904495,-0.20153672796841698,-0.006372491609468177,-0.008233887396155892,0.07006826285125273,-0.027381472115298684,-0.11989176818779276,-0.08820832236410679,-0.07666829031512705,0.9589469856700488,0.18521008562516156,0.7383114496892806,0.33829077138930286,-0.06557424961895918,-0.21269646022313585,0.23668546392460013,0.8902466784209401,-0.46793585343543564,-0.381601256604423,-0.5356004269485722
44.0,7.8152923583984375,-0.21664249704349903,0.6303017180113127,1.0002524417188465,0.030012731451301497,-0.06012997562612053,-1.6331891159826428,-0.6702035093371521,-0.15196354811055698,0.14288749291315608,1.0054866099880695,-0.4632992758019715,0.1556635232212285,-0.31173160394730315,0.3405748395348508,0.20469795082430667,0.9276555477960529,-0.19890744687183537,-0.006255109108221155,-0.008100949874786715,0.0701907466903819,-0.027087585918263563,-0.12165344630348328,-0.08778006797043347,-0.07869833867818216,0.9611402208948866,0.18549366522704283,0.7383245575730562,0.3340980330539725,-0.06798627954641905,-0.2175602991777044,0.2348581564903031,0.8854254682011573,-0.4681804438994727,-0.3790537119472587,-0.5353056794870759
45.0,7.868831396102905,-0.21722952766208087,0.6284864600188571,1.0003603393123153,0.030221003853088933,-0.05972157466150929,-1.6350293845681991,-0.6734093733135845,-0.15377010539770097,0.14327450818925097,0.999312152323998,-0.4613289852697808,0.15500865327642438,-0.3091714035911831,0.3414580177526184,0.20558625869614822,0.9256169269349955,-0.19781163958835668,-0.00623427984925779,-0.007751943440157397,0.07037474793616691,-0.027182336675120024,-0.12285029636399725,-0.08744772848054078,-0.07965108146319824,0.9621319937142384,0.18570200255971203,0.7383185088191913,0.3322267581225598,-0.0694494205087992,-0.22002072302549155,0.23354568068382753,0.8828970160293677,-0.4680518645347165,-0.37833858997012676,-0.5355012308426625
46.0,7.98712158203125,-0.2185295184883128,0.6244764096145854,1.0005748859381787,0.030731334458019434,-0.058708615103720815,-1.6391919277910865,-0.6803095979641476,-0.15757138084075561,0.14394315657914242,0.9860219928681957,-0.4558208890129279,0.1533737166595266,-0.3035829000564556,0.343574138524345,0.20759743687525278,0.9211609453103855,-0.19535493337611745,-0.006113105214331575,-0.006716752994458229,0.07079117888708783,-0.02751610270088724,-0.12554954167106128,-0.08649699282367586,-0.08144366814241846,0.9640055377226097,0.1861313139598358,0.738384461856125,0.3284882289760978,-0.07278505285758208,-0.22484633179062713,0.23028937421804596,0.8778890552792638,-0.46719048034326105,-0.3772164891771065,-0.5355642491581685
47.0,8.037726163864136,-0.21924387421996286,0.6222966511291608,1.0006577888177102,0.030983889545901602,-0.058144525326007335,-1.6414665064669531,-0.6839646108491055,-0.1595708246216918,0.14428969176904205,0.97895918593303,-0.45217946607572534,0.15241574895765098,-0.3005501149529238,0.34473114649626346,0.20861526791559623,0.9187592820459987,-0.1938547050830593,-0.005976454879927872,-0.006209372111086728,0.07096283139956364,-0.02763391710855204,-0.12689554319932428,-0.0858067766679273,-0.0821737166150914,0.9648533080940594,0.1862519864434014,0.738511306918344,0.32652389703458845,-0.07457442531054156,-0.2271208015118683,0.2284524319654193,0.8754675988576115,-0.46647609447279426,-0.37662458916762986,-0.535238681576331
48.0,8.136821269989014,-0.22059118842568676,0.6182813119203601,1.0007645230668247,0.031436184387384186,-0.057165147075689426,-1.6456059167891604,-0.6905678542183586,-0.16330636288947406,0.14497333731523443,0.9655579630306579,-0.44404914393979794,0.15050188744077914,-0.2948537077950392,0.346749202943499,0.21035237327941234,0.9140002687555098,-0.19039529762499469,-0.0055229468658336694,-0.005670584345804323,0.07122582396795184,-0.027458221745672133,-0.1290393562555812,-0.08405711016408973,-0.08308327885614764,0.966324069898011,0.18618302794656777,0.7388158520391387,0.32269778954203066,-0.07743286623892387,-0.2307971644651131,0.2251359441149846,0.871001426650617,-0.4651844332520312,-0.37524321106808567,-0.5344474934786725
49.0,8.190165281295776,-0.22133204643031598,0.6161357185726074,1.0007943469642406,0.031654465889081176,-0.05661094169625061,-1.6477515652259527,-0.6941022384660205,-0.1652340886442946,0.14537861325724263,0.9585256045450472,-0.4395811921011956,0.14941598055593555,-0.29179442628670327,0.34778239693684604,0.21106741504761511,0.9114443838546995,-0.18835797557947148,-0.005224244852615953,-0.005687728061292782,0.0713725979897365,-0.02718755401192334,-0.12987744196745615,-0.08286051234840516,-0.08333501547405543,0.9668925564654924,0.18606499280705907,0.7390144720169685,0.320762015300223,-0.07868308619000319,-0.23245922040090097,0.22348115271600763,0.8686924586857997,-0.4647416103048481,-0.3744191836304936,-0.5345585696728534
50.0,8.31006908416748,-0.22306744809562776,0.6112182430499128,1.0008933991916185,0.032174024602852735,-0.05540189311928054,-1.6524990864909617,-0.7016710187503461,-0.16954916100298267,0.14646148808286763,0.9417758220627758,-0.42863446629411617,0.14660073831993903,-0.284461189029523,0.3499119242294416,0.21261518765251286,0.904919273799605,-0.18298745934209548,-0.004420621751495956,-0.006140716374750597,0.07167270087338415,-0.026186562685710135,-0.13129529411120297,-0.07964920506634329,-0.0835833669527109,0.9678148305859307,0.1857973305193371,0.7386270098157192,0.31703076197995544,-0.0806053131502949,-0.23557439641888683,0.21949218117411512,0.8627413505757049,-0.4645229350991944,-0.371887194552962,-0.537170447035649
51.0,8.366279125213623,-0.22361903286691592,0.6096169611827673,1.0009160280461251,0.03225340681653338,-0.054928161593536695,-1.6540159304000195,-0.7038867940307296,-0.17070790519834445,0.14690630513400205,0.9368229776715422,-0.4255286665168315,0.14559962074611785,-0.28203920804597,0.3505945900154979,0.21301153590758928,0.9029219852762655,-0.18142616006597176,-0.004217856042536606,-0.006212452136652942,0.07174447530924451,-0.025990872733834748,-0.13158551697138046,-0.07865546621326111,-0.0836027112765225,0.9678283597845181,0.1858562980867387,0.7382144913822155,0.3165244848541843,-0.08109222878846162,-0.23631581706640264,0.21801009367074836,0.8609679651816216,-0.4644178831963207,-0.37093722993192735,-0.5386704028039485
52.0,8.431165218353271,-0.2243853652444479,0.6072827591503316,1.0009069435615958,0.03226450249171536,-0.05410799505464548,-1.6562855726294998,-0.7069487459897867,-0.1721891993740058,0.14747471278502683,0.9304846570478653,-0.421766907287927,0.14407430223374768,-0.2785566834654699,0.3516484680730697,0.21347730955058614,0.9003432373173847,-0.17953612626664484,-0.00401978707596389,-0.006039119759714891,0.07185638907522782,-0.025954838018800948,-0.13194899135558083,-0.07731732731468953,-0.0836057178669756,0.9674995333561007,0.1861204456395617,0.7376126513026804,0.31641709357809555,-0.08199197994853899,-0.2371647591996897,0.2157568312961592,0.8589352987661839,-0.4638592378748287,-0.36952899066956013,-0.5406604998017104
53.0,8.546525955200195,-0.22601459124342504,0.6021251925562391,1.000826988208373,0.03217057948676936,-0.052203320213945095,-1.6614748448245606,-0.7131823851722674,-0.17554583553670788,0.1481406504009544,0.9170776072900555,-0.41395961481250615,0.1403195180867563,-0.27069601343189187,0.3540170969948314,0.2146479663290041,0.894606056046453,-0.1756010150715842,-0.0036934834480395057,-0.005072130027726567,0.07216144434542086,-0.025986079254924067,-0.13290323886809682,-0.07448606569654717,-0.0834787631567335,0.9663604977167085,0.18683540518189304,0.7361355827335123,0.3169154312031248,-0.08424944953247733,-0.23877139736268674,0.2106457565769111,0.854859231378174,-0.46211322910894004,-0.36618705450337175,-0.544232834510741
54.0,8.601073741912842,-0.22677282329779552,0.5996302729662448,1.000739648088285,0.032069936338576355,-0.05126112406398763,-1.6640645872061988,-0.7158928479720417,-0.1773264564296649,0.1479789187873568,0.9108955750578747,-0.4103679019934122,0.1381989880748049,-0.2668127180192972,0.35517612890512035,0.21530934683869862,0.8918133983912502,-0.17382344712418066,-0.003578578673274567,-0.004382438813107963,0.07236507801264666,-0.025987529360866284,-0.13348856729558156,-0.07319107467707477,-0.08322295643534428,0.9656630405973987,0.18710774558812093,0.7353791385420549,0.3174225852485123,-0.0853887576573249,-0.2395433682477693,0.20827238446794846,0.8529846869244516,-0.4611872875716342,-0.36456854996487625,-0.545337130623309
55.0,8.72165846824646,-0.22819903352959076,0.594923746987196,1.0004866195361082,0.03183101967790921,-0.04946220016102177,-1.6690191050001648,-0.7206700546681915,-0.18082574922615358,0.14699882461517058,0.8996501209065937,-0.40364688473783644,0.13375598249884485,-0.25943035586593705,0.35746385483372145,0.21670421966576164,0.8865687865216102,-0.170459848961248,-0.0033108764059229306,-0.0030937754259009465,0.07289460667656338,-0.025826758646755987,-0.1345258365536819,-0.07076553245968453,-0.08232817630467093,0.964179708674065,0.18730805424468874,0.7339350367455091,0.31834721694932455,-0.08723173503388455,-0.24132094075945176,0.20442979930474411,0.8493637303153958,-0.4599293780903535,-0.3620609497021352,-0.5465711511991119
56.0,8.821001052856445,-0.2294300669398755,0.5909027110303458,1.000207086023139,0.03161142312198224,-0.04796766287603973,-1.6732349090799128,-0.7244483106323607,-0.1836739598416957,0.14596401891621588,0.8903850828001676,-0.39790058151152746,0.12987787437725046,-0.2531431296655354,0.35952151218234724,0.21806238416125748,0.8822440368093089,-0.16742485191508044,-0.002900302998526139,-0.0020841920945260817,0.073474519223696,-0.025697495742990538,-0.13501746508710674,-0.0685221852771469,-0.0813807882470802,0.9627992797843578,0.1872677721250538,0.7324257475901527,0.31874940650228334,-0.08815834067362495,-0.24318304045276862,0.20190477935076306,0.8460458383363636,-0.4597009627934073,-0.36091234149538676,-0.5474626087111073
57.0,8.871138334274292,-0.23010499255361336,0.5886765667140609,1.0000084979409463,0.03150424518058042,-0.047220608940759426,-1.6755116304253215,-0.7263926817900259,-0.185024346789104,0.14555411954204447,0.8857656944572401,-0.3950979474702744,0.12801716425529985,-0.24985370964608866,0.3606826746961951,0.21887330758194584,0.8802859848735582,-0.16585526037174958,-0.0025436786264025524,-0.0015365571661657162,0.07373740669065733,-0.025891830369003742,-0.1350312283743378,-0.06720018920794425,-0.08088104519070044,0.9620085736013094,0.1871760023395526,0.7315081439882642,0.3186223671344574,-0.08832614024136251,-0.24435667817757667,0.20091686724768903,0.8442975874718452,-0.4599638380815594,-0.3610427134447945,-0.5482156123011886
58.0,8.986309289932251,-0.23154811233861922,0.5837750552187818,0.9995483662623742,0.03135514958351522,-0.04576209641887102,-1.6804689993916537,-0.7302171401764321,-0.18749000008055827,0.14511829406764798,0.876184165130443,-0.3897370264856842,0.12470866853640672,-0.24283573262585606,0.3633020226725399,0.22103180968153102,0.8765159413483677,-0.16242533902251538,-0.0015175258639701726,-0.00026121694033360323,0.07401784088254887,-0.02676816229140095,-0.1347840011646209,-0.06439386554156315,-0.07981987010729974,0.9601423599209769,0.18684134722142476,0.7293292869681542,0.31790364115875824,-0.08834044925058038,-0.24711870857893786,0.1990057001519977,0.8406507264329309,-0.4608846055216169,-0.362294306242813,-0.5505358944919265
59.0,9.037145614624023,-0.23230456889011522,0.5810903848528626,0.9993093731101932,0.03129118533699629,-0.04504553555630328,-1.683161048118912,-0.7319275952685875,-0.1884174922752906,0.14522064843255134,0.8712767755695949,-0.38747786045331556,0.12352439733699447,-0.2390742881794348,0.36474858521606246,0.22240083556349322,0.8747207085392545,-0.1604554145343597,-0.0008677544554170363,0.0003862922602180408,0.07399936810883705,-0.027318431586714084,-0.13458017088052748,-0.06299756271148763,-0.07912536695005778,0.9590129181783692,0.18652285579404737,0.7280916250670706,0.31748044459589764,-0.08825422069200417,-0.24867177081225222,0.19801368518819334,0.8388207278576021,-0.46146856528573155,-0.36309283487794874,-0.5520012879722741
60.0,9.108615636825562,-0.23314134725900865,0.5779773617368459,0.9990742456099534,0.031224018784610057,-0.044244430784375524,-1.6862924209186994,-0.7334215183171311,-0.18885753397916033,0.14581038038814437,0.8659469791623349,-0.3858056816932128,0.12291479478256956,-0.234761244480071,0.3663757733569509,0.22405574659192007,0.8728116085268592,-0.15793596276314048,-0.00010370706345902089,0.0010160694629703984,0.07387941307142158,-0.02779686441510614,-0.13434991354762935,-0.06151424581722244,-0.0780470776839493,0.9575588266559676,0.18596796555146744,0.7267348268024205,0.31719291438135044,-0.08813165615918181,-0.2504039172043428,0.19690620334140274,0.8369001779848901,-0.4621035743098544,-0.36370689137309603,-0.5536084437321129
61.0,9.18999433517456,-0.23405801127909243,0.5744317847417268,0.9988558549113263,0.031160946336075364,-0.04331773498415012,-1.6899127402356604,-0.7346398179136667,-0.18857196372832458,0.14706662680960927,0.8602724006811744,-0.3851115711274584,0.12295610509114918,-0.2298996138585891,0.3680950917648008,0.22584710515887924,0.8707005711447544,-0.15476825239520225,0.000704636467885279,0.0016427915047405083,0.07373985829670575,-0.028109724300157242,-0.1341704909453245,-0.05983950531584143,-0.07649420041186265,0.9558000862625391,0.18517466246718295,0.7254088922556858,0.3171483725623211,-0.087997082728488,-0.25220054564744243,0.19577379048292687,0.8348937793770158,-0.4627384944057009,-0.3640324954841192,-0.555050686930726
62.0,9.288676977157593,-0.2356573019019631,0.5680135469049133,0.9985381382431442,0.031088359099512977,-0.04157133859963729,-1.6967911633033186,-0.7358106529990213,-0.18643922317853,0.15046365173619286,0.8506309874924207,-0.3864305769118598,0.12416343585082126,-0.22096812575127783,0.37093399722594167,0.22906138596531128,0.8664860552197892,-0.14828552810298065,0.0020561601559964645,0.0029875342978367674,0.07370377846395726,-0.02822294345916022,-0.13395586256391587,-0.05648443129414234,-0.07320810064592186,0.9525565970286485,0.18358332028542845,0.7235632087642275,0.3173487558272693,-0.08756695271957965,-0.2549402240576128,0.19419141118262465,0.8312333923750852,-0.4639550289295663,-0.3644188190994186,-0.5567721714559367
63.0,9.400734186172485,-0.23674433264804395,0.5634541550777284,0.9983004102351216,0.031049686984626172,-0.04024329795814873,-1.7020078196945139,-0.7356701349196492,-0.18354429908447722,0.15369123304919272,0.8447451295883344,-0.3902780931611753,0.12586242767140404,-0.21447317801942878,0.372696140584778,0.23131472940585432,0.8631034858544646,-0.14323107746878272,0.0029295376165778464,0.004398158839012936,0.07402418245196081,-0.028102612366567904,-0.1339636552300501,-0.053477637141412,-0.07067609408560305,0.9505370884516251,0.182499020549434,0.7230691666371077,0.3173766022776021,-0.08695511377688721,-0.25618201127351115,0.19368260835244655,0.8284828739328642,-0.4650518304003183,-0.36505733994130063,-0.5572077010744954
64.0,9.446172952651978,-0.2373418792028608,0.560902279932872,0.9980688396267704,0.031042021536655515,-0.03953057175748364,-1.7047851641939955,-0.7354757947028182,-0.18187971940159614,0.15543385375023064,0.8421783292943921,-0.39352150623804016,0.12694179422035043,-0.21108107721965888,0.3735393928676218,0.23229478383121843,0.8615961840608173,-0.1408078158144854,0.00337412035899203,0.00520865011162814,0.07425893733927787,-0.028292962172198045,-0.13418714132797666,-0.051538003514142665,-0.06936761806642233,0.9497609259921738,0.182016120572839,0.7231506694590546,0.31724284615175763,-0.08664366061645098,-0.2566386706822092,0.19372046074924282,0.8271369138377714,-0.4656928668131169,-0.3657981368686509,-0.5572760814645774
65.0,9.567450284957886,-0.23866278817409636,0.5552672129456564,0.9974077396954151,0.03095001245817161,-0.038023903338337085,-1.7108093947040972,-0.734775144069578,-0.1782084996894437,0.15910668058140176,0.8375643532490835,-0.40196615477522374,0.1294042869783102,-0.20381063289855134,0.3753612785178983,0.23430584686279954,0.8588272519737286,-0.1359480941700998,0.004323786996675266,0.007006142959053113,0.07479968660219488,-0.028922665257000497,-0.13494663762999298,-0.047152113302357204,-0.06666733790336946,0.9483223605168294,0.18112421475970564,0.7230729302057233,0.31697205740338386,-0.08609956075705397,-0.25761608369534245,0.19421139850223967,0.824514625226857,-0.4672761471495288,-0.3678465403587906,-0.5572853909570612
66.0,9.641916036605835,-0.23938870049558986,0.5521781825234602,0.996993946822073,0.030870589709866822,-0.037245797090887045,-1.7140360963461592,-0.7341500040124316,-0.17615820454913939,0.16109053718857355,0.8355054825869156,-0.40680160224599804,0.1307923930784358,-0.19996350849021563,0.3763082435605244,0.23529070239829492,0.8576198409099209,-0.13348150590797977,0.004839471681411348,0.00793449159107841,0.07504792884084402,-0.02931985475642165,-0.13541303644304123,-0.04475574585804981,-0.06528775162502674,0.947551170577295,0.18073054233826993,0.7225776669312435,0.31693607925641665,-0.08582628691244275,-0.25816300949701154,0.1946671364502249,0.8233100488144018,-0.4682711318220214,-0.3688691455023829,-0.5572357607647782
67.0,9.713377714157104,-0.24023607935961694,0.5485881227498871,0.9964989207983994,0.030759290519274278,-0.0363977302750822,-1.7176962748756244,-0.733123812803017,-0.17369385948820937,0.16342325457253964,0.8335165320502291,-0.41197718127177063,0.1324066213644719,-0.19565208308033008,0.37733932574391427,0.23630308367051303,0.8565382512086855,-0.13081217892281571,0.005444229378407883,0.008905030854439602,0.07514972703165533,-0.02987568584063139,-0.13595127256936715,-0.0420093908532847,-0.06375371320799898,0.9466875687236995,0.18034622101955744,0.721643940864328,0.31704002059140085,-0.08546335080654988,-0.2587375255910239,0.19533657921151718,0.8221569197498722,-0.46956006619659035,-0.36967513380511896,-0.5573063051417722
68.0,9.78473973274231,-0.24120909264917598,0.5444830726763126,0.995944259389318,0.03062543382688832,-0.03547821145532002,-1.7218379632222014,-0.7316544485755803,-0.17083283253103804,0.16599560456960266,0.8316334815853952,-0.4170911285784046,0.13417716826467224,-0.19083710031835288,0.3784709122111878,0.2373847389755703,0.8556008409234219,-0.1279717219047882,0.006138910370389713,0.009928444640463026,0.07497091485362367,-0.030654442490684407,-0.1364971421205639,-0.03889161640746074,-0.06205471586090117,0.945907779550897,0.17996772482272735,0.7206667870634744,0.31724494678403664,-0.0848869178777827,-0.25920707739839155,0.1961976493046455,0.8210421207929212,-0.4711609954725977,-0.37018365338012565,-0.5577704584088392
69.0,9.864376068115234,-0.24230863719480802,0.5398508111233281,0.995330523827462,0.030435723556959355,-0.03447769929296456,-1.7265534118288608,-0.7296992973053884,-0.1676906918833501,0.16853680432501805,0.8299139637870955,-0.42199339801841595,0.13604190617868753,-0.18544397034174415,0.3796929332633857,0.23858536882410292,0.8547445224344421,-0.12490960896914766,0.006902309248894612,0.011054002672267863,0.0744656744560469,-0.03160469910716434,-0.1368267383207215,-0.03537801607086937,-0.06024071374055286,0.9453690512597825,0.17963288344283984,0.7200185774757042,0.3175095318237877,-0.08386799720919345,-0.25942048148607527,0.19725037918635882,0.8199315840256984,-0.4730107803791129,-0.3704027400605756,-0.5587105447154255
70.0,9.961805582046509,-0.24412825103721675,0.532232193736496,0.9943527475043872,0.029779024995271484,-0.032755215274380266,-1.7349011257545164,-0.7255223147104017,-0.16231625463962523,0.17192338269678994,0.8283778194132478,-0.4287798005171791,0.13887950499128496,-0.17590382002594118,0.38179419048761387,0.24105237452815406,0.8530236606120019,-0.11956029354683942,0.008049904486711248,0.013261262120087592,0.0732277668203498,-0.03274733365689388,-0.13641878309431313,-0.029670033575455737,-0.05743090177879189,0.9452063556658866,0.17927415944605854,0.7200100456276948,0.3181317056074469,-0.08101242662821873,-0.25902619702403906,0.1991468087989512,0.8181118082928258,-0.47610718795753565,-0.370077565640112,-0.5608244842449507
71.0,10.042787790298462,-0.24542538258546945,0.5267978780428545,0.9935832134937638,0.028918636958364878,-0.03133547593741888,-1.7412579554730305,-0.7218283943927837,-0.1584033411003556,0.17347413326437422,0.8288221025230325,-0.43302385030115176,0.1408094610530555,-0.16808038933778488,0.3833587924582625,0.24319253783532285,0.8510753652130945,-0.11540902305984532,0.008648230621670066,0.015077581810908111,0.07229310505952719,-0.03280439686881215,-0.13547730090835974,-0.025930744880709043,-0.05549331987238629,0.9455568267139114,0.1791011432925332,0.7211053226350796,0.318902072416427,-0.07789904371373399,-0.25844150792181847,0.2005730768143228,0.81654074007382,-0.4780346543803024,-0.3697032827971959,-0.5619515645429085
72.0,10.14876914024353,-0.24687234743706055,0.520701980845196,0.9924605369370935,0.027607455787726713,-0.02933139319254758,-1.7482674276973746,-0.7173731424912835,-0.153830342076399,0.1746484232772355,0.8313981316132171,-0.43770075416164567,0.1430674217390584,-0.1578239048411607,0.38533621862777023,0.24581958673215282,0.8478892850745199,-0.11099912633846262,0.009045024391150808,0.017054581170667795,0.0715365364765716,-0.03202492102300219,-0.13457515232918751,-0.022444205855577496,-0.05329281930349905,0.9459440158064485,0.17879174553079252,0.7233412417333455,0.32003650878861634,-0.07374119076456834,-0.25824221431231487,0.20204837803853432,0.8142756080180723,-0.47952241576165,-0.36968903809772297,-0.5616288804947331
73.0,10.192302942276001,-0.2474729383342822,0.5181494173079211,0.9918648697024774,0.027189799412243094,-0.028496595050386448,-1.7508550688283644,-0.7156513162669573,-0.1520727461239577,0.17506569385211496,0.8329389345467808,-0.4392978136097727,0.14404382594868806,-0.1534325990395697,0.3861043665440044,0.24678058705606398,0.846604010536572,-0.10971023430038246,0.009150991535489426,0.017613808644240676,0.07120867047486111,-0.0317967808647053,-0.13440330285593216,-0.02111059354870957,-0.05240446514701497,0.9461121270255306,0.17861388965498054,0.7244172513905018,0.32039373238073393,-0.07200002046197733,-0.25827975466884506,0.20264423714786722,0.8134558513905872,-0.4798886073844786,-0.36989666942704236,-0.5609793035426869
74.0,10.26584243774414,-0.24831911362256764,0.5145536937131368,0.9909494825597619,0.026759033543492787,-0.02734364198622736,-1.754273437070581,-0.713301653165096,-0.14960736990449813,0.17574482161203098,0.835464014999686,-0.44127827104389905,0.14540224545762928,-0.14729099202642265,0.3871525152776496,0.24806812768899694,0.8449375477469869,-0.10830775527888933,0.009268738071094325,0.01827421971677269,0.07073965297068724,-0.03173388118933812,-0.13444916166345702,-0.019147750359175333,-0.0511987088586193,0.94639855430074,0.1783591806025643,0.7259321046856464,0.320699269542992,-0.06969003252502282,-0.2582246633920626,0.20350103154604876,0.8125154352344139,-0.4802835729759741,-0.37025457220829117,-0.559961659195807
75.0,10.372055292129517,-0.25017359460668387,0.5067317096589736,0.9889984080362224,0.02589903756694535,-0.024602657071134168,-1.7617853980271014,-0.7080167365880276,-0.14337918059426996,0.17794393344802095,0.8419103928382057,-0.4455873207549098,0.1482576110073681,-0.13400995139688987,0.38956076372288234,0.25087709117293827,0.8413650048513397,-0.10514247279806205,0.009451297758373457,0.019959062087098373,0.0699670549877618,-0.032009589272270295,-0.13505323206824177,-0.014682033418259657,-0.04868719976555393,0.9470274210522776,0.17786026942272803,0.728956960354229,0.32113163434947545,-0.0649864357021655,-0.25772415392604175,0.20525782599002357,0.810673405392546,-0.48100397563730957,-0.37067510597280773,-0.5579166651777554
76.0,10.477016687393188,-0.2516152805246699,0.5007901747303145,0.9878036233896232,0.025282129724347138,-0.022222125323342265,-1.767822602981011,-0.7035614112272008,-0.13667831608975112,0.18158974892407298,0.8478576444588932,-0.44866674273405377,0.15034059229912095,-0.12440713701358902,0.3914065114706067,0.252917641546747,0.8386812906126971,-0.10173832832387186,0.009447658969759097,0.02177121759532332,0.06962488310968754,-0.03276695685834334,-0.13571811833237118,-0.01119299802560169,-0.04695018611307919,0.947398530525154,0.17760172387003714,0.7304434109652351,0.32145256019779633,-0.06157448267472784,-0.25677961226166124,0.20629164460043414,0.8093790169548492,-0.4813848423685989,-0.3700804408544509,-0.5568022192099902
77.0,10.52187442779541,-0.25242985021947023,0.49746536999481505,0.9874164690921824,0.025256148330648355,-0.02117559282630408,-1.7709504248544037,-0.7010079102059258,-0.13207530743717386,0.1852809210409916,0.8508193938788324,-0.4493641052879018,0.15160899375613385,-0.12017475032226838,0.3919151496692986,0.25353709440455385,0.8377120740510384,-0.09935042148346353,0.009380832417913793,0.0226080607488587,0.06908717851420915,-0.03377229826489883,-0.13585478773075682,-0.009202739863200166,-0.04605677677060872,0.9475659840997436,0.17754491067750944,0.7307282192883644,0.3217553322054082,-0.059618046566915266,-0.25586821175678687,0.20675173583623074,0.8089141043158895,-0.4815194255722607,-0.3693454410759989,-0.5566601921032251
78.0,10.631834506988525,-0.25426155860490834,0.4901281964593518,0.9870448183123401,0.025637148587412638,-0.019714206946790016,-1.7773916573318314,-0.6953059972780318,-0.11987012496108838,0.19740557347592247,0.8565793867626983,-0.4485487255230231,0.1549472791504431,-0.11230705986644943,0.3920822174867783,0.254579874390196,0.8363574898459538,-0.0934531621942992,0.009082876531884969,0.024107146340528466,0.0668557755580132,-0.036759292627432216,-0.1356837859063491,-0.004544011934903975,-0.04416636973627287,0.9481052061309589,0.1774988861995258,0.7310767131506901,0.3223018643980228,-0.054769965051130534,-0.2530516851072327,0.20780741283605847,0.8080830326694399,-0.48175613022273217,-0.36733703506750287,-0.557150730018727
79.0,10.68410325050354,-0.25528635274861766,0.4861090820583648,0.987090376576437,0.026048915448972795,-0.019527302166236563,-1.7804704558067042,-0.6922275130395491,-0.11211090953650374,0.20634806759462626,0.8593671392153726,-0.4466351414460868,0.1571507699041629,-0.10863146375066828,0.39157684411294613,0.25507690490318796,0.8360240536282957,-0.09015378384818316,0.00880248492370277,0.02454959277863456,0.06487457592835442,-0.03872286074808673,-0.1354415690975124,-0.0017225461337909095,-0.043194355093609055,0.9485805319280983,0.17746624916316064,0.7314320143799635,0.3221810073066641,-0.05172305151439979,-0.25096590218714715,0.20848432039872566,0.8076880223914787,-0.48185755107162226,-0.3661551462392974,-0.5578420075654612
80.0,10.802735328674316,-0.25726703622825614,0.4785445663731057,0.9874916274985532,0.027034815226276196,-0.020588792595018113,-1.7856262279517763,-0.686604390969703,-0.0961317434845979,0.22678328622640834,0.8642509939508562,-0.4409467283999582,0.16168507868415027,-0.10249225690858652,0.38941204018578146,0.25622167281124236,0.8361836132163174,-0.08427576757977132,0.00790234594472769,0.0248629625920223,0.05930108410899493,-0.04286594937012622,-0.1350565230396419,0.004426029364020024,-0.041465836848156495,0.9500691639170049,0.1773153535232232,0.7329495274420023,0.32065113140761314,-0.045162011734673414,-0.2457175227069277,0.21003553152022597,0.8069430184959174,-0.4820271369643596,-0.3636080649637365,-0.5600244961713587
81.0,10.86508822441101,-0.2583390102484338,0.4744641415246985,0.9877441930520829,0.027665134131692477,-0.02176227399165881,-1.787790534527601,-0.6838112043805926,-0.08818668469545239,0.2378135218736398,0.8667044247922293,-0.43733935825733505,0.16388534870466084,-0.09961448444389469,0.38766607729840563,0.25658345052842907,0.8367765995643737,-0.08176662345336373,0.007220514648263388,0.02448031609218909,0.055432588073359636,-0.04514261939904239,-0.13507444177846403,0.008085198841572508,-0.040555549319632955,0.95118201068105,0.1771986317091623,0.734336803680294,0.3193158829253809,-0.04132914422230011,-0.2422806856995138,0.2108718833529584,0.8066874487673019,-0.4819714278148944,-0.362091561414495,-0.5616200739583233
82.0,10.945233345031738,-0.2603624788469751,0.46688526372022154,0.9881550854948895,0.028637716483463103,-0.02489032707090392,-1.7908516793672136,-0.6788244744305503,-0.07584797697215044,0.256647460033826,0.8711026219187723,-0.4299890987283339,0.16671679120985858,-0.09469964731742225,0.3836039099205236,0.25681358282779165,0.8390480462229353,-0.07883062248615415,0.005483704764360968,0.022994891428692044,0.04661155687208956,-0.048882421623188024,-0.13546237458710303,0.015390737221914844,-0.038991857778230436,0.9537428382670864,0.1770530819770096,0.7377847200254869,0.3163169558775437,-0.03337054861346165,-0.23478860917165514,0.21217848731164846,0.8063789501564393,-0.48133835262163194,-0.3587678938499293,-0.5653188472291624
83.0,11.044778823852539,-0.2621156496374558,0.4604815941794324,0.988392770896513,0.02894541983793906,-0.02777126712271011,-1.7925370031521588,-0.6746310656009342,-0.06857828629317264,0.26918222271430736,0.8747641773087832,-0.42242012172394056,0.16732697775030275,-0.09061904717403471,0.38004896881703787,0.2564032683620296,0.8421846595386013,-0.07819591709011554,0.00367146724895036,0.02107990186621666,0.03829949082561121,-0.05097058252978861,-0.13572937455307257,0.02163200584186846,-0.037908298938961686,0.9558987556806521,0.1771572068131823,0.740753615090173,0.3140165441775875,-0.025524226398158927,-0.22789014975844796,0.21285409785293732,0.8061292480107543,-0.48012154644838,-0.3558467271018667,-0.5689073217087074
84.0,11.122202396392822,-0.26308923467955514,0.45698188323877875,0.9884889181432692,0.028862028422944046,-0.028819154379045208,-1.7929189140753603,-0.6725382656230452,-0.0661901217154808,0.2733845977582366,0.877072166055126,-0.4167615357367678,0.1666508689291895,-0.08828660113999276,0.37862390100246834,0.25569112950008493,0.8442056865254266,-0.078392942405487,0.002642670749896135,0.019633834942005057,0.03414930028603175,-0.051410066237778315,-0.1357182863747634,0.024773947140534484,-0.037452565973238656,0.9568392351815762,0.17737392714011285,0.7419873324214863,0.3132166093827408,-0.02070493593625098,-0.22420060203309938,0.2129190864594301,0.8060769141910407,-0.4790642155725367,-0.35470522973922497,-0.5709379954570314
85.0,11.201415061950684,-0.2644020463132267,0.4522853379072842,0.9886163318840273,0.028641568791944155,-0.0295125570873135,-1.7930271064992458,-0.669993113876864,-0.06392237556223761,0.2768170223505571,0.8805969123257669,-0.40774271409854357,0.16515710517648202,-0.08509155173915794,0.37727752207484344,0.2541742707415941,0.8469240295698772,-0.0784433482319557,0.0013151110197810278,0.017465524665265488,0.029310503347545286,-0.05167595038317833,-0.1357354945164019,0.028651781909890945,-0.037026776522280015,0.957869828002331,0.1778538809902715,0.7431695747141496,0.31254836690397014,-0.014118220530784674,-0.21950870140283396,0.2126915468988812,0.8062167634703996,-0.47734228627988107,-0.35377340130627777,-0.5736718889383737
86.0,11.308394193649292,-0.26693309772777396,0.44337083847607844,0.9888560500281371,0.027707234101611092,-0.03011298318976307,-1.7925742727016873,-0.6650564259802727,-0.061465303321908915,0.2800285276209692,0.8875373679665388,-0.3889587755090195,0.16148529539250261,-0.07906082491646503,0.3748493059885387,0.24990431903299287,0.852662062813234,-0.07763516300338921,-0.0013218691923229885,0.01344747974181543,0.020540774999882327,-0.05190525719475304,-0.1363131269502273,0.035702655553776004,-0.036941183765346,0.9596817543101419,0.17938015236177698,0.7447981583531506,0.31174004986048454,-0.0011977810833211022,-0.21067348896962323,0.21146829858522953,0.8067214372870302,-0.4733645387073391,-0.3527263033701924,-0.5793138151075828
87.0,11.381582736968994,-0.2681134525277512,0.439146371522412,0.9889919871527348,0.027058740576271195,-0.03011892140505021,-1.7920721847287973,-0.6623770050369344,-0.06098289114211733,0.2803867588326813,0.890688076566844,-0.38143722893837173,0.15987451348735549,-0.0763841167411983,0.37342909012872877,0.24703974302708392,0.8556494729959181,-0.07630693806002128,-0.0025848113330875027,0.011728422330616672,0.01660536770033315,-0.052057278168941803,-0.13705813346029722,0.03883074159310819,-0.037288163736683276,0.960650779134637,0.1804296809831148,0.7455268270074304,0.3115831275173513,0.005035818965078282,-0.20652935117982968,0.21043879703458568,0.8072297039660711,-0.4710564369586722,-0.3526151298647257,-0.5821522750743955
88.0,11.439305543899536,-0.26942177163068093,0.43426511538366747,0.989206283745922,0.0261824104336793,-0.029936600819559393,-1.791354444725928,-0.6586950237566807,-0.060649848984104845,0.28040722990009825,0.8940050518767498,-0.3762076793942203,0.15863493665693884,-0.07350462362061198,0.3713712725304199,0.24307501125804587,0.8591848101505657,-0.07370686384191252,-0.0039885716707727704,0.009923173138116246,0.012391966444742176,-0.052310873082444156,-0.13838334395154356,0.04219585671775881,-0.037892136580779556,0.9620243163256492,0.18179055433308486,0.7466881065999531,0.31148158310859775,0.012236622696124324,-0.20183119755637652,0.20900086649235108,0.8082176195367822,-0.4680688604212935,-0.3527858689121026,-0.5852451884614828
89.0,11.534781455993652,-0.271823957859523,0.42500364110982947,0.9897958998989702,0.024065206869312676,-0.02963681343070358,-1.7899581852988298,-0.6502005405607205,-0.060650716549535966,0.28011788653944786,0.8993658407681946,-0.3731879846235068,0.157397651747181,-0.06824274516759285,0.36613495723660594,0.23429471545502875,0.8660149858153219,-0.06671773474031296,-0.006753346571083573,0.006937051548495469,0.00459914612209279,-0.05282281566790436,-0.14179774485312974,0.0483439459137052,-0.03935418786781972,0.9653600919932492,0.18444623081368872,0.749821229714152,0.3108040453384264,0.026070503979513115,-0.19284302115685806,0.20609702965645113,0.8109130691137887,-0.462003219242745,-0.3529169316193353,-0.5902508289268004
90.0,11.621720314025879,-0.2735100263381407,0.4182902005667325,0.9905655715586055,0.021279449411812933,-0.029763466448197877,-1.7893053058508068,-0.6414914471574642,-0.06206764030463344,0.27929916349239925,0.9013351077781873,-0.37660434352252625,0.15680759283891021,-0.060956307171079915,0.36120871527063614,0.22924724338710695,0.8662809475188704,-0.06088089915495871,-0.008970379094490534,0.005788461208642471,6.346491936638147e-05,-0.05378663702609121,-0.13859491024350498,0.05155199079577686,-0.041162761233480075,0.9666477916309437,0.18633971685587775,0.749815989929129,0.310070918813719,0.03928054223071836,-0.18768284329634555,0.20542157524900978,0.8119663175419718,-0.45955657142969286,-0.3540528386512155,-0.593959076813721
91.0,11.729325532913208,-0.275047246453636,0.411720894673711,0.99134051142949,0.02022320277434915,-0.029605001111187374,-1.7899384845461044,-0.6348396983863531,-0.06401610749802186,0.27655025681781975,0.9040155504200764,-0.3815003230132561,0.1567908983020307,-0.06014378524637099,0.35474518022051094,0.22002625701207773,0.8731819968143171,-0.04871885505860696,-0.011076913347023378,0.004617003299626721,-0.004625974812805498,-0.05461506241053922,-0.14433329603910516,0.05630491117233752,-0.04192267228979263,0.9694664709912808,0.18769842813191406,0.7536757398952907,0.3079463102465309,0.04740572625908084,-0.18015261359079335,0.2033571217193118,0.8158370696701343,-0.4542965644318773,-0.34942914094627786,-0.5935400195533329
92.0,11.800674200057983,-0.2759114060025497,0.4078209278348802,0.9918053131617177,0.0197504059102191,-0.02953815004466815,-1.7908439955443813,-0.6310848625996335,-0.06554657723820481,0.274390204198772,0.9054850924583242,-0.38430747057848197,0.15676842135385025,-0.06007554614884158,0.3505000149914217,0.21428863015109922,0.8773509596932151,-0.03983520547452926,-0.012277353137439386,0.004248203170914012,-0.006992787027006369,-0.05551337426677413,-0.1472584267253621,0.05895264466424944,-0.042256234672046866,0.970929355096787,0.1883585324544828,0.755413318013079,0.30674164250860614,0.05217832553771832,-0.17576264759933297,0.2025129260650525,0.8183894159848748,-0.4513609790763625,-0.34594531903164916,-0.5925589423107007
93.0,11.867707252502441,-0.276994827129697,0.4027604692392267,0.9923979703660954,0.018887799852262584,-0.029518408316062887,-1.7923993709611235,-0.625774770476618,-0.06758906810082393,0.2717237659965885,0.9069440547575927,-0.38791280408241813,0.15673112331923336,-0.05894549632113828,0.34486959928469246,0.20755917905135846,0.881314701416472,-0.027593043760231195,-0.013715919617854158,0.004235263947501382,-0.009536253573896454,-0.05701615627757457,-0.14833853670375613,0.06176584925737573,-0.04279413670909582,0.9720177503134375,0.18917986187539404,0.7561108924014072,0.30563937239524974,0.059583607923523935,-0.17081670411490135,0.20235809169356056,0.8213134173491468,-0.4485357009361302,-0.3421701106185475,-0.5912474415461384
94.0,11.96658992767334,-0.27900679781158183,0.3932609218830162,0.9934379228247843,0.017055037233407174,-0.02963883264753554,-1.7958117837827525,-0.6151239350973233,-0.0709957155233617,0.2675383282798369,0.9091000213146652,-0.3950132030715241,0.1568880142578679,-0.05720334058251281,0.3334415130381184,0.1942589379727376,0.8893078837835521,-0.0015068236200134113,-0.01632850574224432,0.0047601490035333715,-0.014548510284884044,-0.05981502004611203,-0.14985148802140885,0.06691569720297116,-0.043926333968044275,0.9734990567394227,0.1908629253653379,0.7567552927784537,0.3039383304090624,0.07399671356587226,-0.1617902146759518,0.20326327200445296,0.8267129058007919,-0.4438490904255282,-0.33523011644066614,-0.587443376044712
95.0,12.018980264663696,-0.27994325032063433,0.3888361073975958,0.9939766071040848,0.01610221343604414,-0.02974037541438768,-1.7976026581251305,-0.609633087380827,-0.07202590883894684,0.2663886639620267,0.9096157773033209,-0.3985391330433923,0.15699567231021572,-0.056967236044731494,0.32801614376721244,0.18811079777665257,0.8939430311368867,0.011516498188025467,-0.01726355373889307,0.005189392983537982,-0.017086184936320782,-0.061036569076076595,-0.15057291717705454,0.06921557677771961,-0.04449933466501195,0.9739309255937101,0.19174951972831628,0.7568656393093998,0.3034577187367687,0.08060852450657308,-0.1579262812109617,0.2045369450179786,0.8292696369909822,-0.4422219878812902,-0.3323629506313608,-0.5847849721603114
96.0,12.118065118789673,-0.28170619822042064,0.3806303929962965,0.9953405891096102,0.014277824635628723,-0.030042546483850567,-1.8012075304482318,-0.5985273225028391,-0.07314305871924145,0.2654219111154311,0.9094289192049074,-0.40514953344009813,0.1567817257391216,-0.058512448082827836,0.3183484457553739,0.17761108792980185,0.9050915912313826,0.035954583902858765,-0.018248892324121028,0.006073222932736538,-0.022144533329849645,-0.06334723399293475,-0.15252821702674285,0.07334853816153607,-0.04548902406997685,0.9744185122846083,0.1934967685091895,0.7569279893807912,0.3031153132823471,0.09164794910801005,-0.15147394235123307,0.20834551123931844,0.8343471640223645,-0.44020209552774303,-0.32705518798362754,-0.578080961001494
97.0,12.230570316314697,-0.2832159656066646,0.3737143411013112,0.9969468300016371,0.012935382503351526,-0.030476455525431198,-1.8044622330407787,-0.58870614528111,-0.07387513569541927,0.26505893145307097,0.9082979316879629,-0.41035775891967324,0.15591801821825696,-0.06240679128581378,0.3109298938172884,0.17018230518514524,0.9172162399852404,0.056548217357573316,-0.018220192496472918,0.006771306142128904,-0.02647939469800047,-0.06561094326345164,-0.15513250595846095,0.07673494301520861,-0.0460072879913558,0.97463826311579,0.19484246632943508,0.7567443678687702,0.30319739619735,0.0991449138041396,-0.14667255996926604,0.21272217873720162,0.8390938163629941,-0.4392319974052974,-0.3216282468414763,-0.5705877912277948
98.0,12.309727191925049,-0.2840671679011383,0.37000291631186344,0.9979640974140225,0.01268198456016837,-0.03044209720694453,-1.8059308623346235,-0.5837687332847756,-0.07412922108799094,0.2644005733859624,0.907550763209497,-0.41271926649858726,0.155159171245355,-0.06497722416322793,0.31099055676504,0.17085341436945065,0.9243737556404966,0.056317620647628894,-0.0159939705437416,0.006758809534718208,-0.028221571761082496,-0.06703349969778029,-0.15699215985082282,0.07834694450379867,-0.04599144177903364,0.9746624572294605,0.19532531427061467,0.7561258047970041,0.3033796459238152,0.10216024425400112,-0.14453828703513463,0.21556610043285007,0.8421251066099896,-0.4391474885280301,-0.31843306816255323,-0.5657737547385213
99.0,12.386392593383789,-0.28513895727761013,0.3651439178820599,0.9990612436100601,0.01247711096122555,-0.030378615182830703,-1.8082387576492196,-0.5777731738111721,-0.07422022480174058,0.2637922739649587,0.9071837001740135,-0.41571288014798546,0.15426478308750807,-0.06894966212027867,0.31041153239840386,0.17093785471839307,0.9344956775222837,0.05936777505186082,-0.012885125142953587,0.006950472798228509,-0.030207867521621003,-0.06896840144495617,-0.1595500260175644,0.0800118965909819,-0.045708142415090046,0.9744110796653782,0.19561189801911416,0.7551723083544746,0.3035271271822028,0.10565244410587075,-0.14238618811859663,0.2195677867568981,0.8461375738530464,-0.4393707660660446,-0.3142052179626642,-0.5586313626678373
100.0,12.460606575012207,-0.2862382943355959,0.3598192170094013,0.9997722113980674,0.012154586398212697,-0.030535432298241797,-1.8116347816992004,-0.5717276405041993,-0.07404168991763643,0.26389743343952676,0.907827190230907,-0.41915567202771764,0.15357846827718233,-0.07411680012017371,0.30584629910993366,0.16673867695847328,0.9464321178348363,0.07410155485918628,-0.010702178259342353,0.007720026168297404,-0.03241324291540775,-0.07115924106099797,-0.16250987929773641,0.08131810021243917,-0.045123234103093345,0.9738589672439666,0.19548030509568198,0.7542381133548681,0.30334827267008585,0.10915283020578406,-0.14085791863378655,0.22441106610867892,0.8502346044688942,-0.4399662781059343,-0.30946346902292776,-0.5495481919962946
101.0,12.536868810653687,-0.28731090230817136,0.3540418777927711,0.99996409885533,0.01164799644859111,-0.03086751655732104,-1.8166718968002131,-0.5657193460316994,-0.07330900722624104,0.26505932869196047,0.9098796457578029,-0.4233743116395009,0.1533333450088864,-0.08069766219684413,0.2923551467482656,0.15284190935559,0.9596470789352972,0.10733806916408287,-0.011923799555203105,0.009474716834856324,-0.034740696469522755,-0.07349166783206287,-0.16588370466114088,0.08229947134875044,-0.04422396032510902,0.9728792207874997,0.19492463097199342,0.753431918047777,0.3028183713704946,0.11263776658830008,-0.14001406289369026,0.2300960001224867,0.854046758402733,-0.44097935174339686,-0.3044128838709403,-0.5386416926696499
102.0,12.616324424743652,-0.2887544206883385,0.3451036048579793,0.9993099202113852,0.01081842009700397,-0.031289662087628414,-1.82761456678467,-0.5574992871107282,-0.07051180911831054,0.268800887769951,0.9158199826106402,-0.4317612451524241,0.1540526828766999,-0.09357420241578723,0.24506104177787807,0.10235560771251623,0.9797259978333301,0.19214147425353068,-0.027012372112728653,0.014235824706982435,-0.037558213137174376,-0.07711099315517847,-0.17164843705317273,0.08326793286568611,-0.042227446505779795,0.9707404300062327,0.1933214317238337,0.75213352070913,0.30151888049526043,0.11702896944215439,-0.14019373164976082,0.24012362643101873,0.8582330488813561,-0.44304996339659675,-0.2960710354194716,-0.519284983719512
103.0,12.71018648147583,-0.2896689594486769,0.3391549668652447,0.9988267587613808,0.010957862830738404,-0.030650909303646105,-1.8360628934079877,-0.552760466448047,-0.06758679364570883,0.2708476604006612,0.9208920822891588,-0.43932135351569335,0.1553039523818984,-0.10329724223645603,0.1934425526901548,0.04653568658906059,0.9918780751695844,0.2534733763714486,-0.0500749850282508,0.01786834631707363,-0.03752302561105403,-0.07929284283575302,-0.17581080150545564,0.08367560076466912,-0.040604381213974194,0.9688590409797444,0.19200083471817,0.7502611417319114,0.30079414571086216,0.11897030680638289,-0.14124884308496163,0.24770700236393767,0.8596377924027956,-0.4446433924358886,-0.2899782549045543,-0.5051519277949369
104.0,12.77387809753418,-0.29058545353548004,0.33381361486188865,0.9988785033451909,0.01158494517290962,-0.029640952310000804,-1.842201656825781,-0.5483731800513745,-0.06617326373872337,0.2704458072395251,0.924277797530953,-0.4472562643656799,0.15666013409310744,-0.1117269282018477,0.15353623334175676,0.0038159438069883395,1.0040245954483256,0.2888511977053831,-0.07037353219018284,0.019641593639043702,-0.03628858526651087,-0.08074046090192447,-0.17953824803270935,0.08400612178738759,-0.03939271993924761,0.9668512827073183,0.19102673311617263,0.7475589436645498,0.3002696229715357,0.12004463324389164,-0.1424553608341709,0.2547555951651892,0.8605413202830947,-0.44625128242977063,-0.2844948971593249,-0.4924125161070383
105.0,12.891878604888916,-0.29157093913380183,0.32852645465342195,0.9992696860584609,0.012042654459900652,-0.02893275250238541,-1.847071354124919,-0.543326946946336,-0.06658278272762774,0.2685590165924317,0.9259738687010581,-0.45612532639823855,0.15790344260977118,-0.12086145466454828,0.13128001055583663,-0.018818571703560893,1.0191787585087135,0.30715369889147054,-0.08224518010901297,0.020075144949892883,-0.03480838270248955,-0.08168081163447055,-0.18317674793082084,0.08454318647138312,-0.038635359520371004,0.9647907018019144,0.1903646047548571,0.7445940877530688,0.2993706818468321,0.12044760689325684,-0.1435950084139972,0.2618449798849501,0.8613966891155126,-0.4480013498433182,-0.2793352929353359,-0.4798861418876007
106.0,12.951605796813965,-0.29216109899305875,0.32537527782085973,0.999595552770469,0.012136716397898989,-0.028566231742007116,-1.849936524151674,-0.5398596222084626,-0.06727255276010322,0.2671706321844955,0.9262975756031181,-0.46177135772305633,0.1584564608140398,-0.1269890931015911,0.12551876233040815,-0.023791910390207095,1.0297037129882,0.31120751837080984,-0.08482517969867301,0.020156109587665477,-0.03362048649960283,-0.08191517685104827,-0.1853657151588053,0.08500837251612828,-0.038435666487276185,0.9635587303669486,0.1901228052693132,0.7427867534159383,0.29855484223130535,0.12015655352379988,-0.14418840194632865,0.2659132407764809,0.8621196788166433,-0.44922251236004407,-0.27699040758061194,-0.47301259206120205
107.0,13.02274465560913,-0.29291249920272,0.3211861130071913,1.0000502032923715,0.012170698479622682,-0.027934449134103284,-1.8540962846034927,-0.5349699146216952,-0.06795351811110639,0.26554782181585357,0.9264931919208663,-0.4692344155073628,0.15900781396417746,-0.13571670646685063,0.12149488247286565,-0.026352515804235054,1.0447411566400708,0.31059618523429344,-0.08547991075065584,0.020417730698716073,-0.031474247674246066,-0.08194616101655078,-0.18849389197685024,0.08589807021002882,-0.038318242069316,0.9618482567525144,0.1899168569963886,0.7400952228183504,0.29725950503944226,0.11893884981029526,-0.14472267951199927,0.27091329391699903,0.8634136817211834,-0.451029322912011,-0.2748133415961066,-0.4650380984503582
108.0,13.151527166366577,-0.2942124572128393,0.3134519483601282,1.0008462502490567,0.012109961546000619,-0.026666159065224987,-1.8628352209227832,-0.5256432823771879,-0.0681471323500985,0.264045089083206,0.9270515675467639,-0.4830874112507,0.15987680374198238,-0.1543266334939427,0.11754507834071942,-0.026929464820487387,1.076595698761143,0.29498287922927224,-0.08373907725951218,0.02104986440852965,-0.02633062103263592,-0.08162399491157896,-0.19517969782834663,0.088563985545032,-0.038191919434258835,0.9585845572195174,0.1897009520330693,0.7337983598246709,0.2941585368399775,0.11434226907768788,-0.145038910505698,0.27967492631279856,0.8657125025896325,-0.45431979451858906,-0.2714965477470884,-0.4525167945150059
109.0,13.212533235549927,-0.2947588406774876,0.3099181179006209,1.001220496943743,0.012188636956231064,-0.025859400675085503,-1.8672295616907153,-0.521314643541904,-0.06718533733837655,0.26444430920238926,0.9274888629641476,-0.4887978448355517,0.16034334713602477,-0.16405696693230182,0.11625793484247496,-0.02685949782287445,1.0925438956576656,0.2796697010082764,-0.0822083940785083,0.02124072997920752,-0.02329037110931908,-0.0811999383464811,-0.19870949951189587,0.09010054713045565,-0.03823316570903431,0.9569444756455525,0.1897202252880012,0.7300391659412683,0.2925541031235959,0.11109818176968236,-0.14494658315858922,0.28308724128755824,0.8665873875149799,-0.4556626102367371,-0.27033624033150244,-0.44839046383720277
110.0,13.304481267929077,-0.29583344714013327,0.30208578542898445,1.0020561825319605,0.012408324547002272,-0.024060130620542533,-1.8782551062694144,-0.5114660334546643,-0.06274607633355696,0.26861693168603906,0.9288051194968933,-0.5001886254113372,0.16189431084106068,-0.1890780095240966,0.10559800886943374,-0.03396066827115027,1.1322448495836852,0.22991167949897132,-0.08247441764418109,0.021719973990545628,-0.01622068834361196,-0.07946260527437062,-0.20752266152737525,0.09332932131623069,-0.038724065169975674,0.9533843463524844,0.1900611950896528,0.7203436095350357,0.28864629481443366,0.10223070955479335,-0.1451192426571913,0.2893484948378714,0.8675742605188539,-0.4578792136214253,-0.2678191500930784,-0.4419764478523311
111.0,13.375395774841309,-0.2963190805534569,0.29831398775991724,1.002502136742344,0.01245421576705871,-0.023024550901245354,-1.8834909364787547,-0.5064328482825906,-0.06017303427593218,0.2711589847618542,0.9291608744283693,-0.5049613787063854,0.16291242314610427,-0.20215363470869438,0.09644930789024377,-0.04160747216051307,1.1518033002854056,0.1995219999752639,-0.08513657044294384,0.021405401818828346,-0.01304842670591308,-0.07801897630286446,-0.21204970481131497,0.09424017832781575,-0.03962517674725814,0.9519909614160884,0.19072784082485145,0.7160128236085574,0.2868863386630903,0.09818300103463715,-0.14569129543054815,0.29128692734259126,0.8670692288604767,-0.4583496671392902,-0.266829570187832,-0.44081618774338316
112.0,13.467437028884888,-0.296931876933984,0.2936443053455233,1.0031047212896365,0.012507766377962483,-0.02083807393310603,-1.8890755835488302,-0.4999897989688969,-0.05737991678055032,0.27247157302591546,0.9292018779230429,-0.5106679232742958,0.16414126421944486,-0.21739198328154044,0.08504593770404106,-0.05266110876681715,1.1732139450154404,0.1619209365009175,-0.08923286076134634,0.02018419331843852,-0.008726633722230728,-0.07572450183517825,-0.21739023039475472,0.09459237699389593,-0.04153277484790237,0.9504106553262002,0.19218115088755983,0.7117497712721848,0.28545482905370345,0.0942483209132176,-0.14665140753560452,0.29231653334510743,0.8659246822022424,-0.45874801644977564,-0.26677775074925536,-0.44125568647655067
113.0,13.565335750579834,-0.29750681621948494,0.28908256129587007,1.0036007374607996,0.012255808985092875,-0.018304755184494103,-1.893979278643338,-0.49351404859405856,-0.055675969760874064,0.27206830325202574,0.9290523919922213,-0.5169396359965699,0.16527387158432316,-0.23243264524219565,0.07308307520707352,-0.06474144221140263,1.1937617578075783,0.12401975774032278,-0.09425771236784047,0.018406504718881847,-0.0046109995666356665,-0.07304729204263716,-0.22268589158160765,0.09445926812189392,-0.04430657068053792,0.9492857288262793,0.1944106259775028,0.7086400856517869,0.2845147600184118,0.09136227452703496,-0.14770366293959392,0.2921418361013152,0.8638786313217666,-0.458645702424229,-0.26753498466448444,-0.4433899385777711
114.0,13.620504140853882,-0.2978273917343252,0.2863654358691088,1.0038457685367905,0.012053340718775764,-0.016552478754125556,-1.8965786302724028,-0.48964103082488075,-0.05516052241272737,0.2709044184469468,0.9288695716268001,-0.5209650133556947,0.16587048548740152,-0.2411930049577477,0.06616632018526172,-0.07194289567482248,1.2049198273465742,0.10336777902632865,-0.09734681932945674,0.017105885286715618,-0.0021315590111400267,-0.0713866253983193,-0.22590224728083347,0.09425016968260821,-0.04635326459381513,0.9487761740295314,0.19610361701105386,0.7072610210492357,0.2842315090811932,0.09002099885983146,-0.14820263437172193,0.2913714930232093,0.8624137590912155,-0.458299053030456,-0.2684310535642431,-0.44548456373263745
115.0,13.692047357559204,-0.29822564758873615,0.2827151647701121,1.004146255259943,0.011797747300771533,-0.014054521182108188,-1.899731645917358,-0.48447664029435566,-0.05478343337827059,0.26882632135646944,0.9286044186428515,-0.5265050646779004,0.16662783734745149,-0.2526711385847948,0.057459046736359244,-0.08109425932577038,1.2184711473273593,0.07913398533698092,-0.10128526223251247,0.015115570074869286,0.0013512952372557632,-0.06915651344598647,-0.23039962282793852,0.09413120586830898,-0.049238641688873,0.9481460645366601,0.1985436840000893,0.7056304915999514,0.28398579572726157,0.0882433944991432,-0.148500997773383,0.2897860743907385,0.86045558147536,-0.4576905020227747,-0.2699138537138757,-0.4491959495143858
116.0,13.785155296325684,-0.29890067836805995,0.27583594472253603,1.0045706056017234,0.010962879124948994,-0.009863265553349532,-1.9046932857407775,-0.4747912243889697,-0.05548224349547676,0.26447139968091715,0.9282893295780916,-0.5376125428424264,0.16810468836988657,-0.27465955363077355,0.04072933305661778,-0.097565816579543,1.2434874087089605,0.038650658361742016,-0.10902553087676725,0.010754886363202855,0.007648248771541288,-0.06461142075263804,-0.2398088894273174,0.09478190973103619,-0.05502305129347725,0.9471390797118877,0.20362234102594384,0.7024411418957299,0.2830378112833656,0.08482852813449385,-0.14794770538708057,0.285690145525279,0.8561414475258702,-0.45631675207895606,-0.27262354184103743,-0.45901786404166095
117.0,13.845206499099731,-0.2991949528643415,0.2725847178413701,1.004723609306298,0.010327054760668324,-0.008173953348845325,-1.906488905939581,-0.4701869703336845,-0.05654444222533039,0.26224294900906153,0.9282449766960861,-0.5430485561663587,0.1687756509277378,-0.2849971550473998,0.03336808275658354,-0.10421957353408363,1.2543687564360018,0.023633306955760398,-0.11238379751644567,0.008379252824434295,0.01051145323030571,-0.06224983877089388,-0.24442588900550166,0.09557476610820541,-0.05790511807107705,0.9465160932925007,0.20621477123796805,0.7002309183353856,0.28231535820437037,0.08321734161450861,-0.14704945416408632,0.2831285078729716,0.853864622752541,-0.45557799382564834,-0.2737570195897979,-0.465409712891909
118.0,13.980576992034912,-0.2997628748239741,0.2665068945060746,1.004962351146112,0.008743119087630155,-0.005407783017106794,-1.9089372832358538,-0.46150631161771405,-0.05971728474038342,0.2575197446145291,0.9283450962945322,-0.5534528248905153,0.16986570484136804,-0.3041164037001159,0.021441939272185313,-0.11423433118643828,1.2726889073910566,0.00226116104403583,-0.11756466310275102,0.0035309265496998787,0.015604770975467495,-0.05747918357134253,-0.2529122357636667,0.09754548507175884,-0.06365691694621198,0.9447913642388122,0.21147549078833888,0.6934014071138689,0.2808820744725753,0.0803418531674159,-0.1446475600167197,0.27725144151869285,0.849337384046666,-0.45402506668228726,-0.2761004522510571,-0.4800627259830047
119.0,14.046116352081299,-0.3001000878866662,0.2632197438253061,1.0050793334963106,0.00782823694372287,-0.003968484730583198,-1.9098806395160794,-0.4568532279214883,-0.06171374856280565,0.254699279839808,0.9285318338818838,-0.5589338437017105,0.17034009005780582,-0.3142481102905284,0.01667072877133134,-0.11808181036851048,1.2810190264760928,-0.0059815941484600635,-0.11937459859414712,0.0006586042959515,0.018232227623767985,-0.055020864963124944,-0.2572247479789812,0.09865903086288064,-0.06684279575615867,0.9435267182147317,0.21444540260826073,0.6883315907882879,0.2804120048443002,0.07885705017074575,-0.14328052321453083,0.27376455730490457,0.846939783890506,-0.4530131143987475,-0.27792608509793393,-0.4883431311794123
120.0,14.121050119400024,-0.30052038317720225,0.25946695338012704,1.0051700747797854,0.006830362952818855,-0.002443370266214058,-1.9105294629273004,-0.45170570110291,-0.06416079891176071,0.2513708886836457,0.9289462096313685,-0.5649230729567192,0.17083288136303898,-0.32588612878510415,0.013070193687762806,-0.12084005814525181,1.2891131600352628,-0.012742400746702354,-0.12033682488338202,-0.002991329053679509,0.021037513927922694,-0.052458785949613486,-0.2621847656610702,0.10003800064691232,-0.07049780366661779,0.9421611300664668,0.2178422831138177,0.6822301544831748,0.2798022176817841,0.07719963138351232,-0.14170848676479547,0.26975236374841893,0.8442964387481682,-0.4516475002522109,-0.28082481110143004,-0.4974152624699216
121.0,14.231685638427734,-0.3013567477718284,0.2524641891140163,1.0052237425121544,0.0052809126429795746,-7.482758443325539e-06,-1.9109835388857404,-0.44263111248366716,-0.06899624600153845,0.24521958690039414,0.9299021209880085,-0.5756025561652602,0.17186751147425655,-0.34841235214780997,0.00939556574610371,-0.12324580083556239,1.3022804692638394,-0.02205927891441091,-0.12008330606465192,-0.010484863787168074,0.026149430611724304,-0.0479962110858938,-0.2727300770933721,0.1030981328872081,-0.0771702443356353,0.9414933273695316,0.22388154268811,0.6730955030173759,0.27677844880660146,0.07404509358146096,-0.1385283484906996,0.26260835076867994,0.839760617840293,-0.44907961323617374,-0.28794188272578636,-0.5132597960001366
122.0,14.267699480056763,-0.3017692147652673,0.2492036898858504,1.005172570741462,0.004814808900441201,0.0008973830299831499,-1.910915272813016,-0.43873417844622814,-0.07125220088193758,0.24255375140732482,0.9303499809417701,-0.5802308636001806,0.17243358187379454,-0.35936295166929466,0.009357320675684202,-0.12289544222677953,1.3071578445453222,-0.02477031416972287,-0.11889033244539918,-0.014278307846261867,0.028691708162862456,-0.04609991844682104,-0.2785154244340708,0.10484378755640476,-0.08008258130609791,0.9425871306894875,0.22626998036647028,0.6715852409315791,0.27361597207729227,0.07260832980926628,-0.1368666614583225,0.2597235642254655,0.8379096433383199,-0.4480182658458276,-0.29186687348673196,-0.5197719524488985
123.0,14.40144681930542,-0.3025573630328017,0.24318011923942717,1.0049342171718711,0.004364825552274165,0.0023238604209548245,-1.9106576898550025,-0.4320819238291219,-0.07543473067445308,0.23775695166475225,0.9311533886323917,-0.5886246730782898,0.17350551385457175,-0.38040395407823774,0.011758195810590785,-0.12014515346339923,1.3140568484311768,-0.02756158440610257,-0.11515860699789646,-0.021144709375438123,0.03371557417012651,-0.0428449647945667,-0.29024916356699343,0.10827402717153717,-0.08546096103211015,0.9462105303947155,0.23024122137595826,0.6726081374894384,0.2654570282598694,0.07031706173772614,-0.13364332432784942,0.2547898019449557,0.8349463402441799,-0.4463307215254803,-0.29940587268750657,-0.5309608124926702
124.0,14.456297397613525,-0.30299570368492407,0.23995220460855304,1.004738312938632,0.004251632896479386,0.0030630359637358155,-1.9105584594780316,-0.4287293095311745,-0.07769821828371068,0.23507715254735623,0.9316597824729957,-0.5931414548733452,0.17393410856347363,-0.39181730752167726,0.013928061603088255,-0.11800372225273995,1.3165192711155718,-0.028191054071179063,-0.11277694830378297,-0.02448395971085143,0.03636451629985766,-0.04129603578201585,-0.29631478988615845,0.109911617959835,-0.08831824370880519,0.9477744114559035,0.23235931157876066,0.6731707507351841,0.2615020638858767,0.06937493360643832,-0.13200686392917177,0.2521275361863678,0.8334321533283825,-0.44544132276000437,-0.30311357605995554,-0.5367886031650303
125.0,14.533893585205078,-0.3035162077940975,0.23628667861766345,1.0044459635214573,0.004222660701849113,0.0038231926131594342,-1.9104015680565398,-0.4251557335404378,-0.08042376251555111,0.23180081690066423,0.9324199715479493,-0.5982985520098437,0.1741816915922378,-0.4048649041668084,0.01692227819217792,-0.11517530699144621,1.3181103460329169,-0.028383295307395157,-0.1099374123308701,-0.027878219964765513,0.03905818292329418,-0.039756464965320884,-0.3027330293301736,0.11142681514616015,-0.09135759820021266,0.9486518557085584,0.23483442652869588,0.6725563258846158,0.2584875336767274,0.06861075057475848,-0.1303048912987225,0.24898157813716054,0.8316026747296132,-0.444436987223592,-0.30700112283134506,-0.5436053255068648
126.0,14.613412857055664,-0.3041278619858809,0.23218385715145726,1.0040631787179422,0.004244786137234459,0.004565541858798946,-1.9101312519808935,-0.4213495119616565,-0.08360553814433459,0.2279711811123782,0.9335104832726753,-0.6039000980062196,0.17420568297611136,-0.41942173723137927,0.02057035238869999,-0.11176878617136146,1.3187513220558134,-0.02834855573125508,-0.10675827692334847,-0.031280672652209324,0.04162766381942119,-0.038267222209941006,-0.309417378161738,0.11277709993577498,-0.09445652212321903,0.9487713485024483,0.2377984603320042,0.670441984152783,0.257227655090843,0.06808147451233738,-0.12853028219609133,0.24535918541664814,0.8294108976919294,-0.44331426328185963,-0.3112596735727214,-0.5514521082164224
127.0,14.686827182769775,-0.30484028500660465,0.2276318021844052,1.0036035227730837,0.004278900156265812,0.005263479382867109,-1.9097353440119056,-0.41721610549679244,-0.08707538738997661,0.22385275887509676,0.934868365930388,-0.6096264808223869,0.17408597855367908,-0.4353992727516739,0.024817661978228427,-0.10775612965554376,1.3183445394606461,-0.028279995289475633,-0.10329676852058503,-0.03468553706290534,0.0442246329821388,-0.03677774242706151,-0.31643372051066654,0.11405968205504591,-0.09764764102100693,0.9484574982391721,0.2413372556138974,0.667516644238628,0.25768815763511604,0.0678829600057179,-0.12666440620202146,0.24144201464127885,0.8269070603495638,-0.44209798603734846,-0.3161335087441454,-0.5600135279164012
128.0,14.79538869857788,-0.30602961919529004,0.2203689541254513,1.0028411546528164,0.004608258376403535,0.005982704869084761,-1.9089368439885526,-0.4109305416844113,-0.09204288040074772,0.21826728506645415,0.9371747817976154,-0.6173829094229042,0.1739539215950489,-0.4611051015896492,0.032364827871114096,-0.10028456906645142,1.3154019456528374,-0.028356380077004008,-0.0975212057406281,-0.03901470315859373,0.04828243237760425,-0.034789077702748236,-0.3271631257908554,0.115781158919793,-0.10240876494985844,0.9475974388235809,0.24789652902986647,0.6610086361143119,0.26226011362119883,0.06857587452084787,-0.12387655476913312,0.23530748140549773,0.8231710675669688,-0.44055523365036675,-0.32502333637433084,-0.5732232305947143
129.0,14.855737686157227,-0.3065703778858732,0.21717387680735764,1.0025222480063638,0.004740459887757284,0.006154056592176025,-1.9085399308194573,-0.4080282486211918,-0.09337808198603495,0.21708188919102286,0.9381354593314752,-0.6195616652661233,0.1741407831116269,-0.4722080892035763,0.03580616742003372,-0.09653011908372472,1.3129301362474175,-0.02869617911998966,-0.0951870225858496,-0.04059325431032238,0.050283058184531736,-0.034083602570011126,-0.3311036612254219,0.11670072894444378,-0.10422632912260922,0.946319317202425,0.2512669559611368,0.6561534198094365,0.2666090217626406,0.06915919304663054,-0.12273821950575847,0.23302796511242882,0.8218784335286404,-0.44008408989912207,-0.32903703515881183,-0.5779829426312014
130.0,14.977377891540527,-0.30758711352170204,0.21119534110459304,1.0019939433565068,0.0050536549203931466,0.006316226860062913,-1.9077708586857518,-0.40229480876119184,-0.0941928800937851,0.21724315470540095,0.9395571758438925,-0.6215332282562954,0.17487451798041234,-0.49263490444425534,0.04236102588583607,-0.08872916208420531,1.306457191087901,-0.030139169988901017,-0.09144970889942947,-0.043520348774899326,0.054507513032595656,-0.03294032580328754,-0.3369129202367511,0.11886036495337116,-0.10653780258126463,0.9418079994540502,0.2576069692396028,0.6423623823969147,0.2777638122163392,0.0698952711758356,-0.12080243410314194,0.22959575997228188,0.8202749947667207,-0.4396558591239098,-0.3360554920885379,-0.58493149624318
131.0,15.034105777740479,-0.3081505136063241,0.20795267819386842,1.0017474063817582,0.005232586518236617,0.006353387170721649,-1.90722433572819,-0.3990181638609484,-0.09408435006265681,0.21809483287980297,0.9400500144900067,-0.6217704347022477,0.17523591952723083,-0.5033777851375675,0.04581225774198941,-0.08429815355466397,1.3019637492050302,-0.03160903584214735,-0.08993725613133607,-0.04536432626884224,0.056866757610950225,-0.032282784169866505,-0.3397071352733745,0.12009011413305007,-0.10685790987133072,0.938819201139694,0.26010861019440135,0.6342256182657122,0.2832963599724817,0.06984295727625449,-0.11986699812699916,0.22825316939443735,0.8197688658368305,-0.4396042072320233,-0.3392640703420081,-0.5876674694470536
132.0,15.136695146560669,-0.3092314014911478,0.20191194879305824,1.001409597584082,0.005912972295158111,0.006217406212006948,-1.9059556985868293,-0.3928192553886438,-0.09365850676979037,0.2200757718179308,0.9399362077041744,-0.6212797104623555,0.1754352420138661,-0.5230400026685604,0.05239188415254789,-0.07541416905152187,1.291454317546075,-0.03604321783455517,-0.0877571619622313,-0.048975884885578684,0.06118611507914527,-0.030827285574854004,-0.3453670316853257,0.12181093688287661,-0.10534398072556017,0.9342970872062019,0.26187269910175437,0.6215478613553469,0.28937547247934164,0.06914878642653086,-0.11831680895137961,0.2264503105462302,0.819564691752983,-0.43996122438576235,-0.3444756621841032,-0.5913398478657232
133.0,15.197149276733398,-0.30984402751422024,0.19865106990584377,1.0012851711658788,0.0062906348779481445,0.006085595174512338,-1.9051126982241087,-0.389329727261637,-0.09392027968808328,0.220554185909589,0.9392753756630282,-0.6211323717493307,0.1751501536001514,-0.5331945398462598,0.05575470269875554,-0.07063101177885472,1.2847123812504497,-0.03951862771422264,-0.08702100394254017,-0.05083696669062357,0.06331795401594419,-0.02983285108860075,-0.3490713896395914,0.12220611802075533,-0.10380160430450716,0.933158016837583,0.2611599394809106,0.6186512757996713,0.28909237052055237,0.0688218102827249,-0.1175541028934127,0.2257974535260555,0.8196686501104814,-0.4401938060848417,-0.3466762814087216,-0.5927093659361989
134.0,15.316112518310547,-0.31102000489985404,0.19259424981808462,1.0011869829898665,0.007050266233510174,0.005684733950868964,-1.9033914517307409,-0.3826164670467031,-0.09589596885187673,0.21968043737032394,0.9366442720639023,-0.621793011195549,0.17392940666243695,-0.5512868262817275,0.06182067563465394,-0.06159696883565334,1.2701128382482638,-0.04841472716013785,-0.08621544090194394,-0.0536741508968957,0.06686325827225398,-0.027709036119865513,-0.35715392051484895,0.12183524109592692,-0.10015976431642114,0.9333020373480305,0.2575634514926173,0.6204183941415584,0.2831468487403029,0.06877704400759355,-0.11637973457866341,0.22482660416818587,0.8202473693427104,-0.4407289008825692,-0.3499330884134968,-0.5945398154722193
135.0,15.380770683288574,-0.31202933607421457,0.18746239963150535,1.0012136317148352,0.007607606883103851,0.0051641766273568725,-1.9017803901134542,-0.37668528121153133,-0.09914854690995428,0.21718480759940256,0.933355197638384,-0.6235282053458742,0.17249173729937944,-0.5658046339765341,0.06663151857870919,-0.05386119457133545,1.256152327782607,-0.05832708768199038,-0.08595553215086639,-0.05564502582459756,0.06936639873622306,-0.025893930823344777,-0.3644437839137522,0.12100678432276021,-0.09712740485263635,0.9337367934257502,0.2540777033735621,0.625066137382467,0.2767966699489046,0.06929911512607936,-0.11577200262932763,0.2240740172628087,0.8210049821014593,-0.44117800348071246,-0.3519381785808048,-0.5952687095642267
136.0,15.485546588897705,-0.3131289645322596,0.1818073486170959,1.0013551686908637,0.008178204568015449,0.004314714244688081,-1.8996405474990288,-0.3699597892839728,-0.1044965248622159,0.21256204232781895,0.928679099167752,-0.6264710786979852,0.1706384534683078,-0.5806612797091284,0.07150494725567844,-0.04511179189528944,1.2391166407675396,-0.07206421119467282,-0.08605211820703199,-0.057929673443466785,0.07157777768047258,-0.024111165918797882,-0.37237289430499676,0.12021436376675346,-0.09427715896090474,0.93288571288193,0.2510467480896779,0.6298623480987937,0.2713594163648076,0.06994820617899437,-0.11566088850989187,0.22334839726106503,0.8222288068852579,-0.4416043346895377,-0.3530363005272049,-0.5942058456976504
