ccrpRepo/mocap_retarget/src/mocap/src/data/output.csv
frame,timestamp,posX,posY,posZ,roll,pitch,yaw,left_hip_pitch_joint,left_hip_roll_joint,left_hip_yaw_joint,left_knee_joint,left_ankle_pitch_joint,left_ankle_roll_joint,right_hip_pitch_joint,right_hip_roll_joint,right_hip_yaw_joint,right_knee_joint,right_ankle_pitch_joint,right_ankle_roll_joint,waist_yaw_joint,waist_roll_joint,waist_pitch_joint,left_shoulder_pitch_joint,left_shoulder_roll_joint,left_shoulder_yaw_joint,left_elbow_joint,left_wrist_roll_joint,left_wrist_pitch_joint,left_wrist_yaw_joint,right_shoulder_pitch_joint,right_shoulder_roll_joint,right_shoulder_yaw_joint,right_elbow_joint,right_wrist_roll_joint,right_wrist_pitch_joint,right_wrist_yaw_joint
1.0,2.7489676475524902,-0.22332153859110862,0.4344812133357785,1.0631414004029316,-0.017362774067585914,-0.028345600693630166,-1.7612398925674262,-0.3514838400341761,0.018841623216664827,0.12075706984232729,0.9373277435956306,-0.5004179687916057,0.20520309844599227,-0.25705803862062726,0.27085454964370204,0.26898076623966155,0.7345361739759901,0.12246896638266733,0.006340750099448645,0.025354266872327492,0.05886752360785191,0.08896303153834718,-0.2735149277156356,0.04879276557656206,-0.16723717358164714,0.6272729334001568,0.08979342370699944,0.9890973223692037,0.32358985126067996,-0.30336783501376474,0.037135855930585424,-0.5108408250466283,1.0499658473160918,-0.881623314903063,-0.46060848283640315,-0.4435302297216124
3.0,2.826295852661133,-0.22339908684325654,0.4344507190801,1.0631636191723952,-0.01729858409016148,-0.028506947627806006,-1.761239426440203,-0.35138560514801276,0.018776050361829687,0.12077841865474548,0.9370338449783098,-0.5003052642907106,0.20510473719229388,-0.2570362361553506,0.2707554322211466,0.2689769663184132,0.7344087137448936,0.1225164553993681,0.0062300322489000914,0.02508135354867355,0.05889914412235428,0.08920439549207385,-0.27273976009986567,0.04952367655741132,-0.16776218395221631,0.6259579277990124,0.08868680504480263,0.9891833572382371,0.3238251255712972,-0.3037377251199668,0.03818204356353453,-0.5141736990781391,1.0494356596215322,-0.8849808225571774,-0.4613311127634169,-0.4429413047401903
6.0,2.8871116638183594,-0.22504893958734995,0.43353718119955764,1.0636070794809926,-0.016212280166209674,-0.029563322074828834,-1.7548209843757223,-0.358329560177006,0.016789462927051052,0.12185904926547127,0.939938650214254,-0.4899032714244348,0.20300724020089325,-0.2541801128739949,0.2732304189458649,0.2717890918892172,0.7317200611870867,0.11676805883048753,0.006973660751800587,0.02677992937456152,0.05881764488332261,0.09027211559077358,-0.2754304917850493,0.04706870623599064,-0.16913241050050906,0.6295374723314657,0.08321991542974574,0.9881478088891704,0.32853766991087047,-0.2969962176570797,0.04911389654058536,-0.5184677601595541,1.047969330410992,-0.8905940974952385,-0.46299460375203805,-0.44304407179443195
8.0,2.973365306854248,-0.228498279020581,0.43137069196669553,1.0643950533348077,-0.014197549865145945,-0.031866469540482695,-1.739875114888866,-0.3741949786976695,0.010136309188938656,0.12275059839075808,0.9445201484264245,-0.4676743507720997,0.19782149616900824,-0.24729495057175555,0.27838372194448574,0.2777656188405928,0.7260793241879315,0.10368908727342457,0.008850004541724014,0.02978033122152498,0.0601931367500551,0.09299805216680469,-0.2782071358465497,0.04212318211562874,-0.17434745662916556,0.6351947048140396,0.06993369885077981,0.9823165232026565,0.3393648245405412,-0.2833403915336236,0.06940687435788237,-0.5252519971358727,1.0471608732637638,-0.8954268340771414,-0.4681609567591227,-0.4506686944583968
10.0,3.047683000564575,-0.2324311432818187,0.42874925106235123,1.065159321100311,-0.012600238112552734,-0.035331170344622326,-1.722269055659536,-0.39509251113400196,0.003318642686579205,0.12055817384707757,0.9512411254049766,-0.4439614575599542,0.187953820274799,-0.2392510303596327,0.2829565868447799,0.2841457858564297,0.7206555653770902,0.0887154854455583,0.011247583615851417,0.03262524558800975,0.06017839887902072,0.09625292647973395,-0.2811629473248062,0.03662814987555883,-0.18163859020559747,0.6428382658403313,0.053660943713986796,0.9749837600094549,0.3522649308686764,-0.27238662626045734,0.08618749553760136,-0.5288948817790734,1.0556648053004376,-0.8954824218380227,-0.47508785677998444,-0.4654126751642247
12.0,3.1158998012542725,-0.23638731772831123,0.4259186442933854,1.0657369119228968,-0.011494447187416641,-0.0388213510882017,-1.704063631710056,-0.4170950755985622,-0.004966817754725329,0.11830970735033264,0.955272729097036,-0.4209972102661168,0.1778449213450596,-0.23107391902914212,0.2865762613639344,0.28873173964619187,0.7156937446940415,0.07470156803426893,0.01377093144532671,0.03548117163809818,0.05955268476870696,0.09910053884295483,-0.2834369509925855,0.03230269726870654,-0.19109819128518846,0.650969683756775,0.035859719429429615,0.9686677196719382,0.3656176093129192,-0.2663972038714023,0.09627433663197357,-0.5269863306156862,1.0741896940391067,-0.8899125711215246,-0.48243342389543087,-0.48394528444683726
15.0,3.18631911277771,-0.23984576498180457,0.4231163331378043,1.0660102292129916,-0.011113726086655184,-0.04178571761926061,-1.687225544751887,-0.4371057537231387,-0.013591255742401762,0.11816169509450175,0.9541368151851622,-0.4021739113936332,0.16975745935574402,-0.22333595874184237,0.2887690425135263,0.29071198505783935,0.7114834432423649,0.06353632242252083,0.016118481209714604,0.037851594642854064,0.058858414619657975,0.10114129482338365,-0.2832152239207068,0.03057868696386244,-0.20315166891277484,0.6570669300572076,0.01764727864042461,0.9635311677415765,0.37806783264445826,-0.2656852589836217,0.09685752959122845,-0.5173749059652926,1.100582757178104,-0.8794684074060908,-0.4912020702081633,-0.5012463679884972
17.0,3.2694389820098877,-0.24328754898330948,0.419698152570577,1.0661193542276046,-0.01149143960123077,-0.04415676391146722,-1.6694527258600287,-0.4552310944486654,-0.024872881185978767,0.12241828348524286,0.9435390650065084,-0.3898598491122359,0.16522976509312381,-0.21444240490960745,0.29075225586362474,0.290939521976409,0.7071646485143807,0.05305201536891663,0.018360552908102293,0.038892389731307986,0.059691505203378736,0.10264093958979568,-0.28147991374028336,0.029643655203797,-0.21640199371690716,0.6630644970414805,0.0005192911619859384,0.9560492572299233,0.38765517280697953,-0.2639619674021514,0.09215908473729134,-0.504545708973998,1.1168278372052127,-0.8702093138301048,-0.5016974264927523,-0.5086849000829647
20.0,3.3572301864624023,-0.24648113365049362,0.4161298971206029,1.0664093140242932,-0.011151070755737603,-0.04592559214035198,-1.6527369262862193,-0.46827268946834444,-0.036804128079802614,0.1300827458583901,0.9252796501891551,-0.38304467512471707,0.16483548611911808,-0.2062855691762175,0.292344965783403,0.29008834137269746,0.701832052891804,0.04372910920057184,0.02014488163301114,0.03817638074020253,0.06099537209364457,0.10245625784773038,-0.27845366600652705,0.029199533865139564,-0.22917950706860124,0.6688288815010491,-0.015207969679212539,0.9474597019035325,0.39464283629348795,-0.2618079274907477,0.08316291979393745,-0.49046914123721813,1.1254372703856252,-0.8609604110322056,-0.5118545730783364,-0.5146854311868799
22.0,3.4462990760803223,-0.25003582436085514,0.4115705781885375,1.0668099154908184,-0.009147071018332849,-0.04710758705305098,-1.6344048155158435,-0.4820979348765233,-0.04738481405713017,0.14238789606270086,0.8986464019975098,-0.37947660673289474,0.16631479150910414,-0.19769052413322732,0.2948845102318126,0.2890243144938799,0.6945320842024674,0.032099769289623735,0.02159248307313095,0.035151817694283036,0.06255780301879721,0.09955411569493196,-0.27519918863519666,0.026116282054254945,-0.23814637108420267,0.678834149433202,-0.030227801468513248,0.939612817139696,0.40104739379327925,-0.25414642934299175,0.07453605174986079,-0.48574664430967696,1.1085743592752626,-0.8548923478421463,-0.5176088899386516,-0.5163573265607335
25.0,3.5224571228027344,-0.2533285298692992,0.4069568878413038,1.0672607629384625,-0.006217614957256253,-0.04812423590604118,-1.617952063154914,-0.49530707107531524,-0.05636658325092158,0.15374889150320478,0.8700453826565863,-0.37632522070730895,0.16696928673854555,-0.18971009622559185,0.29725585280310707,0.28845973162318556,0.6862242413943381,0.020766591596419248,0.022556661259607452,0.03129814717610044,0.06353380725841788,0.09633513844472677,-0.27041365299687536,0.024164692695570394,-0.245379692337562,0.6882534525116284,-0.04767120246084237,0.9337142816460854,0.4079309780555634,-0.24667028202792507,0.06535632327760826,-0.4858741533532063,1.0856718031804713,-0.8474384135736633,-0.5222811512633442,-0.5184405562937295
27.0,3.6042373180389404,-0.25679314173036144,0.4012252950475794,1.0679135016161385,-0.0032990468217787023,-0.048730363856269776,-1.6024683812595586,-0.5097069519268645,-0.06738636783739219,0.1607893051586714,0.8359366662284688,-0.37382862954720497,0.164318494481481,-0.17958320711477083,0.2999284696934494,0.2883122897788691,0.6754312973149681,0.009288999020003857,0.022762985796216852,0.025951541309990677,0.06591536322104609,0.09444995320186556,-0.2621614374767832,0.021840566164176546,-0.24928227646732076,0.6990517845364985,-0.06598422865034473,0.9290788038228214,0.4137486826952289,-0.23579972493305168,0.05940698397264881,-0.49611985335097963,1.0440433348269682,-0.8411917522319216,-0.5244799276805032,-0.5131663029935822
30.0,3.681541681289673,-0.2598404425575121,0.3954955263508996,1.068643536576085,-0.0005189834194126051,-0.049111744430390264,-1.5898632481140744,-0.522912910855156,-0.07840619623059383,0.1644555171198675,0.8019804457134978,-0.37060745839078735,0.16013671060196402,-0.16968959893455804,0.3014494781685129,0.28728872797194427,0.6639598956326846,0.0006523827518331582,0.022322288624665745,0.020295148479200595,0.06789790827241812,0.09363999568264195,-0.25361407809171005,0.020471050310763468,-0.2537990914244276,0.7099565526779623,-0.08595449568787539,0.9258710804402781,0.4205056882652284,-0.22683958787047687,0.05205594897164783,-0.5065693542634537,1.0030050767498606,-0.8347115120213996,-0.5248306788382773,-0.5040916256342687
32.0,3.767970323562622,-0.26284833927003537,0.3888695028947494,1.0691255513798232,0.0023598032314215028,-0.04869201965886055,-1.5789161297193508,-0.5372472463709924,-0.09000899877679347,0.16657745624296183,0.7643730772031854,-0.36379937748902647,0.15484748887862737,-0.15952825162511483,0.3026308727462661,0.2841692199572953,0.6518647812890983,-0.005328622473749004,0.02120556793415468,0.016198203416127932,0.07082828349076703,0.09369281425549766,-0.2433353518638935,0.022178427443719333,-0.25777512767183397,0.7202693826508755,-0.10260067224008827,0.9247542390354988,0.425200079725203,-0.21878533098690853,0.048733668157586466,-0.5210395128697248,0.9527337337240547,-0.8318856582366255,-0.520480424550932,-0.48657196810126113
34.0,3.855039119720459,-0.2655883948918926,0.38232983231472617,1.0694043471988175,0.004754750585915082,-0.04787864487825083,-1.5698817284646656,-0.5492068765610761,-0.10087024829439395,0.16695732437806615,0.7284151442687046,-0.35415678049686217,0.1498684176731434,-0.14941650834371992,0.30412868675663984,0.28111187308078833,0.6403879744420502,-0.010347795881898724,0.019892154323088516,0.013480436831378926,0.07352580354245615,0.09453248905042971,-0.23367497152176947,0.027743201945782496,-0.26383157841408983,0.7274847286499317,-0.11806960608561792,0.9240121321167973,0.42904479219620206,-0.21390040435731522,0.04602259029768826,-0.5336768088176025,0.9073178160964281,-0.8314593123587044,-0.5163979169233707,-0.4664559481660436
37.0,3.921628475189209,-0.26801321682622986,0.3759981089885758,1.069495858799209,0.006816633193359232,-0.0469782677525669,-1.563405353715234,-0.5587641946581849,-0.11069858201107083,0.16653462399129462,0.6942389168877661,-0.3427091437619141,0.14565559003579293,-0.13981168671091843,0.3050785605665633,0.27763305426538604,0.6296245479283359,-0.013469405403555852,0.018465074010260946,0.011523563055401368,0.07526052558559783,0.0958401950388993,-0.22498850820395144,0.03397787112281522,-0.2708764207450504,0.734211657261874,-0.13387984702279232,0.923136197154902,0.43327635663570063,-0.2108862331135698,0.0412935691480677,-0.542741332076092,0.8674337964309428,-0.8331574112470486,-0.511473725750517,-0.44379379742925595
39.0,3.9980430603027344,-0.2705609130395451,0.36850657528368613,1.06925349378323,0.008727421628655831,-0.04593892678658227,-1.5594121022879577,-0.5686329295490224,-0.1213498148709993,0.16545840483825003,0.6571355578588438,-0.33029008095027435,0.1419278988931392,-0.12949719180926675,0.30529016351544014,0.2726502635805197,0.6191474326162363,-0.013726908113286116,0.016707812709410613,0.01020746900917371,0.07708468726301096,0.09760244249279926,-0.2162913792319509,0.036934338894949896,-0.2747073349051179,0.7456282556862349,-0.1468067639483247,0.9215991852604007,0.43511581239510566,-0.20599713874906506,0.037022397857843684,-0.5538864443827827,0.8167025503404626,-0.8424702633337444,-0.5021823175420158,-0.4116164440014378
41.0,4.089051008224487,-0.2728464640754975,0.36119630743539544,1.0690758116894592,0.010651085203461079,-0.04510357466186318,-1.557693867576889,-0.5760921380519498,-0.13157099530398275,0.16283165045100917,0.6223679595826593,-0.31888143007541203,0.13879648356693786,-0.11953369945266465,0.30528334997873435,0.26905062277693764,0.6088693660587281,-0.012553505902584318,0.014994957068748017,0.009792120747710822,0.07840226356872032,0.09973935464016262,-0.20744017706014678,0.04123074223402881,-0.28063268376213396,0.7543035840015855,-0.16064670562682531,0.9198054986773332,0.4364232346646201,-0.20277191228264227,0.03179653997753094,-0.5632210961857794,0.7727932104646653,-0.8536230785870271,-0.4929111905756809,-0.38210563605111214
43.0,4.14912486076355,-0.2749689530233488,0.35385243172252706,1.0688957296138628,0.012420901981981713,-0.04435881522643212,-1.5574783036205702,-0.5819068187358207,-0.141146496327433,0.1599676811290652,0.5898147593660441,-0.3084508625160993,0.13585827025028643,-0.10904146535306836,0.305582203812506,0.26724235328240065,0.5983802023926484,-0.011135953717566174,0.013405307393933304,0.009735356324961083,0.07895859399660429,0.10252130610744181,-0.19695164130948883,0.047453945547745395,-0.2882174137068777,0.7593910883071227,-0.1748044972307795,0.9189208868083487,0.43723948023690984,-0.20065640599467882,0.02725720860952375,-0.5718290021873329,0.7342898166071297,-0.8655826646612471,-0.48304742495538566,-0.3540036112500671
45.0,4.208992958068848,-0.27687491573847944,0.34648715134154295,1.0686835304239264,0.014121777976512304,-0.04360479653834248,-1.5581679679964933,-0.5863325925861043,-0.14952404359619992,0.1580813907466117,0.5601094073052888,-0.2984854149938634,0.1331596037581454,-0.09800334947912509,0.30608626784697157,0.2667165301476177,0.5875506788401604,-0.00915064099789406,0.012128054399477412,0.008795990778140183,0.07842635844357057,0.10592670420871006,-0.1852663649576421,0.05402446838791407,-0.29734557427218644,0.7616786854106576,-0.1899243839902436,0.9182636913024038,0.43827305101131914,-0.19951328973660115,0.021778069800220373,-0.5789695994699169,0.7021276596822796,-0.8774363961801805,-0.47462970485262945,-0.3282135809734993
46.0,4.267189025878906,-0.2785435769706556,0.33911291765550433,1.0684892168674542,0.01580071881732411,-0.04248022141800436,-1.5592796311942327,-0.5893827722473409,-0.15642796690746247,0.1570384440971031,0.5332283970981083,-0.2884267869701937,0.13071604476943505,-0.08659253510978702,0.30705834916820346,0.26706296019485043,0.576137474354149,-0.006228329652303042,0.011218245673268264,0.007345170427134636,0.0766049715756018,0.10933878877394312,-0.1731746434273368,0.06049395846478402,-0.3080378753989431,0.7617825140993688,-0.20517988628452177,0.9174990963262208,0.4407626739425203,-0.20061312901052147,0.012068183294988185,-0.5822699229495325,0.6821970978082856,-0.8867096674827986,-0.46794465278094793,-0.30845565169922207
48.0,4.311754465103149,-0.27971920924159915,0.33298229567880666,1.0683634647177227,0.017443100097142877,-0.04140736889414316,-1.5602261573241627,-0.5905887580692664,-0.16176561120210275,0.1564335836465832,0.5105926438089199,-0.2793479029001737,0.12900176370826283,-0.07692273053047567,0.3077014197426643,0.26771672066824626,0.5656262615303758,-0.0029051905558082915,0.010724994872468948,0.005238339252209878,0.07464982379789567,0.1126767733121875,-0.161070367607487,0.06952463697895078,-0.3224734628870334,0.7557057357980916,-0.22498602982364244,0.9168386816864618,0.4463486275258941,-0.2019798787830996,0.0031868889401909816,-0.5831915989395832,0.6690887272843968,-0.8928500471085627,-0.46303162966445555,-0.2939340778314937
51.0,4.379951238632202,-0.2809269459995455,0.3262912230864011,1.0679890577812154,0.019197663579298807,-0.040013805702030336,-1.5620451906373143,-0.5916273443324565,-0.16614520983111508,0.15649544812931915,0.4890521170587758,-0.271373924492139,0.12766510680052964,-0.06732163673482636,0.3087219694826254,0.26830923598271406,0.5555848413176608,0.0010711800728290095,0.010176475970292056,0.0032659918635304787,0.07246075607571537,0.11527753423551165,-0.1482703151574718,0.07845757117676472,-0.33559060800744994,0.7476704813329856,-0.2427926572778134,0.9167778921561252,0.4520811835775446,-0.20536189051465753,-0.006551468102493443,-0.5824150865682907,0.6614760900770097,-0.8974124843983086,-0.4584531798424761,-0.283247106070321
53.0,4.4683921337127686,-0.28250033742996933,0.31741560607032204,1.0668656424222114,0.020780456052962,-0.03773968471567927,-1.566163123866857,-0.5929849320798494,-0.16928217105946064,0.15750513937325986,0.46740271031754776,-0.26481027279732744,0.12681149655220436,-0.056411489087995356,0.3106076161071223,0.2675267996839058,0.5465466290992006,0.007497400134079177,0.009353612748104236,0.002186046636138422,0.07035838230060028,0.11612222292140409,-0.13556680722928732,0.08464589820555762,-0.3414736885663426,0.74229565663811,-0.25252062217291704,0.9184508519698362,0.454607763216047,-0.2128760466216525,-0.01703150025323342,-0.5812761526031884,0.6582416676990646,-0.9012909536030607,-0.45197343434388226,-0.2750419447287796
55.0,4.542792320251465,-0.2839334237867878,0.30832313616402374,1.0655897562997931,0.022097778800092192,-0.034886254313864364,-1.5713124049864398,-0.5930197316518954,-0.17147465611143953,0.15735811028098465,0.4475386413715308,-0.26028563752110995,0.12663357934644948,-0.04569830424004638,0.31306645656918075,0.26689824845162896,0.5390546347001838,0.01499947959478395,0.008823443774510591,0.0020509940773124225,0.06872510166271889,0.11635900913721609,-0.12307583338929229,0.0913756269924886,-0.34615277134749317,0.7349098825869653,-0.2609413330272822,0.9217273761241518,0.45699065743886824,-0.22071859717943873,-0.025797563748213126,-0.5801339884203032,0.6564273584767564,-0.9038458797791713,-0.44585076190623557,-0.2685505298268177
58.0,4.625726222991943,-0.28528762177575634,0.2989473432262518,1.064295004671715,0.023083497658871792,-0.03218837339244248,-1.5778975233383532,-0.5913059267144779,-0.17301435360094777,0.15673936692109774,0.4292412749749056,-0.2573718578463514,0.12699746798566527,-0.03486514288351851,0.3154209026881303,0.2672405924424305,0.5334626634297573,0.0232922989731175,0.008494248748016532,0.002979394081905979,0.06705624883785859,0.11659796356197938,-0.10991489911224403,0.09882621990926144,-0.34926253505846416,0.7242533605646275,-0.26828056961027263,0.9274391367827256,0.45913334386370436,-0.22757554559124876,-0.03198748620938464,-0.5790866045691857,0.6539935999715053,-0.9064962739043857,-0.4414134430733795,-0.2640244543142641
60.0,4.694279909133911,-0.28683219229111595,0.2878108729950828,1.0630493836136128,0.024121592873117104,-0.03099767026130242,-1.5875627755487964,-0.5872708976946677,-0.17317879418492432,0.15738456947393714,0.4157095359234933,-0.2586648208255091,0.12748425789170387,-0.021616573567453126,0.3158912604602343,0.26992215623131016,0.5273823840743034,0.032783012382157535,0.007555976873406691,0.0052655056921901006,0.06364395596253826,0.1173484926782454,-0.0880753379230927,0.10777755256299723,-0.35018841346253393,0.703994632113016,-0.273548191510382,0.9320583058941716,0.46137046693542516,-0.2255236717783516,-0.03219302407667155,-0.5754632440222054,0.6424992091811402,-0.9079031003370164,-0.44018987852052116,-0.2607500737139423
62.0,4.764851331710815,-0.2882321241681608,0.2768665091548789,1.0612506416281409,0.0244260802100617,-0.02902054157479818,-1.5986470434012943,-0.582087181547494,-0.1720207623659412,0.1577108951390153,0.40390592735240016,-0.25768072282553,0.12867323888177779,-0.01107858253065452,0.31532272828626906,0.2674325279371676,0.5271087819343565,0.047185346971423195,0.007111224036755354,0.009165924462799369,0.060473485903746,0.11799416757172637,-0.07786918118765312,0.11300667014061111,-0.34574209214926427,0.6926193539935165,-0.2742531913812254,0.9368214308526237,0.46099303920974866,-0.23192278012088707,-0.03223945629602389,-0.5737864544458089,0.6364717075316411,-0.9109088788863643,-0.43755022009103256,-0.2600568974500784
64.0,4.836003303527832,-0.28952759161580344,0.2659248469433669,1.0593673500771554,0.02468499025975093,-0.027244475698238353,-1.6100642350683865,-0.5757706443019396,-0.16985485199692196,0.1588510219972932,0.3956274557816174,-0.2564339257508864,0.1300829715335871,-0.0017105664208483355,0.31374819614468624,0.2634388934343378,0.528812088790872,0.06338979302699024,0.006794813152915076,0.012867894554590618,0.05734920760319269,0.11839155504955892,-0.06776796718835383,0.11828033908624855,-0.3401925381839661,0.6801741304932887,-0.273957319403386,0.9393130160205337,0.4607646627381662,-0.2370615455130809,-0.02901090604327295,-0.5716127515802729,0.6289880826465495,-0.9133339516376799,-0.4346291818699719,-0.25885680879067496
67.0,4.919286727905273,-0.2907416810425513,0.25498800839079305,1.0573952652421101,0.02489311395638311,-0.02549521896565618,-1.6210882099102921,-0.5683251973164538,-0.16722303113556156,0.15953112440512762,0.39085307874259545,-0.25594113027101284,0.13168043566806173,0.006804887127592387,0.3119325864753185,0.2587739220390043,0.5321705577878323,0.07949566357052182,0.006521890736222895,0.015441719920600436,0.05472900252897428,0.11874009058905438,-0.058991173055616214,0.1226397323283783,-0.33316441921956874,0.6684255911125708,-0.27301627121088023,0.9415367593893755,0.4597857701966634,-0.24143113386527776,-0.02308405487173546,-0.5690561815650047,0.6204765348842101,-0.9159973722395374,-0.4317744268674707,-0.2567101727459604
69.0,4.999852180480957,-0.29216752947841695,0.24185884503227134,1.0549804004771406,0.024872433268205284,-0.0230761458456449,-1.6330069676474837,-0.5583412365872954,-0.1630316093761736,0.1602193689232173,0.391652271616695,-0.2572749878577117,0.13353367220087606,0.015807320488069928,0.3090584634194631,0.2500449731262111,0.5383319081977992,0.09698101334413341,0.005724968286105546,0.01801226449930212,0.05262009972181132,0.11764045687787858,-0.05212606245703501,0.12201369303849088,-0.3193072498341987,0.6595162176388698,-0.26198831460151956,0.9443102255785398,0.454543963931511,-0.24407351020351079,-0.013126412827900329,-0.5665398447295964,0.6093291172044879,-0.9210163684146229,-0.428332555861081,-0.25458691589857974
71.0,5.077158689498901,-0.29346613073500355,0.22873356503784523,1.0530459721923535,0.02474999341538644,-0.020596976450224815,-1.6438516361081486,-0.5478732600082116,-0.1572985564133896,0.1634908941060696,0.39684999792719244,-0.25978326596320056,0.13594909851201115,0.025514712255770088,0.3055199140409768,0.24106922836360356,0.5429320705672691,0.11147069958920575,0.0042725680634222146,0.01941919653691461,0.05074730974445704,0.11643854229158587,-0.04322319493373781,0.12270935183422836,-0.3079227423276022,0.6467817220404264,-0.2508553336971199,0.9459428880714891,0.44894929688554186,-0.24205992015446576,-0.0018549967146871621,-0.5627480913782297,0.5957512021480624,-0.9254325054594869,-0.4268351286985901,-0.2520628345372627
73.0,5.1457061767578125,-0.29475834962033076,0.21554034901964458,1.0520834446499223,0.024804665809145074,-0.01879389947391927,-1.653356962819939,-0.5386036421216435,-0.14886123413129493,0.17344590742415086,0.4052946312537314,-0.2615483354807733,0.13988083683422184,0.03603986537478337,0.30083845037701995,0.23313509189676562,0.5457340396998572,0.12131174858890707,0.0015082996403924275,0.01995724402931428,0.04870773192386895,0.1151377514527388,-0.03386110826069079,0.12471678563613843,-0.29731716348811255,0.6312530929315369,-0.23838904316742338,0.9468345856299152,0.4410815651522052,-0.2369159929020968,0.01135148471068552,-0.558859612518535,0.5803014517875991,-0.9307470877372171,-0.42836470589932196,-0.24855111236393584
75.0,5.2141032218933105,-0.29608525067575503,0.2024050299292326,1.0517900976925891,0.02558637412629967,-0.01908809602409612,-1.6609982346341232,-0.5326248346033745,-0.13700503496008945,0.1950184139346805,0.4173570881745049,-0.26004299885341403,0.14561056890687796,0.04626446045773131,0.2941512631752421,0.22638724210757494,0.5478011206547235,0.1264881937484969,-0.00239696429309759,0.019560419973032227,0.04454134719556688,0.11249950137982925,-0.026103287977688287,0.12811315417083358,-0.28561230270942894,0.6141472200245354,-0.22411487490460233,0.9482846913622232,0.4298582998668134,-0.2306726593378172,0.027496167019382366,-0.5559734421665108,0.5642311881320263,-0.9384041357692005,-0.43103821495831884,-0.24370489221263747
77.0,5.284057140350342,-0.29745928962303925,0.1894176833828324,1.051572829763741,0.026866410600920765,-0.02125604819007962,-1.6663326364829945,-0.5302175288317639,-0.12156256250610847,0.227947328504461,0.4352603858225784,-0.2501364096992817,0.15146248651913963,0.05582825646471834,0.28606470691019714,0.21991541235303272,0.5500488119581404,0.1281317846548249,-0.006877746934105661,0.01753668158733296,0.03722786567836822,0.10939715582146328,-0.019721136842935152,0.13224425214028118,-0.2731500589701881,0.595651160625028,-0.2086584569901292,0.9503699939407345,0.41666466889966236,-0.2228968778042369,0.04511645471893229,-0.5539723642534428,0.5482598902528739,-0.9465396183221776,-0.4351416891947265,-0.23949115973922996
79.0,5.3329339027404785,-0.29898032073167236,0.17614865690860054,1.0512776352468778,0.028036015663140797,-0.023598863090941412,-1.6694740999372248,-0.5300692490333685,-0.10429142583819845,0.26348312881788616,0.4593258007364057,-0.2304423891098875,0.15506724874355327,0.06549861877356827,0.27724302461238837,0.21087690110238944,0.5522289568417276,0.12906555224472005,-0.011903976642498995,0.01432608380382858,0.027351682658368858,0.10763495117119229,-0.012907238780389404,0.13578511771306764,-0.260022986164575,0.5754589895182708,-0.1904619396941271,0.9525750441231713,0.40300320623508085,-0.21233175781743652,0.0602178785984223,-0.5510388117282884,0.5369731820059438,-0.9510732639310806,-0.4415669680063956,-0.23835862365553537
81.0,5.397640943527222,-0.30063068090855505,0.1627479087619539,1.0511577775606005,0.028876416790705864,-0.02506993617182691,-1.6706463599574382,-0.5308470735693477,-0.08878979914767501,0.29191718144340373,0.4863393910948506,-0.20651906074564153,0.15533969396381944,0.0753749627980682,0.26811713056482434,0.19824325709753093,0.5538690001620067,0.13102584934620803,-0.01736689416371915,0.01106787562830347,0.016503645658752408,0.10750838622670936,-0.0056642585181440434,0.13965398281651425,-0.24593399934266957,0.5535303760280683,-0.16817061593737723,0.955620529962016,0.3891456352050502,-0.19996986043108195,0.07123297663251017,-0.545849317005359,0.5360731258767394,-0.9501712080458022,-0.44977357623258263,-0.24246632672161153
83.0,5.468093395233154,-0.30222542954718246,0.1492728160672356,1.051590863060064,0.029718153973565482,-0.02533262276443729,-1.670758961400577,-0.5305936268261002,-0.07768821662744574,0.30844369833579377,0.5117566695931062,-0.18683314890141606,0.1532310864591767,0.0851193364036949,0.2589254233439494,0.1837106469867455,0.5552271950898735,0.13408930698259278,-0.02319927822460987,0.008683551365410165,0.005792843754902466,0.10809593653676672,0.0011362927029240888,0.14283546890373583,-0.2302495705570513,0.530838687478087,-0.14033204159319668,0.9590764674911857,0.3750409406108213,-0.1861554849154067,0.07782258826686397,-0.5382327257069464,0.546495811158437,-0.9439445546837015,-0.45961536416014676,-0.25225655127281826
84.0,5.541175603866577,-0.3035042603370276,0.13568619187453712,1.0526960306465412,0.03056059078726721,-0.024618151295278348,-1.6709210774086967,-0.527474456495227,-0.07197210887946724,0.3132959986191504,0.532184404285641,-0.1778195093278262,0.15083628026863466,0.09390676009496726,0.24867901733684572,0.1673304830635831,0.5572345995449914,0.13849811348669688,-0.029391834201058342,0.008132243873166866,-0.004789885269585521,0.10780182915131839,0.0054172226205420875,0.1432413315149797,-0.21263198744932874,0.5092918518680735,-0.10714335365558778,0.9629412569191291,0.36090893323733686,-0.17177188500184776,0.07869919361041747,-0.5278987032618279,0.5679603724762605,-0.9333020337377427,-0.4685343276927013,-0.2657648110013067
86.0,5.587543249130249,-0.30415027919978377,0.12472430570773568,1.0541119837412765,0.031099190832892493,-0.023300258497816133,-1.6715036772745164,-0.5226359036722452,-0.07006966422568708,0.31176460022767855,0.544732165824285,-0.17692796416701173,0.1493475884832637,0.10083864235614926,0.2392564589188254,0.15269300929814894,0.5579838145990997,0.14397354139740223,-0.03464868155276639,0.00869428320092891,-0.014536779654180609,0.10614883285538568,0.006903510881451259,0.14504476812367906,-0.20003654743939892,0.4919160674833451,-0.08175316399498403,0.9680659732325458,0.35117615297353877,-0.1641120086296906,0.06730042276477137,-0.5084400634903664,0.6062642115067858,-0.9151067313285429,-0.4763104974299305,-0.2860954833587871
89.0,5.648516893386841,-0.30443991986622027,0.11313164986934315,1.0558690760366323,0.031146764343835252,-0.02199197886694752,-1.6733836058575597,-0.5148675612736485,-0.07122125875163332,0.305957490801401,0.5540255939264189,-0.18359238758405427,0.14873271812227645,0.10594731354098774,0.22601106396930004,0.13343791098248836,0.5620134480497656,0.15180131474574587,-0.04076300404746179,0.01165152230218813,-0.023578341607872304,0.10287168334482227,0.004418878303557932,0.14293101597098118,-0.18320170077167064,0.4771891853532719,-0.05056680426880568,0.9740920785414486,0.3395113393166681,-0.15506211810744291,0.056532928373077995,-0.488361164928548,0.6460196646147558,-0.897411453227969,-0.4816023749825806,-0.30459833376340817
91.0,5.727593421936035,-0.3044630008528226,0.09843680159700174,1.0577928393591118,0.03129477884654247,-0.02213272234639975,-1.6778426770028352,-0.5034171620478578,-0.07444714654170403,0.3006260038461043,0.5622337536226851,-0.19666952373083427,0.1483267788722624,0.11359205324257524,0.205973880513793,0.11012973909052975,0.5646567735136772,0.16301828633258664,-0.048071609686062555,0.017817145188561992,-0.03399327706070386,0.10076439214666111,0.012510559346582106,0.13705055473301056,-0.16353893578585507,0.4517696846852941,-0.011851731388431637,0.9772896575358392,0.32641423861334945,-0.13155718923083087,0.04661668582405316,-0.46232875462041034,0.6756245312787297,-0.8761083497448818,-0.4900861060525849,-0.3201118669930436
94.0,5.809773921966553,-0.30417529726911113,0.08359881360509527,1.0594238531240545,0.030080020890627824,-0.02094897519239988,-1.6840608329279536,-0.49081255329919715,-0.07712540849018285,0.29389551337061687,0.5718820802814663,-0.2123445758521622,0.14830686302880677,0.11493733178641743,0.1755479983619346,0.06853866344910972,0.5800889928909936,0.18019039774138074,-0.05921230131263028,0.027763055647250234,-0.04252558502848671,0.09923881384123136,0.003569555558568055,0.12783242387617988,-0.13606809422011057,0.43488301793344775,0.03722177230896955,0.9834217116497774,0.30839224495828776,-0.11640551412189999,0.03776990111304033,-0.43955232948715256,0.7172683809444207,-0.8620737636424594,-0.49588239787793664,-0.32992210740237793
96.0,5.899286508560181,-0.3035857562691706,0.06674461880283283,1.0609223383169057,0.027913955781934792,-0.01833336995888949,-1.6926665801580767,-0.47565116537602103,-0.07915809624396984,0.28597950906583475,0.5837018086401071,-0.23326305002018366,0.14891789418467097,0.11030000450092386,0.13397402708714518,0.010269349237112542,0.6101671788950607,0.20154570590158702,-0.07425097873762163,0.040639024565796406,-0.047646480232756944,0.09786125129612586,-0.011775446019479718,0.11340300824438274,-0.10064948243902659,0.41821803564308724,0.09756434862442785,0.9917147313952971,0.28492583869127125,-0.10120050802908187,0.030809636108895234,-0.41795713340702456,0.7590725579960041,-0.8541611851740258,-0.4948618733420076,-0.3297951795010732
99.0,5.982465028762817,-0.3027354787274906,0.05200470386825647,1.0620776389057338,0.024946774110974818,-0.015010788395692743,-1.7014922364825344,-0.46108138927638287,-0.0799361417188136,0.2797461198108053,0.5942969529483867,-0.25293917621265827,0.14997904816824034,0.10052776967200658,0.09064714509371347,-0.049520167192473555,0.6493032194184594,0.2235023764519095,-0.09057804920394599,0.051893696058137,-0.050677919451073944,0.09515096059629935,-0.03340856521239848,0.10079588408682615,-0.06869352510126583,0.4116249024551855,0.1483893149891512,0.9985091487620299,0.2649713966160742,-0.09577245624605982,0.014779815469412318,-0.38697625106804756,0.8109331190974979,-0.8406645671276544,-0.49099909699377775,-0.33046916255605596
101.0,6.072617292404175,-0.3012873035117067,0.037124148748096726,1.0630083277118585,0.02116015508592759,-0.010066091458467596,-1.7118413549299927,-0.4455039512059088,-0.07945946536664461,0.27431360115087833,0.6059506490055532,-0.2743796525823024,0.15159938988970595,0.08114235975921567,0.04188243732016201,-0.1118184107162307,0.7076725316706598,0.2460503787620612,-0.11050953515210885,0.06333221508472717,-0.05021671959276689,0.09128760457352306,-0.06422037988757218,0.08929088616501635,-0.036192758520064844,0.4134337411911266,0.191279842940819,1.0025463803176795,0.25190974619036416,-0.09672456342816638,-0.0012777505274965744,-0.35765316699989247,0.8634261500659717,-0.8317648396143547,-0.4871544847904515,-0.3269218524535147
104.0,6.147897005081177,-0.29978351715683327,0.02451642541166721,1.063545680384606,0.01683200048883984,-0.005461620442875958,-1.7216113448592745,-0.4316608397569346,-0.07830502034283043,0.271570501590848,0.617473981931794,-0.29394726781461467,0.15361687795954057,0.05750919545415225,-0.0020944559830135337,-0.16184417948411312,0.7715896714114683,0.26102898398346897,-0.130781446839252,0.07203438878772868,-0.048079317825509615,0.08591350237087872,-0.09742002930211313,0.08099450829481657,-0.007883568299418964,0.4243422145979242,0.22330844749158996,1.006184870327787,0.2429895893830311,-0.10456835330131067,-0.01935156122091085,-0.325101964376959,0.9146044123928534,-0.8196446204957067,-0.4847296847001843,-0.3274770549201099
106.0,6.235215902328491,-0.29792713259580095,0.011932322589576673,1.063755717034189,0.011548397608819524,-0.0007112785677769165,-1.7316880831633878,-0.41698150249774885,-0.07704044568611229,0.27091361302005695,0.6300437658600291,-0.3144948809242899,0.15659947972523341,0.024149119455395964,-0.040116280973991884,-0.1961328774983788,0.8478349216550919,0.263617889762146,-0.14933112465474524,0.07769510686433612,-0.04442705739151716,0.08110381228911621,-0.1358394944241128,0.07457386887137417,0.018144812278697447,0.4413699702710248,0.24641525671827091,1.0091929639933197,0.23843309991125827,-0.11548045781740207,-0.03408504461209368,-0.29898756085326245,0.9562474783909047,-0.8104650432513343,-0.480383722001376,-0.3257978234427583
109.0,6.318219184875488,-0.2963116931333066,0.001278025828537244,1.0636255014064244,0.006046482848334847,0.0025634043992680696,-1.7402448897581397,-0.4042115089717892,-0.07690091453264668,0.2710997557273394,0.6420100583797554,-0.3334890125555393,0.15924067784317694,-0.012951487400682566,-0.0668828469414606,-0.2129097074178964,0.9217724009030464,0.25242229928910265,-0.16261822354710487,0.07994994599018115,-0.0403117634054081,0.07626275496171794,-0.1737993517023439,0.07327453429602053,0.03906253140929572,0.4637895145721088,0.26202831787528896,1.0109993137550575,0.23464477230927488,-0.12969254510290926,-0.04525930012879342,-0.27499356660603586,0.9923584515091675,-0.7999146727014932,-0.4740721332936847,-0.32786312701170617
111.0,6.396106481552124,-0.294541498441446,-0.009543630370159125,1.0631533402924267,-0.0005218257886967365,0.005896998047629274,-1.747562505152595,-0.39063526151722583,-0.07802421152746847,0.27034068787043863,0.6542289822742378,-0.35282325896868455,0.16111308283409026,-0.05779387787975379,-0.08072372464379707,-0.2125479827228835,0.9956332782159418,0.2259509071831391,-0.16794007576431352,0.07782200325828317,-0.034595102605384676,0.07292256633454994,-0.2140031488937594,0.07736493796751008,0.05287012465941707,0.4900050904655079,0.2721471831855983,1.0147059210179934,0.23168774060760722,-0.1449905909965536,-0.050692380981292334,-0.25938244753547934,1.0188732944666126,-0.7911742329253267,-0.465197097303081,-0.3320920541963657
113.0,6.468611478805542,-0.2929667577074385,-0.018986166351227057,1.06244045855984,-0.007138962444716186,0.008542173029205683,-1.7527710970434676,-0.3785192283356105,-0.07997165818372637,0.2692411949954358,0.6654210827473679,-0.36969123052783637,0.1622931863311019,-0.10192125898517185,-0.08460129986508444,-0.20294942905285335,1.0585288140852904,0.19540404492383684,-0.16693232355917834,0.07348245486807152,-0.030034929653450664,0.07020856784421112,-0.2506167303276703,0.08436071904246575,0.058985392351009594,0.5176242405101845,0.2792883202303232,1.017302575091236,0.22830114385751882,-0.15949742771222966,-0.054305312508639,-0.24596486575881737,1.0402567469704533,-0.7791871781603421,-0.4557506592163709,-0.3395259892821737
115.0,6.542057752609253,-0.291522140873436,-0.0272806593174222,1.0615091933512555,-0.013651973347875957,0.010931326038782666,-1.7553120365794772,-0.3678786412388924,-0.08313026371086826,0.26647977365341624,0.6759828175249629,-0.3848700447758817,0.1631239117281965,-0.14372310946872816,-0.07973435938210377,-0.18762379897881304,1.108879263981892,0.1647549325801846,-0.16017837580748695,0.06694952956899945,-0.025947316147482073,0.06787008124877769,-0.28439617035153486,0.09366580483835281,0.05738858103481553,0.5453219157218482,0.2844459943268152,1.017824316463364,0.22416167507531606,-0.17348900989431315,-0.05626939466431356,-0.23565213603820084,1.0557669279093442,-0.765575699497919,-0.44683345451082024,-0.34983669824840324
117.0,6.623348712921143,-0.29009816246894643,-0.03518404285445245,1.0603127139367272,-0.020215138270969907,0.013489408970858908,-1.7557996765020767,-0.3579080935499269,-0.08733586803290594,0.262003025483594,0.6870509171569898,-0.3999365171575576,0.16401773483568283,-0.18321283713621966,-0.06797980718868417,-0.16855934544614282,1.1486193193035044,0.13515693227135922,-0.14885504349297926,0.05840260193869011,-0.021401840726972043,0.06543507728122622,-0.31742958647482633,0.10530307932736303,0.049873225356147244,0.5723788717148213,0.2877334985506604,1.0162163965460624,0.21912307765277483,-0.18744202903617468,-0.05561293671999357,-0.22967382460950458,1.0646137338836452,-0.7539808685571774,-0.4388247067286114,-0.36057056476124894
120.0,6.686143159866333,-0.28878153671290985,-0.042824266324275134,1.0590643315416974,-0.026448998088182865,0.01606258998029547,-1.7548803388430643,-0.348342793068923,-0.09225509239890313,0.2562631781948869,0.6977805899625217,-0.41453055490891044,0.16512061101236558,-0.21977341116426455,-0.05072500410405526,-0.14698816966785969,1.176909979812691,0.10714675648686015,-0.1344891656085627,0.04929495128487128,-0.017030028979335546,0.06285832103326375,-0.3475236665784408,0.11769711980937152,0.037726595564762114,0.5967701037082813,0.2897691902722415,1.0115578201252726,0.21405696318143824,-0.19847470582762405,-0.05348491864131462,-0.22650237841526658,1.0672754550589594,-0.7441817579010953,-0.434994893123683,-0.3726001561806457
122.0,6.76650857925415,-0.2872928187033781,-0.052581230141085185,1.0579763016523627,-0.03303532820543657,0.019292745709736915,-1.7523607623193795,-0.33575022875146454,-0.09893305629309783,0.24773694481544012,0.7077521721236295,-0.4301344261649619,0.16623464389672116,-0.25961447452786546,-0.024409945974782563,-0.11857950804849954,1.193750477927927,0.07457830423734288,-0.11505932643574651,0.03945990099130696,-0.011574296337496837,0.061662955074347325,-0.37512953548355554,0.13095736435437422,0.018886831583238776,0.6137018957624226,0.29147298801101384,1.0027273616497188,0.20991068641432173,-0.20126559899169422,-0.047303798646412584,-0.23196726170295928,1.0559972337889525,-0.7398739582122715,-0.4408872141730321,-0.3875188088029611
125.0,6.849223613739014,-0.2861754947164712,-0.062141679020016334,1.0568920754655502,-0.03903145975158848,0.021284354564866617,-1.749503225860039,-0.32340442180515866,-0.106363602929024,0.23945389133725628,0.7161702530007159,-0.44457547535768693,0.16669934249560298,-0.29571730072304203,0.0033227173812947937,-0.08881935539620195,1.2007175590552148,0.04310854891072244,-0.0954589986426154,0.03131543105196343,-0.006469988226006289,0.06113533010792572,-0.3980273298891651,0.14600629689467043,-0.0021385492177015087,0.6243442234876332,0.2898362423545809,0.99237994665758,0.20483342567974044,-0.20171967290717308,-0.03987671233715445,-0.23806955413560899,1.0430343625507934,-0.7379429766484709,-0.4489319298236406,-0.4027520891763593
126.0,6.934426546096802,-0.2851728248228976,-0.07322091261000441,1.0558161552996983,-0.04400011472671755,0.023763049249249348,-1.7449974328317563,-0.31008334106257796,-0.1135087056665876,0.23010245021066572,0.724216220670257,-0.4585462298911092,0.16638894541201388,-0.32931753743251324,0.032680100506947495,-0.04749020864595848,1.2104573055531005,-0.005162912074612697,-0.06774552443920379,0.024095294074880192,0.0010268491428448863,0.06205321328593373,-0.41696861174913813,0.16336847606739335,-0.027344088097809624,0.6244925514139843,0.2852309338996628,0.981887492867991,0.19780814392533363,-0.1976253989345822,-0.028101002629699525,-0.2497269823582541,1.0234593836626598,-0.7403900374632466,-0.45644029159128197,-0.4156482891317135
128.0,6.9883434772491455,-0.28489411926214336,-0.0817652434043464,1.0551071381388653,-0.04742497219437933,0.024883029955959403,-1.741377484176569,-0.2998738664826304,-0.11882373605131538,0.22311669296463021,0.7297173072003451,-0.46841341467095854,0.1653207186052116,-0.35438173701266595,0.05450974490279401,-0.010396447637018524,1.221553496758907,-0.04886935938724669,-0.04277930061325701,0.019447880686288714,0.0063270618686372395,0.06300259200895468,-0.4293996686027507,0.17908949624865764,-0.048391867461643395,0.6215232722914638,0.277075170352428,0.9730058899387398,0.19215867432296707,-0.19615391813101338,-0.022197315406442347,-0.2515459344474477,1.0153205119404551,-0.7379240353541623,-0.46399350752301094,-0.4286202090759874
130.0,7.0526533126831055,-0.28474558278664497,-0.09002806241029525,1.0544439656369677,-0.05069906297503381,0.026316891386346564,-1.7370838901713812,-0.2897927809277345,-0.12341575982412809,0.21573335766652676,0.7348871942179777,-0.47689105451237856,0.16355075174433742,-0.38058660159705204,0.07156633364266077,0.03160484353740141,1.236892699383559,-0.09388408682887123,-0.014363431504466735,0.015757682404476843,0.011830021400359004,0.0648907229654726,-0.4392337059301169,0.193235019399879,-0.06652247479500016,0.6139293344390377,0.2667724646084024,0.9647644475115585,0.18709013932140167,-0.19547178903196538,-0.017511505204105392,-0.25149472129321127,1.0110516046739826,-0.7349455496691799,-0.47052734054442313,-0.4381308345428159
132.0,7.105434417724609,-0.28454425140897466,-0.09840111874820606,1.0536692936924144,-0.054451378857106374,0.02779295473731329,-1.7320686571674562,-0.2788520208934484,-0.12785893406085552,0.20863354894518243,0.7396067939865599,-0.4843781326152182,0.1615347860313674,-0.41484059521502104,0.08508974482335871,0.0774276681786366,1.2495516156027957,-0.13054689785181256,0.01679012640912287,0.012666066180058805,0.017006702120092053,0.06735031802263386,-0.44821077048325214,0.2055977272331385,-0.08217047552524209,0.6032505336507568,0.25576966305931675,0.9586532658095703,0.18196260076306295,-0.19548676552084399,-0.01354385584343248,-0.25113815997112793,1.0098807420939389,-0.731927104802762,-0.47632410225892996,-0.4448348407718311
134.0,7.178455829620361,-0.2842116155921166,-0.1068342910774149,1.0527582673761855,-0.05890332873796155,0.028117979445735464,-1.7262295905138119,-0.2667520481484811,-0.13266767713045008,0.20391506960384959,0.743077463034374,-0.4896490875244471,0.16004991541221464,-0.4573366511128818,0.09738447019267957,0.12112759131882216,1.2449273135750825,-0.1452373812319166,0.044798931422921476,0.010000714427070014,0.019974450236052828,0.06953319081977813,-0.4581081568391494,0.21512624341449765,-0.09467658457300002,0.5913792271637337,0.24562785975763413,0.9556732992639287,0.17782397766922048,-0.1969902301619423,-0.01021531327145834,-0.2522673629822402,1.0109476977658511,-0.7287533794193829,-0.4808956153031211,-0.4492183081624702
136.0,7.237525463104248,-0.2835924895860533,-0.11573415307430776,1.0518526114898066,-0.06343230223946054,0.025916848813583825,-1.7197322599935807,-0.2534024751125841,-0.13970816141765183,0.20178978021819807,0.7438245556357779,-0.49247088597389055,0.15919009832131492,-0.4987640639945037,0.11078118357422102,0.15606765987378685,1.2111776425001635,-0.13596429958080597,0.06072573160252212,0.008195548689361482,0.019595083582416413,0.07088141573343658,-0.46974116458896875,0.22167838150033464,-0.10442976681985407,0.5789936212947386,0.237956422264002,0.9538434213567012,0.17695460411970798,-0.1983956456096801,-0.006452868712071464,-0.25675911176378047,1.0117801909479087,-0.72712647248966,-0.485155825705725,-0.4536409458760877
139.0,7.3168559074401855,-0.28274820348746393,-0.12463350493501202,1.05117198637955,-0.0667158973280706,0.021142604351737346,-1.7134328312182743,-0.2404056652829657,-0.15020325898064385,0.19978694155985016,0.7404016595215084,-0.494435979202796,0.1576800261986051,-0.5268803124743553,0.12448029808653518,0.17557289725958666,1.1511888562334731,-0.11104784043783834,0.05730624744328739,0.008429793805159158,0.016022413894076572,0.07071439393729642,-0.4822008326255951,0.22567443478034324,-0.11193116471179207,0.5674941848361357,0.23271500296732567,0.951313327542109,0.17936261041583182,-0.19922346311584882,-0.0037382590488560727,-0.26113792471618136,1.0147453814972585,-0.7280250230175971,-0.48987647060893946,-0.46007010584401464
141.0,7.395346403121948,-0.2816873429872971,-0.1351106245293466,1.051169185400898,-0.06835658082117191,0.01575119852485735,-1.7055951257651314,-0.22506617490013392,-0.1644778702575243,0.19282801471851568,0.7302864970351248,-0.49742428892720714,0.15480688982627278,-0.534913138998235,0.1380105189381633,0.18166125673436256,1.077508498192863,-0.08715671292515981,0.036738264054248494,0.009571384722401837,0.013049692050494978,0.0682597456969036,-0.4875239743541483,0.2261897482832829,-0.11867731657834346,0.5506925565988847,0.2300259027663597,0.9477195189300682,0.1822143357115434,-0.191622868502829,-0.001325292523538678,-0.26558184883923663,1.01385522911392,-0.7318601116394106,-0.4934983647066752,-0.4648965852789057
144.0,7.481517314910889,-0.2804120280827058,-0.14567531840844952,1.0510887404869573,-0.06841255968673304,0.01074810802857623,-1.696684160744979,-0.211057492135601,-0.1794236783041554,0.18341410133649144,0.7201650707799325,-0.5008087744930325,0.1502277069259869,-0.5299242515810183,0.15696036128712704,0.18407592805018042,0.9990080751924163,-0.0748398058626731,0.0015124159105101669,0.012208718216452481,0.010079046444197465,0.06732006878176444,-0.501019598435815,0.2255382910768351,-0.12441284265002236,0.5389463622780626,0.2275050005959203,0.945414760463517,0.1828104445259035,-0.1884582812588665,0.0026090937771118994,-0.27528119339401674,1.0151005725484858,-0.7374055790955463,-0.490558215988786,-0.4644848498759036
147.0,7.574207544326782,-0.27904486947269885,-0.15795248386937125,1.0514856784035151,-0.06955028836224736,0.008009696580198827,-1.6841978365253492,-0.1924618999687201,-0.19143550769044715,0.1723878555320425,0.7087747400006572,-0.5017580760429027,0.14402295125268888,-0.5268109553200557,0.17415743582218016,0.19511339046907383,0.9213278725241034,-0.06541266391058878,-0.027501444827076192,0.015281538494495565,0.009376202064752225,0.06920465442233545,-0.5132086893206649,0.22013977897160422,-0.1306452210999367,0.5274019122239207,0.22828247530158216,0.9445225414882497,0.18419724136837443,-0.1786590717962409,0.0069659134410922155,-0.28986187547792464,1.0126577456215913,-0.7441638243572004,-0.4874317875035504,-0.45940812696295885
149.0,7.665027379989624,-0.27760442251872575,-0.17151004346460913,1.0522825848426702,-0.07149004722181201,0.006383837684784946,-1.6692477325768365,-0.1696937749673749,-0.20147126615095168,0.16058088902690248,0.6951294563204165,-0.4994443790994565,0.1370877661423513,-0.5285301239849769,0.18796437543995723,0.21150368261629504,0.846715981706194,-0.056181563719000474,-0.04922895542115854,0.01933516306790265,0.010792440882033568,0.07348778706335381,-0.5228473651385004,0.21256496513207218,-0.13728957981747167,0.5165130834872247,0.23015136554990323,0.9433854793832387,0.18535305019712436,-0.16498560081798097,0.011037722798921193,-0.3056588720503126,1.0107360836570365,-0.7509949264639961,-0.48311391785380026,-0.45111151462903254
152.0,7.729557752609253,-0.27649160541748663,-0.1838146285975945,1.0532973948680804,-0.07355516552112353,0.005150068119284985,-1.6552877149447247,-0.1472480873022767,-0.2095681756050483,0.1490199733073932,0.6805331715345944,-0.49462789062827556,0.13024092926943778,-0.5332096550763101,0.197344740564028,0.2270577780103727,0.7827544754235908,-0.044793163901617944,-0.06302489562740213,0.023265217112871286,0.01292905793250215,0.07861125131530343,-0.5291731115997501,0.2060945886677985,-0.14316742593091178,0.508885410442995,0.23117723950733327,0.9456375661983077,0.18405067859276592,-0.15567931908783753,0.009616638764465295,-0.3119220196683446,1.0209315863442585,-0.75216295527377,-0.48129650635885185,-0.44886809280253726
158.0,7.81623911857605,-0.2751396086554708,-0.19716089017514213,1.0544071986497046,-0.0755353609820245,0.003475223065186511,-1.6398836391395342,-0.12250735783720929,-0.21782126759558515,0.13686370748067,0.6630223727589991,-0.48692648398205823,0.12317562005381985,-0.54190362406761,0.20237168713663464,0.23797056470867467,0.7230641867663692,-0.02935505431223008,-0.07050501499683758,0.027520958011423593,0.015735464554137976,0.08458717901826815,-0.5299220507374671,0.19726328884495736,-0.14873779348599064,0.5025796120927085,0.23072141964845058,0.9538084970278407,0.17985589815447095,-0.14280475159891365,0.006959881410521781,-0.3164758514999002,1.0334336318691406,-0.7528661110417312,-0.476813211090019,-0.4465380680166161
164.0,7.916305303573608,-0.2727578920646637,-0.21748595057406914,1.0545141560719666,-0.07594166945285107,-0.000348630917925339,-1.6132235593931914,-0.0909139563523122,-0.23076627475658462,0.11741160338128928,0.643334961404565,-0.47868614706773444,0.11490877732728355,-0.5582813783079215,0.21334083535568038,0.2573414567323205,0.6640811866725926,-0.015151840613913198,-0.0744519954335592,0.031077401786546593,0.02450876962369064,0.09237377167851804,-0.5252563259298575,0.18541745863562206,-0.15673950393523084,0.49889237783347484,0.2316603813223318,0.9642389130824753,0.173624897118697,-0.1114452141356357,0.02266631414555125,-0.3530166373247663,1.0075382179808745,-0.7732591316139176,-0.45567495300198313,-0.42520302898415163
168.0,7.99887228012085,-0.2705049846106143,-0.24378143133594452,1.0534596093621362,-0.07296340971029065,-0.0072328109473058086,-1.5771308618740054,-0.05633501572732065,-0.24595199170437992,0.09347335457384941,0.6246796601232879,-0.4720856610829084,0.10727292194836059,-0.5727451329743471,0.23130195392458236,0.2932676484527308,0.6190568049055588,0.006943127025782591,-0.07819265444298037,0.031634623316454114,0.038274797102418476,0.10348387661663976,-0.507087399141429,0.17011327494345901,-0.16072218045884273,0.49862433131077283,0.2290476726574005,0.9696825147578955,0.17731703442850194,-0.06493288222203496,0.05408345446078233,-0.41505856269972285,0.9406784029577353,-0.8085930085100259,-0.42590283095712134,-0.38883633724630906
174.0,8.089303255081177,-0.26917858169060416,-0.2708001923819997,1.0522331394997373,-0.06716965149910473,-0.0156951453936498,-1.5430483098557954,-0.022989738013296387,-0.26118058933664756,0.0685206074283888,0.6048791578162513,-0.464766615290503,0.09986418316809435,-0.5820154725903786,0.23622467276451292,0.30673905038832666,0.5870237241945438,0.04088295563341148,-0.08618022162020839,0.03517551299955927,0.05344983532567512,0.11659629521727041,-0.4752034387602758,0.15943305327858698,-0.16594767307563973,0.4987760465731137,0.22454024779876586,0.973761517408869,0.1801734865504669,-0.02232774531849372,0.08188579611660685,-0.4747983643207992,0.8817217436714002,-0.8431239986959602,-0.4067918985088239,-0.3626317773801142
178.0,8.181069612503052,-0.26867921504603154,-0.302844816926381,1.050004559172017,-0.057261700208957544,-0.026619544553500844,-1.504291677662664,0.010243195395400181,-0.2783523975931776,0.03718803428421099,0.5901944535780419,-0.4534096073836902,0.08991155986883684,-0.5824337740146522,0.22819049225084398,0.29787636552056723,0.5749755020007461,0.09105135205245377,-0.09918575340349063,0.03729013818850555,0.07342305556131373,0.13413351370986099,-0.4127437988145911,0.14865556411605002,-0.1702652264735579,0.49416219661921534,0.2159352959520609,0.9755220551931583,0.18347068888490603,0.033916843180493865,0.11622382658962047,-0.5385480244241956,0.7927576065368649,-0.879747805782195,-0.4118026172847764,-0.33719044950149524
182.0,8.252150297164917,-0.269100827792504,-0.33433474377143185,1.0488692097423427,-0.04448183525423201,-0.037217765645651546,-1.4671970430574865,0.04075127370194002,-0.2919327274329352,0.004077615524140838,0.5749849215253864,-0.43549219127041977,0.07965545964041093,-0.5765545291877812,0.2110444454961191,0.2744489486720335,0.5764239476806781,0.1381975032144577,-0.1167779826144285,0.03735353111495145,0.09246532919447219,0.15352351750430604,-0.3366673107537525,0.14795910903543388,-0.1743086077438884,0.4807198008771836,0.20377261098338145,0.9770957165537819,0.18712892390276242,0.0778563234507735,0.14162940290367942,-0.5832141213694026,0.7307217576383318,-0.90329479247881,-0.4341222188988363,-0.33138857116361053
186.0,8.301660060882568,-0.26925902107720434,-0.3656452441897873,1.0493337437107626,-0.029881173779887863,-0.04282066149185369,-1.4317902451316047,0.06813327023689425,-0.29867212177695557,-0.031078816517924886,0.5611972508289846,-0.4104621379307261,0.07026623296475992,-0.5714388979028922,0.1878974315708497,0.23540398536012486,0.582815624855754,0.16848521142585604,-0.1385023161047208,0.03715532509764588,0.11131411535166494,0.1720710720288393,-0.252108368139876,0.1493726219353792,-0.17548656538874113,0.46021840457979,0.19351159452921568,0.979963359440283,0.1899509645919527,0.1124065891734488,0.1545734331434516,-0.607768704102122,0.6979247477221302,-0.9077550577397744,-0.4653253962270835,-0.3426533054353871
190.0,8.368398904800415,-0.268422937370162,-0.3967633602416719,1.0504008208901463,-0.01654262068343121,-0.04341498770914619,-1.4004805781499106,0.09121508789920357,-0.2976599595120858,-0.05997185271954749,0.555431211413923,-0.3807058763751581,0.06365777200426634,-0.5649075612758194,0.16630223661280963,0.19339558154104466,0.5943897477799953,0.1787788492726876,-0.15704346600539132,0.039054712393440626,0.1263172871142355,0.18655997135967645,-0.16899124346176314,0.14346701470146106,-0.16780569335429088,0.4412081411136317,0.18938718448342298,0.9842531829466468,0.19687829002375612,0.13665312645514657,0.1512540749562868,-0.6118704414211501,0.6878165170865649,-0.8919106184614258,-0.48461396696728676,-0.35239752164274485
196.0,8.442357778549194,-0.26622584583829945,-0.42708797292234546,1.0524834166959605,-0.006106813159162064,-0.04064875830119798,-1.3745187285670557,0.10848746382033839,-0.2897903832718952,-0.07801198121716413,0.5607435025638021,-0.34383990320517077,0.06029835172718203,-0.5561578066412015,0.15057712216127228,0.15856170570040476,0.6118460567196837,0.18694148775037323,-0.16837305567723962,0.044801773057180014,0.1376358159616624,0.19885824006130157,-0.08971941061956966,0.13457491110666203,-0.1541485551311299,0.4218613088829176,0.1904516449631281,0.9891346107326098,0.2038049849421117,0.15468100795690704,0.13378407620531427,-0.5919685380776493,0.6949565885694772,-0.857683870565118,-0.49637402676550346,-0.3651420706263098
202.0,8.532516956329346,-0.26134433248074507,-0.46206319837089993,1.054157635217877,-0.0012576924397961957,-0.03769205666965493,-1.346466757439115,0.1154737480636788,-0.272864657946291,-0.0745248173481956,0.599221789291787,-0.28440860895463665,0.06086379234821421,-0.5408688155248309,0.1407148074396528,0.13644103708236413,0.6471645050999846,0.20153544495271816,-0.17028707555577802,0.051427527794314476,0.15041762744573156,0.21602628268739693,0.0002746933359108264,0.12705354339193184,-0.14225251353447368,0.39366036086846323,0.19273108994424376,0.9889877916086574,0.20444251031563845,0.17464233382480765,0.12739757227446052,-0.578223443820588,0.6667809308078004,-0.8343281923484953,-0.49941007410339566,-0.35660309964999626
206.0,8.62867259979248,-0.25530638673485057,-0.4985132980629442,1.0552709228624175,0.0011996200991765931,-0.034024373135711584,-1.3091563557164583,0.11054807276156858,-0.24377556906115103,-0.0563181961092976,0.6613259869019328,-0.21174692920409446,0.06439535741600402,-0.5207669577999238,0.13327373346290558,0.11933210127149874,0.6899423117471983,0.2073787044677624,-0.16659764855546505,0.049984321961854164,0.15919542610850684,0.23524101573822648,0.09681264431362646,0.1362498432606875,-0.14687847369906254,0.35187609689498267,0.1862661070520675,0.9755359063952398,0.2079409923196502,0.20741042687215994,0.11355212581108992,-0.5416507604223322,0.6349822072656407,-0.7996793523486109,-0.5009064542975382,-0.34900180311710094
212.0,8.702800989151001,-0.24902100044385286,-0.5311976836949388,1.0573436130877427,0.0028633566058863255,-0.03277538096276711,-1.2619980065049141,0.07065303476998064,-0.19184326348361852,0.0003200902287059243,0.7688134223914432,-0.1141675125622337,0.07532578930307168,-0.49167981036041125,0.1326758152592781,0.1211234399902619,0.7209539536746654,0.2130147414636233,-0.15481481006097536,0.044876671896365086,0.16135803284187983,0.2538985569031531,0.16082938626677612,0.15269577294847675,-0.16072051022868633,0.31877050269196683,0.16844313193784166,0.9628409974140948,0.21123168102713366,0.20795912245271003,0.1004878333835479,-0.5198202427621638,0.5954215998596052,-0.77667091349407,-0.4845975755852856,-0.3331487863280095
218.0,8.80216646194458,-0.24248833338632492,-0.5620879855550264,1.0594918317008688,0.004765037917572117,-0.03306495535268803,-1.1966902912214348,0.003987438634964514,-0.10714058177454823,0.09098038930082566,0.9075840794874407,-0.059868801453811384,0.10702569893711139,-0.45467506302954114,0.13746957802885287,0.13354243608920183,0.7430614326531817,0.20241437832373532,-0.13775256957543644,0.031731858189375975,0.16100149765811597,0.26899674020021774,0.19714110545014993,0.173488055448196,-0.17664239045378535,0.2846522728937647,0.14019650822252155,0.9531366792598363,0.21314405169472264,0.1939520203282009,0.09328440451536948,-0.5099280634504795,0.5382045574107643,-0.7680051684523608,-0.45503929084559536,-0.3114426724865195
224.0,8.919306516647339,-0.2357291701064107,-0.5898562396564137,1.0617852017135845,0.010375541268126249,-0.03613183907996709,-1.1189284043784569,-0.07776991468777986,-0.017241245886098065,0.19415237609338254,1.033976449064887,-0.10802297901454819,0.15490683872981853,-0.4160207470725479,0.1413020469672816,0.14936276602355747,0.7565015905548331,0.1846354256844971,-0.11684399034289192,0.018034874524180258,0.15421373666163551,0.280833795809195,0.20722350128955863,0.1896392429760346,-0.19577423510468567,0.24688906059503152,0.1009565874794986,0.9468187362904029,0.23381130655382473,0.17503675608869712,0.0811039831252944,-0.511298962135605,0.4690880773582846,-0.7686222185673188,-0.43395783887634176,-0.29395073471056404
232.0,9.024585485458374,-0.22820562905079614,-0.6157600681544789,1.0633179543604532,0.01636896033646452,-0.03667459055633076,-1.0395330609070703,-0.1673475890258987,0.04161613515125262,0.27394011338937363,1.1070655600499433,-0.20059120574215838,0.1911132652217703,-0.3764475640300435,0.1535767231772463,0.16920082251258114,0.7617209141117605,0.16750411672702115,-0.09438518450470965,0.012845210119746306,0.1477488972309349,0.2840546125519999,0.19287282131384229,0.19809117106304214,-0.20867854665557928,0.21240362579402008,0.053830329891775906,0.9395648225306213,0.26583711916808916,0.1416002356069585,0.0628785551832632,-0.5216318841810234,0.4102394938283079,-0.7816817008447208,-0.41396476483660355,-0.26992555880999913
238.0,9.15392541885376,-0.21817649308253206,-0.6434868247239747,1.0636804756133187,0.020733678482882354,-0.03725138312748734,-0.9559672692314931,-0.2820055617483163,0.06594635518346456,0.2972132562083482,1.1361721545093524,-0.31836379693950534,0.17455175340109846,-0.3247985874140862,0.17446221399641965,0.2005311164889121,0.7538959692838159,0.15286579111233922,-0.06384216720496325,0.019175228554163537,0.13820221217678752,0.26915292276666714,0.138165702708288,0.183383363534472,-0.20732863556178663,0.22481188552788972,0.006247855299411669,0.9343570577977374,0.30742922850856336,0.07861029092629365,0.01746101111545876,-0.5303844121486698,0.3936109840781557,-0.7916504190653915,-0.3942381821902724,-0.24329955577348386
244.0,9.231355428695679,-0.20724708580141948,-0.6685636609074538,1.0637006881035467,0.017729743546016724,-0.03177209298803537,-0.8807091759238913,-0.38800395698511453,0.058799229403528594,0.31363336109918405,1.069872021554454,-0.3836950671085638,0.15781598967047206,-0.27098984752376953,0.2055912021865103,0.223456318896177,0.7353699330841608,0.13984432806881364,-0.03799467994217094,0.025486013469493515,0.13515921031960662,0.24285455349707172,0.06624049174940942,0.15042953715226332,-0.19662345395972916,0.2832339777070235,-0.02260119064519499,0.9421968919237884,0.3405557519326118,-0.001677928517458148,-0.03965705283055641,-0.538840099230393,0.40622643733600566,-0.8013077246224919,-0.3784443358523182,-0.2230477012099547
252.0,9.338173627853394,-0.1952064040412788,-0.6913196578875096,1.0632831284415938,0.006788571538153158,-0.019953048383429522,-0.8143965487882806,-0.44505636315503294,0.03646178795513044,0.3410776674344519,0.938423038066684,-0.4121381804963854,0.13957032377309614,-0.22207940767804607,0.24367929226724067,0.23274914593983678,0.7083436527053926,0.12817910476105793,-0.01917273054916401,0.028715684276541174,0.14070423904297547,0.204716962907052,-0.006459388601338174,0.10915227295974674,-0.17916099664367474,0.3713879788253224,-0.02601214269763105,0.9612557598168465,0.3602176500298345,-0.09554734521038483,-0.09703860630979544,-0.543488398273935,0.44119904814493865,-0.8097823966921232,-0.365093131120748,-0.21284772388060758
260.0,9.467496871948242,-0.17955640916302124,-0.7148481190636522,1.0625649223347362,-0.01090896272135839,-0.010185145865067014,-0.75242108112403,-0.48905214883379683,0.019412391019892984,0.3707157521901981,0.7860827619266466,-0.4141648090789992,0.11714468319557969,-0.16608167484629477,0.279219689490254,0.22884406419691647,0.6746206624376148,0.10817332602570193,-0.007255887159705686,0.026652370843069727,0.15133354908842514,0.16747072884420047,-0.05586267139566098,0.07287731080067691,-0.1615979212620222,0.4553347613187597,0.0024717752951145394,0.9819738758374081,0.3526778358470497,-0.19359126746082278,-0.1334495582577315,-0.5421804323580991,0.4725055332078715,-0.8200449618038024,-0.3626200195734835,-0.21670634885514833
268.0,9.609208345413208,-0.16019332440255213,-0.7391416330661944,1.0600966080485814,-0.029620954659676627,-0.0011712644356043109,-0.6928571535663416,-0.5078390656093502,0.012890917370278766,0.40894193479009033,0.6404154024725759,-0.45631207746254554,0.11985837709707728,-0.11140886254501922,0.30992885313987634,0.21198075964762714,0.6404653609775351,0.0865255770571734,-0.0013287223958246806,0.02153867797499519,0.17030057679529048,0.14244815678861034,-0.0664941782202612,0.06413780767445008,-0.15167496580213635,0.49980107604363894,0.04242631694829393,0.9950172093383879,0.31715236982694395,-0.26539053615717395,-0.12139721220516336,-0.5373629952414081,0.47372458974201703,-0.8383791350930696,-0.37182973616980336,-0.22898856070289644
272.0,9.72971773147583,-0.13482034494240375,-0.7647001462053511,1.0548335448840767,-0.044771529318019934,0.005461926773354808,-0.6476538539208976,-0.5049997764462427,0.02730549998674463,0.4685436717667206,0.5453124685945503,-0.5001780844756186,0.1318676854853991,-0.06325087640863104,0.32361579788042094,0.17961331369938618,0.6209581637820994,0.08944336941906801,0.0021492176206964757,0.030514127061068666,0.1773495737080114,0.11951079411350168,-0.06826266905556053,0.0548642905688895,-0.1296572664136431,0.5228175801760535,0.08252224509401751,1.000835077813662,0.2831001134077636,-0.31287173035491067,-0.08889343745607242,-0.5258713094142403,0.4691704701978019,-0.859722774504772,-0.3890031083417671,-0.23672431442170216
278.0,9.818148612976074,-0.11037066976833508,-0.7865157460908685,1.0497485402879376,-0.05493616335446726,0.007833152589933685,-0.6204428049385156,-0.4916349618948006,0.04538369900413886,0.5172327009741274,0.5004627735892594,-0.5145065635182879,0.14104475346610884,-0.022656502360033345,0.3260877731512539,0.15169871667446808,0.612062629457382,0.10409296208343152,0.0034001055803338943,0.04616323487178753,0.17658664308060817,0.10737411120924469,-0.056739731505780586,0.048218947039462716,-0.1050904711615714,0.5248704379937549,0.11460224903346525,1.002658646970389,0.2566469033964091,-0.32590910366950304,-0.04883186924556407,-0.5118206681725114,0.4600641300433904,-0.8809378500157112,-0.40867391872677183,-0.2379088647709697
282.0,9.903468370437622,-0.0811173239325646,-0.8085652927307627,1.0468583084318217,-0.05658122741819488,0.009873186589508212,-0.6027178801491289,-0.4689592600091428,0.06710288559045385,0.5694145044074908,0.4983161136404191,-0.4978665896046477,0.1498817641391024,0.016767390871910585,0.3172643105786557,0.1291087950756684,0.6061722663034323,0.11721480020469201,-0.0003987406426748494,0.0674017521664005,0.16730764704120193,0.10102622243912984,-0.026018113551949922,0.048461060920923976,-0.08250888391607096,0.5051050046047821,0.13456649009238306,0.9943655457487006,0.23600250830313146,-0.2972480517793138,0.008254979984594096,-0.49197557663430813,0.4397924461391064,-0.9213826793643096,-0.43621076710744,-0.22168566022074684
286.0,9.984665870666504,-0.05282856209277237,-0.8278469603138212,1.0462731409912207,-0.05061795457976622,0.010725032808903908,-0.5896796341109364,-0.451365261679733,0.07406569754314866,0.5946506030232146,0.5175145009790467,-0.46612286926658353,0.1527671291464693,0.048753404716219514,0.30054369665478686,0.11262882477799688,0.6055439771123822,0.1235191791274674,-0.007335601380767382,0.0867202421229315,0.15064088595460357,0.10112516330936057,0.007765520919465755,0.051215999296516705,-0.06539630627605746,0.48038908528366603,0.14793136154845832,0.9841441637448578,0.22103977386641244,-0.2474438554227224,0.06726134070656939,-0.4745697994274316,0.41480939650402315,-0.9677256364512852,-0.46349029161497857,-0.19694123941266772
290.0,10.041581869125366,-0.025635450719826286,-0.8450499257204123,1.046829677728868,-0.04483748532054077,0.009103576433260211,-0.5742095846563045,-0.4355443664069969,0.07418266363740991,0.6018299494852032,0.5488766349805501,-0.44065973728360147,0.15333499257265565,0.07631812347024625,0.2760352463623052,0.08573912440281754,0.6128236482119731,0.12465434667262465,-0.01722422030324109,0.09938880221885421,0.1377916924209735,0.11276025215460962,0.03972002791342835,0.06182532337769357,-0.05693933659636455,0.4546659318434676,0.15009108932583645,0.9760639447626949,0.20582233601592062,-0.18171755122751934,0.1307969761579169,-0.46198244397449895,0.3850677700400109,-1.0130599310461563,-0.48656505401980166,-0.17142814433438117
294.0,10.116828918457031,0.0014014510937174988,-0.8607830867568275,1.0481920038161348,-0.04148314341534684,0.006394958550526166,-0.5617005102250064,-0.41927970634994516,0.0704569454850037,0.5949156040447203,0.5820461581318338,-0.4332872160262061,0.15259959206689572,0.09743600551667754,0.23016795991164046,0.027135030738310556,0.6309098728771209,0.1262266959568711,-0.03398546641397162,0.11628639572441934,0.13063350414268085,0.12957532488757137,0.06695815848560234,0.07747484555523063,-0.05512036067609878,0.42537731676403273,0.1465661703868562,0.9664338429353012,0.1944398959252996,-0.11645003900534426,0.19225510892752512,-0.461537879722839,0.3710659629951757,-1.047928523854526,-0.5063676360949574,-0.15741800818221952
300.0,10.191822528839111,0.027539463264629485,-0.8745404777664243,1.0505994176430593,-0.03966407152167236,0.005365622626712528,-0.555077220843371,-0.3998622458065888,0.06084166959581984,0.577516313630209,0.6033581219488467,-0.4466149662813037,0.1515450989700625,0.10670838823603548,0.15956931854878914,-0.061761002520432255,0.6653030678051266,0.12867056300598378,-0.059142564604555595,0.140308920092707,0.12406505579909657,0.1457745896952131,0.08897323672493554,0.0924951037547738,-0.055573582272296446,0.38924996003768153,0.14314059015601976,0.9558826974237655,0.1886602421863594,-0.06744279850092572,0.2359799273056814,-0.47658590944694823,0.39506199578636686,-1.0724281060370575,-0.5289104247718814,-0.15742843737354706
304.0,10.276162147521973,0.05773113515913511,-0.8879017505544244,1.052120404659917,-0.039131046714583964,0.0064160390869622275,-0.5485759152008465,-0.37804087284229554,0.0466095228181266,0.5531616414472972,0.6230367931672425,-0.47418986933518104,0.14867345346408767,0.0929898484706837,0.05574754014122206,-0.1737366359401465,0.7484291996536505,0.11500661829136857,-0.10045538838168222,0.16901255384842517,0.12788706446936735,0.17640745639098493,0.12250869489898152,0.11419865246418145,-0.05921029994499422,0.3252212798492699,0.13460595239481438,0.9404317496088629,0.1833348678105225,-0.011379231257658492,0.28356540928022056,-0.5100787327775755,0.4313870083239002,-1.104922472875817,-0.5555715391899023,-0.16734582215284516
310.0,10.357993125915527,0.08523697479296284,-0.8993764551352645,1.0544297660251871,-0.038142959611870655,0.009173813276466831,-0.5363819099084519,-0.35456631218550877,0.02989597946532039,0.5302496775930868,0.6281176949965366,-0.49411214711695733,0.14522972087731412,0.06239372761475706,-0.03346785909090311,-0.25629414811534224,0.838377650596881,0.10292665678250981,-0.13980477111035122,0.19192579294268797,0.12190000096648335,0.20447719213931215,0.14934063964251654,0.12724671797817627,-0.0654195610341737,0.25655077101434,0.13580488124795154,0.9343800127609614,0.18370587659704163,0.02063789383404387,0.29397141314570335,-0.5398161287707146,0.5091738816670942,-1.1208645386605274,-0.5817966258313367,-0.20038781429191754
318.0,10.440150737762451,0.11245487824578715,-0.9090722860597411,1.0563176008330282,-0.03791836232390569,0.008387894795924862,-0.5084099876952554,-0.32676446701900036,0.0046509682618613175,0.5008582019555892,0.6260086503708465,-0.5064403843356865,0.14175802009928842,0.0006187896057578864,-0.08878118867101016,-0.2785288985995,0.9388093820314218,0.09375773257663653,-0.1633989224869829,0.19650743278598934,0.1209732440721458,0.2256939904197845,0.15466763787722074,0.13236253425565542,-0.07097970189863353,0.1954691528287935,0.14183668273533573,0.9306046339731704,0.19792742129878893,0.03130898488836625,0.28205602211864833,-0.564591565332161,0.5953790349803523,-1.1299753792360647,-0.5927808136904891,-0.2414074705160119
326.0,10.572445631027222,0.14141377608614025,-0.9172417168778404,1.0561061218436947,-0.03730463343239438,0.0032776722765032094,-0.4461371181812347,-0.3000205369032064,-0.035049377071846376,0.44962542075153744,0.6280475778287,-0.5081083124711752,0.13584424168462642,-0.098287279075515,-0.06589251575148894,-0.1978342260972673,1.022053105604932,0.08668825393599477,-0.15194620554272478,0.1777830615125465,0.13261677036403904,0.2390034268905138,0.13120789897744276,0.14553974523562357,-0.08123323671306251,0.14599849050135888,0.13713646511518002,0.9311044925202848,0.2049780615000872,0.03626549731991383,0.2746326372612213,-0.5955218564770464,0.6523682941263851,-1.134445395737275,-0.5990450595092339,-0.27598989504058474
334.0,10.698020935058594,0.1713026736140532,-0.9242938435089398,1.0533153355375529,-0.03369640589704262,0.00032702794705205735,-0.3496944220099152,-0.2800349577710759,-0.07842178351619492,0.39022872308510337,0.6364480059228375,-0.49534824844394837,0.13055474859371102,-0.1938677358015805,0.02825359988459243,-0.011331178644093276,1.063453164896282,0.06166871014569213,-0.10925918974564777,0.14315897142056055,0.15227948303637528,0.24260337355642853,0.08731403287039918,0.161661674764015,-0.09452923427941144,0.10828072879878191,0.1131932190443117,0.9314409799731822,0.19864477843375922,0.04641372357702108,0.27316495334809415,-0.6273344193561536,0.6760889424915699,-1.1307370052111554,-0.6079049880221757,-0.3084564889011644
344.0,10.860147476196289,0.20367574775852265,-0.929588611483513,1.04933096520612,-0.029361888310135732,0.0013603632585827705,-0.22689675677140395,-0.2641687744964961,-0.13147548567099956,0.3042132836702717,0.6531268826715992,-0.4796766520514948,0.11494767795202403,-0.28592673039525607,0.13147867313122968,0.22025303272011018,1.0508333509275842,0.048604715744834145,-0.055599320914857676,0.11160156632950763,0.17768950973560996,0.24390131857054942,0.03344574985504814,0.18054660755067264,-0.1104254175149943,0.0850053420316626,0.08698098477519961,0.9351002990115411,0.19130850397763557,0.07124142295688113,0.2948057030449007,-0.6726250375083005,0.6623263042163476,-1.1269419589979974,-0.6278479402173553,-0.3238888367716056
352.0,11.010956048965454,0.23940152977218346,-0.9304644281727157,1.0456755711754533,-0.02323446080934665,0.007871565219324337,-0.09169349699640414,-0.24378404947324156,-0.1910352987968886,0.21435588528811822,0.6605850981392289,-0.45867354276605576,0.10194312272499503,-0.39016862576513367,0.22100523111938014,0.35191199898716263,0.9809069917927783,0.05727149461012603,-0.059973265873754955,0.10257536443092344,0.20395331592729046,0.24569867127970227,-0.021169407689276037,0.1976401545315755,-0.13639811233270577,0.07579863915089238,0.06244729060293744,0.9433798180446412,0.18857099039865377,0.11450268132113964,0.3219485155581794,-0.7139738207024191,0.6096067851253323,-1.135269676812983,-0.6416372326739244,-0.31037911007122887
360.0,11.155272006988525,0.2747539392165206,-0.928434904306961,1.044317865995378,-0.01847500972111702,0.016403597858599114,0.023763700593750298,-0.21198170267798022,-0.23986768898327704,0.13383293256085496,0.6512346651942119,-0.4379442670488531,0.08943446024432537,-0.492488931702571,0.2645665421950384,0.37053424863889506,0.8849098984956283,0.05491174677489878,-0.07902403834678273,0.11859451230643517,0.21941069166669108,0.25270514656604937,-0.050868836356491705,0.22669054151870807,-0.16709049253674046,0.06871164581028952,0.047946330979989175,0.9485652441865231,0.19029376733397607,0.15049837242194875,0.3465506976241677,-0.7469307741164408,0.5609043417899581,-1.1474752577136391,-0.6461432765206174,-0.290625675137865
368.0,11.273305892944336,0.30985812560950543,-0.9230125653075054,1.0452190671720731,-0.015723350449199994,0.024188745057537243,0.12515167594113305,-0.1677489835404098,-0.2787171269336113,0.05738131306453608,0.6269647049542821,-0.41577509099415966,0.0761108972022789,-0.579962648432116,0.2887612482398165,0.3301617037292919,0.7828337831709793,0.0681447069938268,-0.1000286503457716,0.13891916548494346,0.2172102644783169,0.2571849041652048,-0.05801779028744762,0.2559361783077886,-0.19712450447734226,0.07283798288345009,0.050849743308316084,0.9517727630848893,0.20485067057369605,0.1733007975122276,0.3542250925706848,-0.7641689395806599,0.5133816398893186,-1.133245490217965,-0.6430584603608764,-0.2815681574835919
376.0,11.403330326080322,0.3447700367783998,-0.9141590597836755,1.046165745235056,-0.012925217728867395,0.030405607167180555,0.2178547098925515,-0.11665336670062237,-0.31255790852145005,-0.018274067809468626,0.5991924247648699,-0.387787999044875,0.060775592077034236,-0.6387702201740844,0.31758342034108394,0.29920555453862363,0.7023991903665834,0.10311231443195432,-0.11815424101015312,0.1511772011288051,0.20440712554434762,0.25920306060361575,-0.049108524538800144,0.2781466663890173,-0.21361241616919535,0.0938026907518358,0.0530950913923738,0.954161747074411,0.2165780119305566,0.18535297788695348,0.33999989944803044,-0.7630209773127979,0.47180747730446515,-1.0897544650420716,-0.6364048241009312,-0.2920415580530605
382.0,11.529654264450073,0.37996325664766206,-0.9018620716943963,1.0452530272972724,-0.01157320843834329,0.03669258698503956,0.3064211022349056,-0.06536685720019296,-0.3387228696819601,-0.08850035911898826,0.5775830969828366,-0.3581110768171584,0.04565395282521614,-0.6698990274763236,0.30427410696508517,0.23068575805204114,0.6585726075160879,0.1425264183910374,-0.14165719404507382,0.15442957436096472,0.18802684833209118,0.26083288678853994,-0.015585319998601516,0.2795174683207569,-0.2165670148519309,0.10965789882050268,0.06038764686079189,0.9545346886901078,0.23395639544020552,0.22023847190608073,0.2903947764271529,-0.7158790189380732,0.4453619292254972,-0.9999607580769203,-0.6330040747199637,-0.32687559310886094
388.0,11.639661073684692,0.4133562687857689,-0.8867157555492453,1.043049709627555,-0.020162036622866725,0.042051903425638984,0.4127704940123538,-0.03185960568686897,-0.3556220043356245,-0.1642231394364449,0.591410612776808,-0.3249034868193257,0.029970179601321784,-0.6417512518345254,0.37618334748050125,0.352129717468358,0.6427236729539381,0.10156021151426138,-0.11904014499135943,0.14283780302121024,0.18572397269995217,0.25722142347528154,0.014323180859697172,0.2733808886039199,-0.2072141626993642,0.14372175737711113,0.0655298661874863,0.9587521531037656,0.24317703387987272,0.23758263501299048,0.24827268326857432,-0.6812735994513672,0.42776080038215597,-0.9154660866632914,-0.624981452688177,-0.35446177310996535
396.0,11.754899024963379,0.4448453507388154,-0.8689219721090389,1.0415707756847559,-0.030389485434037414,0.04697903179902957,0.5041425724971645,-0.005895055065773043,-0.36313354731543046,-0.21951669946375924,0.6126702749108737,-0.2860133558086375,0.02099042454580476,-0.6102118637105047,0.42514835247572225,0.4464985839682439,0.652905763951736,0.05729733612699335,-0.09689143589182524,0.14011848705904967,0.19032609829563252,0.2490753006477014,0.039878187752723115,0.25947504271558564,-0.19410497933421114,0.17119390912232532,0.06985848256076445,0.9656518748944709,0.2417653203920508,0.25618865053130835,0.20229759127750857,-0.6411106956849986,0.42078598146906077,-0.8364665246970201,-0.6104851243419092,-0.3768165309502989
404.0,11.874788761138916,0.47791901258354075,-0.8466763300821802,1.0421349727370035,-0.038253394944220795,0.0442845542028668,0.5865962246522429,0.012596313853325762,-0.35501807516871997,-0.24039427862818485,0.6561660976453326,-0.22651902570211843,0.02056193774647609,-0.5739181644926175,0.4469109152079249,0.490192788411106,0.6829972231926233,-0.0012713024746462825,-0.07587187054853203,0.1442603363047214,0.20532516979306878,0.2431511644882446,0.07320509373856439,0.23802566826269544,-0.1804596053072965,0.1817569052365611,0.07261267668942795,0.9683896498146012,0.23858716517151513,0.27126114924756184,0.17687871121366677,-0.6195280177414506,0.38875651245230997,-0.7885020633083115,-0.5768757203713691,-0.36804046407726776
410.0,12.003205299377441,0.5109932869788538,-0.8227003416401795,1.0452804361928574,-0.041188989337095715,0.03678005774040541,0.6800934909377718,0.0017334302172686018,-0.3152862383798024,-0.2046615319216667,0.7387720559228651,-0.11693428228156907,0.022698506881254778,-0.5362497867570486,0.43625476678496755,0.4799893569207171,0.7181080326048925,-0.059421710866561867,-0.0658195208881685,0.13814663843123,0.22345151131279567,0.23656711767847083,0.10012381068807713,0.2185388461848059,-0.17965627350967134,0.1777449520719266,0.07929154831392987,0.9708625726984192,0.23334030148841844,0.27667273826947336,0.16612924905615592,-0.6089171857549139,0.3352991403877643,-0.767343423471819,-0.5417745535556423,-0.3335073527175573
416.0,12.092997789382935,0.5399980794583142,-0.8014340219355802,1.0491391022127603,-0.041460013386317746,0.03064732478306896,0.7689703034797324,-0.02273919763581379,-0.2627028374150669,-0.14936368287687965,0.8222356089362453,-0.02133656941531709,0.029481669217786652,-0.5087344485921419,0.39582566541301045,0.417627412754235,0.745875584250743,-0.10332976832145876,-0.07127533317143586,0.1283209172964759,0.2306660874365456,0.23341003821389195,0.12562244853634005,0.20996543637314058,-0.18837862850870557,0.15358586325718687,0.09196037255270412,0.9648639609338807,0.22762630663660594,0.2922145677201924,0.1414761868228659,-0.5737691474940411,0.3029140973748769,-0.7385524318074717,-0.515428633674885,-0.32669017842778203
422.0,12.193950414657593,0.5645536690383873,-0.7825806099704182,1.0540180860074897,-0.03590844333058628,0.029958117071661104,0.859463297259239,-0.06568656673621329,-0.18350456920710267,-0.04452764404532073,0.9134091360635628,-0.007473901837962876,0.054008547724143686,-0.4777468551963859,0.34169997863741,0.3502168348897579,0.7614436524748167,-0.14337759685568066,-0.08131620183490143,0.11366975690564833,0.22442269022168843,0.23414636819391432,0.13107346959562224,0.2078587919263486,-0.20101300295006308,0.12524127760819082,0.0924564088749315,0.9563525713297975,0.2302177921386196,0.28404682262069914,0.11547031557171192,-0.5429841329359226,0.27999890938388056,-0.729069733872048,-0.4929537241567773,-0.32096132741450956
426.0,12.303609609603882,0.5846029067931935,-0.7659185118562473,1.0595895855021638,-0.027304164716452556,0.034730440084942825,0.9483466345268522,-0.12318082710770896,-0.08521994697566404,0.10122112207898784,0.9864731351781257,-0.10859770868259339,0.10438845619704729,-0.44251441945446546,0.2796959266680543,0.2829138633389775,0.7615879927255031,-0.1737720657068966,-0.09235077283425681,0.10001345679048684,0.20528351519513888,0.23306522462598356,0.10250682612384046,0.1957748899587441,-0.2050809005480696,0.11773194080612462,0.07715411092564069,0.9538854927596288,0.25200461589782,0.21990724457894872,0.0977072320086172,-0.5449674832318084,0.272187859663493,-0.7571377538828428,-0.461497971547057,-0.28331851911688244
429.0,12.414214134216309,0.5993046650972884,-0.7526355168659692,1.0636938371978415,-0.02169898662775703,0.03899202561211147,1.0183935946826184,-0.17674398812989006,-0.01823720382410677,0.20727325781104505,1.0221297951308066,-0.2298703734333007,0.1454802526515323,-0.4120193856200501,0.2292292286772008,0.22539247994617023,0.7535420432351023,-0.19427023779672908,-0.10234123301437703,0.09152064274726485,0.18363019501825567,0.23060429259007076,0.07344909448856018,0.1866242351258799,-0.2096467327967167,0.12168276874641244,0.047490599767997174,0.952921653016758,0.2844019144648843,0.1468219866646029,0.07137045856200129,-0.5477497703840124,0.29594724113723975,-0.7885591776330934,-0.4364277406404939,-0.25184993674505424
432.0,12.515031576156616,0.6096144958394403,-0.7423370996445238,1.0663247245783418,-0.017667398715475284,0.0399154568720343,1.0705877068552145,-0.22383131423625624,0.0189881584935311,0.2715970108692989,1.0320862774060948,-0.3284715835858997,0.1711864234786361,-0.3855826730107141,0.1930499273188922,0.17955854346140224,0.7425151076866339,-0.20664316204432326,-0.1100271354101411,0.08681743474088538,0.165621634276788,0.22326627647391395,0.04432312987109007,0.17853940892806297,-0.2127363808597666,0.1393179056901473,0.013095033194531727,0.955534234876154,0.3169456010511676,0.0707834785898164,0.04256531789561488,-0.5495315852662644,0.3394437214006063,-0.8249781318195917,-0.4118926923892474,-0.2229560812770628
435.0,12.625298500061035,0.6168573035844549,-0.7343200167673962,1.0672447917608203,-0.014667875365445148,0.03847290852287352,1.1097243175431544,-0.2651960376989825,0.0315512192162687,0.2918130818719634,1.0305298331956214,-0.3967553039478492,0.1752385604716758,-0.3644804628071931,0.16817410774392055,0.14342359502386037,0.7333302336396915,-0.2149013420210905,-0.11535678719358586,0.08360262963818016,0.1532806617685313,0.2120658201374841,0.018285685262789612,0.17362413116971692,-0.21677995793442797,0.1678784370113608,-0.019731014948693858,0.9625385020791282,0.3440849332912138,0.0017277514482132994,0.01800042106373616,-0.5501308634513793,0.38879246062225115,-0.8604895641067655,-0.39562562083976194,-0.20081663229764923
438.0,12.727282762527466,0.622329656017728,-0.7277237985300959,1.0670956895062036,-0.010344190356192978,0.037182223419908594,1.1414782025773074,-0.3069608423933723,0.03573398104196648,0.27896811309419123,1.0382353345212776,-0.44484138225514686,0.15624432819877188,-0.34638801335926894,0.14744611819938225,0.11517157413140916,0.7275574883205327,-0.22126770800573303,-0.11865016866474834,0.07888073342685889,0.14432139533155364,0.1984459271983658,-0.008654194135178274,0.16984278119397145,-0.2245062667441577,0.20877145359657934,-0.05000316492298902,0.9696374728221532,0.36651422140607776,-0.05975235307422832,-0.001022649813205087,-0.5497113012952546,0.43231875114188745,-0.8943323468941887,-0.37843272332503586,-0.18830383102757853
440.0,12.813671350479126,0.6271739527053841,-0.7216086575824184,1.066346349129478,-0.004262493900246373,0.03518460668808851,1.172031688477722,-0.35825185985722685,0.04477250790071656,0.25957993607881436,1.0496767816663437,-0.47640628695610876,0.1310213695572302,-0.3290019828824265,0.13118919480082306,0.08667365532573923,0.7289672730528562,-0.23110526369178547,-0.1240362848610325,0.07431618998781785,0.13686341840346605,0.18246115405783253,-0.04449478435795086,0.16095706108038996,-0.23248027130657908,0.2659660500237132,-0.07588654564238528,0.9767236584779857,0.38667162352367007,-0.12265660315177906,-0.02228448588699091,-0.5478390715435577,0.47729533963816534,-0.9199012643218916,-0.3701293877481371,-0.18251269252174185
442.0,12.872182369232178,0.6312172390991655,-0.7165392515301385,1.0652697557656028,0.001700084997312431,0.03272397578346527,1.1992687288514348,-0.4108555714160306,0.05471598043012765,0.24395937335884466,1.0560391409009169,-0.4892962724644364,0.11040725825778988,-0.3141714312123658,0.11818247356869951,0.06066088105902752,0.7327471818516832,-0.24133300678241176,-0.12907768114877902,0.07032597603113538,0.13258644767508326,0.1681101766865477,-0.07791591829422931,0.15243178464317667,-0.23939937956188448,0.3244466501279913,-0.09689312373364875,0.9772088011256292,0.40338823863924633,-0.17655406542079505,-0.03887750269986821,-0.5475992991688285,0.5169353749906106,-0.9375683677767264,-0.3734094507908657,-0.18496798544713056
445.0,12.949289560317993,0.6348383665815843,-0.7120518783053138,1.0643231110139735,0.006038709450667578,0.02893785649192232,1.222943318910768,-0.4573463874535727,0.05814258408444735,0.23635694244247896,1.0440674273927315,-0.48385678811197974,0.10067125388960407,-0.3010897829699373,0.1094566943422072,0.03637072395801272,0.7354924041262028,-0.2500991616117673,-0.13433683070854374,0.06805158523550696,0.13215314237494985,0.1554572662359628,-0.10525902655700523,0.14422776029543066,-0.24441291036889842,0.37993219181116356,-0.11252361049860592,0.9711267985708598,0.4153553251172198,-0.22066931537186413,-0.05150485890352463,-0.5470318656705891,0.5503727233499884,-0.9484043531885293,-0.38293078353695265,-0.19343596755804582
448.0,13.048317193984985,0.6390349826380366,-0.7066507384811149,1.0636898863998427,0.008037962979768061,0.0229258359616919,1.2454530496677605,-0.4900513162982439,0.04953522468371713,0.2415949005017553,0.9997616344389941,-0.4626616970529641,0.1051862893927906,-0.28694808776832126,0.10514140614938139,0.011240437524610594,0.7341699210362368,-0.2562050752217633,-0.1402951231656418,0.06970698181927364,0.13563177629907278,0.14114923211028926,-0.13122276869537977,0.1316638333594425,-0.2433109333557353,0.43787048338884205,-0.1209369451383583,0.9641751757541701,0.4221145044991105,-0.263148168279364,-0.06279937043795895,-0.544071816644347,0.5791287475288315,-0.9540486119563739,-0.39413528868314585,-0.20369409605986308
451.0,13.145638704299927,0.6435707619580424,-0.7002316128880384,1.0635182129615532,0.008555925433599955,0.016383465551483997,1.2670706577532296,-0.5017198254393229,0.029442237992041563,0.2522057905406518,0.9361574635755441,-0.4418117478700594,0.1161261959509115,-0.271466783362944,0.10321573864154354,-0.012327522429241837,0.7285338900438687,-0.26064189500962187,-0.14521446271754113,0.07325956387979161,0.14065275326064192,0.1255609002267442,-0.1561904449332092,0.11382861981552163,-0.23525017416996952,0.4970619699796728,-0.12178561838047618,0.9591402441334973,0.4239042111145467,-0.30486308007227647,-0.07500952298178237,-0.5370882077838324,0.6033210012243038,-0.9577728566825293,-0.40358695988461746,-0.21377887788165123
453.0,13.23175597190857,0.6483923314103656,-0.6925738332759466,1.0636100755142897,0.009830934593069982,0.011437609085626854,1.2877197039597985,-0.5086135347771008,0.008736774530628405,0.2594658489465385,0.8719778073797592,-0.4228963915435209,0.12287708446051795,-0.2537324279538473,0.10076461858923544,-0.03346807470250471,0.7218149894685773,-0.2664280316662574,-0.14882581191662173,0.07788775371367002,0.14483720494394586,0.1112921713775097,-0.17805507321610597,0.09580153717267086,-0.22157956549458424,0.5520125386852441,-0.11414221018372618,0.9572542835823252,0.41590641949269813,-0.34631361837177327,-0.08425432366101028,-0.5267766947508261,0.6225802398689136,-0.9620400211141226,-0.4094823434884813,-0.2243071149035053
456.0,13.315224647521973,0.6524326978292778,-0.685287960107106,1.063949562706986,0.01195685403794373,0.00877211722764005,1.305025771950607,-0.5150707364991762,-0.00830475425697492,0.2612445801245145,0.8181062538502002,-0.4050341803615629,0.12423239137991945,-0.23676487075203634,0.09710397949874555,-0.04993468902466537,0.7154276397045245,-0.27242996332841474,-0.15055041489661417,0.0823736418767125,0.14676338637960615,0.10077653828054847,-0.1951327279474237,0.08155197419202773,-0.20725920642722015,0.5971161098661603,-0.1043948386620718,0.9582291168096324,0.4018647481306818,-0.3812809417485143,-0.09082077857752098,-0.5152738708371566,0.6386454620680645,-0.9651825827951097,-0.4117348055021398,-0.2318790104806433
458.0,13.39807915687561,0.6564223705212998,-0.6768596522724928,1.0642704147802537,0.015289180195077082,0.007530134812759935,1.3213766702576835,-0.525052718508231,-0.02229517900580495,0.25603597906887643,0.7694458385263859,-0.3879055050451477,0.12045821324937914,-0.21738281799011744,0.09265587346751317,-0.06410104728333266,0.7083741681647759,-0.2800236317815774,-0.15091336555671986,0.08622561650532043,0.14659175175986516,0.09429709875444287,-0.2038225166287041,0.069637385578702,-0.19205867200511673,0.6323067796809579,-0.09142758451544943,0.95948688565981,0.3839990587740012,-0.4115109142367186,-0.09411321022655539,-0.5001390544204046,0.650372772622829,-0.9678267339863171,-0.41376866308821386,-0.23535925100498628
460.0,13.47594141960144,0.6597250870713258,-0.6688415170154165,1.0644517626814975,0.018195386078637348,0.006885139040542906,1.335256859836985,-0.5355254374260894,-0.032140178521827656,0.2488033943870699,0.7278950384592009,-0.37365828018868186,0.11695578229889356,-0.19937765446904104,0.08847725475096135,-0.07578325753500419,0.7011697129694656,-0.2868263243263142,-0.15057297420921809,0.08805000148978945,0.14592608272462265,0.09075185800742833,-0.2055608345859944,0.06254669088348917,-0.18155713926980674,0.6575147398129446,-0.07982417287539983,0.95522440079847,0.37128335174446586,-0.43407121402828863,-0.09437252157783446,-0.48448831963995653,0.6580618964926308,-0.9695880943497135,-0.41729584820612303,-0.2365987971861439
463.0,13.546436786651611,0.6626401572459821,-0.6610542614203145,1.0643960108088293,0.02051493548657299,0.0061882991271091006,1.3475877224266521,-0.5442730430783886,-0.03919086246298059,0.24201044352191584,0.6916177094082553,-0.3643493065696908,0.11600600686205642,-0.18253625748123486,0.08542582445562977,-0.08569026327511557,0.6942546536995411,-0.2932537260974917,-0.14983784372352538,0.08803591512896927,0.14559237297440644,0.08829363314260649,-0.20439226467424892,0.058754699641796866,-0.1734645425531169,0.6761727003647405,-0.06940305643645567,0.9488448286017246,0.3634406521100172,-0.45244478751458195,-0.09180535818348826,-0.4691721521935387,0.6623792855775952,-0.9719702883237152,-0.4205002112416375,-0.23732010162039613
465.0,13.628989934921265,0.6659056093296593,-0.6518336128900871,1.0643962701194936,0.02242361778114645,0.005533486755895236,1.3597611027850984,-0.549533443619456,-0.04409286308197097,0.23669190668783102,0.6596069546066561,-0.36097978547031156,0.11721774719494563,-0.16327851092377405,0.0834740547565005,-0.09474231791547694,0.6843042298358792,-0.30003033568627924,-0.14879925199843438,0.08419165914271888,0.14452619820208565,0.08559376568828919,-0.19397228569271263,0.05739409419069661,-0.16657291122822307,0.6857528869194589,-0.06019312441980977,0.9406025793840861,0.3588843681689379,-0.4614905980149058,-0.08464283910114338,-0.45151056688987723,0.6575819250133225,-0.9748535822330953,-0.42469190206895246,-0.23575383517060716
467.0,13.714097738265991,0.6689427005594113,-0.6427512786003442,1.063828053207649,0.023441082677657293,0.004308251580787422,1.3702684523408353,-0.5563397142367413,-0.04452076756616195,0.23495856209637206,0.6293381227002927,-0.36174261038056843,0.1212968219807099,-0.14621833845485982,0.08284163529066368,-0.10298151138685303,0.6768488229457408,-0.3075124894833653,-0.1474794696534522,0.08133730444617973,0.1433209537340922,0.08434515899967726,-0.19037941896724841,0.0533247137573121,-0.15684369087193728,0.7011218804846768,-0.05265406196716992,0.932774840931154,0.3563507165079537,-0.47528763801479534,-0.08067133327713803,-0.4282439977696634,0.6552815823661888,-0.9762052705237618,-0.4291091742542793,-0.22942981754120728
469.0,13.791492938995361,0.6717189527676213,-0.6337119460004897,1.0630279230225523,0.02412934734248258,0.0030328444628033107,1.37866543199143,-0.5616805225559754,-0.04377400977307527,0.23346889117223255,0.6041832087017267,-0.3657923950851267,0.12574339144509178,-0.130530586706555,0.08291677151748128,-0.10959329518775038,0.6704474189851981,-0.3145802421009762,-0.14588581518948562,0.07987801848577875,0.1419185139835099,0.08398901420216134,-0.18761695761990102,0.05095915689754213,-0.14716709368332737,0.7149395536786813,-0.04744782312339832,0.9310864192029471,0.3534335427923522,-0.4871059122377256,-0.07509212220342928,-0.40651458356496695,0.6519678357623286,-0.9777935350152047,-0.43338034471888176,-0.22289722293027361
471.0,13.857014179229736,0.6742483956704945,-0.624725041296915,1.0618573873038206,0.024740577928738502,0.001802035702947511,1.3848868627171242,-0.5660838166037274,-0.04262340632387167,0.23087244909552723,0.5850549278218998,-0.3715826353349215,0.1300142320692445,-0.11636785942173447,0.08369229705917658,-0.11425098923738336,0.6661365406427098,-0.3219268998503516,-0.14402293251980192,0.0803475820730753,0.14047107693716937,0.08398151573604531,-0.18605544951937036,0.0506762153197435,-0.13720418489629466,0.7264259147860931,-0.0423080850904699,0.9329637420083461,0.34942260267424363,-0.49778715554607567,-0.06739030922396111,-0.3879246518038497,0.6488279416386542,-0.9806560420009146,-0.43894961668062243,-0.21554951918926452
473.0,13.913533449172974,0.6765373481538692,-0.6158669562039876,1.0603828172264107,0.025141955046507437,0.0005166688277329469,1.3889268153918928,-0.5699897433143474,-0.04104847925702758,0.22678337811201826,0.5721776486101056,-0.3759384877633992,0.13401788804241788,-0.10368389104591777,0.08512345949981313,-0.11702672666655906,0.6637453343629258,-0.3292063334470497,-0.14240416490797486,0.08184653903229021,0.1388475645001648,0.08416636448194248,-0.18515120149462916,0.051294786276419826,-0.12673372006506853,0.736013972336659,-0.03635107440224333,0.9345507413515826,0.34496031253322995,-0.5071628063979001,-0.05843820726465808,-0.3716891120368576,0.6460865398801183,-0.9845162730549144,-0.4446325126790531,-0.2061854417714738
476.0,13.981503963470459,0.6787086358565517,-0.6068092370665381,1.058819116911259,0.025391052367150314,-0.0011980532152896619,1.3912133332234577,-0.5730659874219968,-0.03847649820317628,0.22186025417817734,0.5653580669308131,-0.3759972734323434,0.13753674984511638,-0.09123154449622016,0.08710260785984716,-0.11879151009464281,0.6616833688869326,-0.33562170690184967,-0.14143776858835785,0.08353432345780637,0.1362837478690513,0.08473316335511108,-0.18230667573197412,0.051623702628090115,-0.11601284854283836,0.7431044720098301,-0.029110656298295477,0.9350531800221831,0.3413929516763172,-0.5127221574412859,-0.04870180228892143,-0.3570096526261256,0.6420604192711128,-0.9887789318528679,-0.4493209424933139,-0.1957701078353425
477.0,14.06905746459961,0.6812398196755465,-0.5954926977907605,1.0566310838692072,0.025802297275723307,-0.003901566204427936,1.3918127504571087,-0.5764420610072947,-0.03399079844406004,0.21511943746461337,0.5652273407182994,-0.37138206168822485,0.14060322082288484,-0.07694804892300684,0.08933171305218801,-0.12120125460953035,0.6615577439642857,-0.3422305304848691,-0.14104505383717475,0.08638740942630693,0.13320865985301505,0.08525241580547832,-0.17613161198251281,0.04888837055348351,-0.10002642641693481,0.7466832339937943,-0.014949266991167113,0.9372971609755054,0.336585826361241,-0.5159814401350192,-0.036636213078118735,-0.3413623243078067,0.6372294885839997,-0.9952412345906301,-0.4548472193863242,-0.185633388832113
478.0,14.110282182693481,0.6829445436098224,-0.5861988895278136,1.0549733538599915,0.025978452086891896,-0.0066761383294528685,1.391621213784382,-0.578238556658567,-0.03008360048638886,0.2094690848168997,0.5669380687962046,-0.3653250669628523,0.14277822193349682,-0.0649614594678263,0.09106501976301903,-0.12332067815944694,0.6604990724872005,-0.3462883393031635,-0.14078692777011353,0.08771901776194155,0.13117752351449824,0.0861514598533464,-0.1714774200883932,0.04900133020023255,-0.09116384626099862,0.7514244852721904,-0.009639305608849381,0.9377357669124968,0.3340541918332707,-0.516000589555188,-0.0275052827360169,-0.3283690032114791,0.6329983084941717,-0.999937043865817,-0.4604276238877063,-0.17792422266153093
481.0,14.158442974090576,0.68406508122697,-0.5785373384928232,1.05370299548087,0.026123034441776605,-0.009268092961394333,1.3911766912518106,-0.578781364749182,-0.02678213023170512,0.2051174718747857,0.5697866477380662,-0.3585658947190321,0.14399336503630591,-0.054865269773447786,0.0921885385211583,-0.12541244474897492,0.6592304986784554,-0.34862055917369994,-0.1406348270370678,0.08814490065338576,0.13013013590208772,0.08694486349311575,-0.16811787698544156,0.051582087851754124,-0.08806984311648604,0.7561736018327547,-0.011044151065303359,0.9374754123585589,0.3329590404430738,-0.5142830808205713,-0.02011010767627376,-0.318306245231622,0.6295634341877614,-1.003907904496788,-0.4659028044912909,-0.17228533232482815
