ccrpRepo/mocap_retarget/src/mocap/src/data/output.csv
frame,timestamp,posX,posY,posZ,roll,pitch,yaw,left_hip_pitch_joint,left_hip_roll_joint,left_hip_yaw_joint,left_knee_joint,left_ankle_pitch_joint,left_ankle_roll_joint,right_hip_pitch_joint,right_hip_roll_joint,right_hip_yaw_joint,right_knee_joint,right_ankle_pitch_joint,right_ankle_roll_joint,waist_yaw_joint,waist_roll_joint,waist_pitch_joint,left_shoulder_pitch_joint,left_shoulder_roll_joint,left_shoulder_yaw_joint,left_elbow_joint,left_wrist_roll_joint,left_wrist_pitch_joint,left_wrist_yaw_joint,right_shoulder_pitch_joint,right_shoulder_roll_joint,right_shoulder_yaw_joint,right_elbow_joint,right_wrist_roll_joint,right_wrist_pitch_joint,right_wrist_yaw_joint
1.0,2.898106336593628,-0.10301089120342824,0.6747147047847195,1.0485079505887305,-0.06148124704014504,-0.02485130650443504,-1.5879776797161682,-0.27649950287189806,-0.1518608634957957,0.0268920862910755,1.033691062804405,-0.6410778886025361,0.13407067889449725,-0.34019080947474156,0.20955849150199135,0.05869731832582799,1.0295003051424945,-0.3691442415585166,-0.070862326355976,-0.021045836505124323,0.0019948073230015607,-0.07843901280093461,-0.07950354331800877,-0.0748758158327487,-0.2185544503616526,0.3762282683268027,0.275930471915105,1.259504769125148,0.19402988343051553,0.11250431352272956,-0.1658368237265357,0.18135013906541775,0.33976381032591746,-0.41105684064966447,0.04766758661830515,-0.2279772807160208
2.0,2.9862496852874756,-0.10301118275753239,0.6747137001359726,1.0485061507778446,-0.06147877216755793,-0.024852395946474988,-1.587977323051389,-0.27650536486277233,-0.1518619722937496,0.02689287582405831,1.033702009715891,-0.6410859148730428,0.1340708430984574,-0.3401975666143119,0.2095583392229201,0.05869585147678202,1.0295130059574404,-0.36915312113317955,-0.07086343305040307,-0.021049485621538702,0.0019934844955033495,-0.07843227483144208,-0.0795036159940653,-0.07477093427597994,-0.21866998180081154,0.37615356681608475,0.2756139770135582,1.2595671020216743,0.19421840719179173,0.11251125418243835,-0.1658666400255207,0.18139478238236517,0.3397219855096704,-0.411016801258364,0.0476999339692426,-0.22799709034361476
3.0,3.0461032390594482,-0.10361345331266952,0.6745029929689912,1.0483311061435583,-0.06164551183074096,-0.025282314858944242,-1.5865417258660823,-0.27762482951157,-0.15046041446996133,0.02835371071782394,1.0359931596101846,-0.6381348681289921,0.1335962160519235,-0.3397020202199793,0.20957630560724227,0.05811945895567877,1.029757481578242,-0.3696364303405227,-0.07066251187575846,-0.021444048965047084,0.002390784102191881,-0.07802785083432132,-0.07935614711257308,-0.07453349451490163,-0.21867427122181843,0.3765891026366527,0.2754054242968086,1.259656695421283,0.1941813806379181,0.11047520471091654,-0.16740956473315677,0.1804866256601157,0.33958210718169035,-0.4112138346897284,0.046386256144693744,-0.2282769776859977
4.0,3.1470839977264404,-0.105943401284319,0.6737234932444771,1.0477531540880087,-0.06188118052658137,-0.025887020570612998,-1.5816091921846973,-0.2828643257144132,-0.14314240012336843,0.03457167740056313,1.0453535143983892,-0.6260977112914125,0.13150895610621044,-0.3383929857499376,0.21142181798090331,0.05590601250916446,1.0307003934803047,-0.3718635895163127,-0.06982911028260325,-0.023901132708411585,0.0059813542640274695,-0.07622586987347599,-0.08033824691505376,-0.07482768003222057,-0.21689126005317438,0.3789359925485309,0.27533743710176045,1.2611138974051372,0.19605183309790056,0.10174049932781264,-0.17407077223849082,0.17735839469336134,0.3392814089142591,-0.413455512286795,0.041755600380852076,-0.22968137105360206
5.0,3.199450969696045,-0.10673297293382267,0.6735017429073407,1.0476575290598502,-0.06155556620665882,-0.026550728420595304,-1.5801173238408626,-0.28518076412154203,-0.14139097664360886,0.03667891121315445,1.0483392954253503,-0.6222555369899128,0.13062510263572247,-0.3384421872015448,0.21188894969080474,0.055793182883695634,1.031006955968237,-0.3729334886319726,-0.06958398320283336,-0.024950854920839222,0.006637275037469897,-0.07566216658903993,-0.08023015929415658,-0.07603161106869379,-0.21601726316774425,0.3794907699525073,0.2754275749086343,1.2613144332238155,0.19756824603788195,0.09939173156449928,-0.1774669425780152,0.17633929068337903,0.3384828605463822,-0.41478137553413935,0.04025979646510408,-0.22963157069789358
6.0,3.2722198963165283,-0.1077352911139273,0.6732380178144004,1.0475362402007242,-0.06100497234339788,-0.028083038752048522,-1.5777902873422927,-0.28838884529240805,-0.14058875610608587,0.03881437050292372,1.0523583574371442,-0.6178209200166691,0.12952972396205362,-0.33861817555540763,0.211785083291956,0.055945862836121275,1.0316021466084924,-0.37464344432487906,-0.06928367668065805,-0.0258665187455798,0.006814440954709231,-0.07514764919417152,-0.07993572315293455,-0.07704829454486303,-0.2155832950059147,0.3804829934385775,0.27545471541405286,1.2618532205981428,0.1986614043775061,0.09665951648774582,-0.18189433354529005,0.1748332590308543,0.3369870950615418,-0.4164005360422087,0.038452507748135654,-0.22956793106104334
7.0,3.4100136756896973,-0.10972533405231236,0.6726681087721855,1.0471276414094994,-0.05954010849302781,-0.03095937448098307,-1.572882497196129,-0.29599637285728625,-0.1388196909431772,0.04310193258052794,1.0620094080472262,-0.6086361830042155,0.1276124621924708,-0.33956512232466507,0.21141447260533638,0.055418003328648865,1.0333107736489564,-0.3778620783525472,-0.06865808034138718,-0.026166619647954505,0.007261931582610158,-0.07502922504135799,-0.08183850704241505,-0.07772133457921811,-0.21540776640093323,0.38494124029320465,0.2760585111225279,1.2643210524417032,0.20038601544519388,0.08941798032337298,-0.1897040887815715,0.170745153178742,0.33454539620389434,-0.4183409558333341,0.03684901010932812,-0.22877354862339822
8.0,3.4802939891815186,-0.11062344581762779,0.6724230668607625,1.0468358102484068,-0.05858845306170789,-0.031895998535532835,-1.5707596077567134,-0.30047764206744976,-0.13699411909736645,0.04577216242566433,1.0675826338897099,-0.6036391189279213,0.1267764242675483,-0.3405395952304737,0.211252641826982,0.05440976409546902,1.0342832986825627,-0.3790197525915114,-0.06839313186313585,-0.02577423048629881,0.007114846264520041,-0.07557410934193808,-0.08388621028949284,-0.07857061259528123,-0.21477098861159633,0.38776782821979816,0.27669353956640613,1.2648642396336307,0.20228721497223595,0.08461148617982572,-0.19388412571040184,0.16854767734561862,0.3343548627423778,-0.41836675440794735,0.03686930271821706,-0.22627788919374286
9.0,3.5452332496643066,-0.111663877427742,0.6721656159330367,1.0464946002736852,-0.05746043103085681,-0.03243848142936707,-1.5681769608266012,-0.3061637984211793,-0.1335842179984259,0.04953360357556373,1.074909308079966,-0.597324490217168,0.12589054716404358,-0.3418252831759631,0.211436598153675,0.05264720232507266,1.0352943580597738,-0.38071643045011055,-0.06819758130005582,-0.025946894211631377,0.007628760431940072,-0.07602670989139801,-0.08604167890497919,-0.0802235092945631,-0.21359845882687178,0.390245868231216,0.2772786203951457,1.2645929444703217,0.2048195322260749,0.07893608231303981,-0.19986037977847515,0.16628781833505268,0.3341208625888975,-0.4190020357044414,0.03486037411457865,-0.22363615579103308
10.0,3.610858201980591,-0.11282294757662933,0.6719054750291498,1.0462079359156242,-0.056303745323721996,-0.03292582151376486,-1.5649505866496667,-0.31277511122418394,-0.12879051446855982,0.05474868594553154,1.0835632377188338,-0.5899678115281595,0.12520265511431447,-0.3430926260594155,0.21183033132624343,0.050675217391727465,1.0360670957105982,-0.3831996698063064,-0.06811007480345765,-0.026522030907424634,0.009035499557558817,-0.07587366854423966,-0.08754460124820868,-0.08129978775562496,-0.21300313953936229,0.3921811875367448,0.2782467542130294,1.2648484321135247,0.20726695738033618,0.07385176142095498,-0.20591675156825737,0.1641562361115172,0.3332179587430911,-0.4201489923007995,0.03164706368645082,-0.22203721309896673
11.0,3.7275002002716064,-0.11477891851440504,0.6716541495375827,1.0457917637563234,-0.05424826315334855,-0.03411547138688995,-1.5588158628484448,-0.32547382829082894,-0.1197754626009617,0.06525154730658354,1.0995128249455441,-0.5759526669052106,0.12449579130389224,-0.3454143901085811,0.21217457491635366,0.047561361373079744,1.0369479923417901,-0.38710280786588547,-0.06791214167297689,-0.02694804658921203,0.011684065462356029,-0.07478156364489287,-0.08762361626170712,-0.08092365494511308,-0.21481893532418692,0.393912106631972,0.2815121456059168,1.2657660722138262,0.21123124698185375,0.06792516315081536,-0.21442144937743818,0.16043668373773562,0.330789559581092,-0.42080460367914174,0.029192215632690532,-0.21790691978226936
12.0,3.812967300415039,-0.11625673623506796,0.6716016341816452,1.04521143051987,-0.05219997376030762,-0.035225283903711886,-1.5540346222788204,-0.3376046687168376,-0.11301557332418813,0.07322896430627131,1.114486039222827,-0.5648861608054527,0.12392469405817591,-0.3484134276873543,0.21191522029985557,0.044675112067369877,1.0387301990313977,-0.3891070413139282,-0.06769773147593668,-0.027055101385274723,0.012382353027768715,-0.07417324538917003,-0.08689503397039221,-0.0816399727728126,-0.2169226749329623,0.3938169493667968,0.28421641934227615,1.264053210216094,0.214502796133073,0.06360671353295216,-0.22347750342706918,0.15611044373861396,0.3274163190502311,-0.42040700867860703,0.025539633466183074,-0.21207471901045188
13.0,3.8611862659454346,-0.11688121238273567,0.671514187110323,1.044947515741476,-0.051740394095788636,-0.03592140264928866,-1.552507474944691,-0.34167930384416756,-0.11040368675715662,0.07651262361057841,1.1199295327296366,-0.5614995837041682,0.12387677642041073,-0.34909581897722053,0.21183509148417523,0.043943958401064756,1.0396856469915101,-0.39042663680058076,-0.06785265938653884,-0.02746938329976997,0.011608816156172718,-0.07364598585140963,-0.0872350446995907,-0.08383335494061603,-0.21630957758589317,0.3945708064981787,0.2846991651752086,1.2640333737312566,0.21648674933709694,0.06120102335514376,-0.22832051344916737,0.15386726716740393,0.32584174066850646,-0.4204127960712366,0.020962461904416044,-0.2108138433800984
14.0,3.9260480403900146,-0.11767517298674227,0.6713652940045749,1.044697252146201,-0.05151025291217394,-0.036967875943949055,-1.5507040393841027,-0.3465954717222728,-0.10572621327283836,0.08260541211326906,1.1267338523547048,-0.5570461443748151,0.12471346738733799,-0.3493573316695586,0.21176916896370485,0.04359962704608483,1.0404861081983943,-0.39220568019105423,-0.06798538763207207,-0.027798502953886924,0.01127177713615629,-0.07174150887227776,-0.08516201159846123,-0.08626504917294942,-0.2162189216567858,0.39406882837214813,0.2855245048215507,1.2645871414595895,0.21890322334362153,0.05987260178529212,-0.23367583893309662,0.1505538977112577,0.32303448400857787,-0.4203705055984073,0.015229250381976419,-0.2109087847841391
15.0,4.069392681121826,-0.11934675256903714,0.6704640485764265,1.0442053120078492,-0.05199521589067765,-0.03941728134451236,-1.5480745756153964,-0.35697303276403125,-0.09176144599023534,0.1014372146230714,1.1443326562848282,-0.5481014044815619,0.12876810755516588,-0.34850158790994434,0.21131801984552553,0.0436442452417707,1.0422533574819302,-0.394358257338187,-0.06739817690279926,-0.026573219041635537,0.012045910352745284,-0.06488004512274984,-0.074770554920608,-0.09036504723572644,-0.21783192134253965,0.3846533369213714,0.28793109253662874,1.2620343917710695,0.22359712128875237,0.058314485592980386,-0.24506684840702544,0.14054915932377424,0.31506704934310814,-0.4216487923470751,0.004547293903587709,-0.21505355067197301
16.0,4.111394166946411,-0.11981348303352053,0.6700298543941883,1.0440818565316392,-0.05241157751361488,-0.03982732926583926,-1.5476914819887908,-0.3593862873067464,-0.0879233457100845,0.10619739007521423,1.1495581460666489,-0.546791439629898,0.12990564163794185,-0.34773891776418286,0.21146236854205983,0.043561713578149586,1.042738268877914,-0.39478421238712447,-0.06718215541178728,-0.02573693453474392,0.012205834224153791,-0.06368871542933444,-0.07365719147422523,-0.09115795322106846,-0.21734374798252412,0.38192083851777947,0.28881926940049407,1.2605508443004996,0.2253406998207768,0.05543078763149857,-0.24779596362572054,0.13770868804106512,0.31385445792079786,-0.4226578407812137,0.0033896919068440675,-0.216402544131922
17.0,4.2200927734375,-0.12099901826245549,0.6692447556435549,1.0438920926377537,-0.05312624678996736,-0.039989940766698526,-1.545817999413147,-0.36642637125159566,-0.0792160125118071,0.11494382452425221,1.161843096721573,-0.5438760529656752,0.13214810322997428,-0.34605145927287406,0.21283130675705045,0.0427496628327572,1.042979931369806,-0.39653191035233754,-0.06693858975690911,-0.024929832319724364,0.014942811966979563,-0.06132980493607255,-0.07363955905515612,-0.09058697263299206,-0.215128015939643,0.37872768293745673,0.2909731345621718,1.2605149158489808,0.22844838784173632,0.047311610879692295,-0.25169830224264983,0.13286887746607692,0.31132986812589514,-0.4261147029961508,0.00029643266434784834,-0.22191506558302948
18.0,4.284709215164185,-0.1221238614897643,0.6687668966892204,1.0438105092378251,-0.053336914786651785,-0.039955932018688044,-1.5437609955004274,-0.3740860261669769,-0.07133913332307634,0.12173432738966924,1.172880510958234,-0.5424040593866801,0.1343906859764242,-0.345036807687916,0.21404282559352478,0.04149667263003626,1.0425399427529993,-0.39768929093161165,-0.06699619976784908,-0.025332929745591655,0.018198636654030202,-0.05819900144674812,-0.07174000782352995,-0.08969354563925587,-0.21457781160115288,0.37556319247139563,0.2922995937358355,1.2619323036669794,0.22920619655069513,0.04179278187228312,-0.25482869501442457,0.1278203075014513,0.30812367862900636,-0.4290126236290054,-0.005593034489399766,-0.22933845597040198
19.0,4.398284196853638,-0.12324996709946197,0.668337306508419,1.0437853756326558,-0.05333932215025272,-0.04028877619111972,-1.5420220169190815,-0.3809608180966916,-0.06388260335376938,0.12837977634224948,1.1819257034635104,-0.5433210396196111,0.13711397676726186,-0.34423345010239026,0.2144277703851507,0.0400986958605678,1.0418595468119367,-0.39845995374706256,-0.06754807022927098,-0.025792522649951445,0.01983892906400215,-0.05490465239163529,-0.06653746625800527,-0.0891030708042519,-0.2152990671313184,0.37071154179030374,0.2935625512110056,1.2620699513297133,0.2297279728414307,0.039149673206203696,-0.25832275247590697,0.1232613534651771,0.3046913255755677,-0.4301025954294489,-0.012829365865452705,-0.23360795657351957
20.0,4.452368259429932,-0.1238995297315584,0.667956356542232,1.043760908868016,-0.053582134377386646,-0.0408341420284454,-1.5410513631061187,-0.38440865164984767,-0.06010942993191242,0.13246424148207223,1.186358335638069,-0.5448809080815435,0.1386722811118133,-0.3432614341012399,0.21431478714693022,0.03954153052899359,1.0415541357893316,-0.39894906668903973,-0.06778606122263783,-0.02582327081017732,0.020311073927096114,-0.05310979104496332,-0.06385763718133816,-0.08823439988556353,-0.21463382413128196,0.3679696305558894,0.2944116323022229,1.2617209790201982,0.23059103444896906,0.037256485181964574,-0.2596312261264476,0.1215692593807382,0.3027685050845963,-0.4306723165430795,-0.015285648734299623,-0.23465592859851067
21.0,4.513898134231567,-0.12473149376942347,0.6673432248950288,1.043693168517458,-0.05410676314813101,-0.041890180272420974,-1.5396953361313086,-0.3886968701385808,-0.05619684617492153,0.13735124519192102,1.19158426451886,-0.5468634877503663,0.14025278180568754,-0.341574247987448,0.21416857486554802,0.039354191591932236,1.041419698231496,-0.40013133671224016,-0.06787064269718969,-0.02514254440726789,0.02005725485752674,-0.05143607426692676,-0.062414142614150986,-0.08752540954328455,-0.2134337888866762,0.36588084093666084,0.2951771464533116,1.2607350226357514,0.2316733473830849,0.03298484492653991,-0.26154580676669165,0.11870846806033755,0.30110714846314246,-0.43079385891778754,-0.016485655441315073,-0.23526567458631586
22.0,4.6309263706207275,-0.1261971252273344,0.6662111502402823,1.0435742745091003,-0.05499345806716188,-0.04347656301579521,-1.5375427208829362,-0.3951715919086215,-0.050395496123018066,0.14412252280619778,1.1991454592144866,-0.550193204391957,0.14233829883533994,-0.33872817784637155,0.21428572724069983,0.0390925177566573,1.0412363217807141,-0.4027426075235041,-0.0681891446448121,-0.023832015061699234,0.01963769419162291,-0.04936197691996403,-0.05998930713520947,-0.08558225849214349,-0.21242467341466223,0.3620656940762389,0.2958870311397089,1.2589609304879734,0.23150973924073665,0.026450484718084734,-0.26413832174108093,0.11439965925959024,0.2982437463097451,-0.43125734555945594,-0.018636457188582096,-0.23634612959045284
23.0,4.738081455230713,-0.127306982539738,0.6653733236946915,1.0434843997592786,-0.055073931456760275,-0.044628682685673576,-1.5354952235646602,-0.4042472332892668,-0.04475876091376575,0.15032897025551653,1.2064244648784177,-0.5542046253211979,0.1453492226057445,-0.33745684754163385,0.21494487054603506,0.03914150052728252,1.0415683050258688,-0.40571605994835414,-0.06807149383735572,-0.023337666684244723,0.020658863044322795,-0.047189504475260546,-0.05784889351562404,-0.08597138419277509,-0.21203411506597766,0.359681044899003,0.2955213348295459,1.2575933037737528,0.2306353860583722,0.019620535907098773,-0.27001677144300795,0.10934447318271287,0.29561888153891147,-0.4321724516914034,-0.02732716167955724,-0.2386552820891225
24.0,4.81279993057251,-0.12793348833336987,0.6648865573406646,1.0434920886324428,-0.05479563749276533,-0.0453250057326462,-1.5341627870787278,-0.4096266200963141,-0.042171469696252885,0.1531668979921661,1.2097137196471415,-0.5561042475009232,0.1469153908862856,-0.3369772608694547,0.215762707762716,0.039670428260166785,1.0415119327843931,-0.4069550196432806,-0.06785386664825274,-0.023683024180355904,0.020220376624230194,-0.046362623496719234,-0.05593970023745284,-0.08707747867369386,-0.2131108445132523,0.35921260519637255,0.2956935651323752,1.256993574252804,0.230711250635666,0.01666113513499651,-0.2739673800113981,0.10621669924826058,0.2944505593874944,-0.43281306464255587,-0.03122613714607826,-0.23966601689206812
25.0,4.904969930648804,-0.12926640987023388,0.6637608199883572,1.0436226450765873,-0.05439823517360551,-0.04636449409684251,-1.531221970604065,-0.4195939060876267,-0.03658401678529499,0.15838116037960603,1.21458070860074,-0.5580949611968187,0.14971147231253193,-0.33516812220060593,0.21845800050221006,0.04145752193003108,1.040392991034005,-0.4100891822045917,-0.06757581541390228,-0.02383832663646138,0.01840686110864407,-0.044635784452913524,-0.050094774176519856,-0.0878134404005862,-0.21842192840540325,0.3581706808096881,0.2972730138610429,1.257846835481073,0.23034954478399616,0.012929700315414485,-0.28006861416229023,0.09958787170046401,0.2917739913216312,-0.433795841543606,-0.034635587633147155,-0.24183118950967122
26.0,4.943612098693848,-0.1299478544402243,0.6631370869943009,1.0436976378776976,-0.054284204700422695,-0.046909960675379184,-1.5293543643796372,-0.42482756513887643,-0.033360179929128216,0.1615044390655263,1.2163038725466886,-0.557890901052572,0.15134803461100668,-0.333782367048731,0.21951060950153028,0.0420818890871671,1.039408742004976,-0.41244653488665295,-0.06762590206724065,-0.02388284600054065,0.0187743789153576,-0.04350640431073219,-0.0470268052854449,-0.08563222694405237,-0.22049061207225823,0.356904938993132,0.2980936329626297,1.2601641182458236,0.22898449271578702,0.01092437884892256,-0.28082266936162187,0.09715178372361005,0.28946559525082505,-0.43425680750685114,-0.03583809944444384,-0.2437351394036824
27.0,5.067696809768677,-0.13120606128353224,0.6619116558239686,1.0437978663250942,-0.05353560630660881,-0.048204047631185534,-1.5259018388991896,-0.4352045471031637,-0.02799512770563136,0.16753767200090441,1.2183911291049199,-0.5559976436295587,0.1542565094393306,-0.33173208922685626,0.22010965099559526,0.04213045476815598,1.0377604365850033,-0.41704552130554035,-0.06824800531335848,-0.024026411057328792,0.02027860398299893,-0.042419268948985234,-0.04144926445303665,-0.0805715917264214,-0.22275236628334888,0.35275129139877415,0.29935240932384544,1.2639929451482972,0.22627201632108157,0.006518632859544418,-0.2811221691491155,0.09379374019876166,0.2843567397276699,-0.4349646445040892,-0.039433633572655294,-0.24671772268996287
28.0,5.149868011474609,-0.13254245495433875,0.6603773590700162,1.0438249724251856,-0.05268252053972433,-0.04930488561573893,-1.5228380586791272,-0.4463952301175268,-0.0253971169280718,0.17012375670347482,1.2202010405230928,-0.5529548076557799,0.15532691273782367,-0.3299405068143957,0.2212321567701998,0.04191073296554788,1.0371851092911144,-0.4223169957926193,-0.06929952959283425,-0.02413362271189535,0.0184827187071151,-0.041192924882845566,-0.03814470329494418,-0.08318622280256711,-0.22402103660746045,0.34938114189792957,0.3010718946460969,1.2653650235913885,0.22845823865833503,0.00014266335213910971,-0.28711796153576685,0.08746597394291608,0.2800219036578557,-0.4350325063846198,-0.04565845180251071,-0.24627884923745902
29.0,5.203391075134277,-0.13296056703807044,0.6597963121381687,1.0438356594622957,-0.05245069320577787,-0.049720402675226094,-1.5220594077583467,-0.45078950185925626,-0.025317966571773393,0.1702816326469993,1.2201496808206165,-0.5507126487333276,0.1553070431297565,-0.32930963144934594,0.22158905811029267,0.042129023436562205,1.0369991056479289,-0.4237725332164487,-0.06951914679559962,-0.024095069678043517,0.017754639785546082,-0.039913608388784674,-0.037820568882616215,-0.08342562188002964,-0.22552288324279196,0.3491619997995493,0.30117344042435074,1.2654120789713619,0.22769091700756688,-0.0029130783575787795,-0.289290739364474,0.08483425348025314,0.27853458722750446,-0.4347213304021002,-0.04829867060916494,-0.24644843397483934
30.0,5.273944616317749,-0.13340176942555781,0.6590841932849101,1.0438280612155115,-0.051688668754422976,-0.05042870690004138,-1.5217439748903934,-0.45739305141445685,-0.025267966264798436,0.1711973956392842,1.2191499818793154,-0.5476996117417049,0.15563053492144346,-0.32921361728160525,0.22122769313103866,0.04241395055201596,1.0366704418310124,-0.4242931125459996,-0.06953310629588214,-0.023274780993478655,0.017915240508888833,-0.03869908487798428,-0.03711651067043757,-0.08063069883057365,-0.22828765057222616,0.34877994299989024,0.30070542068094935,1.2653198653633593,0.2240086809618585,-0.007056249834651545,-0.2899424703294187,0.08185512819765761,0.27645596493190633,-0.4345632757326624,-0.05128479533077634,-0.24904436226685325
31.0,5.391757488250732,-0.13441362663574158,0.6574532131629593,1.0436822154474164,-0.0501509239313968,-0.051458079852837804,-1.5211477479500657,-0.47149046193580174,-0.026196660845243358,0.1712188072154186,1.2161886961867505,-0.5435036479225506,0.1559810161355901,-0.32889330703788533,0.22045941156820434,0.04182978846023751,1.0360700250583244,-0.42540607536875485,-0.06964276279597043,-0.021086163555054216,0.01991185815829556,-0.0377463405560545,-0.03727981251449342,-0.07566482687808504,-0.22779412051438264,0.34861493058927356,0.2989607141541039,1.26662980063969,0.21861766507417443,-0.01647897715721634,-0.28952759320815535,0.07685508944723043,0.27312946717386266,-0.43524151038938147,-0.05655234163659939,-0.2558535546942016
32.0,5.463167905807495,-0.134990310803191,0.6566900877674364,1.0435982678895692,-0.049674606118561455,-0.051609487907105,-1.5202543190079252,-0.478123328839445,-0.02768054761292077,0.169294708610633,1.2142746475607462,-0.5422742390138616,0.15550805590159103,-0.32835253988346413,0.2204199113489837,0.04081147704674812,1.035728684185324,-0.4264640103587194,-0.06993233458225492,-0.02026001118220902,0.020701385934816074,-0.03744114828523399,-0.03690579515646836,-0.0768970020467829,-0.22347765589050456,0.3485312170458024,0.2978919424725607,1.2688577906128737,0.21942957928128892,-0.0199971501299014,-0.28999504092699324,0.0743901257160624,0.2718897587659859,-0.4353625202547313,-0.059534870632973226,-0.2584510635504647
33.0,5.554225444793701,-0.13608687349099635,0.6553225397145075,1.0435775427867706,-0.04843222188547516,-0.05227622098140778,-1.5173896638996205,-0.4911709605496538,-0.03186949349489202,0.1648923797597459,1.2092997867619508,-0.5386837779356012,0.15415811897399007,-0.327284172236763,0.22011118370844895,0.03907308739857701,1.034708513458212,-0.4290832473798266,-0.07056717494174672,-0.019748690203847466,0.02042323540232238,-0.036769679240440126,-0.03329826081833791,-0.08261338600617427,-0.2154027939971578,0.347636667334966,0.2962865496325203,1.2740634687741723,0.22356783547394785,-0.024426871799163506,-0.2913428157341752,0.06810151733295945,0.2691723871336555,-0.4344041124539346,-0.06648931722544191,-0.2639899342310984
34.0,5.658699035644531,-0.13702281423700394,0.6537467382871203,1.0436625809659614,-0.04638026718541291,-0.053593038223797115,-1.5147855785059412,-0.5044145702442081,-0.0363387382633336,0.16203165664173685,1.2022622121668851,-0.5339664929385824,0.15354008956116186,-0.3266948955880314,0.21876359230005865,0.038046636333867956,1.0334160676972044,-0.4321374688743629,-0.07101169555731512,-0.020772245693799624,0.019656379076453366,-0.03729720555477965,-0.02963207630523642,-0.08299999972257108,-0.2118762636601303,0.34599659664603827,0.29520153822817063,1.275807586289638,0.22452983251880812,-0.03007639828027057,-0.2890784748337435,0.062396518303273946,0.2670943158071032,-0.4338224685082278,-0.07117819091356502,-0.27051824751535
35.0,5.721162557601929,-0.13754811797758443,0.6527017193231456,1.043784650696223,-0.04502763655950791,-0.05410020912148437,-1.5142819016335864,-0.5123746929778595,-0.03873572912362367,0.1602839432770118,1.197076331081199,-0.5321645204350323,0.15297655714802472,-0.3267273512286908,0.21808932047228652,0.037520122109250056,1.0327588298614183,-0.4330486565041267,-0.07124432576164244,-0.020300469291870835,0.018841320523157998,-0.038393923419312664,-0.028820660675820245,-0.08266751073833373,-0.21098587677755348,0.3462774200255112,0.29523515616617074,1.2752418654126814,0.22545530872412745,-0.034734582880497314,-0.2882980545989301,0.05966705638090824,0.267039330318583,-0.43349646472478165,-0.0719035704741204,-0.271997196240819
36.0,5.807700872421265,-0.13813555449022344,0.6513765133058695,1.044034001867607,-0.043538458412633915,-0.05441335844554786,-1.513793509556515,-0.522149528126158,-0.041298950976832685,0.15806864173048935,1.190039411162454,-0.529407979102323,0.15202272077087975,-0.3264448587522852,0.21799883777976026,0.03735042219922445,1.0315690295493565,-0.43320241373846313,-0.07109988747443582,-0.018804481039858212,0.018281620995340718,-0.03986165542186175,-0.02754593841871346,-0.08358068118617336,-0.21052604628912092,0.3472514271090159,0.29583979048459974,1.2762162149267748,0.2274517688440802,-0.039507791447994,-0.28786659663262104,0.05578735792916542,0.2666459881182675,-0.4332561647544251,-0.07164020523879118,-0.2748408188428699
37.0,5.88112473487854,-0.13851792014390216,0.6506198216295227,1.0442660673673787,-0.043137301182935364,-0.054698445790709954,-1.5132673975842246,-0.5273377997570301,-0.04320329612726352,0.15634223354281318,1.1851838114030426,-0.5278128069590573,0.15156588466645926,-0.32541388021968837,0.21812608830627664,0.037521155000030455,1.030296989895243,-0.43377706242965464,-0.07099028833674961,-0.018286011984518468,0.018351817704725718,-0.03948261704134446,-0.025044569090854438,-0.08407082205178015,-0.21095441585470165,0.34671191344148944,0.29605191668444536,1.2779822246876176,0.22793135981988177,-0.04018832732254741,-0.28705763864628636,0.05326576831677017,0.26462684666906366,-0.43369406571894936,-0.07109057134075891,-0.27831335521124256
38.0,5.987394094467163,-0.13978643387649128,0.6484273052468408,1.0450534619275276,-0.04208031595185985,-0.05655830318601729,-1.5108040830537053,-0.5413313202284775,-0.052841669616707686,0.14783884276213605,1.1696444542808067,-0.5255687246571472,0.1498945548707023,-0.32148866016720373,0.2166959170285213,0.037193559539150906,1.0259841188387782,-0.4381249756289193,-0.07162788414678192,-0.017835636415027153,0.018037584858604815,-0.034912275648762536,-0.015687692649027307,-0.0821860900970097,-0.2142830080531709,0.3414029002267389,0.29538052707700424,1.2839533649189827,0.22499326815508908,-0.03894281331295732,-0.28393050094887734,0.04690939038700441,0.2532034626831987,-0.43498281093772706,-0.07301431514877488,-0.2873022552542216
39.0,6.053056240081787,-0.14028048489449113,0.6472711797705547,1.0452383618137966,-0.04148365530234212,-0.05742290609304769,-1.510211293942024,-0.5470323355526759,-0.0562748247926806,0.144899253788498,1.1637901996288793,-0.5252757745142719,0.1490271453887848,-0.32011181367391334,0.21605761341253563,0.03708893242374316,1.025170966293771,-0.440257895615942,-0.07214261816439338,-0.017502369781693713,0.017890436560082545,-0.03492659598495798,-0.015187095425662014,-0.08088859496141114,-0.21470979272335056,0.34132417898592315,0.29413333814673726,1.2847145419020736,0.2227524653288202,-0.04243073624467341,-0.28376953749327194,0.04574619908799349,0.25144658000676096,-0.43408201227388543,-0.0762750098110549,-0.2865947395148448
40.0,6.136662483215332,-0.14094648199140125,0.645748807154298,1.0454168691191945,-0.04023585571448254,-0.05772309607931872,-1.5099121274980365,-0.5558364022299019,-0.0579385446090082,0.1431144427978766,1.1551986434819577,-0.5236189698949809,0.14836391555639994,-0.31901216917800185,0.21593420105621575,0.03657674342238105,1.0235570598128116,-0.44176163921576106,-0.07273265989308862,-0.016520643650313138,0.01753200009705396,-0.036792633004175075,-0.01339250276226035,-0.08259296077561046,-0.2151538816968931,0.34252492670442325,0.2928423741026228,1.285336971482897,0.2222014370986367,-0.04671548358080137,-0.28489179844502155,0.04299539790485617,0.25140825885901597,-0.431824643534497,-0.0798689870939054,-0.28529633213268946
41.0,6.204596281051636,-0.14129471434158974,0.6449963768141993,1.045588840346566,-0.03928770534410927,-0.05743208275023542,-1.509749219726812,-0.5614235238908676,-0.05776848620026652,0.14283389392064194,1.1492531082887303,-0.52258476456132,0.14830503361463734,-0.31871718697422696,0.21556936378429137,0.03532811160558795,1.0218712573955662,-0.44151470499666334,-0.07291821204749693,-0.015367290527566595,0.017274058479358326,-0.03749500896103891,-0.010621054590222589,-0.0840009413673927,-0.21639538469473407,0.3426611964759603,0.29278888390609914,1.286245969943308,0.22269369145912854,-0.0473697755438907,-0.28510616104774483,0.040583136355091046,0.2506307169370987,-0.42953339474713137,-0.07989790281085951,-0.28402433203790506
42.0,6.277155876159668,-0.14170277781996055,0.6439046422162311,1.0459274863809636,-0.03863636342922535,-0.057263544173391245,-1.5096754376510495,-0.5678377711927617,-0.057730874319076024,0.14261746947165116,1.140947652046994,-0.5224121906332099,0.1483951634238697,-0.31739603845807596,0.21498010435881526,0.0340154659365727,1.0195293271244483,-0.4411059330178655,-0.07300190298891475,-0.013851030182325055,0.017469929666042272,-0.03687884678412011,-0.007863803687273452,-0.08353326118725782,-0.21738261771824685,0.34245870026423597,0.2927517011954387,1.2875795374506511,0.22236053527125582,-0.04932600451238967,-0.2841513419741829,0.03887945606943283,0.24890212011930307,-0.42618410681976493,-0.07808893121798793,-0.28051074399904286
43.0,6.351044416427612,-0.14213746933418453,0.6424483742641266,1.0462362965084082,-0.0382015117127184,-0.05733290858208345,-1.5099124349465751,-0.5744275031935189,-0.05818102504416131,0.14232177077867558,1.1318307751760623,-0.5230116687519926,0.1486088987642601,-0.31530643425092997,0.21469369119858248,0.033536352742824134,1.0173762622852534,-0.4417265843446382,-0.07325188429653368,-0.012492730291217807,0.018651304848361156,-0.03593088706667056,-0.00798929182665844,-0.08055018245770842,-0.21642129357658418,0.34268848186619205,0.2919401695286979,1.28840789405421,0.22040990357336954,-0.05499882877918644,-0.28187031423200737,0.039092041220222376,0.24776370080075266,-0.4236631671406046,-0.07658928240412291,-0.2769984371407973
44.0,6.492005109786987,-0.14295398042450164,0.6398760115096602,1.0466929964979093,-0.0366434059712439,-0.05754582827272973,-1.5110219129039963,-0.5870591340304272,-0.05993482621570326,0.14089940601945758,1.1157111423445305,-0.524993289467635,0.14900002395765202,-0.31258876631197935,0.21471326608738564,0.03370768697985813,1.014070440710837,-0.4440434510567494,-0.0741912633578882,-0.009432246176751582,0.021030095859074976,-0.03580885105494348,-0.008498031758313462,-0.07579753621567678,-0.21488360169423157,0.34334788904075353,0.28922812907570494,1.288410777683157,0.21556642233225617,-0.0658428124891806,-0.27866350342095686,0.03961034639882198,0.24707152149342498,-0.42147805478964223,-0.08024534067346939,-0.27572525334592113
45.0,6.570471525192261,-0.1436394869683863,0.6382325656934238,1.0471889862239885,-0.03470488184199646,-0.05793424245359198,-1.5119130752039251,-0.5965469291875956,-0.062490015238991,0.13834540139062546,1.1041523048935593,-0.5277923279472587,0.1490855213102607,-0.3117010044377644,0.21451163843636406,0.033897164185651404,1.0115901551426758,-0.44537301413461794,-0.07503749208714702,-0.006856724291032409,0.021656129778550148,-0.03643147416976547,-0.005949422674488194,-0.07629887865572929,-0.21576209965829507,0.34348858312969266,0.2871729323894579,1.2883189283450172,0.21346663783820852,-0.07000495728559655,-0.27959990505009413,0.038299019302102416,0.2465335303101241,-0.4210140304844111,-0.09104672675146516,-0.27830697579626973
46.0,6.630336284637451,-0.1439695101940695,0.6370779333048375,1.0475353511628707,-0.0339490664075876,-0.05832178384577277,-1.5126335264046749,-0.6009707723970574,-0.0642717304279235,0.13675549798437986,1.0981492267653248,-0.530027157707234,0.14890857249128972,-0.31042055863606743,0.21399913786362598,0.03392528653534764,1.0101561421353098,-0.4461926989506855,-0.07554695614068062,-0.005809722662269429,0.022328544955044903,-0.03644356186455358,-0.007181776557759541,-0.07584240932828826,-0.21489475483170623,0.3443037353450267,0.2863619768619978,1.2886148102620145,0.21280656263702344,-0.07422449652930933,-0.2796083173693153,0.038772376902842076,0.24692057767256248,-0.4215375037612621,-0.09536804658207024,-0.2789834358839808
47.0,6.683410882949829,-0.14430774054595613,0.635447606000773,1.04805185423098,-0.033656419973416146,-0.05849284951414928,-1.5141949980149054,-0.6059741628757809,-0.06560265087233616,0.1355348258187327,1.0902373148405982,-0.5327155365414604,0.14873183117420347,-0.30775833298851485,0.21338289133011792,0.033814548991615734,1.0078639208425804,-0.44702669102431825,-0.07623929700306456,-0.004306604447122587,0.023331187758608908,-0.036046561180401206,-0.008565345257524445,-0.07475752772149388,-0.21370932238406837,0.3452576869201559,0.28566403347405794,1.2898809003842517,0.2120647365779414,-0.07971798872454557,-0.2787795733669506,0.0404668095554761,0.24795828785712581,-0.42278561963801464,-0.09713410577473008,-0.27872258035258957
48.0,6.756774425506592,-0.14466652684388276,0.6338006318308191,1.0487216727039779,-0.03379886290036937,-0.058423025455162036,-1.51572320637602,-0.6111726177351218,-0.06640433747930162,0.1346046593154035,1.080881628661746,-0.5347978364511876,0.14863656444537449,-0.3043294402976372,0.2128677420377854,0.03342219483212584,1.004645940335127,-0.44726020631109387,-0.07691035488743,-0.002787157755253555,0.0238301548858912,-0.03501992942099576,-0.006475086569606053,-0.0751125143123127,-0.21370869092868505,0.3453212431413336,0.28534581413838045,1.2933747725476756,0.21206125232882472,-0.08227366046247658,-0.2782512404121668,0.04213867779133247,0.24829363447632113,-0.4239663982009596,-0.09783338266691731,-0.27765339558030555
49.0,6.90212082862854,-0.14530555075632717,0.6309108992943123,1.0497840826790732,-0.033233657524752075,-0.058902195548670405,-1.5170786481361653,-0.6213430215908065,-0.06869439003039696,0.13296212135709412,1.0643727020353357,-0.5383546057642239,0.14853009557551586,-0.29908565870922965,0.21157941902322697,0.03272319697616579,0.9993477530989605,-0.44773869111717546,-0.07799300879132218,-0.0005488611782038613,0.023418576092095737,-0.033968423738207146,-0.0055345952553222545,-0.07718648075981863,-0.212632196536504,0.3467687259233143,0.2846430831458065,1.2995362134469999,0.21307877185267204,-0.08899480462361699,-0.27769254611585864,0.04420097698475772,0.25043969145500666,-0.42700656078836485,-0.09919053692552546,-0.27829759646684027
50.0,6.978209733963013,-0.1455806940273729,0.6296424969120265,1.0500554317762976,-0.03270466202409895,-0.0591882174868547,-1.5171336006345986,-0.6262533011050079,-0.06998961003149728,0.13236030220876124,1.057304023247985,-0.5401674943354675,0.14848932731248995,-0.2972099694450757,0.2113443092614279,0.03266219691960779,0.9974803061909132,-0.44881895881847356,-0.07844718024962097,0.00018965437528632506,0.02314777826623368,-0.03398671554691268,-0.00522148088324967,-0.07768425495870786,-0.21193237245884458,0.3473545190148375,0.28399998564401857,1.300423635938463,0.21323502105598585,-0.09207884711910502,-0.277226782815293,0.04536479910551325,0.252139407935102,-0.4298954308212424,-0.10049145946989568,-0.2811753069615756
51.0,7.053028345108032,-0.14586912907491018,0.6281971090551965,1.050144120409883,-0.032057433763243166,-0.059173082334951575,-1.5172333386195005,-0.6321588178137545,-0.07125266054542713,0.1318868359732041,1.0494124887941387,-0.541778654423306,0.14826199809627738,-0.29533331059640594,0.2115636284661174,0.03264062396274071,0.9955427073201836,-0.4507041477418866,-0.07902531043708273,0.0008933474289287619,0.023768615662686857,-0.033940936647841494,-0.003683044568995399,-0.07780542312907612,-0.21168537629835518,0.34732537075269854,0.2830386233120449,1.3005035989008096,0.21270893843440375,-0.09467275108631909,-0.27639397410922756,0.047059005184872806,0.25385555672345983,-0.43334495335298323,-0.10293427788671575,-0.2851901004678202
52.0,7.105898857116699,-0.14618165915039655,0.6266060615829514,1.050273280980322,-0.03114922302570261,-0.05907304112959271,-1.5177042262682687,-0.6388857263267442,-0.07281287226238423,0.13111326631306663,1.0406823611343752,-0.5426838634776696,0.1476865901524823,-0.2935530766330904,0.21138811504101307,0.032244389818266814,0.9933695173366748,-0.45176644917834063,-0.0795942693521543,0.0019914633875042905,0.02443315607860977,-0.03346178751075517,-0.00025794657118227726,-0.07860242920552782,-0.21245331057542727,0.3462659152536982,0.2822890882151024,1.3003213487681933,0.2124816307289652,-0.09604770967523528,-0.27600943994559934,0.04877711818144198,0.2546158100279914,-0.4351977268058424,-0.10743806808545361,-0.28737964519817294
53.0,7.229328155517578,-0.1467384693904301,0.6237821365379209,1.0508575909041884,-0.029378913662991498,-0.05876812602693532,-1.5183059306697946,-0.6503055238871138,-0.07735395639337878,0.1272367146836857,1.0250766495241648,-0.5447500314000525,0.14632868215503575,-0.2902533400387307,0.2107161429731247,0.0310357592237989,0.9889125592578241,-0.4517636062424455,-0.08016402462902306,0.0037195550340493925,0.02498988431808426,-0.032332741453833656,0.0070954407706026405,-0.07892069983393676,-0.21450360564463183,0.34298744514327884,0.2813974602187103,1.3000411813025707,0.2119985339157599,-0.09762241851051538,-0.27442378789509797,0.05200599535856969,0.25499371734097787,-0.43582566586836513,-0.11495201588205442,-0.28773550759330596
54.0,7.29827880859375,-0.1469308564449998,0.6225602091387816,1.0511954296741386,-0.028763422493726057,-0.0585125396784887,-1.5182198312171646,-0.6550123383216389,-0.07989667007949744,0.12492077493378473,1.0181145709473474,-0.544934983444852,0.14574104798713583,-0.2884879504182816,0.21062085111632795,0.0306080550010255,0.9864353552505459,-0.4514453730750013,-0.08021797090575483,0.003804747794101354,0.025525413394886808,-0.031764446208188524,0.011593154739830563,-0.07756934847001594,-0.21582123284539617,0.3406402272902834,0.28101145996631305,1.3008477728564096,0.2109118610142517,-0.09735494549787968,-0.27203920188610736,0.05371331059437344,0.25450142260552233,-0.43659871191378474,-0.11509938277744712,-0.2883553187069185
55.0,7.400856018066406,-0.14719454704857254,0.6196927388594207,1.0513594696441777,-0.027684630133128496,-0.05881556074069346,-1.5179926436299835,-0.6640230315464488,-0.085577283631675,0.12129543641088159,1.0072849469605984,-0.544892929416556,0.14441954009391506,-0.2848770406860659,0.20969529763086747,0.02998072415957483,0.9834297519467455,-0.4523007801995589,-0.08048347635332104,0.0021257506501617704,0.02748118976020903,-0.03274590620870525,0.011076525710832813,-0.07331951730037413,-0.21406408371971952,0.3391189738954192,0.27844336880137927,1.3003734307031793,0.2068731568742987,-0.10640767692507577,-0.26591103198288346,0.05809112865639584,0.257629009495326,-0.440413503621535,-0.11494904515561633,-0.2930532802837885
56.0,7.470124959945679,-0.14739518656246156,0.6182292525975801,1.0514295888066874,-0.027451903667019443,-0.05926342932475427,-1.517957867166064,-0.6685546909119211,-0.089329644107918,0.11876685957087761,1.0015465996029655,-0.5462892961799616,0.14348732020722157,-0.28284967866947286,0.20895244287406714,0.029553434119264716,0.9822532830641415,-0.45251850633093466,-0.080621893687405,0.001843476699664661,0.026986663226757173,-0.03330819905965033,0.013692303001928375,-0.0736553452502957,-0.21450254920836828,0.33803601758626467,0.2775047525830107,1.2991400196896081,0.20628197580736346,-0.10828349931030648,-0.26472336508426475,0.059130481405170576,0.2587479889312449,-0.44107253049230877,-0.11834645725180193,-0.2951518488028896
57.0,7.547750234603882,-0.14757755044439674,0.6166621071215453,1.0515411207781389,-0.026946978470260646,-0.059162032475859175,-1.5182944213566272,-0.6740304376848201,-0.09212354730826659,0.11679382311598868,0.9951618550343084,-0.5470620482358176,0.1426718892837917,-0.28103598433538224,0.20873648491798658,0.029034841346323406,0.9806516612430504,-0.45220058744907965,-0.08068688633899937,0.0021191760970683147,0.02721434352487761,-0.033537586976706446,0.017131313807950174,-0.07335242495709322,-0.21564842766153014,0.33635879324549,0.27697525453285393,1.2982400538311039,0.2056648064329268,-0.10904295037032649,-0.26292754009453423,0.06060600830866436,0.2593175038875481,-0.4413820149180094,-0.12250351621813191,-0.2971313237487334
58.0,7.626532793045044,-0.14773451578483462,0.6149502985500672,1.0517537796787402,-0.026211080594627005,-0.058089154477944806,-1.519315739606568,-0.6803135811843413,-0.09273976459415195,0.11605279657510752,0.9883185255915502,-0.5438238061610919,0.14190781635038688,-0.27919585910966616,0.20931280826006013,0.02823572632129774,0.9780216885430774,-0.4509739568105125,-0.08077256084281001,0.0032955292546982626,0.0282707922235802,-0.032938181602770004,0.022291380359553175,-0.07342301292613805,-0.21832495880516672,0.3340874482326102,0.2770865324428058,1.2999789458185635,0.20532917628042896,-0.1077641197953121,-0.26117483736273206,0.062156394037052774,0.2589542718155105,-0.4417085575922368,-0.1248477830698626,-0.2980087383448869
59.0,7.694316148757935,-0.14785930096067956,0.6128825779693842,1.0520351371219776,-0.02504048715194814,-0.05664757842755108,-1.5206684437058393,-0.6875116525639908,-0.09288172413713695,0.11537042607065456,0.9815935568274747,-0.5393588760044667,0.14108942215571402,-0.2772447385427249,0.20991840261335326,0.02711511627392833,0.9748649512747629,-0.44974121162504005,-0.0810012206540579,0.004767671491928437,0.029741549148938215,-0.03230943811748234,0.025681828728946532,-0.07334795356480259,-0.2205372063510353,0.3322753659084472,0.2771189641136134,1.3040223196850418,0.20465330456100445,-0.10789400176476804,-0.25896910545122526,0.06386963478932581,0.25873403663127215,-0.44286744878789586,-0.12595084323022337,-0.299613100356604
60.0,7.822878122329712,-0.14809820255993142,0.6094459292764801,1.052462353499403,-0.022598788015224906,-0.0549185967534732,-1.5221756645578581,-0.6992499777681824,-0.09387210798369883,0.11429717630381608,0.9717957200459985,-0.5334390395452262,0.13988086285468385,-0.2743392155402591,0.2099515969521139,0.025017949113344193,0.969476079346978,-0.4490185227130106,-0.08185889960215598,0.006040583348237179,0.031592275207481646,-0.03185760484136805,0.027377926544812678,-0.07302607348062491,-0.2217348658086388,0.3304081968032773,0.2764843510106646,1.310902728763192,0.20345911050266163,-0.1102720435098245,-0.2550814650606527,0.06730159040320653,0.2586523566379991,-0.4446370582272454,-0.1269727735290852,-0.3008295081270371
61.0,7.9020094871521,-0.14825739387633172,0.6079010232964152,1.052587778509586,-0.021801782471620172,-0.054853233525430777,-1.522399785918776,-0.7038935244080025,-0.09552565832639887,0.11344445227836777,0.9678486741930701,-0.5319764065554937,0.13931441328119895,-0.27265836464395377,0.2095619669692491,0.02448876935358387,0.9674467061315805,-0.44982252454712524,-0.0824548475823717,0.005946478292194852,0.030962409060197583,-0.03185240909760097,0.028290097612755874,-0.0741215191102891,-0.22124840837417914,0.3298520766005239,0.27608319339547577,1.3115071212197105,0.20413483535159793,-0.11093691471957126,-0.2540325257084394,0.06897871393837883,0.2588071946145446,-0.4444318455336218,-0.12707729208389873,-0.29888192704719724
62.0,7.983203172683716,-0.14839567018885966,0.606131763203254,1.0527191179635171,-0.0213106207782099,-0.05472238001625104,-1.522757092616098,-0.7086188706718051,-0.09725945752896502,0.11260995452086886,0.9635948972692514,-0.5301144874373032,0.13873975456852616,-0.2702354511632355,0.20923833229651317,0.023979376381401005,0.9654106084314078,-0.4508452289633822,-0.08305605674411064,0.0055930432392427825,0.029477837586575142,-0.03146470536413519,0.030608630628462308,-0.07603353472676122,-0.22022880183743432,0.32849629473868014,0.2760039867370551,1.3104581737548422,0.20610132798966344,-0.11101459776318112,-0.2526914773699187,0.0707448789112549,0.2593690834828803,-0.4446723455102356,-0.1252414899687811,-0.2969610158113514
63.0,8.063764095306396,-0.14852699632272084,0.6041012284259428,1.052825165104589,-0.02115244003111799,-0.05440884400703209,-1.5233488679683291,-0.7132520001936373,-0.09840143116754635,0.11243591730681864,0.9591489690593822,-0.5276248426670727,0.1382895735610326,-0.2670894017470643,0.20888446949159706,0.023133027797300205,0.9633263588525981,-0.4514080223961242,-0.08357877840508206,0.005434668236862353,0.027427847706425715,-0.03036887620380172,0.03321998009916227,-0.07891504445530034,-0.21935172703190645,0.3268881247026305,0.27652198570540804,1.3088407035638645,0.20932743850776228,-0.11091130746314831,-0.2515572298579577,0.07209811446512882,0.26001281186588043,-0.44492763092264653,-0.12215289961504047,-0.2949578952908765
64.0,8.111854553222656,-0.14869132942589688,0.6016822294236203,1.0528943693420945,-0.021093328136776664,-0.0540179125751536,-1.5240940131009495,-0.7176280387393184,-0.09951498366446998,0.1122879863156351,0.9544725000331495,-0.5257997159430992,0.13814729681262003,-0.2634365562833155,0.20857010901195094,0.02210983226068608,0.961162899876736,-0.4520134703020053,-0.08414667913234734,0.005729407656160529,0.02585260797440403,-0.02889813417150794,0.03379836819985485,-0.08203065966142281,-0.2188584409727521,0.3267451570065185,0.2771135791047854,1.3082791851523696,0.21232851001380648,-0.11167858928494168,-0.25210285411531796,0.07502046652364829,0.2607613258043894,-0.443229018564956,-0.12101979922206274,-0.28701153345831915
65.0,8.222839593887329,-0.1487732708126601,0.5976628564961715,1.0528678118961659,-0.020626780963009253,-0.052641114240520634,-1.5254600716700653,-0.7239898910481501,-0.10095609600998595,0.11159992861493451,0.9471807252114675,-0.5246562614594965,0.13873268701370528,-0.258232884014735,0.20831116293822532,0.019951802014370884,0.9574893179544863,-0.4522458256238757,-0.08475528785646319,0.0056363221566909615,0.026092630540704993,-0.026812274036711693,0.0328127559400675,-0.08607075294025651,-0.2182689753891276,0.32795993378156724,0.2774924382570138,1.3124855626675043,0.21521015865842066,-0.11356818298184562,-0.2517601194444036,0.07863312124183942,0.26102520004616386,-0.4421116118774098,-0.12147614688002842,-0.2803990875900144
66.0,8.279261827468872,-0.14875791347840467,0.5958909761378846,1.0528059279472766,-0.01997402485494355,-0.05215193341822284,-1.526372605316801,-0.7269681182390861,-0.10177025231436748,0.11111393126331034,0.9441351957411075,-0.5250721320892824,0.13898256669473388,-0.2566065501873585,0.2081833384991874,0.01946702316500016,0.955855332056024,-0.45135491797637484,-0.08475849772609145,0.005048988197936323,0.026062303360212317,-0.026291330896263503,0.03232843671924501,-0.08785301056749396,-0.2172032254190856,0.3284774804360354,0.27724813193359304,1.3147017871696114,0.21620678246847336,-0.11473314639553986,-0.2511941469207206,0.08055822001883475,0.26141272654610676,-0.4423704063402776,-0.12009467401129686,-0.2777491040950755
67.0,8.350343465805054,-0.14878155622271602,0.5938159707474893,1.052712628497965,-0.019240217573408644,-0.051748246504182444,-1.5275735448152945,-0.7303986244716039,-0.10239452674888454,0.11084172046558485,0.9413623212070623,-0.5258451200292167,0.13916225326453943,-0.2546860713581329,0.20860136020511338,0.01977815908906388,0.9543943006608453,-0.4506375884950847,-0.08473343271530454,0.004365966493016861,0.02563249364974153,-0.025789320030026888,0.03238939205502269,-0.09029906461360268,-0.2157615040698787,0.3285975217480196,0.2766671665451994,1.3155728207707305,0.21735464896840323,-0.11568617996854447,-0.2503002992861625,0.08234486872701097,0.2619716957734478,-0.4432059608389786,-0.11929873152823767,-0.27685313036070197
68.0,8.484077215194702,-0.14878720856801403,0.5898627565856132,1.0525891360252646,-0.01879782413056884,-0.050252534743050276,-1.5297520784138294,-0.7356006609942028,-0.10138486695840013,0.11183704897547718,0.9370797335736847,-0.5256651203377184,0.13966436687570222,-0.24972279820726553,0.21079538675514603,0.020714737766267075,0.9515612737806024,-0.4500270223965205,-0.08464154701095071,0.004283398180564057,0.026180499969307543,-0.02470750649029223,0.03546511391917749,-0.09308231371191883,-0.2150367981048022,0.32737527781400844,0.2760042709314347,1.3164325497382081,0.21880697811391892,-0.11427240275668568,-0.24678911639856493,0.08530844705246597,0.26242670708531374,-0.4447435361643357,-0.12068110987302569,-0.2794427657651307
69.0,8.535155773162842,-0.14870517811687603,0.5879700665064388,1.0525737528773227,-0.019060115811852105,-0.04920870046072588,-1.5308270429231312,-0.7371805878559299,-0.10031699289373439,0.11246462598949888,0.9355924481088995,-0.5254475769319287,0.13991074815697283,-0.24685058834375762,0.21209027681117812,0.020917005921444184,0.9503488298881217,-0.4497134768000275,-0.08450197987429886,0.004365243506711998,0.026991560574609365,-0.02418635706187805,0.03698712715779725,-0.09414463197676201,-0.21461523109020503,0.32679218258226717,0.2756942330761697,1.3169523801264167,0.21942151356877182,-0.11312034062470007,-0.24458389926019403,0.08638964396055487,0.2627377181046083,-0.4448766366289768,-0.12223216497983513,-0.2814189506904943
70.0,8.639824628829956,-0.14846747654710635,0.584289918791101,1.0524504046963923,-0.01929940126690328,-0.047417109357414375,-1.5330373011515799,-0.7398126904889311,-0.09934793188602722,0.11225017922167829,0.9333710679101359,-0.5274873821179981,0.14023097790819072,-0.24178653345117102,0.2137961549713837,0.020776954680477334,0.9484952334824118,-0.4487437713501101,-0.08436620978373757,0.003509199625275579,0.027516794941051734,-0.023377550033614424,0.03640624863934105,-0.09895050084588283,-0.21143330489036646,0.3274411067622227,0.2748274198530895,1.318875605010567,0.22216340149778502,-0.11298348484540949,-0.24264400597421604,0.08815311653448721,0.2646759698418639,-0.44451157201422087,-0.1263070673601474,-0.2826919410406591
71.0,8.708647727966309,-0.14833168759334714,0.5822441050017458,1.0521817813142182,-0.019001577238043285,-0.04667229187396274,-1.5342486184992425,-0.7416364910923994,-0.09925403276426381,0.1120660442950884,0.9322646633733234,-0.5291623172162601,0.14043196616225345,-0.23960040246828263,0.21424054834205833,0.02054715263983297,0.9477211128149005,-0.44837844228343354,-0.08440311779087467,0.003169783767385653,0.026843895329483752,-0.023526484200404534,0.03457842272753959,-0.10138143263445187,-0.20982548839567322,0.3285137572368489,0.27479814241924067,1.3193371182448819,0.22410455012065106,-0.11383670744018129,-0.24222453862925275,0.08918370103546464,0.26664625567979905,-0.4447630775562367,-0.12784469289264466,-0.2829079276212223
72.0,8.825262784957886,-0.1481178355343925,0.5784487743036913,1.0515742574348483,-0.01856369124986272,-0.04530898837529301,-1.5367334670579875,-0.7445568774317801,-0.09862859355030412,0.11229507318997967,0.9301312376213127,-0.5308762404213881,0.14083588547523176,-0.2355237630042084,0.2156374030379138,0.02092296665945207,0.946183544680101,-0.4484880900871116,-0.08451490359027602,0.003239111199776207,0.024194124952578083,-0.024123433127666037,0.03300865280966271,-0.10442448010252356,-0.20892266306468407,0.32985615335332363,0.2748205374157287,1.3173379605934812,0.22670192194992533,-0.11392427101636753,-0.24160504726690382,0.09120796149440347,0.27129333243145226,-0.4447681564301485,-0.12984469404637095,-0.2822690083845879
73.0,8.893373489379883,-0.14800196190543352,0.5763933582419924,1.0513591147550299,-0.01876442155162366,-0.044570028475193105,-1.5382569366497916,-0.74510568565681,-0.09815879938152683,0.11230685885331973,0.9285814787870119,-0.5313533982707315,0.1411038616705834,-0.23279365672991215,0.2169438274753061,0.0218990476044712,0.9452480582924312,-0.4486196469545456,-0.08448293012580324,0.0033254703528357,0.022703243362464924,-0.02386169829707817,0.034853192525757595,-0.10525311129695171,-0.2090617995015634,0.3296184814638158,0.27448653933512346,1.3165094904844084,0.22704782228460563,-0.11143689369021442,-0.2404554300856802,0.0927129573950002,0.27271413438294906,-0.4436635776661488,-0.1305304676076869,-0.28057153283076774
74.0,8.959941864013672,-0.14784845088156628,0.5739264327606268,1.0511435134743259,-0.019151700217453934,-0.04360221415130022,-1.5403225347990122,-0.7450012156750228,-0.09743451848295172,0.11209209145242163,0.9268029958828654,-0.532683472189976,0.14156721435392863,-0.22935210490343197,0.2186657929528153,0.023248291446266965,0.9441608827114368,-0.44831090526056616,-0.08434005569733007,0.003508181442797909,0.02111330688822324,-0.02348507206305504,0.03774802053349027,-0.10548852062876002,-0.209255578733345,0.32917514263554704,0.27436403378827723,1.3161806059806977,0.2274121385687619,-0.10752497304657785,-0.23811909965228223,0.0948872019017712,0.2734620228752477,-0.44190135617107484,-0.13009382227371402,-0.27776110652112634
75.0,9.012819051742554,-0.1476818279401978,0.5710279980604204,1.0509057057614861,-0.0194301242764559,-0.04241496184942162,-1.5429988361582323,-0.7446089250033325,-0.09636807125284177,0.11181775671633815,0.9252418528939288,-0.5345794999767519,0.14213923357480723,-0.2255644796408245,0.22048881242731042,0.024530502286703677,0.9431066189846018,-0.4472423485232277,-0.08410033748456033,0.004011167082186276,0.01890202680025048,-0.023093387937554527,0.040565876415038185,-0.10680312246472637,-0.20985931480778583,0.32869066888047827,0.2748489008107845,1.3161718757084193,0.22890218465966639,-0.103151740801872,-0.2364991126579623,0.09690823984315469,0.2737924179619223,-0.44063538438733785,-0.1293545678143729,-0.2749031813918554
76.0,9.145820379257202,-0.14739293590277563,0.5656965361968973,1.050470346623261,-0.019129906108619015,-0.040559621995859545,-1.5480763081227416,-0.7441006033189078,-0.09495425739638208,0.1108853087609056,0.9231939930035645,-0.5391479799951683,0.14303384863122787,-0.2194426325227011,0.2233294010646148,0.026977381440493574,0.9413989185437015,-0.44542369997644904,-0.08372271389782268,0.004450973856503728,0.014947576682792422,-0.022532999402948214,0.04362388933551176,-0.10982197752486407,-0.20958005342334135,0.32747245948023584,0.2756499170599784,1.317734549252735,0.23190776819115388,-0.09662020456518922,-0.23487326275078474,0.10094623110625109,0.27394461031589695,-0.44171637616650483,-0.12839207781020068,-0.2724755302309031
77.0,9.202280044555664,-0.1472192099485706,0.5632612249320983,1.0502141067457909,-0.01872099326824797,-0.040037759048118696,-1.5503277620131395,-0.7442081687888269,-0.09436596396411684,0.11093073564986017,0.9231334205134051,-0.5401850329206203,0.14321124331969137,-0.21695842492600576,0.22434392478762644,0.028471778425768292,0.9410750363403784,-0.4451984018012901,-0.08360199957587174,0.0036125916899009173,0.014022212676364292,-0.02262255457013369,0.0421358136511787,-0.11006517226426923,-0.2071590976952115,0.32720909355489136,0.2750418813583408,1.3184073230448192,0.23205766984917497,-0.09630449884374774,-0.2335549170398754,0.1042041814788682,0.27479559971231127,-0.444088443851513,-0.12802804059054657,-0.2725073230996072
78.0,9.283140897750854,-0.14696386764534983,0.560417754601545,1.0498557791996599,-0.018857057820913684,-0.03932558395059026,-1.5527739586056128,-0.7437655855434497,-0.09265154585710032,0.11247218803223402,0.9236856455423476,-0.5378476709161856,0.1431031365349758,-0.21337147639777115,0.22580272199484352,0.030389856754463037,0.9410648490382023,-0.44491312921270915,-0.08338364846929464,0.0020203489102228957,0.012965048284883492,-0.022338625983958114,0.04030533105730476,-0.11018835485640965,-0.20412281590904288,0.32709813199171944,0.2740961077294521,1.3185692817578865,0.23196906901400716,-0.09626684821985634,-0.2322261910427595,0.10868066184687789,0.2760600145263555,-0.44619888644457883,-0.12840020019863996,-0.27082044170827235
79.0,9.3443443775177,-0.14668515850097064,0.5572695476891026,1.04944230532469,-0.01957096305487934,-0.038139747539494305,-1.5555920972960258,-0.7421652432496451,-0.0904684466053577,0.11389057397643543,0.9238548100017128,-0.5338850906289154,0.14290853388811275,-0.208790878084339,0.22798418386667899,0.032581655632648324,0.940717540442334,-0.44414523005066825,-0.0831298229018792,3.339246641592729e-05,0.011078341978322543,-0.021018274367491405,0.04187726043176612,-0.1112139597825513,-0.20213062569559814,0.32630725204797584,0.27380619262603595,1.319447902203083,0.23298845276186408,-0.09299495883880832,-0.23137923748177222,0.11365303161408251,0.2764358253685376,-0.4472348030692087,-0.1285004430143924,-0.26647691150432623
80.0,9.489713430404663,-0.14622753113552267,0.5517712692181255,1.048675808970058,-0.02068140356148289,-0.036112862321972306,-1.5619651547403637,-0.7383537956654929,-0.08867691318010595,0.11283015399961918,0.9232948047670507,-0.5290744338671556,0.1426421327826373,-0.20116500688314048,0.23110223369835092,0.03644703783722197,0.9393247534942102,-0.4408893664308887,-0.08283978236125772,-0.0027875977967127827,0.005993394585084834,-0.01743532187232283,0.04951225133067233,-0.11491555145045723,-0.20019931051576956,0.3226877450774979,0.2745850005462633,1.3219679094862,0.23702680069579568,-0.08268879372529825,-0.23086728036093584,0.12118344798810918,0.2745511725885966,-0.44795730486982177,-0.12593424380627605,-0.2569031937667775
81.0,9.574956893920898,-0.14576084641374357,0.547026816540532,1.0480357451384048,-0.020909992657013154,-0.03479452224328181,-1.5683047768656766,-0.7352332395093555,-0.08940635375386666,0.10890145939461093,0.9237416064930083,-0.5297761255606213,0.14255221260565445,-0.19571561754010225,0.23174469515869806,0.03879778223101837,0.9383758755483935,-0.4357003832907994,-0.08254296731655686,-0.004239893350176832,0.00013916213577999138,-0.015249746382798888,0.05631185561915061,-0.11876895143786347,-0.19970614299880546,0.31768728238694444,0.2763580392218184,1.3233057735961165,0.2419010428010981,-0.07337214059822354,-0.23186483456316137,0.12547543530804325,0.27054340611595673,-0.44687841185235033,-0.12403272725965275,-0.24784610970857654
82.0,9.60474944114685,-0.14552173288740888,0.5451082359053357,1.0477318152417656,-0.021124943908501212,-0.034091698338160725,-1.5698374993300195,-0.7341195937559613,-0.08914814403715002,0.10838862616381657,0.9245177673420828,-0.5287134518021086,0.14247206959284248,-0.1936334652516658,0.2321545163008013,0.039162133699712345,0.9386398809556717,-0.4345347291487871,-0.08233265937287346,-0.0055015479835389056,-0.0017160336881965662,-0.015075877575073704,0.057486753921979536,-0.1196487205109667,-0.19970763514683118,0.31699216275364117,0.2770459347969414,1.3239143616701936,0.24331455969239713,-0.07075369333509653,-0.23205786963675099,0.12700517803244776,0.269987958532702,-0.44626117127248377,-0.12489729885082165,-0.24519264533592622
83.0,9.735042333602905,-0.144958879366255,0.5405059694378214,1.0467656322433423,-0.022090045827165714,-0.03224579815716534,-1.5729219779198815,-0.7308935966485421,-0.08785251212997955,0.10887130494161577,0.9262078181183273,-0.522728906372229,0.1417719173809033,-0.1880613879751114,0.23386441222844145,0.04024839323512365,0.9393533321550316,-0.43344358871568744,-0.08184465524889198,-0.009753155553077694,-0.0069111255771212255,-0.013897152472510107,0.06152293953955443,-0.12310173127696303,-0.199726901599788,0.3155126424029777,0.2788461846533028,1.3262414983792117,0.2474143716815097,-0.06341879719988372,-0.2329031083219002,0.1303123621435029,0.2693502419612688,-0.4447929601282051,-0.12826901011851116,-0.23962993681719302
84.0,9.814354419708252,-0.14465899025373702,0.5378429864555332,1.0462268296637507,-0.022435330658403613,-0.030916078159150685,-1.5750610630532984,-0.7288165097915115,-0.08675005038689526,0.109260138389034,0.9267596410189579,-0.5191745520536298,0.1413233837694741,-0.18498566097478447,0.23525533980197028,0.04109953230595659,0.9396016572613288,-0.43194972154989436,-0.08138527658531935,-0.012502647060513124,-0.010499455725695698,-0.012869805221175982,0.06621600386637515,-0.12595524376353873,-0.19992195937818252,0.31330877836819815,0.28013933438393024,1.3270907567652919,0.2505518675069138,-0.057384173041386495,-0.2340315744204713,0.13232593466258313,0.2684091301910901,-0.4440325533986556,-0.12981946259311136,-0.23553591679774943
85.0,9.890212535858154,-0.14427414094718055,0.5347203789656658,1.0456703782465122,-0.022541241269654073,-0.029118071983877607,-1.577759929031688,-0.7263269834752781,-0.08515612817498716,0.10953802595598433,0.9277538077215743,-0.5145829212709649,0.1410250345917233,-0.18187350669985303,0.23696162092791329,0.04206176607856879,0.9400207709089998,-0.42904949300604456,-0.08064104148433607,-0.015765668719834515,-0.014813414389215525,-0.011693236576246449,0.07119059222772298,-0.1294256027804625,-0.19985732249183732,0.31039476127900034,0.2815152050436628,1.3270858106062235,0.25419543400539657,-0.05059482851085732,-0.23555433988627514,0.13436369299526663,0.26720535269753803,-0.44366191808132827,-0.12979852591681226,-0.23074703339553587
86.0,9.961102724075317,-0.14384738336066383,0.5310716948241436,1.0450226459988046,-0.0223472147427857,-0.027181869524478243,-1.580933616180782,-0.7236789017242564,-0.08350903114808761,0.10955677244689327,0.9297962423474336,-0.5089643169764728,0.14077772559244242,-0.17866896186452347,0.23854103894236262,0.04301356346093142,0.9407143100113575,-0.4260695101554334,-0.07995989111769138,-0.019682999757363408,-0.020675707007595533,-0.010844723036059954,0.07419610006807194,-0.13451169877386784,-0.1988623196450353,0.30871709812839776,0.2827538111660866,1.3267127084258283,0.2586399828494364,-0.04442956048704611,-0.23783140582097687,0.13557100207183492,0.26639485556311465,-0.4432615003111051,-0.12852221769653488,-0.22564188967820747
87.0,10.067800760269165,-0.14312857231573076,0.5243702172415592,1.0438012747476633,-0.02174568141675315,-0.023526683519433007,-1.5867393729739527,-0.7192571397250238,-0.07965198899538767,0.11019624993318558,0.934859035455106,-0.4971247420098044,0.1403064580767872,-0.1727963468357333,0.24144545083626123,0.04442827943430277,0.9417837254250174,-0.4221041139838648,-0.07915182976787075,-0.027311450197970245,-0.032295760029636786,-0.009795176943023058,0.07948009751703283,-0.14665454586012333,-0.1961743884560873,0.30721310463224927,0.28476275631075576,1.3258526060589118,0.2679690799851046,-0.03310009815395042,-0.24326398535772137,0.13606759191823495,0.264599188335398,-0.44144317684271017,-0.12860706025744695,-0.2169567379666758
88.0,10.152086734771729,-0.14231447626368568,0.5186864998025257,1.042715366165337,-0.021712334378793868,-0.019934878772932874,-1.5916388521476557,-0.714541359033754,-0.07539520030268505,0.11130804856236531,0.9397133526286995,-0.4868844018465437,0.14036922574837363,-0.16698217951114028,0.24412390774547987,0.04526023587651775,0.9420826189087608,-0.41798443166695765,-0.0782262521904291,-0.03447512794544732,-0.040376411634658674,-0.008609714833690229,0.09042547487332747,-0.15747432653429877,-0.19530900732891332,0.30379046830885453,0.28636393297019586,1.3252327172499976,0.27533998369592005,-0.018387609976731497,-0.2490788308716016,0.13696111973441008,0.2611515090945218,-0.43750469966225536,-0.13726502353092465,-0.2078048215460367
89.0,10.23213791847229,-0.1414965517235343,0.5142486029040253,1.0419112105764976,-0.021852694474178626,-0.017025236196134892,-1.5957822101152477,-0.7095821383948184,-0.07187052969955564,0.11219922080174144,0.9434285463471302,-0.483122117703908,0.14117998410673002,-0.16244567374506935,0.24576810013611455,0.045712595027196955,0.9418008685308894,-0.41231713866724523,-0.07711058097930247,-0.04012035180106163,-0.0448497581696691,-0.007428636563591814,0.10080317425867862,-0.16350483268446409,-0.19561965235870854,0.29948851174011043,0.287877605811964,1.3266814654072214,0.2796000972794674,-0.00513319678098121,-0.2537031459245844,0.1394966191706225,0.25888094522048305,-0.43385526000475355,-0.1455363940297451,-0.19690522353969
90.0,10.321526050567627,-0.14067315129585378,0.5096554685649365,1.0412576724599414,-0.022155413615326254,-0.013877314787628351,-1.599596710018874,-0.7041702402851852,-0.06650339739473354,0.11509321884944679,0.9478551904903614,-0.48164384384454545,0.14218849390062321,-0.15726104004620522,0.24760500595161533,0.046278244886979764,0.9410091603313366,-0.40854614059538497,-0.07651535992475146,-0.044789838115003686,-0.05104025007250387,-0.0059612221211148946,0.10548231907705516,-0.16878580687560207,-0.1946800696051748,0.29767148715882186,0.29047898032944797,1.327976755744952,0.28523092014270823,0.0036389811914941854,-0.25629954989841647,0.14077333528261546,0.25839153102112206,-0.43138131018309056,-0.1468125543547435,-0.18780072138229448
91.0,10.388645887374878,-0.1398530571533487,0.5049505513280464,1.040869003800336,-0.022539804573994682,-0.011777347084337222,-1.6024273870374703,-0.6992701508659814,-0.05996255609510359,0.12138143139555849,0.9517738202917256,-0.47987997336825583,0.14360740649074397,-0.15132890458668302,0.24795090895055166,0.046688195334049304,0.9399572657666,-0.40760298584918453,-0.07672411436428964,-0.05008034014549173,-0.060267294940868577,-0.005490435926818717,0.10694275405526811,-0.17524331333744392,-0.19335634580416794,0.2995787167101056,0.29326717784824813,1.3277755346655877,0.291891965064916,0.010932209116429448,-0.2577786606233956,0.1393681692767319,0.25798511199853774,-0.429953089238716,-0.14464282179603183,-0.18387855766480246
92.0,10.47636604309082,-0.13915551633683756,0.5003162504063803,1.0408836266363757,-0.021428113550443294,-0.010543868425554121,-1.606193840955642,-0.6971100123545124,-0.05177650943567533,0.1300092046282982,0.9543363048036086,-0.4807675672310713,0.14609066000194873,-0.14717472195756892,0.24670071241157537,0.04684483783785767,0.939071803600831,-0.4064633872372161,-0.0775431503505723,-0.055622807467299445,-0.07116714083127988,-0.0068430657899778945,0.11121405676342713,-0.18589647219434322,-0.191749130768033,0.3029816806605832,0.2957089283844686,1.3258450135400852,0.3005485507595721,0.020946321031453052,-0.2621337127807577,0.13593975187348703,0.25780476454069245,-0.4275895675246904,-0.14685636108830766,-0.18121336191968768
93.0,10.535469055175781,-0.13866921836162582,0.49655033058486286,1.0413654196528426,-0.020524845065446554,-0.010181632146007407,-1.6097111535518172,-0.6952884095754857,-0.04594464432965307,0.13620782091152545,0.9550815579921124,-0.48813009622535874,0.14852511581474298,-0.14394200013635916,0.24522255182955824,0.04775559624220277,0.938846927109997,-0.40635583573452166,-0.07851375626541843,-0.059496953248046325,-0.08024783276956829,-0.007529648857849488,0.11572129986697997,-0.19391136797497227,-0.19029780365704613,0.30512452678247737,0.2974587139426993,1.323916616438305,0.3072478934919148,0.030001217537798268,-0.26613933258578115,0.13409332438265575,0.25855650152573656,-0.42561973265001796,-0.15116440068074247,-0.17875783885611507
94.0,10.648396253585815,-0.1378599336933728,0.4907758024226164,1.041983197146964,-0.020052246882397123,-0.011874160806680831,-1.6148696405995588,-0.6908972158568047,-0.039705802087251635,0.14633361240738535,0.9546687480496421,-0.500072552283646,0.15166424962152872,-0.13802504183065328,0.24102847026052923,0.05083747290722506,0.9392197995881899,-0.40767923153410707,-0.07977837005165506,-0.06548423100611905,-0.09335786309587318,-0.0064527125106921615,0.12234937688877262,-0.20094214003458416,-0.1885750089264939,0.30507430818625103,0.30052460118978086,1.3244703816981769,0.31463500859221216,0.044327479793475566,-0.26912296529764856,0.13505864633939765,0.2581748737431728,-0.4252573092033708,-0.15672215325241012,-0.17586251353162968
95.0,10.728631496429443,-0.13733108641053002,0.4870015627874298,1.0421582574780557,-0.019194999402209634,-0.013746487775375443,-1.6172070268995031,-0.6888637005335837,-0.03612387826333582,0.1540955239583428,0.954566419885082,-0.50036905615422,0.1526314365387937,-0.1350014164238648,0.2372999325434737,0.05224281748475125,0.9398904193836044,-0.40939423151865534,-0.08055407296561395,-0.0702629207182367,-0.10151509453203458,-0.005773456959850954,0.12565485032081,-0.2029294555208689,-0.18820213764083435,0.3031148370657054,0.30261042442922337,1.325281514023246,0.3177148923125087,0.052501180927680545,-0.2693194835679189,0.13669176541984443,0.2573109101682826,-0.42622127338513605,-0.1572538501961766,-0.1744579598915102
96.0,10.794083595275879,-0.13694935584835696,0.4841806309479554,1.0422255840235037,-0.018786965035928492,-0.014712254918329518,-1.6174146228491844,-0.6875584624593889,-0.03362159537536445,0.159415037816605,0.9556831335387286,-0.49588658184823003,0.15279996907298382,-0.1324996564910211,0.23532459040862203,0.05254523768531329,0.9408285390675036,-0.411479340318,-0.08118852210795517,-0.07510593760562284,-0.10748332909981244,-0.005593368426951496,0.12683766964301735,-0.20433741023386148,-0.18798168304471347,0.302540159854025,0.3035662675158906,1.3240691856706688,0.3195402303465117,0.05732480437626199,-0.2697418520957913,0.13723166513617496,0.25757472920333835,-0.42630350057148403,-0.15655195079234985,-0.17309968841236462
97.0,10.884554624557495,-0.13610076232128437,0.4778240376113374,1.0424151459949704,-0.01934169266847377,-0.01595104014354889,-1.6163543736387849,-0.6833061142599266,-0.028171963870369708,0.17029805407146206,0.9600457486639102,-0.47656521741035807,0.15228468770240633,-0.1256481103622109,0.23210180125693347,0.05236345296845932,0.9435835102171519,-0.41627046925621425,-0.08254981577103682,-0.08702417248776928,-0.11944636184760205,-0.004574125732188578,0.12893999484376178,-0.2071745823158685,-0.1870462159428656,0.302817900213956,0.3052862998350167,1.3214637230172683,0.32321372911494534,0.06872859401936701,-0.27101232762815,0.13823665631244778,0.2582803042908999,-0.4254744091948971,-0.15664495533977166,-0.1698562953846992
98.0,10.95641040802002,-0.13561553192455922,0.4743344742310194,1.042412677214121,-0.019805380764535096,-0.015567082281936876,-1.6161219229430523,-0.6811657058357343,-0.025279713654785766,0.17429249275050973,0.9632938474591264,-0.4635288044899936,0.15170348165376857,-0.12213280593900194,0.23076258303613828,0.051407145189753874,0.944779823584659,-0.41779760038761077,-0.08331666573745047,-0.09265269891759124,-0.12479752477179272,-0.0034694363784495167,0.1303119231726232,-0.2087504835639123,-0.18620668699078424,0.3035501922235012,0.30646035164117746,1.3221084706907795,0.32550598187835245,0.0764862738577103,-0.2715916520692661,0.13870558284536288,0.2583587316754855,-0.42512314903446563,-0.1575052708731297,-0.16911174252431121
99.0,11.039641857147217,-0.13498060042404758,0.4704691337734766,1.0423297229785589,-0.02008919507208113,-0.014438270428454128,-1.6161099997029509,-0.6794587071795104,-0.023482240678547338,0.1757264983218104,0.9674784666163774,-0.45079568050819596,0.15104189243573568,-0.1182608985829513,0.22916471134725908,0.049549256341443776,0.9456697681807482,-0.4183234638460497,-0.08418898019884244,-0.09813360640199767,-0.1301959189944016,-0.0017560166935409068,0.1308740509162878,-0.21018528958465135,-0.1851144100414553,0.3050312240911419,0.30795976722880486,1.3244220542426854,0.32804917974676034,0.0858020900868421,-0.2715680362882724,0.13894744559236316,0.2586772764071212,-0.4248936144314686,-0.157024817199518,-0.1691813792298768
100.0,11.119906902313232,-0.13419490985909732,0.4662630622973839,1.0419358793161084,-0.02036252538263593,-0.013520601975208728,-1.6162709910949182,-0.6779613868672558,-0.023481018126340437,0.17534303335035156,0.9721256898861739,-0.4401193785232682,0.15041431340205297,-0.11351610062982936,0.22699087185806288,0.04760247326535358,0.9466225100478812,-0.4180360048530631,-0.0847875668785898,-0.10367439137235246,-0.13609133600863274,0.0002640952301425694,0.1311529477163757,-0.21119001385384023,-0.18408562226263103,0.3065122617999667,0.3092092001966015,1.3261571596580681,0.3300683186514095,0.0962110632498934,-0.2714481964420865,0.13931267605688166,0.25931546048839643,-0.42453346088148486,-0.15564288458861633,-0.1688495437637162
101.0,11.19212555885315,-0.1333859278246824,0.46155631386412477,1.0414999443981607,-0.020956314926355316,-0.012880049954921157,-1.6166492133420476,-0.6759938696348784,-0.023534504408636515,0.17511647056980473,0.9774059845218204,-0.43100825800987314,0.14989426088519525,-0.10792104081820032,0.22418990856508594,0.045536010517658994,0.9477834615668241,-0.4172088742206856,-0.08550070539896923,-0.1097924526494202,-0.142758451113215,0.002236698673591048,0.13181570132651035,-0.21413040181780096,-0.18242025487839836,0.3083090337220362,0.30990770912439425,1.3265019954946866,0.3326829326043316,0.10771622904116712,-0.2733916717021452,0.13915276223863327,0.26035576087906664,-0.4234956582970465,-0.15534066832543197,-0.16683851908819275
102.0,11.321356296539307,-0.132011397129739,0.45386471389331673,1.0413167242031465,-0.022587281461430103,-0.01215022306295406,-1.616740424259156,-0.6707937315616566,-0.02374447635361173,0.17550820280309984,0.9849459569206933,-0.42506258299184607,0.15005160420087638,-0.096980827269192,0.21921273779388392,0.04284855193873424,0.9468502650017361,-0.41498160677091345,-0.08645185429911634,-0.11821333968949391,-0.1511017817552502,0.003870408829550489,0.1362733555407883,-0.22097756861613493,-0.18039169542232475,0.31018430949757936,0.31132402519350005,1.3244019227270387,0.33842069543822517,0.1264690004155439,-0.27842820693669584,0.13771931481620103,0.2605943577086523,-0.4209126778707927,-0.15727130961151192,-0.16265379572969052
103.0,11.39208698272705,-0.13129994943252554,0.4501782835577806,1.0412494114638784,-0.023264134979517015,-0.011683758262776688,-1.61690726092241,-0.6682151694404119,-0.02262057348360503,0.17684820989318245,0.9886553633024383,-0.4237555505314946,0.1505787985792445,-0.09300885286903679,0.21642340940197252,0.041056370776320295,0.948044181712806,-0.41199581660690865,-0.08712802687034137,-0.12268888042113565,-0.15507487259851627,0.0039030032529939114,0.13102493375165936,-0.2212768582674371,-0.1781142338789557,0.3127249437872448,0.3115648354283086,1.325986117656662,0.3388811656111984,0.13168617844942884,-0.27893588966758803,0.13795104726408525,0.2629810509772412,-0.41978408352550745,-0.15379464152944758,-0.15943786124351306
104.0,11.471367835998535,-0.1304838893201135,0.44599730033474905,1.0412380139662436,-0.023629580585599608,-0.011230678467921485,-1.6173854789295377,-0.6651637137063386,-0.021876344969101298,0.17797386708309473,0.9919073839639883,-0.4233193857680604,0.15108700684448897,-0.0891871867156836,0.21386476323696696,0.039938835748372925,0.9495189494907057,-0.4088745149235927,-0.08770978214295139,-0.1268126819151787,-0.15937467091022806,0.003685492966451871,0.12670088690461126,-0.22001609240015513,-0.17709609808207472,0.31510372823542643,0.3122066652562422,1.3276211614054065,0.33879934633104214,0.139656778619406,-0.27869471130060053,0.13863261374589142,0.26513888398564806,-0.4177007034729068,-0.15099770353847325,-0.1558987127457479
105.0,11.523374080657959,-0.12960619864471212,0.44125802306503936,1.0414539457084055,-0.02374653461503199,-0.010566878666586774,-1.6184040141857556,-0.6614021388147726,-0.021217356946565513,0.17872315951592666,0.9947094821006792,-0.4236265696707324,0.15128655859249968,-0.0856598292764354,0.21106668959648706,0.038783210624080765,0.9516462131697845,-0.4046041358474409,-0.08844049271221699,-0.13029733897672346,-0.16416690130850586,0.003144205293408751,0.1228076870719816,-0.2186961324220953,-0.17665220189522932,0.3181285211672775,0.31338555176065275,1.330548723972092,0.3391649598622433,0.15037163310392512,-0.27829026708443894,0.13892305309487732,0.26726065963655027,-0.4144559555939036,-0.1485470049519641,-0.15215660244190127
106.0,11.639009714126587,-0.12805871411171085,0.432727328628986,1.042193965554751,-0.024564284303084924,-0.00957331471974309,-1.6216489461504375,-0.652819987330473,-0.020775328944854794,0.17972117260878323,0.9980291118279385,-0.4254622872328734,0.15060860426448452,-0.07939040573057263,0.2062322401511527,0.03826365419755656,0.9559096120748019,-0.3939842670011908,-0.0896256692150523,-0.13353443453649239,-0.17287115878332018,0.0012836455052410718,0.11813037034888182,-0.21890972378416268,-0.17644570281513208,0.32359914064587686,0.3159692196984499,1.3345058150852003,0.3417419788014032,0.1702582733336655,-0.28009391914458837,0.1392267458234458,0.27065621429592057,-0.4090115585542211,-0.14360804935807736,-0.14352588315559844
107.0,11.693687915802002,-0.12736824044352502,0.42888812613819327,1.0427374713783555,-0.025196562247749372,-0.009629613083527513,-1.6237330895525826,-0.648215391562694,-0.02132565545199091,0.18018811717035071,0.9988676745123919,-0.4261050639091606,0.1496681028811385,-0.07716062393723865,0.20373862376702026,0.039024122268194086,0.959042852643611,-0.38724652394383846,-0.0902289281550482,-0.1343625623183077,-0.17699290603943058,0.00014658400640832066,0.11614060540269128,-0.21971134870494238,-0.17622227816174477,0.3257666323515418,0.31653634193889446,1.3344415176353426,0.34262537343534183,0.17850620410417173,-0.28246000749713296,0.13986532461872653,0.27238073836151605,-0.4071061535773767,-0.1421981502342072,-0.1383307268629921
108.0,11.822433948516846,-0.1260162731591692,0.4218400005134647,1.0437997607668,-0.026312546099224066,-0.01096102150664926,-1.6278327074600105,-0.6388644470762497,-0.023684228208593436,0.1817862388371291,0.9990635367846512,-0.42960417349663543,0.1483900221224019,-0.07144943841724659,0.19880733656505448,0.04253825261003228,0.9622296900720002,-0.37764322080619606,-0.0905045131211678,-0.13454160771904694,-0.18342975274288065,-0.0019643060257333385,0.1201640619055202,-0.22231732333177917,-0.1774547600662339,0.3272797480729614,0.3174779694887041,1.3298632257835297,0.34496688011059445,0.19633201366610292,-0.28740371672032894,0.14022419921788237,0.2733491336595843,-0.4047222774436331,-0.14632999697189875,-0.13374051531004816
109.0,11.894666194915771,-0.1252486741134802,0.41794393466677704,1.0443053047535218,-0.02698097564008379,-0.01120824982643424,-1.630134001737301,-0.6336759858718103,-0.024507142897535292,0.1823525013004412,0.9991883553485,-0.43088113513500087,0.14759610795810185,-0.0697032137787034,0.1958472603170877,0.043275313394793624,0.966864649495555,-0.37137985138116736,-0.09074566863590683,-0.13505881481430648,-0.18764188441994747,-0.00235998244365005,0.11664851616818023,-0.2211285675412083,-0.17769802101135768,0.3285719646748444,0.3177219808576211,1.3310001741882558,0.34396350443846546,0.20558002210697382,-0.2881552351071224,0.1404619055792908,0.27515060424190674,-0.40452875358055573,-0.14603808872826274,-0.13377483201419502
110.0,11.95231294631958,-0.12437921288625425,0.41358721730959647,1.044773174589512,-0.027873739387518005,-0.011496980316415455,-1.6321873496726491,-0.6279902175198793,-0.024363034345342316,0.18465291490645408,0.9996757412036621,-0.4313207994487378,0.14714108057980044,-0.06764936944093493,0.19216916515770613,0.04325415307871554,0.9720616043006233,-0.36449448506574933,-0.0908682984379385,-0.13619397588429782,-0.1920875653380927,-0.0028649701040223147,0.11193014702920176,-0.21983971956232612,-0.17795799815743793,0.3299064236502427,0.3184558642536856,1.3327980776470194,0.3434492989154867,0.21512911416494881,-0.2886558155297081,0.1405670320407069,0.27767875350156057,-0.405354135708685,-0.1444262596974658,-0.13529457886997898
111.0,12.013661861419678,-0.1234619234035799,0.40873477806411573,1.0452035199085095,-0.02894442555980723,-0.012189155845167776,-1.6341610428167581,-0.6218261532397937,-0.024367922687212672,0.1877519708804963,1.0007209967194353,-0.4322071173771107,0.14678982393541093,-0.06557347103562347,0.1873697330844477,0.04241313601534845,0.9781831562317356,-0.35621038248988723,-0.09102125767142866,-0.1380122946447734,-0.1980961352677219,-0.0035340732978946417,0.1054878444216723,-0.21969087676162163,-0.1776098698087421,0.33193672239098676,0.3192143342913823,1.333746286760554,0.3437908131964102,0.2238082748052945,-0.2903320971907214,0.14029239128957183,0.2811553865162437,-0.40621505297437926,-0.14228158045196018,-0.13600809518455456
112.0,12.152778625488281,-0.12188169329482182,0.4002756040139229,1.0459079053466032,-0.03152860225649366,-0.01380989853892612,-1.6372859541202742,-0.6101003567748007,-0.026063965878401735,0.19214319502322028,1.0020875540342449,-0.43623256064249205,0.14648888542964306,-0.06083700986545183,0.17865390334829193,0.04073961654663859,0.987831050000028,-0.34108366712419413,-0.0907172678546973,-0.14051653384768098,-0.20936546677478116,-0.0045529293595446,0.09523948756311389,-0.21975391147713746,-0.1769188224824138,0.3361055492658497,0.32054760266211135,1.3327057012436871,0.34506055799666346,0.2371482892761938,-0.29498526603083947,0.1415528544110391,0.287869959463359,-0.40624353287582904,-0.13731330950528386,-0.13067787325186603
113.0,12.202864170074463,-0.12111985794722956,0.39670757607856716,1.0462208721004649,-0.03293623406324958,-0.014359969221120102,-1.6382897034839168,-0.6046036891001354,-0.028225207776966632,0.19239405620231742,1.0018198920989883,-0.4383813965319491,0.14626754818405657,-0.059143165002805004,0.17507300621462946,0.0399026091522407,0.9922431120209432,-0.3334775638132761,-0.09013963773968871,-0.1417452066135919,-0.2133651596620108,-0.003977238875758139,0.09231005327725622,-0.218705097260032,-0.1771851109678979,0.33699924218750066,0.321494298587483,1.332460542771626,0.34538529221849334,0.24441117523133293,-0.29718938902127234,0.14376317955252477,0.29030443624507024,-0.40613542067912534,-0.13434378350366502,-0.1256735030739432
114.0,12.317134618759155,-0.11952982171630572,0.39011764110764546,1.0470339281191992,-0.035422704590350663,-0.0156330058345268,-1.6401978707224045,-0.5940067475298874,-0.034240920937493396,0.19149394012806017,0.999908473043161,-0.44199069628121024,0.14586517934488283,-0.05763304855379024,0.16796914190521373,0.03878031961814003,1.0009931218379573,-0.31833272970885323,-0.08852541161643515,-0.14414337147118592,-0.21987829942684356,-0.0010434199788266292,0.09243316686628661,-0.21874189559159818,-0.17859796986745385,0.3362304740791024,0.32395424118492244,1.3333328693588538,0.34742542310160063,0.26328111864499304,-0.30346750227455094,0.14836348228343413,0.2920149512365255,-0.40702376696931375,-0.12909844766732334,-0.11582986054149104
115.0,12.37373161315918,-0.11865328185052562,0.3863937874664359,1.0475973563768806,-0.03667354231497054,-0.016367106312658114,-1.6413783716733619,-0.5881579198540153,-0.03741629346848156,0.19125234389646123,0.9992867073148768,-0.44416968751772135,0.14576306341103643,-0.0572223416351407,0.16390677212388155,0.03810503537651103,1.0063505874090983,-0.3100401088248388,-0.08773410295390036,-0.14533484611311315,-0.2235512045828546,0.00010250796894727371,0.09079896924254643,-0.22041426793463859,-0.17846756785124585,0.33643724574233425,0.3247037338319341,1.334550067945012,0.34861170884535564,0.27215545878142683,-0.3083948122377015,0.15009373099663134,0.29290715267294637,-0.4074264362795079,-0.12647427041790588,-0.10975367790017768
116.0,12.445329666137695,-0.11768171815768534,0.38203249988957155,1.0481792329978519,-0.038170520480066195,-0.016925122204434845,-1.6425412783755093,-0.5814753235605743,-0.04060099421159355,0.1910110070028867,0.9991985783617153,-0.44693396251056505,0.1457807461040833,-0.05668928832990705,0.15947670308612372,0.03685457104336321,1.0132380250053612,-0.3004003565235803,-0.08690436260540799,-0.14676552285802894,-0.22682288466699096,0.00029667825243321,0.08494073393567542,-0.22176818300863155,-0.177021040495293,0.33791167508648556,0.3249226164857685,1.3370419366517976,0.3490333714209307,0.2790600464230917,-0.3138692474679856,0.15175068956614088,0.29483790739972676,-0.4077673239144639,-0.12326277053201828,-0.10277112801339987
117.0,12.560261011123657,-0.11593393982641478,0.3740463054766052,1.0489043109339087,-0.040989900080597275,-0.016879957168254578,-1.6441228842925892,-0.5696810266630968,-0.04638495192818304,0.18878802959653523,0.9996385809379605,-0.4526431790758341,0.14627178067871383,-0.056461806533744434,0.15215975410875188,0.033452866645591106,1.0273890500599736,-0.2809233634333121,-0.08520819036634772,-0.14964419017775424,-0.23038594883489721,-0.0008477064689871908,0.0718211611333604,-0.22102347669914446,-0.17358912135609933,0.339850732296786,0.32502174058833,1.3379668117605643,0.3485675263498886,0.2886797490113915,-0.3215831618187349,0.15587464862112796,0.2996642146623982,-0.4079958164767249,-0.11442231190255113,-0.08935120573277264
118.0,12.636402606964111,-0.1150913429455911,0.3704943878686521,1.0491382007257617,-0.04192448756782771,-0.016672710125745407,-1.6447268018563799,-0.5649774522611359,-0.04936683806549652,0.1870990677312032,1.000083882704266,-0.45577706082942127,0.1467260437449425,-0.05763908599462428,0.1489678544602278,0.03183216838648813,1.0346812170157769,-0.2705922086918335,-0.0841738514284712,-0.15057467047827594,-0.2317762550948446,-0.001892115304742457,0.06669413826442429,-0.2198923161528212,-0.17298693795150716,0.33968841009404654,0.32534425585342475,1.334131186847298,0.3486221509549389,0.2927815132602776,-0.32400194624473383,0.15760061220344146,0.3021125791643797,-0.4069686665487757,-0.10949191259430258,-0.08294187383991761
119.0,12.694785833358765,-0.11408020836511665,0.36655657238271355,1.0494026405305037,-0.04253388659385274,-0.016638543222587458,-1.6457423017842605,-0.5602716791506712,-0.05277852519461787,0.1854808932780117,1.0007833624073708,-0.4598722407438426,0.14732843529779996,-0.060071710890906,0.1458657464418922,0.031096756079357177,1.0436675491362373,-0.25774471572120317,-0.08238931739307681,-0.15101361422289244,-0.23382452807807813,-0.0031291442459656722,0.06168808575786906,-0.21898593611652278,-0.17287774705546907,0.3391599354675151,0.32615309111075613,1.328315591667856,0.3495461102111347,0.2979829593875766,-0.3262308801858843,0.15853946178353712,0.3043414883335134,-0.4051941401312206,-0.10495407310675559,-0.0772398379499542
120.0,12.7940673828125,-0.11212542035786871,0.35944987013116625,1.0496996211539948,-0.04353465108102508,-0.01682548879104652,-1.6478450068928838,-0.5519740487778944,-0.058994260502715334,0.18315941560378662,1.0022383652995828,-0.4674773419276228,0.14859698744067165,-0.06540950981422114,0.14098200082777956,0.031303958597239036,1.0619573426506381,-0.23241483733364882,-0.07786913708340856,-0.15220653225677494,-0.2367776344064328,-0.004469958787818068,0.053254706642232266,-0.2178201855452495,-0.17176658160652084,0.3382775384556143,0.32700326426673193,1.3190496897717832,0.3506161257540088,0.3096719253262584,-0.33043861030372723,0.15935303009003637,0.30654644377409745,-0.40370042980623755,-0.09844183418715446,-0.07178350998260659
121.0,12.89577865600586,-0.110689567788885,0.3544934952222112,1.049619132557034,-0.04422442071236486,-0.01713719027637483,-1.6488329762375882,-0.5463795233138026,-0.06361445800079427,0.18179007531049785,1.0032929419242305,-0.47211418357907997,0.1495087379862553,-0.07015833076513212,0.1374048106119603,0.03132573982417729,1.0767142899913764,-0.2115907129271516,-0.07403776192398646,-0.1538639698271947,-0.23671662103041882,-0.004411891466134988,0.04613799078551509,-0.21574248659246043,-0.17098834824939807,0.3379541682598378,0.3267681006345171,1.3152701885572835,0.3487902574341524,0.31866166322511713,-0.3333882848039505,0.1601507565247416,0.30628027280940306,-0.4045508591560405,-0.0923067983274832,-0.07047895433599084
122.0,12.959168195724487,-0.11001334741204391,0.3517841019451645,1.0495043325313247,-0.044630723670441755,-0.01705526291851763,-1.6494479088682492,-0.5434103637573979,-0.06573053916983329,0.18083268554627013,1.00422795180737,-0.4748052650202083,0.14986128753560743,-0.07302821541649686,0.13656612620356862,0.03155661181762994,1.085226263755871,-0.20026327847085462,-0.07173380037297546,-0.15450359307392653,-0.23596816756409633,-0.004619032363097261,0.04080918760759461,-0.2140101115623988,-0.17082939751257664,0.337880327060066,0.32682786269662334,1.3138491568161144,0.34754080820707023,0.3219816623293615,-0.3346909860356216,0.16021913558576623,0.3060672629060681,-0.4045614627684537,-0.08948757775748194,-0.06974400199381249
123.0,13.015824317932129,-0.10920456863982313,0.34813669635347844,1.0494199477634676,-0.045303237907637114,-0.01668558628582674,-1.650865449148513,-0.5392387178071556,-0.06798215983674825,0.17952340096435732,1.005884990489169,-0.47932823524875356,0.15028118380073047,-0.07713953296789716,0.13697408236503847,0.032723832213795066,1.097165132814072,-0.18778685913401433,-0.06827386343254954,-0.1549019895658497,-0.23547308180536747,-0.005846890879513476,0.03277924477143661,-0.2124244559390781,-0.16970669703230776,0.338554516091916,0.326439621997606,1.311679457969801,0.34613283227670644,0.32496900013172836,-0.33616277093366675,0.15915999553021742,0.3068413913713215,-0.40367409883926064,-0.08712422193286523,-0.06938521705475809
124.0,13.099003314971924,-0.10832527211081468,0.3440994615326356,1.0494690011041514,-0.0458063080252626,-0.016156515834098578,-1.6529470972273295,-0.5346431913611367,-0.0702560917380747,0.1780068598577796,1.0074607272614697,-0.48476175663520127,0.15068405474688795,-0.0830618564763694,0.138351198367918,0.034808110869359005,1.1112462795950764,-0.1755622499214226,-0.06414470718743437,-0.15467307818196926,-0.2352179961838669,-0.007295339963362476,0.02267405756145137,-0.21088957451538476,-0.1676624501901129,0.3398734257830306,0.32569776261805206,1.3097115032640447,0.34455557814733945,0.3272003457090289,-0.3373974570690903,0.1579446502741313,0.3086770637030238,-0.4016632072654018,-0.08222792686139184,-0.06673922128995234
125.0,13.225117444992065,-0.10665662678439705,0.33729169915108037,1.049650020505294,-0.04656541629592249,-0.015197249952518116,-1.6572068478633977,-0.5266897958518482,-0.07412876853830676,0.175536837841149,1.0094511431269617,-0.493936499358143,0.15114164140506947,-0.09623675253905747,0.14147840661885247,0.03954839545331086,1.1385025901058161,-0.1549577258582691,-0.05640885161651782,-0.15307442663076318,-0.2334927072888223,-0.007954172864988035,0.0022346237814793836,-0.2066774644750428,-0.16264645461200467,0.34228121974971426,0.3245469061312049,1.3079143132346536,0.3415610268298894,0.329887414604141,-0.33845838864236893,0.15737857212303702,0.31065958127778304,-0.3987511067631895,-0.07024945020057133,-0.060487763933715744
126.0,13.27467155456543,-0.10591115565744738,0.3344768081760086,1.0496933773804744,-0.04710955496796146,-0.015014345467867196,-1.6592251172908472,-0.5231143662318536,-0.07551517368451018,0.17527677062168762,1.0101461757301213,-0.49751814749100187,0.15109691256904922,-0.10293274672523525,0.14283509046930618,0.04190853263017641,1.1518213484436708,-0.1469124075796629,-0.05294433701999984,-0.15249535780184187,-0.23225160997487704,-0.007824794876548727,-0.007334102789790445,-0.20432287293096768,-0.15975103381528338,0.34336303495473197,0.32412896725110496,1.307107870638645,0.3404684114522796,0.33069698973875367,-0.3385773870684182,0.15682033724533329,0.31004337497955187,-0.39867533055397164,-0.06678366215029617,-0.061070808254390714
127.0,13.404509782791138,-0.10467089820034164,0.32931751294974676,1.0496786238993312,-0.04822096372027946,-0.01536705381349148,-1.6633533642338532,-0.516398618762275,-0.07704556310296766,0.1771143761051271,1.011491262548894,-0.5027329807845597,0.15068108347160214,-0.11642277065016221,0.1456136815237838,0.04685427330345921,1.1782335360114684,-0.1341232771689242,-0.04618059140254345,-0.15152625130531877,-0.23061270180498256,-0.009218436345523629,-0.026443050711597096,-0.20088934130996872,-0.15430473271323117,0.3481342374268367,0.32294153130940273,1.304705674642625,0.33876555267185415,0.33136962967114625,-0.33920261147784403,0.15288548403029445,0.30850978971900983,-0.3976471097388029,-0.06358962125382121,-0.06581926158968264
128.0,13.445010662078857,-0.10400223621536084,0.3265372298709277,1.0496838890548235,-0.04893045753426112,-0.015647285975076093,-1.6655237084111636,-0.5126547050356649,-0.07749152553446019,0.17886392488704775,1.012233913615026,-0.5042586324960747,0.1505182620967851,-0.12379194928786524,0.14700680164094426,0.049168108439889925,1.192508830962453,-0.12845159000982403,-0.042652877220987054,-0.1503968903390304,-0.2292689943679394,-0.010555671276625683,-0.037333397917774375,-0.19757863070952314,-0.15222624381515584,0.35158015076614346,0.3218769671886744,1.3041951966904297,0.33615757428897886,0.33141068164080345,-0.3368630910788215,0.14922748367033783,0.30770210123032593,-0.39704069606138576,-0.06267654491523217,-0.07346616170398959
129.0,13.516748428344727,-0.1032024940428953,0.32337219155775937,1.049700334734641,-0.04980607285368009,-0.015745430969645206,-1.6681264184262945,-0.5082930977219984,-0.07788720079437514,0.18076369804923792,1.0131767256789643,-0.506355368294018,0.15048574447546084,-0.1326783066806682,0.14678236041390952,0.04981277354484302,1.2088653674965428,-0.1237656155917587,-0.03974615542538704,-0.14817064339402172,-0.2264742191704969,-0.012246238681164541,-0.04964313042494363,-0.19161303634433485,-0.15070458360590688,0.3548348124211578,0.32021616456620305,1.303208072969789,0.3311802114166173,0.33108045415204423,-0.3309203055933196,0.14409034021349523,0.3063152145396486,-0.39766337512785066,-0.06354553424500937,-0.0894814706939942
130.0,13.639411687850952,-0.10175555375427442,0.31764955123330385,1.049739534750723,-0.0508987009524873,-0.015830837176894895,-1.674029660565854,-0.5004031827645964,-0.0788055484249634,0.18366938847021752,1.014322002919443,-0.5134661962349529,0.1503985108611451,-0.15137659681421473,0.13958648253135436,0.04492922802786499,1.239654854801894,-0.11926149657061742,-0.03797613456553221,-0.14180946989883503,-0.2201311842465622,-0.01455910816031715,-0.07246531605535003,-0.17891608824896438,-0.14851875210635845,0.359046298844371,0.3167713916849375,1.2970956548378514,0.3209809459649441,0.3290035563885165,-0.31969401067881886,0.13629847487010077,0.30443083768560225,-0.3999024061233677,-0.06572066756757908,-0.11804569610947345
131.0,13.713277578353882,-0.10079370357156092,0.3137626861117536,1.0497866219664689,-0.051388783435703245,-0.016452918510071097,-1.679435249650421,-0.4947630996893534,-0.07938059189511024,0.18661671820342912,1.0141382536314123,-0.519709244001374,0.15016955893944892,-0.1669204087785528,0.12659246480419695,0.03509777381249084,1.2619598558158969,-0.1193301732793019,-0.04095820631381432,-0.13580375010316742,-0.2157685606541517,-0.014779357512609587,-0.0894499082394958,-0.16925935051796137,-0.1466553668175138,0.36254182370333765,0.3148750669938457,1.292608194178627,0.3146619661568967,0.3265507849465645,-0.3143925847029552,0.1341144878028172,0.3036518844749967,-0.40134509342579794,-0.06532841423776081,-0.12909206990263114
132.0,13.82277226448059,-0.09994179536454902,0.31018896206352464,1.0497367494863816,-0.052393248910813345,-0.01675062602339704,-1.6840746551101318,-0.48916558983526237,-0.07962329278894109,0.18933409723993144,1.0142107101619753,-0.5243734891811263,0.15021889081133827,-0.18063569274646274,0.11129028590713827,0.022747406491068718,1.2810637102869484,-0.12048566109444173,-0.046579360133033106,-0.13138052164364283,-0.21182520893559553,-0.014725521689024402,-0.10498085948131217,-0.161281854974495,-0.14483201597191764,0.3672898348865253,0.3137253912912342,1.2907284068405347,0.3101568980939122,0.32330031061968245,-0.3114820412970327,0.13297915623657763,0.30319616399396476,-0.40215694326266305,-0.06432149955767319,-0.13454846662357764
133.0,13.875117778778076,-0.09936300807709286,0.3079716785634401,1.0497169960775543,-0.05292004701622232,-0.01653518543305638,-1.686443559696041,-0.48582599025987405,-0.0805397065277395,0.18949468313083023,1.0143014947714368,-0.5278495378193906,0.15040602765245945,-0.1885924864080032,0.10129584811547969,0.014637384213546616,1.2915720744340786,-0.12146734805957428,-0.050968524005344934,-0.12880710497947864,-0.20907407355525287,-0.01476064138085417,-0.11336069394046919,-0.1567729774357456,-0.14471755754423932,0.36929768268572616,0.3127674212549497,1.2880881773239736,0.30685080649962404,0.3208662119864415,-0.30936079324901905,0.13185505301366887,0.3033695665078033,-0.40208077597826186,-0.06274559482832583,-0.13758687785620105
134.0,13.936593055725098,-0.09854503656571587,0.3049837864911461,1.049867762983009,-0.0533539974270411,-0.015995535372270924,-1.6890756795048487,-0.48141937077926755,-0.08233590432237076,0.18867973552791617,1.013934858955519,-0.5328146993138013,0.15067451662445117,-0.1993261457274256,0.08757457754359417,0.003228056921508426,1.304308262626364,-0.1228827074534486,-0.05733317080496578,-0.1253370069001277,-0.20473811350778448,-0.01445347687044474,-0.1240608483662397,-0.1507710416689237,-0.14455821060336213,0.3711972354859695,0.3115589947297235,1.2855687100570525,0.3022799024021874,0.3173685886087394,-0.30597187860347497,0.13065370279523308,0.3035892278636113,-0.4019896219946424,-0.058396069104500306,-0.140810514039801
135.0,14.069182395935059,-0.09687329106149176,0.29844160227430283,1.0504443116461046,-0.05415790732084194,-0.01430187108059578,-1.6931443109089512,-0.4717201333209994,-0.08619345781854282,0.18601815176713538,1.0123677145441656,-0.5436349541196572,0.1514138817643697,-0.225081526951729,0.05386156890062137,-0.026591415100185596,1.3326095174180805,-0.12757982434911394,-0.07473287731761417,-0.11910989318727125,-0.19575195833553966,-0.013306157936551459,-0.1518534231480354,-0.1390564441592254,-0.14285415663024403,0.3804973361569891,0.3088087455553229,1.28336426127274,0.29359351147841695,0.3085453027856046,-0.2999415925613995,0.12868093690532145,0.3029925080820701,-0.4008927982664303,-0.040647180377202594,-0.14094340552948487
