ccrpRepo/mocap_retarget/src/mocap/src/data/output.csv
frame,timestamp,posX,posY,posZ,roll,pitch,yaw,left_hip_pitch_joint,left_hip_roll_joint,left_hip_yaw_joint,left_knee_joint,left_ankle_pitch_joint,left_ankle_roll_joint,right_hip_pitch_joint,right_hip_roll_joint,right_hip_yaw_joint,right_knee_joint,right_ankle_pitch_joint,right_ankle_roll_joint,waist_yaw_joint,waist_roll_joint,waist_pitch_joint,left_shoulder_pitch_joint,left_shoulder_roll_joint,left_shoulder_yaw_joint,left_elbow_joint,left_wrist_roll_joint,left_wrist_pitch_joint,left_wrist_yaw_joint,right_shoulder_pitch_joint,right_shoulder_roll_joint,right_shoulder_yaw_joint,right_elbow_joint,right_wrist_roll_joint,right_wrist_pitch_joint,right_wrist_yaw_joint
2.0,2.4452004432678223,0.056468433151116486,-0.6129158263302716,1.0287634169999422,0.01838487592374382,-0.01347237692029603,1.3075269929351014,-0.16089209122367534,-0.11467706528251165,0.060321508378636625,0.794603008650634,-0.6550474592892721,0.1315856111825126,-0.3675923590744743,0.24677985098188449,0.08255236966242702,0.8192612226182077,-0.10000507062662702,-0.07414056994129727,-0.027028249596650303,0.0042681429594683355,-0.0017517008878888737,-0.18929853705555097,-0.02808659977955364,-0.0395246936726757,0.9206635363914739,0.17682479832214698,0.7518336690914291,0.3178515965276503,0.011492187922401555,-0.11234706458115852,0.07792510957916025,0.8791543435347973,-0.35254916707250605,-0.3421662499672339,-0.6456403746675259
3.0,2.512845516204834,0.057398209777053115,-0.6119777405767817,1.0287173486793517,0.018808541145823976,-0.012415560296409025,1.3084860201769009,-0.16119889103817445,-0.11310841232445948,0.06372190009926668,0.7967867022920507,-0.6508924454257305,0.13094933912845458,-0.3663795736943771,0.24722864977889308,0.08400677253176952,0.8202276171502552,-0.10060200763658361,-0.07352023912246505,-0.027547878484972213,0.005802343222995559,-0.002063636594415757,-0.1875644349726151,-0.02961068800050276,-0.03945464132025246,0.9213979559257974,0.17561269939780982,0.7522695702904554,0.31743383515600865,0.013367184794269259,-0.1088982350548363,0.07623335091366745,0.8815669978523729,-0.34898601480742664,-0.3416627000520017,-0.6478957755127788
5.0,2.5605556964874268,0.05904808261124776,-0.610405431798801,1.0287053263335526,0.01936199737118658,-0.010649759377611437,1.310414493884815,-0.16237907369414778,-0.1098404240816695,0.06992862560084526,0.801403412021934,-0.6431962202938745,0.12976014600875474,-0.3643040646531336,0.24766376193245637,0.08578983860051498,0.8214616269579469,-0.1015480592017153,-0.0726640707356753,-0.028350497382546656,0.008182890439550181,-0.0024881832652220814,-0.18439314314737854,-0.03261573333812379,-0.03945714291584443,0.9219181529840271,0.1740512522619269,0.7528564648278107,0.3170615203203667,0.016531855732490663,-0.10342079257549903,0.07314751021266519,0.8855413112297499,-0.3434358097664302,-0.3401428338401073,-0.6505105018221258
7.0,2.627331018447876,0.06206148938921082,-0.6075786077583828,1.0287238732400432,0.020492558089784417,-0.007597618224156079,1.3145561637668703,-0.16542656636871517,-0.10304454492216512,0.08180488052591182,0.8115440466254018,-0.6286099930916279,0.127516647553702,-0.3604703491260909,0.24781479988858388,0.08764781877277614,0.8236833582699673,-0.1024823158468412,-0.0714194909898206,-0.029736956981569453,0.012267005046277996,-0.0026460387124428355,-0.17907624604110323,-0.03831585876200587,-0.04024740970801971,0.9219359025013512,0.17260271214975764,0.7525676887433684,0.31767139868427363,0.02241911567010614,-0.0952690087690615,0.06910223851140396,0.8920510258393692,-0.3367629048425007,-0.33746346658977455,-0.6555195564388294
10.0,2.6953952312469482,0.06587597821138233,-0.6039350657599922,1.0285782288792662,0.02202372026145028,-0.0040485419547695795,1.3202562223747143,-0.17044579016254408,-0.09558580045211097,0.09428064932269638,0.8273850596029153,-0.6097882716959617,0.12394287246360942,-0.35549290383503707,0.24860504332811567,0.09005174875706462,0.8266624994835532,-0.10353232913359431,-0.06970431305897451,-0.03080684843392481,0.017984277034583142,-0.002417254376689646,-0.1739125578192809,-0.044354551214051685,-0.042922085249807604,0.9220225464701117,0.17261882954815463,0.7521508243484805,0.31850688179987074,0.028954275907018302,-0.08575476034770432,0.06610653136849026,0.8999819428623613,-0.3309891598558783,-0.33437173994622027,-0.6613130170999503
11.0,2.772193193435669,0.07084657263191964,-0.5992688477236249,1.028275198594558,0.024312936711382696,-0.00010009283479027334,1.3276049904053038,-0.17600619660602546,-0.0887637614403636,0.10436865459157402,0.8476037626063992,-0.5882071688620467,0.1187858318097118,-0.3483683977078249,0.25017264632106756,0.09268807016098397,0.8293781405339196,-0.10568590369507816,-0.06818475566445237,-0.03218874754143743,0.023945979821843155,-0.0029617679749886832,-0.16756731586638074,-0.0485858542766432,-0.048393783342491906,0.9218258515697357,0.17463805767914203,0.7517730459807852,0.31726802818310096,0.03645148134834744,-0.07629624364996909,0.06613250761126879,0.9074924677217768,-0.3282297789292143,-0.3318492553615535,-0.6668476982961631
13.0,2.8246028423309326,0.07507828257538121,-0.5952332882566236,1.0278533783027939,0.025951361186644994,0.004144885348789746,1.3340624742626344,-0.18584114795671908,-0.08017470069652678,0.11771052457209186,0.8734515666876055,-0.5649255935133032,0.11490662064508891,-0.34299893573472356,0.2522536722820536,0.09684843555111802,0.8329395990117763,-0.10796800206602412,-0.06577004682330244,-0.032531599682494874,0.03008261510767931,-0.0028675336867053642,-0.16591162272612286,-0.054499564702039725,-0.05450972032371347,0.9230448969860381,0.17686654866260076,0.7523579269304156,0.3159695689471081,0.03908809235671878,-0.07236595645966204,0.06742944612959344,0.913944645027595,-0.3275937573715775,-0.33042045878895143,-0.6685513071876408
16.0,2.894646644592285,0.07926271736640102,-0.5912509524003677,1.0275049312271631,0.027522310173904333,0.008565418813360497,1.339773742395419,-0.19803318554508337,-0.06875560930465688,0.1343937700072136,0.9031520134246975,-0.5427456869946911,0.11317923039803965,-0.33772620543298215,0.2541212361351499,0.10105724226549816,0.8359602334723404,-0.1106826183396515,-0.06340550602789877,-0.03163647916795934,0.035309306773491436,-0.0032432192185350636,-0.16486350876272687,-0.0601216841887905,-0.061319382125795116,0.9245642188504852,0.17915548611224014,0.7520219102508494,0.31284579869611984,0.04075655810599358,-0.07284519904879902,0.07125309376071488,0.9183257177343762,-0.33023949602801717,-0.3318919935085972,-0.6680877804595128
17.0,2.970269203186035,0.08396740056502797,-0.5866077517796393,1.0274166296115501,0.029249092584238592,0.012712252775898087,1.3454450451994808,-0.21124821314480835,-0.054507729238519556,0.15270381072695333,0.935100284917713,-0.5238044287871686,0.11355524706373468,-0.330787033576158,0.2558269498652279,0.10435953447760242,0.8370859977030152,-0.11431095812461524,-0.06175116445139599,-0.02962796144686236,0.04026470365528344,-0.005052246881409471,-0.16126396569368184,-0.06403591261547723,-0.06878950638256938,0.9250044545454275,0.1817937854510232,0.7490649363838433,0.30810916001814403,0.04386912571013671,-0.07552808766514382,0.07771074789530569,0.9203987388146424,-0.33620337787500776,-0.3373015334123847,-0.6681874769650454
19.0,3.02756929397583,0.08763218137522191,-0.5827695599816058,1.0274067093595733,0.030181966731807883,0.01639941803748047,1.3498859199754953,-0.22851508869724407,-0.03882103503969074,0.1723857005873735,0.9693044008796495,-0.509571035973526,0.11696273063906162,-0.32546032777891454,0.25733643839523285,0.10786357603570865,0.8381059535673652,-0.11804085317826195,-0.05973612347290415,-0.02572998767490594,0.0457958257073371,-0.005942339825460543,-0.1609773797635337,-0.06870284454718575,-0.0749769529342912,0.9255399740287625,0.184227003524287,0.7461323284890082,0.3059581351831012,0.04262719556367568,-0.08221036808485979,0.08430305127846127,0.920246738719444,-0.3433224795495069,-0.3452728429749605,-0.6670192577776397
21.0,3.101001262664795,0.09131730075032149,-0.578635815865586,1.027583434389102,0.030867057108834854,0.019554899776427888,1.353339323035275,-0.24710972841487766,-0.023117527883921428,0.1904080526663704,1.0025773273161238,-0.5003077192747121,0.12189945429310056,-0.3193624161519851,0.2588672792284069,0.1110441061618686,0.8375475769408496,-0.12190004826660328,-0.058283388631844096,-0.020899818585172734,0.05125139714795328,-0.006555891532260293,-0.15877199539564335,-0.07386787613602638,-0.08021320379478244,0.9255891600471109,0.1866549385048818,0.7428822936406971,0.3065785704240288,0.04146080601000311,-0.09201196305343853,0.09204781062718158,0.9179700734951928,-0.3526856261595882,-0.3548873181096288,-0.6657889332579434
22.0,3.160372018814087,0.09492593929785854,-0.5743662676582109,1.0278454183824095,0.0310019267725333,0.022558582308904077,1.3556641462195176,-0.2669201651983589,-0.007945077467138219,0.20697312484920227,1.033447843419007,-0.4952322147394118,0.12840861523988464,-0.31306830297948646,0.26084602859152656,0.11493531728737277,0.8358219025238698,-0.12563536610636508,-0.05722485752330517,-0.015806327619295103,0.05635495953425801,-0.007014192876155064,-0.15593268879818642,-0.07975766674307008,-0.08376020793808528,0.9257276880695853,0.18849582965424178,0.7407601507834926,0.30987795003200547,0.03904974912082594,-0.10407061627103795,0.09958698278026244,0.9145420511140798,-0.36268024045805086,-0.3625522512114555,-0.663722910311686
24.0,3.199669122695923,0.09775333770185227,-0.5709472217793267,1.0280229376199619,0.030551671111213402,0.024608436683911147,1.3567037188414144,-0.2839278222947024,0.004795381163935167,0.2200215962700428,1.057496250153318,-0.4935547682925082,0.13464481062088207,-0.30824221802531937,0.2634597180977272,0.11894954019482773,0.8339267561720198,-0.12844929366390484,-0.056416096615735545,-0.011331983818948052,0.06078410272768779,-0.007534512371852497,-0.15378412211145542,-0.0847160582108973,-0.08540919084429813,0.9259309694252689,0.1895679012586721,0.7400747370227319,0.31419912926249305,0.03602138428348692,-0.11448124134671481,0.10526104305991954,0.9112166382189324,-0.3703171919008179,-0.36755319921864793,-0.6613889309127201
25.0,3.2557120323181152,0.100943073876959,-0.5670531186580232,1.0281656033231799,0.030540130285384263,0.02699336095158912,1.3569288000511301,-0.3012347429819957,0.017031883588887166,0.23261118426824196,1.0790864886091405,-0.4939315589521285,0.14189138580968158,-0.3023373964567827,0.2673598727730459,0.12507713369740364,0.8321883322720616,-0.13160922648284923,-0.05557154387998846,-0.005865149892081154,0.06498137563503907,-0.008089447666333936,-0.15085190928954817,-0.0886585768492226,-0.08463132510650312,0.9256432431777564,0.18997092263098753,0.7387737848852606,0.32143734164594884,0.03133112110446701,-0.12439318720742285,0.11094144964959832,0.9073657139720449,-0.377633769633928,-0.3721999866149681,-0.6581328381446948
26.0,3.2928202152252197,0.10352350117851547,-0.5638260118490424,1.0282165046779703,0.030633433004509547,0.028603381009758795,1.356109616075692,-0.315613375482535,0.026480923217822673,0.2419945518762689,1.095407596886738,-0.4954931177764507,0.1477905966439707,-0.2973206045813826,0.2715700747148452,0.13115921555502202,0.8309320248827158,-0.13383115172263604,-0.05476920672089143,-0.000603479768172249,0.06870765912071684,-0.008531387306186942,-0.14786799229990655,-0.09165537361902348,-0.08236534429272477,0.924708589948507,0.1897022352896085,0.7365078038113473,0.3293949440500401,0.02655301619843662,-0.13253414528086674,0.11579704110347809,0.9039426631550262,-0.3834454489048725,-0.37593629599050227,-0.6546038789320567
28.0,3.329245090484619,0.10566333098284886,-0.5610396284645928,1.0282308226049812,0.030962728028158172,0.029764324028328317,1.3545077832208232,-0.32773417513641684,0.03347381932945153,0.24893213211852228,1.1075769016383659,-0.497388029954025,0.15236742940895273,-0.2928528537074847,0.2753479455216732,0.1366024641471321,0.8300670357138027,-0.13487576635088414,-0.05412035648032047,0.004257735073702942,0.07187736696074604,-0.008691129390771088,-0.14430255701524786,-0.09437128307516135,-0.07920903776816592,0.9233206527263037,0.18888245887432936,0.7331188385405322,0.33768737015010664,0.02204536301004431,-0.13990980346537005,0.12026106105080496,0.9008713662661783,-0.3886202570623384,-0.3790876990267892,-0.6509953276805649
29.0,3.37556791305542,0.10828061664294443,-0.5574271432938879,1.0282857336799058,0.03191772672897246,0.03167353964565939,1.3520074224289562,-0.34159474483560315,0.039852678548515395,0.2565599844117446,1.1175971406925547,-0.49859606659578276,0.15749175952248262,-0.28702943912067924,0.27802357957364654,0.14167589484497417,0.8294183563241179,-0.1343644244397968,-0.05378041844504419,0.009374726498212325,0.0744754962137596,-0.00836965628653807,-0.13881847935702368,-0.0980306646737395,-0.07495102276499153,0.9219991196724855,0.18736790131639075,0.7288361067677666,0.34757211945492117,0.015825164770614186,-0.14975797911206631,0.12530550647304223,0.8972960887414965,-0.3955065107729788,-0.38116009411948176,-0.6469537167186772
30.0,3.4102280139923096,0.11055097643017223,-0.5542036577543331,1.0283009509822203,0.03250735406859945,0.03312668643396934,1.3492939672251831,-0.35352165873782554,0.045133171386977144,0.2629521183069987,1.1240341136389937,-0.49917506725194893,0.1618799440894776,-0.28206105812877197,0.28018569180807773,0.14559930390599646,0.828649545943848,-0.13314725017893614,-0.053531035114407474,0.013433877734601352,0.07661518796693947,-0.008157018916750004,-0.13391603609041025,-0.10136577089934774,-0.071225491674859,0.9212504985775427,0.18589206744102987,0.7258127582133747,0.3558251649432904,0.009771846515976857,-0.15873754180260813,0.12925678370482413,0.894093399172155,-0.4013226007700855,-0.38186119823218995,-0.643622663227704
32.0,3.4493343830108643,0.11270547617458973,-0.5511439045970257,1.0282457855896117,0.03272758285880638,0.03431010888470954,1.3464558362108088,-0.36459579931036057,0.04944430581950965,0.2682239198249451,1.1280142805911755,-0.49919326634334643,0.16565952905378173,-0.27762817884607593,0.2824047267249037,0.14914440036624968,0.827765197387086,-0.1319415743934687,-0.05317632553545054,0.01700152582625752,0.07854084902959185,-0.008225411980170332,-0.12979613995608613,-0.10410929341572409,-0.06810430860753809,0.9211280163012646,0.18463633573533256,0.7241485965777198,0.3625789390036712,0.0035275707105164636,-0.1669905595347423,0.13246183014085897,0.8910873296767838,-0.40622810846066637,-0.382009180253717,-0.6404718549152641
34.0,3.5273385047912598,0.11548808175973047,-0.5472053441355708,1.0280165285058387,0.0325130557874949,0.03556465825423082,1.342268840043087,-0.3789113119286325,0.05100647660509444,0.2710695171960975,1.1286270697738816,-0.4985404460373861,0.16817747143303757,-0.2725139797114828,0.2856395883255801,0.1536300717347577,0.8266098034986525,-0.13083545492188658,-0.052485123664439165,0.021837785553164495,0.08068876060079198,-0.009022075394114898,-0.12505785619444465,-0.10600628629335816,-0.06560910777558857,0.922135486759802,0.18379414855700776,0.7242449666031847,0.3682439039455168,-0.00471320904563133,-0.1767599469137473,0.13621013892318268,0.887684071665052,-0.4115308184141852,-0.3828373303000198,-0.6349268277156359
36.0,3.585667848587036,0.11855675867072643,-0.542603753774024,1.027766602901215,0.031888532397130444,0.03658952255347623,1.3368246963413755,-0.39551959311096396,0.04848784034164544,0.2704231567623989,1.1245685707147461,-0.49722791232132346,0.16854992575106081,-0.2669771111722099,0.2891739294599117,0.15829338184871555,0.8248496981914099,-0.12890225775798514,-0.051762732365265574,0.02772918789747004,0.08316481727338323,-0.010232375106497996,-0.1194169656348763,-0.10674638143080056,-0.06439347364293013,0.9241411474719612,0.18361136907381498,0.7265014038473441,0.3717327770398068,-0.014374990337940059,-0.18740813663809627,0.1402993054664591,0.8842961214882479,-0.41690361513940044,-0.38362571177331345,-0.6272402803234135
38.0,3.6657168865203857,0.12188139747551259,-0.5373031177612327,1.02752308372624,0.031141685532822747,0.037404069954575306,1.330336379516036,-0.41402411303845993,0.0421269105765338,0.2668553052532848,1.1155222363293813,-0.4951638787033166,0.16715400189006385,-0.2608277933411868,0.29224552633334355,0.1622593027475256,0.8225112593940089,-0.12505326995965863,-0.051098091966291226,0.03378870754132357,0.08621341543872472,-0.011257812441872492,-0.11313024335337452,-0.1066368230090447,-0.06408335943329954,0.9266184280148843,0.1836175436905269,0.7306616719286112,0.37277909325398667,-0.02611452731223277,-0.19923172491825045,0.14466422241206722,0.8808896237307504,-0.42307407087856974,-0.3832682409477135,-0.618771154794747
40.0,3.7205770015716553,0.12536482649210146,-0.5315580826545272,1.0272070671450222,0.029772272174256834,0.038056267684732054,1.3228154795935798,-0.4338294794614329,0.03206216375703721,0.2602996353330034,1.1015092269305835,-0.4933786287171325,0.16376001065466855,-0.25495789526177637,0.2947143399344742,0.16512244233351037,0.8199494632368558,-0.11905050287078325,-0.05055120324845883,0.03934766284816239,0.0893683885385814,-0.012656731391718749,-0.10746985368976747,-0.1058959668492141,-0.06430376867188375,0.9295120965709596,0.18335035402852207,0.7360149753601146,0.37102253721090295,-0.04008276645133772,-0.21216976592334888,0.1497146877677629,0.8774159445487255,-0.4302803356230718,-0.382310181583027,-0.6092411939756942
41.0,3.781409978866577,0.12886000931236755,-0.5256617089361785,1.0268587135165321,0.027599344202431954,0.03840902526241936,1.3147272936316372,-0.4535133925212578,0.02110194004675197,0.25346792512239485,1.082956951830308,-0.4922803886417687,0.15942924517521814,-0.2498378314346859,0.29655606640146637,0.16653773391865903,0.8172326258112154,-0.11142776506899428,-0.05025684161871591,0.04442297400450802,0.0919222950521858,-0.014303016528476462,-0.10319928848009363,-0.10445297183380081,-0.06552026890021351,0.9329049316042175,0.1834618635684957,0.7419085438386257,0.367308583910606,-0.05544837202132859,-0.22508297220043538,0.1546098270789127,0.873717919305202,-0.4373320074406487,-0.38140806524990306,-0.599466955366881
43.0,3.8279247283935547,0.13164952160404364,-0.5209147210939418,1.0265766745724492,0.025341029920377824,0.03857016055556649,1.3081185602897076,-0.46912151653614037,0.012715538691672497,0.24889038870171776,1.0654549591206703,-0.4914694014204346,0.1559819034488534,-0.24616762798629566,0.2975889435328486,0.1668010348620154,0.8146206233111297,-0.10419304160245257,-0.050113491947825065,0.04812836407651334,0.09369569018500934,-0.015687999960321237,-0.10015777605916956,-0.10299942915301405,-0.06726606509083306,0.9357995546102007,0.18397678165391373,0.746625100866867,0.3636267721761625,-0.06820069108316457,-0.2353140473501667,0.1583378779750252,0.8705811069757942,-0.4426154828850667,-0.3807785540714844,-0.5918584157338822
46.0,3.892056465148926,0.1346092907804017,-0.5158194599335111,1.0262760237719601,0.02307895254273929,0.0386258411112483,1.301377863180257,-0.484419181548714,0.005099740887966026,0.24654144321497679,1.0435430250580802,-0.4916448088274977,0.15288838201919092,-0.2421234552198745,0.29781513085448075,0.16577646545183744,0.8116339678421142,-0.0962094791651758,-0.050214277209081865,0.05121849187366523,0.09484887066606532,-0.01637932270320799,-0.0967411121629839,-0.10146031954675971,-0.07047366782236084,0.939250312622514,0.18521474988489234,0.7514678968445726,0.3586576299201795,-0.08082432482666138,-0.24573942767221857,0.16146289374859324,0.8670072859969871,-0.44751078076794315,-0.380872294727791,-0.5848421014803713
47.0,3.9759488105773926,0.13850484124523865,-0.5089337546314706,1.0259593622101542,0.020788427391005178,0.038163348628381624,1.2934263051125492,-0.5020176748007911,-0.004612701118292551,0.24463644422974212,1.0115859439517347,-0.4948736753581324,0.14882819462637564,-0.23533923670181892,0.2980327432906438,0.16402427783812312,0.8070441822380701,-0.08842765170323266,-0.05090316175639413,0.054629023726573515,0.09588228800844108,-0.016694598331232276,-0.09295803619337284,-0.0982017340881724,-0.07546409795609571,0.943984577639995,0.1872505305547411,0.757394104768034,0.3503299283692532,-0.09595143399713452,-0.25699518119911174,0.1641488080317141,0.8625632350522963,-0.4524814316450224,-0.38125662197023225,-0.5776351939438076
48.0,4.010632038116455,0.1417041565601589,-0.5032232170315991,1.0257993916510078,0.01880470297862121,0.037709761548392874,1.2873259127753087,-0.5156065588484461,-0.012397230685342552,0.24387232658702274,0.9832678117425033,-0.497624319259672,0.14560017776586703,-0.22930825831517038,0.2979488750285951,0.16231368343974584,0.802263827752586,-0.08246209283022887,-0.05168161857077104,0.057320460476694306,0.09682752006908865,-0.01698878206831008,-0.09019769949876683,-0.09465530999147981,-0.07973166359193798,0.9477434666149963,0.18912629576545917,0.7617207647734999,0.34308889676852494,-0.1080275832203918,-0.26512544695301377,0.16613538167256553,0.8589905931662966,-0.45636986773318516,-0.3815423611141331,-0.5734201653062985
50.0,4.054236173629761,0.14439221021140786,-0.49840464711665755,1.0257584720352677,0.016968686312199895,0.03726161267885813,1.2825644702265573,-0.5263003048396573,-0.0183828785986965,0.24428272983750288,0.9581519363472335,-0.49960443624633377,0.14299866206280396,-0.22397206289942273,0.29763924816033216,0.160549083699763,0.7974058548801772,-0.07782231486314675,-0.05253341482256348,0.05947609788353371,0.09779512725100932,-0.017323448885866014,-0.08854571952075235,-0.0910274426505643,-0.08307100113025516,0.950776601980899,0.19062726688716256,0.7650223359461081,0.33685336547071587,-0.11798457294756542,-0.2710483309453804,0.16775526154448073,0.8560278175561982,-0.4598386627221174,-0.38184260828075445,-0.5718523652958344
51.0,4.118305683135986,0.1473049815653899,-0.4931400001495967,1.0258186204979958,0.014763907288909289,0.036292759393861854,1.277722467626515,-0.5369182757588766,-0.022148827757272883,0.24813582170586396,0.9306108248719406,-0.5011136775179348,0.14049060640368483,-0.2179432985808382,0.2971091029140528,0.15769527466493852,0.7913981103714531,-0.07364857350192028,-0.0538222447800332,0.0614387758411234,0.09921512585143577,-0.01771687536545806,-0.0883632938181208,-0.0868783002748601,-0.08583558075882915,0.9540321829725091,0.191705535462994,0.76919635177349,0.3299950857780624,-0.12833965526477836,-0.2762858237918996,0.16900331559908155,0.8527012586705822,-0.4638081388668829,-0.38225773469852886,-0.5731198014698445
53.0,4.153435707092285,0.1497001746056695,-0.4888049319208079,1.025946892890923,0.012807814497268229,0.03549280610404281,1.2737436093872885,-0.5448783716938076,-0.024138669133731618,0.253120734669017,0.9071317294552763,-0.5017065322825386,0.13849971541795256,-0.21281173834418554,0.2962427903609684,0.15489952314949912,0.7857104513284927,-0.07010511942875557,-0.055096200012717825,0.0628391613727225,0.10016853981673689,-0.018032544149781136,-0.08893655039954512,-0.08360313387896626,-0.08787664042694399,0.9569281576737549,0.19233563593106984,0.7727481933642457,0.3242298578366391,-0.13664772216731,-0.280140101816891,0.1696784871979603,0.8501168758193893,-0.466710944198659,-0.38262918295206383,-0.5750205151498509
55.0,4.214262247085571,0.15272296434943997,-0.4833303329237636,1.026135991167778,0.010727020183985397,0.03431735918193745,1.268654996829899,-0.5541080322488536,-0.02630380692147924,0.25955576834816574,0.8793439396121239,-0.5034534553033156,0.1359377150806878,-0.20604141698364517,0.29501301840510513,0.15104067583434344,0.7789241855688667,-0.0658870364249669,-0.05681222036525169,0.06414176600154353,0.10037504998991068,-0.018224859608653922,-0.08965674707784518,-0.08106241227267377,-0.08999105412450006,0.9604152655908891,0.19288740577751637,0.7773532402234447,0.3185549765099948,-0.14574248852911592,-0.28489759899707306,0.16928966998079875,0.8468622686082283,-0.46835469495793436,-0.3835904000288089,-0.5753334349946588
56.0,4.2756195068359375,0.15621333937624232,-0.4769851595550878,1.0264530287899603,0.00867071796291876,0.03324365349492908,1.2627816371108822,-0.5638802650879754,-0.02907881804388114,0.26685864920366126,0.8490791844556846,-0.5054057028746294,0.13258858356207154,-0.1979270527609936,0.2930753697250807,0.14647659325002915,0.7714355581531198,-0.060679475277566786,-0.058831369577574684,0.0649803828156016,0.09952404250726887,-0.01830980408616096,-0.09085211609191013,-0.08002535680699416,-0.09133181013585552,0.9643024709090362,0.19312000938661084,0.7835375889765155,0.3148692387929351,-0.15470092925564183,-0.2900816419533482,0.16778250282483825,0.8428681014602348,-0.4685674727257523,-0.38573869563951924,-0.5745814764828969
58.0,4.321794033050537,0.15913793943384985,-0.47157663425306606,1.0267622224555186,0.0069939411779241425,0.032629533778564895,1.2579079877151138,-0.5714823144011651,-0.03168487530451965,0.2733689113025355,0.8235760809264165,-0.5059380013678975,0.12941326911637396,-0.19079274801263893,0.290865932074192,0.1424879348299019,0.7647404475109948,-0.05576079019649247,-0.06056018224323776,0.06566367440702438,0.09822808233309495,-0.018415499802998864,-0.09263698419012219,-0.07945034930782394,-0.09195504302143259,0.9676643850448259,0.19334271682562792,0.7890646227248714,0.3133560066962928,-0.16172745739202876,-0.2936686701215696,0.16586999134559943,0.8396048313261575,-0.4677964604679351,-0.38799229165493077,-0.5742090001413921
60.0,4.38096809387207,0.16242381867186012,-0.4652496731841862,1.0268735176820336,0.005132970425069937,0.03148127882075839,1.2525321301847598,-0.5804142203466367,-0.03411427601458969,0.2810121419571307,0.7973264838730332,-0.5052675041596684,0.1255093982503003,-0.18249829569152806,0.28809961644802984,0.13684504622431948,0.7573214830507856,-0.05028228841919791,-0.06243020605490722,0.06717241958081445,0.09704698631052291,-0.018747140267608382,-0.09585972186774536,-0.07770154805994464,-0.09205649326053789,0.9705046904585523,0.1940194470243234,0.7946544715931292,0.3134504451343139,-0.16925201511755483,-0.29563097229685437,0.163084508749417,0.8363118753880494,-0.4660100421204008,-0.38996555371479136,-0.5746898732853711
61.0,4.438174247741699,0.16587457550177187,-0.4584056976036308,1.0267796177413056,0.0034351887542140754,0.029603072604533036,1.2465857033433219,-0.589641270047541,-0.036153287761296754,0.28848400133109015,0.7722442569909179,-0.5038619984738306,0.12144500750782695,-0.17332175043640696,0.2846058373782857,0.1291298899155146,0.7492160595405665,-0.04445901039231191,-0.06446684845797095,0.0696317927716182,0.09659312134880782,-0.018814379992765445,-0.0988252916288185,-0.07518286657689564,-0.09172111232373761,0.972129601820676,0.1946821421188701,0.798597692932226,0.31413213199427453,-0.17567948425332114,-0.29648740608960344,0.16080130883307425,0.8334688940911985,-0.4644176030893187,-0.3918855981075602,-0.5752343226527133
63.0,4.487003564834595,0.16874021750518747,-0.4526308764981416,1.0267007909165298,0.0021473212668402836,0.027869933028436922,1.241426808190634,-0.5966494165014662,-0.037788004449266444,0.29417369149746453,0.7519214890584653,-0.5021661983276449,0.11817769902725181,-0.16530310230695971,0.28105548720857326,0.12170315619630759,0.7417617773571734,-0.039272893065874975,-0.06630222326488858,0.07209079761350784,0.09640831856129237,-0.01864275625856148,-0.10077102951240291,-0.07300580192104855,-0.09126418724891129,0.9729852096778113,0.1950739013407216,0.8007445561739076,0.31481311325368355,-0.1798814188746285,-0.29685020038269794,0.15940045460669328,0.8314950547917697,-0.4635933246452214,-0.39383931842979736,-0.5760162799241807
65.0,4.565709829330444,0.17203895970462788,-0.4458923337312213,1.0266173143503672,0.0007803598828524936,0.025717604869196865,1.2353807963043246,-0.6040070823079874,-0.03969074812346422,0.2984331820854159,0.7321191816729931,-0.5015930561966861,0.11522323228819481,-0.15601602506410103,0.2771350312976656,0.11309169589156486,0.7336657528156232,-0.03461238901406651,-0.06837004324994508,0.07503669335857313,0.09614317854851837,-0.018523443006741986,-0.10215320042645606,-0.07068166059638863,-0.09044545604520575,0.9728882143216877,0.19520985742420616,0.8017905610914351,0.3155798886873251,-0.18293035025787152,-0.2968826440915765,0.1585131948717738,0.8294184409960774,-0.46344628065029936,-0.3962229362826582,-0.5775427086260455
67.0,4.6180336475372314,0.17565402403191827,-0.4384846165318653,1.0263346721830855,-0.0008413849741984636,0.02357883750336675,1.229165941936728,-0.6111334810528212,-0.043037309880997396,0.29901455763666457,0.7139598887429908,-0.5046237682608812,0.11319002844640982,-0.1458521568808807,0.27395482278787797,0.10531241979829331,0.7255275674213113,-0.03209375431279822,-0.07039307415869422,0.0779195769272445,0.09544877400821716,-0.01864021908143942,-0.1042416522999281,-0.06779131440188585,-0.08899414449807766,0.971852456418868,0.19517255314903795,0.8015681081356077,0.31686466577519085,-0.18572906502733455,-0.29599252122627584,0.1584015674839851,0.8277387550821025,-0.463923235288971,-0.39811298961458247,-0.5792225200917207
68.0,4.67379093170166,0.17956534053009957,-0.430364905306934,1.025745075795199,-0.0026572675304210244,0.02133796138217203,1.22257436888389,-0.6176394764111721,-0.04749125112966385,0.29640112108365535,0.6980032726422014,-0.5118652155781923,0.11217853596576854,-0.1350579741607009,0.271138417940067,0.09761564171391954,0.7178576397258464,-0.03024391470715738,-0.07220500899402468,0.0809112640261253,0.09482929884449322,-0.01889376286103629,-0.1075208277607918,-0.06434629431986151,-0.08692487795147154,0.9704337297793022,0.19507288812383428,0.8011279144650817,0.3188194307731306,-0.18831920319692058,-0.29414794299571206,0.1594291082237916,0.8264324508086346,-0.46518339394260777,-0.4000200667626201,-0.5808149176710997
70.0,4.7278151512146,0.18290166056646828,-0.4233826755046336,1.0251684775424594,-0.00416440305756509,0.01924892064488152,1.2168562381464678,-0.6221890716204967,-0.0509712128752846,0.2935824677196668,0.6861013387385577,-0.5185435882521126,0.11172088946736693,-0.12572650917221262,0.2687291917194938,0.09073645247890574,0.711369317000551,-0.02773598526347717,-0.0735983190700443,0.08338046594487761,0.09453033865458496,-0.018919336037927694,-0.11031103763626349,-0.06149275204899188,-0.08492464352741111,0.9692267637262659,0.1948500832758589,0.8006127518775712,0.3207027177195949,-0.1898468378561787,-0.29225954957742106,0.1609751881327452,0.8256903344923503,-0.46674113261045125,-0.4018861603028364,-0.5820630108156398
72.0,4.800410509109497,0.18652344219078287,-0.4157686365653726,1.0244676935736892,-0.005533987169905925,0.01670820733129042,1.209906022706154,-0.6253211445073688,-0.05252903644159103,0.29194275951902315,0.6772938192266968,-0.5232277195770393,0.11142051217000809,-0.11602818815616495,0.26613576942470696,0.08307231172050852,0.705683545432741,-0.023134877846207727,-0.07472977114182858,0.08590536289231562,0.09416510602531289,-0.018602280689615287,-0.11144525406792691,-0.0594211756587158,-0.08266126940874231,0.9676314325029238,0.19419268324500039,0.7996802239822949,0.3226559474025744,-0.18882397743687124,-0.29014344959452903,0.16406784491104326,0.8252687959658256,-0.46923312350195445,-0.403849361815216,-0.5823271737437745
74.0,4.844290733337402,0.19049559438622132,-0.4074312681326637,1.0236414276085528,-0.006999191257424127,0.014209406169657667,1.2016950283083532,-0.627301580948622,-0.05266177875597937,0.29102084758789903,0.6716234078584999,-0.5247895962335092,0.11112152204613897,-0.10618691314826442,0.26364570624298256,0.0760528036786739,0.7011223635608314,-0.017345860522527685,-0.07571573671399083,0.08864095046513759,0.09285788292331965,-0.018441547847554467,-0.1118380209970433,-0.05779377972325118,-0.0801664615119168,0.9656440472738133,0.1931771081475601,0.7983069798957627,0.32447398728336707,-0.18608831981869128,-0.2875592989051908,0.16842630030272887,0.8251463301185518,-0.4722866322587172,-0.4059860384524248,-0.5816626409877259
76.0,4.911151647567749,0.19488214938206475,-0.39819938287312767,1.0226470547100863,-0.008852197528487045,0.01164310393420968,1.192358971357856,-0.6284351879744396,-0.05210108157784396,0.2890880810203939,0.6693810819515638,-0.5233430614719302,0.11126270153115005,-0.09619688280552441,0.26200292278737725,0.07057942949288558,0.6980293522634322,-0.010849669188348598,-0.07655754419940433,0.09188725027161075,0.09107019553753884,-0.019061600376003476,-0.11319299371507342,-0.05637098679840316,-0.07754952500972673,0.9633884889847174,0.19199145864894285,0.796668615679937,0.3261063336063929,-0.18308542419753973,-0.2844423331776014,0.173249027342387,0.825477366606395,-0.47541558187365607,-0.40824742005144526,-0.5808950501713814
78.0,4.9957544803619385,0.1997164183362129,-0.38803826455628787,1.0215085394166856,-0.01079260975056889,0.008763272909597277,1.181898233397788,-0.6280120216017379,-0.05075096585432949,0.28632743616333445,0.6701931079428567,-0.5190166573896906,0.1120915003364771,-0.08593708112728568,0.2612720882296382,0.06656333742415432,0.6966782851213831,-0.003443558989451449,-0.07717804393501584,0.09505748280174636,0.08912645311162413,-0.020462502553642785,-0.11440368248242079,-0.05609150378494389,-0.07475514546315501,0.9610182059799511,0.190540196521653,0.7946914517828949,0.32830522359519126,-0.17910540419543297,-0.28118619402199385,0.1783896439456631,0.8266499918873569,-0.4787486698427008,-0.4096123857550801,-0.5801477869208653
79.0,5.0617945194244385,0.20471685135408735,-0.37736299606745444,1.0202691220840467,-0.012601169165418473,0.005904524802763067,1.170874468573728,-0.6253784626645879,-0.04876811696122298,0.2836282293349825,0.6737524465111775,-0.5121939936835164,0.11360465486320381,-0.07596022764001786,0.26076205066920366,0.06384537987664791,0.6971094422113592,0.005636926195330159,-0.07741554825290935,0.09822037050574252,0.08665180049105661,-0.02218781514462493,-0.11486957641455657,-0.055316761408712896,-0.0723204686315521,0.9587160921713946,0.1895729846983405,0.792683418612645,0.3307610897345954,-0.17346999669630803,-0.27622321060635047,0.1834345670759358,0.8287726382737677,-0.4816978451043482,-0.40894707521186796,-0.5805245941469017
81.0,5.102275371551514,0.2088298742229457,-0.3684910263008802,1.019222772032612,-0.013995734740672987,0.0034384253607634865,1.161623202446756,-0.6220293068340254,-0.046554039344019665,0.28163340842515694,0.6782485628315553,-0.50561781070145,0.1152461131085602,-0.0676613707712824,0.2603417163579376,0.062083779927028314,0.6977468356204706,0.013986400593945876,-0.07753250916105842,0.10113573056899205,0.08449561578139686,-0.02381610927161509,-0.1149001125156505,-0.05385950729210333,-0.0708011403268885,0.9569947179400704,0.18944847228922196,0.791195360022573,0.33300878011584223,-0.16797361065631433,-0.2709909944043769,0.18743852125921207,0.8310493880060912,-0.48374966329137725,-0.4074551024606492,-0.5818153453930546
82.0,5.156876087188721,0.21341084701022306,-0.3584857961657453,1.0180839317256996,-0.015408940129085518,0.000802048752260772,1.1514671121237283,-0.6169855305418855,-0.04291367543111352,0.28105961932939283,0.6858405114020287,-0.4970678678225957,0.11770900286884456,-0.057955743449751004,0.2586895846076505,0.0595415147584554,0.6984503671524795,0.021196268447160167,-0.07810389304132218,0.10442574729508135,0.08169943762211718,-0.026550289295867686,-0.1149075098261561,-0.051241052373430865,-0.06989587873382588,0.9556339932180835,0.19039022333328662,0.7901415736227446,0.3360267114153524,-0.16087648984640124,-0.2642197311742738,0.19188629223528655,0.8342822970460086,-0.4852395484381283,-0.40536705983789245,-0.5827412981471699
84.0,5.194489240646362,0.2173329861019602,-0.3499144240475337,1.0172659843282161,-0.016393466765485438,-0.0013064313717138939,1.1428161585622956,-0.6122927962585447,-0.038848799563684665,0.281931904187763,0.6937172719507387,-0.4894067771821339,0.12010042722442049,-0.0488367597339804,0.256204051729134,0.0567683022602878,0.6981940265370539,0.02549973579798362,-0.07918597836915343,0.10727108157488914,0.07906356528196815,-0.029384151354041405,-0.11503503166427413,-0.048637635196103896,-0.06930802337370726,0.9547582659184299,0.1914815030541057,0.789431678373829,0.33865062132308965,-0.15453041518182406,-0.25812706847766687,0.1959397610966697,0.837572246309503,-0.48600637617809,-0.4036559100887093,-0.5825324659163353
85.0,5.236973524093628,0.2219517236152399,-0.33973637872787665,1.016934678212154,-0.017369059088155454,-0.002555729380717981,1.1332684707403784,-0.6075033610816264,-0.03395145807912849,0.28418414325155567,0.7032859275563028,-0.4815030034526179,0.12332623754590163,-0.03741759759837207,0.2505734396902357,0.05233596292008061,0.6967319537766964,0.02591057316932311,-0.08149597852597545,0.10960732812094441,0.07499813988024413,-0.03377280560035327,-0.11454775776717191,-0.04534212866780922,-0.06856499631898053,0.9538261086615226,0.1923134848218216,0.7877597471092075,0.340342433804765,-0.1461428313177264,-0.2502746786746511,0.20113590538358592,0.8421838044326138,-0.48652615934569043,-0.40070727069548373,-0.5808181141276829
86.0,5.275545835494995,0.22606087952437298,-0.33067528276496017,1.017004601053534,-0.018080372695314262,-0.002741592505451309,1.1251785611182552,-0.6039958429548964,-0.03015529024344312,0.2859324154951229,0.7114205067775015,-0.47559559085695113,0.12627877439123364,-0.02715033745640228,0.24422770540131628,0.048254499319260444,0.6949953785681304,0.02450625425724303,-0.08403058617978161,0.11093447566127665,0.07056570914818426,-0.038175073820188477,-0.11316474133890023,-0.042200195909280286,-0.06776148086669626,0.9528542315143045,0.19259777163424402,0.7854885426952912,0.34069147203496764,-0.13778510263504098,-0.24269204619663037,0.20613452031096174,0.8465599327985864,-0.48719525354254106,-0.39711984302934256,-0.5798043694510843
88.0,5.321128606796265,0.2296384929461897,-0.32276833254356885,1.0173583868750566,-0.018562476531098472,-0.0018549901579117878,1.1188041906241046,-0.6018163446710364,-0.027938754586290096,0.28661261937460075,0.7179153363003756,-0.47098676767205516,0.12879711965943363,-0.01854795645437702,0.23763996761257933,0.044881268277708025,0.6935661490749596,0.022215052965788858,-0.08648292304778805,0.11107002891534797,0.06583548109529044,-0.0422824685393981,-0.11093474774641075,-0.03909922886847727,-0.06693846894647815,0.9517196002039306,0.1923737320397566,0.7826640927779422,0.3396309678375963,-0.1294393944398451,-0.23546425403419124,0.21088690897494278,0.8503533281916773,-0.48825521830011354,-0.39313393758931936,-0.5802565503269065
89.0,5.378882169723511,0.2341623746366297,-0.31271722951919445,1.01785959142772,-0.019049051176146577,9.785951764230494e-05,1.1128788407289132,-0.5999391828543025,-0.026870027682612506,0.28599412813614966,0.7261737594776192,-0.4609933324581233,0.13132044533066253,-0.009300804657996951,0.2295406547331701,0.04138882949496644,0.6937708151324697,0.02001314272105443,-0.08901855950524347,0.10927065507550773,0.058900931209559804,-0.0467509162172859,-0.10766757491059797,-0.03441227294718612,-0.0661728749701877,0.950180034402557,0.19191051980636317,0.7789656677821565,0.3364777523049577,-0.1169616331582267,-0.22576033830394437,0.21674697807392213,0.8546066591836213,-0.48991272390645574,-0.38790821461808045,-0.5828109145137518
91.0,5.432574272155762,0.238188206777536,-0.3039134354228091,1.0182180797781157,-0.0192067160820906,0.0019077334917894729,1.1091078004022443,-0.598190954402938,-0.02648420226947988,0.28536178607656815,0.7340908679899713,-0.44852310473092855,0.13308523686230556,-0.001839078563775228,0.2228112010710995,0.03838131434443578,0.6951505115726175,0.01888700546251701,-0.09101595299523768,0.10669780010966462,0.05205188000312522,-0.050189853090183596,-0.10474674733983252,-0.0297538590874756,-0.06586656143171071,0.9491138432811328,0.19178820963012566,0.7764432476367644,0.3331328675935018,-0.1048222909000624,-0.21689062399972378,0.2217573879286913,0.8581803164821522,-0.49079735321201357,-0.38273709975775183,-0.5850559193657658
93.0,5.478150367736816,0.24319418212157115,-0.2930555066534887,1.0184210547058175,-0.01905719305834981,0.00291328319543249,1.106714208125877,-0.5948071778875822,-0.02577077134556435,0.28522760803459146,0.7455013775769912,-0.4292546910739393,0.13459806782349254,0.006772426645767417,0.21552324110391008,0.03343889427264614,0.6986995319931493,0.019569286644685647,-0.09295849778526837,0.10237544521621089,0.04311343246687716,-0.053699000062825714,-0.10306220337369189,-0.023982853690067536,-0.06586892554511838,0.9494426605218911,0.1924502947504148,0.7763691022229642,0.3301745311184071,-0.08922030473191418,-0.20589882065506748,0.2263545166100795,0.8636516511539506,-0.4893530906560044,-0.3738086285424239,-0.5841611601190956
94.0,5.546363830566406,0.24874108566447808,-0.28072064988570344,1.0185595673364611,-0.018926718529844292,0.003110291373563977,1.1057476628409264,-0.5898803995913043,-0.02451758663026176,0.28606534726559285,0.7591438479946006,-0.4099967881123556,0.13627395816789895,0.015761355482131784,0.20676351969308782,0.025181030803272483,0.7041583396873643,0.022987289153639453,-0.09498942916087329,0.09728816634186987,0.0330765156262484,-0.058468391167349816,-0.10512356450836711,-0.016674974590124087,-0.06634030986356243,0.9513729748922701,0.19399316592779686,0.7789091624064725,0.32694977593353847,-0.07295260274096614,-0.19244010097319325,0.2293831309674827,0.8717576880595537,-0.48487199822963245,-0.3591544459891032,-0.5802843896614162
95.0,5.576690673828125,0.25332041658321164,-0.2703875865713925,1.0186688399230153,-0.018603027532234993,0.0031044265422957365,1.1056958187675292,-0.5849860721598372,-0.023541609294976416,0.28723614835541444,0.7705410142621644,-0.3966221652743902,0.13779382362567974,0.02282395558102567,0.19825297950539295,0.0161943718521329,0.709825035227533,0.02747270142110121,-0.09690771594170557,0.09296609143842485,0.024488304049555022,-0.06314604941110138,-0.10893041999221625,-0.010050977873616043,-0.06717253638140175,0.9539424963268117,0.19559628227465964,0.7822047401328631,0.3234315135829172,-0.059690161259940866,-0.18055533308484747,0.23102591906129483,0.8791167091329626,-0.47951082775424086,-0.3446554128796605,-0.5758330309972772
96.0,5.621195554733276,0.2572069824116975,-0.26142861151076374,1.0188294007311733,-0.018026910872341925,0.00318558372514347,1.1056628552959342,-0.5800387063978432,-0.02320251793512348,0.28798848107282854,0.7797542243536484,-0.38883727059521117,0.1392039354850359,0.028408933244432895,0.18920622632767697,0.006495301682926326,0.7158215063186808,0.03308851509692905,-0.09890605816260209,0.08927432869623524,0.01706281240495414,-0.06754629165113141,-0.11323247530899057,-0.004386953703727717,-0.06824717196808688,0.9567976704328504,0.19688414440142488,0.785326706114355,0.3191798415349755,-0.04791002619748009,-0.1704075000150333,0.23207001123201823,0.8853970189302569,-0.4741270019687467,-0.3319556923078749,-0.5717008622296205
98.0,5.6612770557403564,0.2604101927247526,-0.2538629236042566,1.0190712655183822,-0.017037193673546742,0.003506144233490987,1.1052037364953995,-0.5749612935331341,-0.024052776808676287,0.28768129006733584,0.7864389638417226,-0.3861672254984645,0.14028890405073238,0.03243097858082376,0.17930546922721996,-0.003777671426988358,0.7222675945200632,0.04013046872121062,-0.10104299975530356,0.08624355341411474,0.010810589155925558,-0.07123390170782021,-0.11701087853510019,-0.0001016401559425016,-0.06949296247997003,0.9596400485733131,0.19764412082684385,0.7878151700352451,0.3141984449254039,-0.03703954979141326,-0.1626664762691116,0.23301752213755644,0.8901270033180544,-0.4694123763529706,-0.3225447216557561,-0.5682458940536356
99.0,5.7227537631988525,0.26430687048813334,-0.24423532645392404,1.0196932099718663,-0.015220445884184712,0.004029093222246512,1.1025311358766023,-0.5668158841140765,-0.027526028679090396,0.28441788880608737,0.7922756000246733,-0.3877734056924075,0.14087880934604904,0.03547406487370694,0.1632042199208876,-0.01922759338515884,0.7330475764123975,0.054948442285541174,-0.1042397946587788,0.08346780114740068,0.003933945508812621,-0.07495978127804277,-0.12065746577048092,0.0037492942420921343,-0.07099713948243583,0.9625974406114683,0.19775704290548302,0.7899285516540853,0.30702278709971276,-0.022032445250600455,-0.15537325475675134,0.23499428719878668,0.8955944156347848,-0.4647502490569034,-0.3149328463134935,-0.5631836694717367
101.0,5.760746717453003,0.26787502712965927,-0.2352759199954108,1.020411260659648,-0.013194207007176446,0.004786259590152233,1.0992090116276978,-0.5583127845053307,-0.03184761808448679,0.2807359589114282,0.7964163994073067,-0.39119011620851973,0.1411689025540461,0.036868218536750125,0.1461912712867392,-0.03491912142076591,0.7450021940026927,0.07185322776672584,-0.10776587218520481,0.08175742152732668,-0.002380108159367172,-0.07841122401132572,-0.12421815823152033,0.007225822735779245,-0.07232164236013564,0.9651179650565961,0.19775122880724005,0.7912742428100981,0.30038639539001843,-0.008050490323043337,-0.14911642665953567,0.23745181855267006,0.9005896847688761,-0.4607525508825414,-0.30815048303212733,-0.5573538630902951
103.0,5.8121795654296875,0.2721143859254753,-0.2243753124007884,1.0215119140846893,-0.010936291147839367,0.005835208218079348,1.0933521311983485,-0.5467479647575324,-0.036685599352058715,0.27732955440794393,0.7995031250836006,-0.39850368820480153,0.1415192206496388,0.034957309592911504,0.12316314420778604,-0.05505212489865623,0.763383255274098,0.0979930822725828,-0.11305544059711617,0.08147503392450886,-0.009903710426302701,-0.08281511077703388,-0.12905498481778208,0.011003869940434573,-0.07297596916931393,0.9667563433832691,0.197671046043326,0.7908942703805737,0.29501905010101215,0.007869916894141996,-0.14254101148985354,0.24146223211207862,0.9073970030697787,-0.45705076934000566,-0.29946338176299575,-0.5476707291413961
105.0,5.878125429153442,0.27667077469321194,-0.21252183900501118,1.0227456138682687,-0.00860512458331306,0.007173768357026604,1.085366469375621,-0.5331894939794098,-0.04105614889836949,0.2753811527362827,0.8014026852630611,-0.4081820913908365,0.14144747058264528,0.02872894553378586,0.09424918689733455,-0.07996141571524176,0.7887514530122501,0.13296717375278255,-0.12069651184210334,0.08245625796546882,-0.01885690942939479,-0.08758355989290134,-0.13469526152653644,0.014022386542785481,-0.07301488017346983,0.9675376826590381,0.19770184598165674,0.7890385464345604,0.2922810371829483,0.024174320268463168,-0.13751623656060585,0.24728118278803501,0.9152239809587766,-0.45417445881991814,-0.288566507775852,-0.532292291110246
107.0,5.956359624862671,0.2811784807639295,-0.20048619384644595,1.023932727060865,-0.00634578100929539,0.008365091582978282,1.0758778095343826,-0.5187099257666781,-0.04457465282846098,0.2748184989715479,0.8023978659665763,-0.4183247889770096,0.14071215713227128,0.01805067695699474,0.06109291240818381,-0.1079557361335373,0.8209578221198277,0.1754952775707455,-0.13096300597211358,0.08436494413272912,-0.026896161953560257,-0.09175645262591095,-0.1407822265150165,0.01695060865475361,-0.07319329014352248,0.9676645463131011,0.1983600080424177,0.7868214235350057,0.29126594954325485,0.03963223952223387,-0.13406973257663968,0.2552338609719304,0.923086805838007,-0.4524370912305057,-0.2766548687792841,-0.5112671665066747
110.0,6.030878782272339,0.28559107950808627,-0.1881809979193455,1.025108024699738,-0.004042388412382907,0.009736380967172005,1.0653288026745014,-0.5034180394173319,-0.048368019974089516,0.27493113354620796,0.8023439117872796,-0.42919256318803345,0.13971021366901754,0.002879091574174755,0.026661194631525196,-0.1340823629664698,0.8594961770711683,0.22301114726795015,-0.14347279559095144,0.08637912759532303,-0.03293914579603676,-0.09475529399805742,-0.14744326490421134,0.0213145654301399,-0.0737177442274149,0.9668346578266214,0.19961842953934525,0.7843088224756699,0.290003238540093,0.05380780300729317,-0.1308963220831466,0.26510983217447853,0.930117856121321,-0.4519681219543728,-0.26500474951732905,-0.4875853234699321
112.0,6.123758792877197,0.29060926447567226,-0.1738906253924058,1.026538609579863,-0.0022334003173935073,0.011424516260328001,1.052050397847089,-0.48563579449070493,-0.05359201495865705,0.273837008632727,0.8004165445186744,-0.4437490344361805,0.13878912756685968,-0.021911724242933073,-0.006755627401753528,-0.15287470995461108,0.9096843728188362,0.272820962354678,-0.15866314026336964,0.08842454297624774,-0.037706660402295075,-0.0977833856996429,-0.15761759888672316,0.0266752876703704,-0.07343115110021593,0.9641301775568789,0.20047968011828474,0.7810079092818702,0.28828513772572784,0.06467886824781702,-0.1298630179278827,0.27772007110801233,0.9366657814060135,-0.45289766930171815,-0.25404971187556,-0.45638214295862556
113.0,6.181006193161011,0.2952185122844598,-0.16060732046932533,1.0278797380034344,-0.0014973336962480215,0.012894316975830041,1.0388714862425834,-0.46952445573268675,-0.05842094136692108,0.27216936762165705,0.7977690271164871,-0.45839643454840584,0.13820018751541355,-0.05088276920055701,-0.0319821136920943,-0.1622529958960452,0.960065647313948,0.30371859473185936,-0.17244580711664456,0.09003535516558486,-0.04061232458432221,-0.10114049445591333,-0.16909704324530384,0.0315860810237187,-0.07237478890721002,0.9604761110013476,0.20071286781488873,0.7763552965561575,0.2867644172909303,0.07041729596672722,-0.1305179605758209,0.28891411670436173,0.9409707231673643,-0.4539074911707954,-0.2446320805957836,-0.4272591415074136
114.0,6.231439113616943,0.2986477585887012,-0.15053900015924299,1.0288569350611474,-0.0011593305283405437,0.014482695929204793,1.0281140313214763,-0.45739755248196534,-0.062458888302625165,0.27124724819505136,0.7950229127467958,-0.47027373715064735,0.1379064876296881,-0.07742537819391426,-0.04790429321419428,-0.1641205891647794,1.0018182438585495,0.3154396219750913,-0.18239900060959113,0.09092046550885238,-0.042528406761334056,-0.10388679028042468,-0.178780904414229,0.03548902374344717,-0.07110238713577546,0.9571950785778189,0.20058302530035177,0.7715583547927725,0.2855568435966051,0.07283804522693225,-0.13182976040488173,0.29713611233603365,0.9423061871359579,-0.454519740699392,-0.2373604866753305,-0.40570850028282635
116.0,6.262144088745117,0.30116210299717927,-0.14302405423165254,1.0295473683900571,-0.0010669327474589374,0.015895470511816924,1.0195600020659488,-0.4483074883801946,-0.06558471012136347,0.2709843819397997,0.7924455883754012,-0.4795439485873801,0.13773938315352938,-0.1011917314566422,-0.05625043395014395,-0.1610955618661451,1.0355959095013714,0.3115627583699712,-0.18839996788007365,0.09096774511423342,-0.04356330349630673,-0.10581844648378885,-0.1866614468743812,0.038367397357712246,-0.06985666068488355,0.9544053180192509,0.20033858720017125,0.7668978271237672,0.28485761425270356,0.07343126520874302,-0.1336863353694404,0.3027797855402077,0.9413768381082703,-0.4547968160354455,-0.23230168680515953,-0.3911047758157039
118.0,6.31922459602356,0.30374734043524404,-0.13534789073866021,1.0303117846690735,-0.001054659404051077,0.01618053343118841,1.0117970616792191,-0.4382481083316764,-0.0682476190227661,0.27027946715173334,0.7895539177158215,-0.48869948523550666,0.13743476084649317,-0.12802206823493617,-0.056948981665219535,-0.15313523266430384,1.0685492940696728,0.28829868065185893,-0.1898508777324393,0.08868855547516283,-0.042380072340348865,-0.10569650946534467,-0.1954357970831606,0.04152171056347967,-0.0691282473007894,0.9512342975879085,0.20075481168846132,0.7614973637768452,0.28463370208657673,0.07252666690505379,-0.1361819923268001,0.30658930020861436,0.938643936744421,-0.45511374165766116,-0.23020032639307342,-0.3823532425471273
120.0,6.387020587921143,0.30665547413467764,-0.12675010532501932,1.0311656705876675,-0.0007662789090040564,0.015403356849668686,1.0047665126097942,-0.42631093049803315,-0.07125671612185139,0.26843053563749664,0.7865104097504955,-0.49826542050148465,0.13685499102249798,-0.1577097215013203,-0.05377513965996134,-0.1437509323936444,1.1011681026174758,0.25002761824164366,-0.18838926680036056,0.08421888341862362,-0.039219946380811,-0.1036354446087562,-0.20675250584926136,0.04614935182961221,-0.06928185378213238,0.9479692557305809,0.20224534424431162,0.755986792796839,0.28399794970983794,0.0692096547847189,-0.1383435444365974,0.3085920583684273,0.9348715784705282,-0.4553561365483353,-0.2294586266218044,-0.37885938107336026
123.0,6.4645094871521,0.3098002154683694,-0.11710763126659274,1.031985111368641,-0.0004135711078415555,0.013601054130536437,0.998459309145725,-0.4129462902444519,-0.07442102223157154,0.26575919967708395,0.7838616601704194,-0.5074769608122941,0.13601086764952505,-0.18984327062759587,-0.04919118335585174,-0.13522472203713246,1.1320747259073978,0.20066913615587204,-0.1855646721890265,0.07811256403169178,-0.034412402782905964,-0.1008087498117019,-0.22074953649268148,0.052202867531719904,-0.07022642051075606,0.944670839493347,0.20476266207119778,0.7500941897777522,0.28303433085887186,0.06330665227607,-0.13986614307359452,0.3083682366934945,0.9306194631359438,-0.4553385053700624,-0.2287953011886469,-0.3810003884155664
124.0,6.539204359054565,0.3135529064921708,-0.10515634777747913,1.0327692829424038,0.0008499187049210026,0.010013791590465454,0.9936464403884222,-0.39599815896505164,-0.07787814078959726,0.26244714753731,0.7815796445405299,-0.5156443930482619,0.13473799347943138,-0.22834654642376578,-0.04026036991073473,-0.12558599040553736,1.1598729613723449,0.13344324844907204,-0.18012023264988514,0.06800321719908864,-0.028046939738622847,-0.09509260692979471,-0.23725319261305522,0.05983462551688838,-0.07313759144566939,0.9412107633403819,0.20915004356252975,0.7426609214242126,0.2813970175692084,0.05720617179171333,-0.1415256241496023,0.30458803374624244,0.9240255084342998,-0.45506461018133315,-0.2312493632803303,-0.3939630351436355
126.0,6.5984601974487305,0.3164056615398555,-0.09584425937025734,1.0331919638714353,0.0026868612771423035,0.0076727444462138215,0.9910016537594898,-0.38259350359901567,-0.08167931183057986,0.26006482816252313,0.7796039508364843,-0.5211981378131999,0.13371218480880245,-0.25915296151169415,-0.0322433658470237,-0.11695555585493747,1.1793699016739283,0.07538062027083692,-0.1744301809887482,0.05930456049361362,-0.023900087875902396,-0.08957440195730756,-0.25021448226503784,0.06606522713909266,-0.07613197456779719,0.9389329777611193,0.21305704048878957,0.736191787270867,0.2792771240297709,0.053191904986496646,-0.14283902076783275,0.300376657492774,0.917412657838738,-0.45473993899445,-0.23412095008460915,-0.4084920053822775
128.0,6.653846979141235,0.31920403496447447,-0.08659324320688527,1.0334035556314418,0.004259475992000288,0.00559170296149498,0.9902603198529405,-0.37005236261703267,-0.08651737388761263,0.2564804102709115,0.7775711860949337,-0.5263779612283509,0.1327658147099351,-0.28909116930674716,-0.022507562125492896,-0.10824067427741033,1.1907036965888527,0.018030993291981025,-0.16769395370347573,0.049893445931636665,-0.02041139293590958,-0.08452614171300565,-0.26264857036261285,0.07157514989316101,-0.07975234183112366,0.9362854183998293,0.21715493270235925,0.7285003800684342,0.27679285551447963,0.049999165898830786,-0.1444371071730407,0.29417182466862174,0.9102627620501951,-0.4540849474408467,-0.23611704878501583,-0.4267986077277315
130.0,6.716667175292969,0.3220363000913781,-0.07723001477649531,1.0333881914053906,0.004738792844918038,0.0035623261894711647,0.9912417333798467,-0.3586692355426627,-0.09206868937838786,0.2511888355927955,0.7759198385718484,-0.5315917360369291,0.13191436683390212,-0.3179739198971432,-0.011398708197862057,-0.10005635274782261,1.1934347587954413,-0.03320359211857416,-0.1604255413369741,0.04032044537324893,-0.016978568177212973,-0.08109120210930357,-0.275177687726272,0.0766607287240074,-0.08364349368677121,0.9333532704455845,0.2214194475532393,0.7205907140823228,0.2742934619035754,0.046826817735088996,-0.1449722016980142,0.28572943893430003,0.9034933114092418,-0.45235999397167787,-0.23416281195491853,-0.44728222579650817
132.0,6.7791571617126465,0.32496229325416676,-0.06775363257398911,1.0331187095062515,0.0044266741889116825,0.0019240793085706204,0.9937838187261481,-0.3486113836919592,-0.09760848843627207,0.24584255992708492,0.7753992596773404,-0.5363989088900525,0.1313395697026232,-0.34589729625653365,0.00038367512101115595,-0.0920804926723865,1.1886427138911204,-0.07640465927109902,-0.1529781112790753,0.030430077007350877,-0.012894747940259521,-0.07915030276144967,-0.28812149632476663,0.08235425149519793,-0.0875591945382341,0.9310221760427545,0.22606419915093356,0.713706579600335,0.2719650678547666,0.04448084080732146,-0.14317495224678392,0.27524044672496256,0.8961640912967554,-0.4484791131800161,-0.23324009530855158,-0.46958137100715946
133.0,6.841851234436035,0.32815299929837377,-0.05777584032240045,1.0326069030466671,0.0036350862686687965,0.0006979315000434838,0.9976557301846547,-0.3392483975529994,-0.10226020189349018,0.2419963640826625,0.7759968996294954,-0.5403912108314864,0.13115389158407093,-0.3747446055940591,0.013865138079458376,-0.08283478021966426,1.1778719528933148,-0.11585389908134494,-0.14504495579455434,0.01986901576478619,-0.007785077852933932,-0.07811296268951141,-0.302262144635256,0.08925582590771283,-0.0921997174260589,0.929878161162617,0.23174607356203797,0.7083115563666009,0.26945877712748934,0.043480060563232864,-0.13971149058240426,0.2641786542874787,0.8876647829445028,-0.44299651246845845,-0.23761372242390433,-0.4919114040251362
134.0,6.889036655426025,0.3307696368241937,-0.04980181966916043,1.0320710743558128,0.002668479538157285,0.000292495513720302,1.001394483400878,-0.33248714005224267,-0.10571175472536698,0.23970544195974258,0.7767265276034385,-0.5429443476608578,0.13114103057879686,-0.39798442985266774,0.025774264121706754,-0.07402197331118038,1.1664802885519974,-0.14494456283854734,-0.13810409450925065,0.011706860961762596,-0.0035508244347180985,-0.07787812992684681,-0.3142645687262957,0.09516523636118882,-0.09635586511788735,0.9301200321512123,0.2367727651963135,0.7049598826598569,0.26680604464485047,0.04345815871872906,-0.13629639596320908,0.2555881558520272,0.8805094424187574,-0.4382746186916455,-0.2429063270296934,-0.5086856083000801
136.0,6.932421445846558,0.33294959550202974,-0.04333702180820305,1.0315586693678789,0.0016768035117871378,0.0004455050725886773,1.0046419795807462,-0.32740980986986595,-0.10847579157842634,0.23823313223932682,0.7772891019787653,-0.5445728982597389,0.13101592480424618,-0.4169477199282502,0.03631852029095799,-0.06551752943392428,1.1550051871332288,-0.16596503168227736,-0.1320773818729833,0.005592338216943404,-0.00023645277687371028,-0.07814620134064743,-0.3245104052766836,0.10000770812541472,-0.0999566245496212,0.9310909209583729,0.2410141074090394,0.7028726917988968,0.26397931448996526,0.04373389570501555,-0.13346358496991362,0.24914610620446964,0.8747941978384337,-0.4345622312870291,-0.24790145108540293,-0.5205402185924553
138.0,6.974908828735352,0.3355470251270962,-0.035851073958181795,1.030885086859138,0.0006725186332612301,0.0008362168937973681,1.0077911607627168,-0.3212461613068497,-0.11248715867878707,0.23545462480954077,0.7776105814909434,-0.5467031322837489,0.1304147032439235,-0.4379143656857626,0.04840809757757423,-0.05486144077945006,1.1381470161565281,-0.18218661688710838,-0.12607203487554247,-0.0002668381359444004,0.0027761130704241016,-0.07894801792576739,-0.33623486565808647,0.10496157917688732,-0.10350596003517909,0.9314986177011871,0.24529025079538863,0.7006747830973057,0.2610571960865157,0.0427452883669652,-0.1309822079651471,0.24299759850484717,0.8695358648388641,-0.4312359665858312,-0.2514806658879402,-0.5305470490102385
139.0,7.041035413742065,0.33855224246363835,-0.027330319986023505,1.0301384544868546,-0.0004164304237157418,0.001304111799089833,1.0105458252796937,-0.3138667520736478,-0.11808799132486654,0.23043690936129654,0.77737629648366,-0.5502895709336791,0.1293299663369099,-0.4604180565298105,0.061486657339282935,-0.042556875031101636,1.1158863692549605,-0.19311297389436194,-0.12084750928954764,-0.005249364791243754,0.006096954996145082,-0.08054739811892336,-0.3496556337558451,0.1099397051211641,-0.10661294144501217,0.9311200597753273,0.24969664876787032,0.6978306022115073,0.25946159780672323,0.03998972790069047,-0.12886981960824884,0.23759842753424895,0.8645778315445637,-0.4289680105732808,-0.2543637278087926,-0.5396585309753519
141.0,7.095673084259033,0.3412096942457989,-0.01981040950891643,1.0295572412309322,-0.0016261795871315458,0.0017517012422611803,1.0126895095225141,-0.30730978889008276,-0.12329825711736189,0.225278317558783,0.7766218591913857,-0.5539267071278753,0.12826205585771686,-0.4796858680803451,0.0731303051270378,-0.03129190660353286,1.094417910707639,-0.19972364750854527,-0.11683035990912527,-0.00877023143166665,0.009502143975821538,-0.08229594039495752,-0.3618665936870488,0.11413269461870841,-0.10871888485058141,0.9308992667255618,0.2533334610396681,0.6950219006851059,0.25880735645698666,0.03696300009766538,-0.12721203221338734,0.2336870938854837,0.8605632083161836,-0.4278392542974936,-0.2574180580523846,-0.5469412046198827
143.0,7.148024082183838,0.3442258096185361,-0.011302519517699209,1.0291263960977786,-0.0029053819202530737,0.002293121257131431,1.0153339930945129,-0.29911556563873043,-0.12883368665787104,0.2200092240286179,0.7745969128106384,-0.5577158200695308,0.12694926022409497,-0.49988423298863527,0.08595246816917643,-0.018055020838433113,1.0673609786178964,-0.20324071186874507,-0.11352211105122262,-0.01199137381195269,0.013783705811179952,-0.08388585485952434,-0.3751655020112389,0.11887129656082336,-0.10950113940176098,0.9300433989008365,0.25631973554927867,0.692152512659256,0.2588205816919973,0.033364025263188275,-0.12560271386321276,0.2315705161588144,0.8567930363510434,-0.42801578484553304,-0.2618784596408029,-0.5528992885813662
145.0,7.213303327560425,0.3474361400945952,-0.002315976443158988,1.0290170662251374,-0.003974270240095089,0.002725190472192995,1.018705823701154,-0.28902395170935,-0.13352236040497514,0.21622712684514303,0.7706007430855436,-0.5604193066188615,0.12561169331594757,-0.5190403346021262,0.09911050101780794,-0.0036325197632192325,1.0357556588954118,-0.20388419171009575,-0.11134813947587391,-0.014575970143616161,0.018046008939193746,-0.08427734088840555,-0.38750338370313225,0.12349208521675695,-0.10891073878876203,0.9281880688427461,0.2583546483862594,0.6889561424753337,0.2595655960646761,0.030297831622547455,-0.12394199172775193,0.23109572852952986,0.8540492911678838,-0.4291074384023218,-0.2659265780601802,-0.5567767661441856
147.0,7.287493944168091,0.35087971758911185,0.0071798139852098635,1.0292089292289546,-0.0047255679987424845,0.0028974483050006735,1.0225769601482018,-0.27677745645075563,-0.13757473019883937,0.21338276347465837,0.7641247646848094,-0.5619899048295729,0.12429692709837661,-0.5368695628101039,0.11166767303780106,0.01068366417167211,0.9996975111224047,-0.2023759475514909,-0.11069874857474972,-0.016213897861126505,0.021451238348724,-0.08323441292680268,-0.3985357392649956,0.12681462944171482,-0.10741929121093527,0.9248432431965935,0.25963815437544374,0.6854130012896317,0.2615663776953123,0.027768499915838074,-0.12264677983984315,0.2309072770221165,0.852242418324125,-0.4300799864154575,-0.2677219729673453,-0.5584628830331366
148.0,7.338512659072876,0.3545377112438368,0.017183426006775478,1.029571565036268,-0.0048769527668932324,0.0030111309537979537,1.026944476628404,-0.26239916639291755,-0.14146854897719285,0.21133259803004817,0.7552867613393562,-0.5621483382523864,0.12271668162238678,-0.5535847005134081,0.12232148216505659,0.023581462685850707,0.9599675314894732,-0.19982395917182932,-0.11163221738984132,-0.01712434814139165,0.023571702410434162,-0.08100549993031625,-0.40796329604031634,0.12825202913308506,-0.10563446369291701,0.9199416057551701,0.26033114779195266,0.681221648926184,0.2643799207457844,0.02624029797593324,-0.12261130363743225,0.23119272017806983,0.8506403080504781,-0.431153112920473,-0.26880252548599,-0.5578041296886063
150.0,7.390984296798706,0.35745193403437203,0.0251966351898885,1.0300236928709334,-0.004811493609098807,0.003091045123161768,1.03053374567871,-0.24986243949428144,-0.14440933306942122,0.21011418313185312,0.7463527916519649,-0.5609791433239524,0.12124170203009865,-0.5654735773123574,0.1294958147118216,0.0327482632865826,0.926206726593069,-0.19698677217812535,-0.11320315297965064,-0.017309951296682728,0.024922978892063512,-0.07862075361483188,-0.41421249748671074,0.12825913820142293,-0.10408352699069391,0.9155215852757494,0.2605241747503717,0.677150751027489,0.2666816784825901,0.02562934174039668,-0.12332150295772948,0.2318108615000135,0.849633994387011,-0.4323467037117875,-0.26988572255175325,-0.5562150592462449
152.0,7.462483644485474,0.36053141304626773,0.03370074996382322,1.0305741861707751,-0.004373705830489955,0.003546401952157096,1.0352064183958043,-0.2361968681084677,-0.1481033000039892,0.20833654689678546,0.7362499182018996,-0.5588859911230337,0.11949060494478356,-0.57732123736178,0.1341505945943951,0.03971840679751781,0.8906589985258602,-0.19533652518820924,-0.11574920902595429,-0.017635167874470014,0.02562485430458053,-0.07618418298713733,-0.4193518090161066,0.12680794677368756,-0.1026473034039719,0.91056803658078,0.2601649369732928,0.6734414228479951,0.26832264440343134,0.025969059755863576,-0.1250878212624901,0.23315733972212668,0.8485011578943478,-0.4340120502410642,-0.2717871828636068,-0.5534806052248624
153.0,7.519722938537598,0.3638579449183269,0.04273204039974916,1.0311609989405681,-0.004005059857424213,0.004488954348966092,1.041130387408014,-0.22228312184080445,-0.15299537364903415,0.20443135419267086,0.7255269404127012,-0.5569485669489744,0.11773040280183848,-0.5894647258106747,0.13738633016804414,0.04539597810226146,0.8542800701261919,-0.19639474771179638,-0.11851945864424672,-0.018484025947233064,0.025972971390947872,-0.07425716801165477,-0.4244893455401977,0.12428294540685372,-0.10091330370258922,0.9055437324472153,0.2593522588241775,0.6707135776856759,0.27010234721887094,0.026394221731558004,-0.12771819591936495,0.23467309410702014,0.8472237781090812,-0.4357687249763921,-0.27463594689457094,-0.55013993574318
155.0,7.565979480743408,0.36666660432442266,0.05033062158248835,1.0316781996605884,-0.003958260876129538,0.005479455196969237,1.046532326536148,-0.21085565978057635,-0.157633363741134,0.19983854672232326,0.7159177334272739,-0.5551384351679993,0.11632889489764282,-0.5989240955032635,0.13989357908905964,0.05007942087216909,0.8239920560272963,-0.19902900361443315,-0.12063088806975598,-0.019485097078466133,0.026653557358710906,-0.07304623148014144,-0.42871529279869014,0.12204085072205756,-0.09925066198010896,0.9014370026041392,0.2585906508661947,0.6683059524721827,0.2717097040721237,0.02626036923575436,-0.12995470233876116,0.23585564925742114,0.8464192893014943,-0.43721939982784985,-0.2777307191646472,-0.5474921853538861
157.0,7.636770486831665,0.3699346529653995,0.059062436311068146,1.0320452567850977,-0.003947752718758398,0.006843036721698958,1.0533892715383235,-0.19875665009689653,-0.16322798239214759,0.19379206159895906,0.7063103029290871,-0.5533048789062839,0.11475022569202378,-0.6094249273155086,0.1437045396486041,0.057027334393381354,0.7933860346194097,-0.2074131601326353,-0.12236504213509056,-0.021033921846087843,0.02788787635251954,-0.07238599734168921,-0.4330892488246697,0.11978672839466906,-0.09780622279137402,0.897018148212144,0.2579005829315225,0.6647030094591229,0.27322423626584774,0.025430106221747798,-0.1319661629790852,0.23699018013766793,0.8458734720116091,-0.4384810514913339,-0.28182492682817273,-0.5450875046119777
160.0,7.702312231063843,0.37347807765897245,0.06832945848458868,1.0322539732037936,-0.0037170957689504945,0.008171258205774412,1.061636453409042,-0.18579011139903046,-0.16896757519490235,0.18718070339069992,0.6966695482335681,-0.5505917197959537,0.11292554555426092,-0.6194866758420896,0.14959010871154663,0.0674375212817585,0.7647353688370646,-0.22197761896501,-0.12359268091108759,-0.022926368783288836,0.028892878681839276,-0.07118574268504455,-0.43591039229048767,0.11603869239471822,-0.09731446924584043,0.8926682351069004,0.25745915328570157,0.6606848146651783,0.2747934635783646,0.025911986380893037,-0.13477661871138924,0.2376912495481417,0.8454600395061698,-0.43939548674008966,-0.28691471628225745,-0.542913142220649
161.0,7.780614614486694,0.3781497317067333,0.08024429102159092,1.0321993724928658,-0.002816657106573461,0.008828511640658442,1.073228211494725,-0.1686398072627849,-0.17519907604452536,0.17854245807920033,0.6860972840364173,-0.5468249496306391,0.11062800590280154,-0.6297205934816327,0.16032470647885688,0.08540826143062052,0.7350633742856795,-0.2478265460734224,-0.12450971594465951,-0.025603476691038865,0.02997983122163815,-0.06786614902173066,-0.43655949672815875,0.10906497252239782,-0.09826526287491143,0.8877597124393178,0.2577086133795834,0.6566571313637242,0.2781161090658664,0.029099677959477828,-0.13870291698124362,0.23718720092899864,0.8451465862747667,-0.43948002256100066,-0.29130077026037127,-0.5410469820967447
162.0,7.8222620487213135,0.3820539214659696,0.09018896419795844,1.0321293743232347,-0.001845352854486977,0.009175457646201667,1.083096984699986,-0.15349871449057637,-0.18043237351458058,0.17096428186263882,0.6764179123019161,-0.5432462873904489,0.10892104854261972,-0.6365335403867062,0.17000298408676565,0.10202861548538597,0.7122978438234622,-0.27161724548494814,-0.12500383949723348,-0.027815056390115243,0.030990122427871754,-0.06444765019742284,-0.43547263006108716,0.10277614774091764,-0.09929124911462404,0.8833427968739871,0.2584149907245574,0.6526970048550848,0.2821633550156095,0.03241854336192629,-0.14172514571274172,0.2362844771547045,0.8452594113886484,-0.4393510178908606,-0.2938431126775395,-0.5400130538711062
163.0,7.855167865753174,0.3851885681783559,0.09815170738772586,1.0320719772119518,-0.000853887175547937,0.00940086691710874,1.0909961176625838,-0.14063493413417233,-0.18475922973393952,0.16456779178595515,0.6679146034831354,-0.5402113404821886,0.10785126371066941,-0.6403034594588088,0.17787229998885806,0.1160995740136267,0.6960985034458805,-0.2920496703484661,-0.12516146706042405,-0.029384237798911236,0.03179780219829041,-0.06126071081564681,-0.4329993795988769,0.09756879922086555,-0.10022774433624866,0.879461535092718,0.25949037349938897,0.6487915046126935,0.2866636738022597,0.0353888907504691,-0.14375345855289456,0.2353534422274458,0.8459087657111932,-0.4391414210246027,-0.29400718320313224,-0.5389592469467281
164.0,7.882933616638184,0.3877579821920162,0.10465813862443538,1.0320127773355876,0.000230202769701433,0.009808246320850627,1.0969807967925647,-0.12959724833897945,-0.18856317053096427,0.15941918510202052,0.6605186004572691,-0.5378903041964617,0.10731839840955214,-0.6423522207451128,0.18219420804415137,0.12424451443123075,0.6850058253306878,-0.30622364181019057,-0.12494198595561458,-0.03012710885315761,0.03225872729708942,-0.05858484784716156,-0.4299886325167413,0.0935920627890818,-0.10096967351919196,0.8764127359841574,0.2606076194655065,0.6458114335991021,0.29052055406179333,0.03760634380990763,-0.14482853595383685,0.23475032729319043,0.847055607443171,-0.43895565948702203,-0.2916817753011347,-0.5370608052863961
166.0,7.914984703063965,0.3899757342691754,0.11019648980611613,1.0319331862037924,0.001311472892183566,0.010408257578920103,1.101579799102177,-0.11999627491995317,-0.1918689893472632,0.15538131151769974,0.6541908018346733,-0.536117711768216,0.10713956003371308,-0.6434415430200415,0.18342732861948313,0.12721430284291285,0.6773914056103747,-0.3151509550423654,-0.12450612839554695,-0.030203016258531834,0.03239415390537144,-0.056427878666095284,-0.42718450872057323,0.09034290382849107,-0.1015242846592733,0.874741349049055,0.26130984826810977,0.6452144803222664,0.2925259243036956,0.039105917530617935,-0.14544754841014346,0.23454936350285352,0.8485294672332246,-0.4388327844421188,-0.28746581935025833,-0.5340101625587539
167.0,7.977126598358154,0.39326830832952253,0.11804017480286158,1.031517683023297,0.0025174972042686867,0.011307096933765854,1.107604576912799,-0.10802777491314697,-0.19539122032638995,0.15110386694605976,0.6482218343543533,-0.534456839981269,0.10695945761903677,-0.6449653619694402,0.18282877223817273,0.12673740632717145,0.6698559628603029,-0.3222817873087618,-0.1238598495019165,-0.029608447579266096,0.03253181573036622,-0.054077929591242274,-0.4246650896634685,0.08511867329670816,-0.10195153580814424,0.8755005532976713,0.26052151750091085,0.6506534645427378,0.2912900911855576,0.04062667163971592,-0.14651989002774374,0.2342953977599017,0.8507341242006405,-0.43832166594520183,-0.2803593134230115,-0.5287590791859578
168.0,8.01023817062378,0.3964236499338341,0.125439470600822,1.0309303332967479,0.0037131901633316,0.012212698748091607,1.1132932365885648,-0.09701855047140281,-0.19853198138629946,0.14748693260668752,0.6433871299390219,-0.5326213791626851,0.10683724915889775,-0.6459671174905929,0.18155673798691402,0.12528621878300436,0.6648222433229536,-0.326430533518159,-0.12328765399528183,-0.02894205070991772,0.03297083887751101,-0.05226752685703801,-0.42248557318041635,0.08003109937919448,-0.10192730195654327,0.8768105467648926,0.2591411475946223,0.6568970590640713,0.289324635027594,0.04181001794707506,-0.14734659332355243,0.23387673807489057,0.8525674525251812,-0.4374462903326606,-0.2739499082231014,-0.5237638854751248
170.0,8.06608533859253,0.40117459382825305,0.13651283268883047,1.0296948705263334,0.005719555045301869,0.013575872354584866,1.1221279338119474,-0.08057680940842343,-0.20334461942027413,0.14215327447507758,0.6370813405422494,-0.5289037121057628,0.10673230998430142,-0.6464042378236061,0.17937568991041908,0.12331313549659863,0.6612271859735126,-0.3288079798444258,-0.12252465849858521,-0.02817640406240326,0.034856579991707506,-0.050587857032390965,-0.4185712144915221,0.07287612710197743,-0.10135598826693358,0.8785152329492901,0.25684148403038176,0.6645644445098692,0.28683699826484893,0.04324560771280231,-0.14771382537665306,0.23298076237437704,0.8548676765619937,-0.43536128079388,-0.2651622413974817,-0.5165445072331408
171.0,8.113286018371582,0.4040446688570143,0.14309022968645224,1.0286882484508475,0.006276015436052032,0.014243135987488787,1.127217410451322,-0.07227065962383233,-0.20578125296566468,0.13897113969442298,0.6360040989591933,-0.5270017911905294,0.10667121038032781,-0.6460553033353353,0.17865093632936835,0.12221173137373881,0.6620012776815086,-0.3258536239069129,-0.12238395515817638,-0.027740512503286255,0.03786537581358457,-0.05126665998869932,-0.4144393263527999,0.07025045699840045,-0.1015321066477053,0.8795517455968855,0.25624079086103957,0.6653674621126244,0.28637630628818606,0.044254588538381476,-0.14662921931236048,0.23262750052642567,0.8568527639057626,-0.4338577847176496,-0.26068476633003346,-0.5131820898611256
172.0,8.137879848480225,0.4069751031694143,0.14971879929628085,1.0276678287748888,0.006669636847972546,0.014791311786246233,1.1323449451183114,-0.06429347994015783,-0.20799049273031645,0.13554509247253,0.6358154420586859,-0.5254375809792245,0.10660842445738739,-0.6452040325245352,0.17786681078784441,0.1206004855797123,0.6633192835898071,-0.3214276603234335,-0.12238305168269126,-0.027550948761074296,0.0412092487555726,-0.052136026792954426,-0.4093119104167967,0.0679634257143365,-0.10205145946598321,0.881169220232253,0.25588637609868564,0.665982690159517,0.28584073118816217,0.045781665906981406,-0.14562584670995776,0.23249363643481524,0.8588119790191013,-0.4327083445781473,-0.25690244360955516,-0.5106826741840235
173.0,8.196943521499634,0.411939506707229,0.16070670095858386,1.026046141074654,0.007533644552264822,0.015513357586347604,1.1412406927728378,-0.05122621653659606,-0.2111920611557485,0.12953465056067268,0.6365904295972334,-0.5231910243050975,0.10649953415732888,-0.6422848650367861,0.17632224383077943,0.11745884158260642,0.6661764337260321,-0.3116790439419742,-0.12272728360940861,-0.028045401728844455,0.04630546710141702,-0.05311805508550651,-0.39908465695011713,0.06403883226412524,-0.10322663019182515,0.8849305485836746,0.25538119917129176,0.667735474253674,0.28478873148586126,0.04963753288898803,-0.14481178425841054,0.23261078795876905,0.861444672430218,-0.43146289922217296,-0.2527382897783174,-0.5080830281259312
174.0,8.223054647445679,0.4139930903272506,0.1650954825772849,1.025455784134115,0.008252784950536161,0.015859118367274768,1.145041919412939,-0.0459345693165715,-0.2123056290939701,0.12720402155959143,0.6373111855019189,-0.5221504902457874,0.10641177190200776,-0.6401050124435823,0.17558396580954821,0.11643801890276227,0.667858839219482,-0.30627485866316095,-0.12310674580757454,-0.02860820015801087,0.047496158709226924,-0.053025534989849216,-0.3941542804379875,0.062122328045966846,-0.10375830699554328,0.8868937814207913,0.2551190789873667,0.66917457578285,0.2843890008793305,0.05200108652666923,-0.1449936718167134,0.2326763632098369,0.8620902089810647,-0.43108871725703746,-0.2521314892737754,-0.5075576198077124
175.0,8.246227264404297,0.4164297300418306,0.17021053064926261,1.0248082665751324,0.009350858537636939,0.016486371210915337,1.1494708889680993,-0.03987848759753845,-0.21356142283806573,0.1248420467167739,0.638420213494953,-0.5205827584280653,0.10622819182684518,-0.6371012948859942,0.17473720920014302,0.11580696031578358,0.670397568395111,-0.29870152569897057,-0.1237636329265781,-0.029219965169099367,0.04803063040637588,-0.05274235147930119,-0.38815471968485793,0.0596469238250265,-0.10441857951412505,0.8893739907733585,0.25475914119961346,0.6714939512294431,0.28400640476142164,0.0551096464729412,-0.1452552660825977,0.23254740582257682,0.8628108416108577,-0.43051744408499315,-0.25135864836288124,-0.5070832152375816
176.0,8.269633769989014,0.4192442043653171,0.17607482125216534,1.024142461038437,0.010701030845664674,0.017438780099104018,1.1544745664397245,-0.03299605102885068,-0.214993335574395,0.12237830139910325,0.6395866456000665,-0.5182564790449058,0.105969739263274,-0.6335150568866459,0.17335232073604329,0.1148594157639381,0.6738700154700912,-0.2884928083631101,-0.12471653723319168,-0.029879646436910753,0.0480160967012866,-0.052489943781076825,-0.3812317241773142,0.05675236201491818,-0.1052030025870418,0.8924919055066598,0.2543313297805825,0.6749992266602413,0.2835593736727979,0.05867698225136421,-0.14537999555117448,0.23218609252208372,0.8637553945419865,-0.4297019212122164,-0.24952691047541706,-0.5064411929357334
177.0,8.30770206451416,0.4224196965181408,0.1826857550512882,1.023511230278473,0.012052333880141281,0.01867388299895635,1.159959872638665,-0.02537051469233803,-0.21645414158453308,0.11981973560924913,0.6406528989455744,-0.5151234498801421,0.10568653176228558,-0.6298262393543834,0.1707664559310365,0.11225589746469589,0.6782507074222033,-0.27545034174811794,-0.12597255525446163,-0.0305886103979182,0.0477390598858321,-0.05250629912287981,-0.3735809596504807,0.053587068075561364,-0.10600993805365448,0.8963101270263253,0.2538004771388992,0.6797269903206153,0.283043472285621,0.0623624584114055,-0.14532622283869961,0.23157505197089778,0.8648614797931377,-0.4286433655572697,-0.2466979461064775,-0.5056780819991658
179.0,8.368351459503174,0.4256334717040704,0.1894009307845676,1.0230354476707966,0.013086860036806286,0.019944516670987837,1.1653614914148704,-0.017790934707412838,-0.21757620106546757,0.1173617656923443,0.6415260240624807,-0.511431377814596,0.10547502456357451,-0.6268222798401811,0.16635411973018185,0.10653191279022525,0.6831958825940398,-0.2603042227784921,-0.12746957900079092,-0.03132174290232929,0.047529173653167736,-0.05298285292205208,-0.36596858781591823,0.05041460977855943,-0.10662423938031185,0.9004997274463096,0.2531381564157419,0.685001825393569,0.282687524389714,0.06562483938469821,-0.14524216461788253,0.23068005582142856,0.865807713080194,-0.42743004161706205,-0.2438794007284669,-0.505223777853284
180.0,8.41858458518982,0.4301058846941681,0.19888209134532916,1.0227074095665352,0.013057129413204025,0.02084035847661264,1.1723207970728946,-0.008571690737501305,-0.21752454833026674,0.11359681624091547,0.6438896318390521,-0.5063502875831278,0.1055258533979732,-0.6248191464051999,0.15743276391638453,0.09208942955256139,0.6905490591731355,-0.2381326933123364,-0.12993493232066988,-0.03173916580163621,0.048809041531270164,-0.05475158549619246,-0.35514076888162105,0.045360352689033115,-0.10706283054168647,0.9068688739928523,0.2520981803392242,0.6911816568595095,0.28379833623361683,0.06924137770338368,-0.14571224080479223,0.2286927210360869,0.8670763486365576,-0.4250313280691785,-0.24214922394370497,-0.5044700012053647
182.0,8.463455200195312,0.43423024372817093,0.20774297277524584,1.0225426134184579,0.012251718578474007,0.020796135375342875,1.1787924919363841,-0.000847702645590271,-0.21663713470913143,0.10900607850947455,0.6469273080404894,-0.5017942264253167,0.10583494427483772,-0.6235869525619924,0.1478875340390119,0.07531747830922148,0.6972037416401431,-0.21712843404544288,-0.13241691487761684,-0.03201522821232738,0.051223767311837504,-0.05684533021636637,-0.34467043162671107,0.039940343979597726,-0.10726892892973988,0.9131990795677632,0.2510534915723829,0.69652105086159,0.28611664247706015,0.07252083132838195,-0.14657787246527162,0.22642524044095252,0.8684863815781318,-0.42220841791369745,-0.24120223653268308,-0.5030147056344414
184.0,8.523207664489746,0.43926381714485974,0.21874323629435288,1.022385426780132,0.010377196997599014,0.019510545487842295,1.1859259398962054,0.00708619870252647,-0.21434158706352185,0.10263788747972019,0.652548726431124,-0.4973993086859195,0.10671708746636863,-0.6221351328496576,0.1360660050649704,0.05270186367298007,0.7057457678348134,-0.19155828891012436,-0.1355043159109554,-0.03142979876374216,0.05604871771485962,-0.05928425851503996,-0.3310062009295771,0.03214978360410661,-0.10616652231636295,0.9222914678790148,0.24882949916783725,0.7045598473053674,0.29037863494642624,0.07692693668961365,-0.14807260947606396,0.22328647805394092,0.8709073637206804,-0.41813733465332675,-0.2401318593180889,-0.4999901638034331
185.0,8.570643424987793,0.44492712161978704,0.2312437168226549,1.022094268228018,0.008419427563213393,0.0177514257623657,1.1931894895423738,0.015444967256551468,-0.21122034622953262,0.09628118087473275,0.6608563413616866,-0.4927168443788648,0.10796793906349952,-0.6197316742924623,0.1249738285009323,0.030637805303963123,0.7170087511685128,-0.1633686537031387,-0.1390271341293187,-0.0301681656954326,0.06215639673975424,-0.06129348736783227,-0.31471781032255153,0.023153358157838796,-0.1026094611028765,0.9335177395067467,0.24453645189812995,0.7147652916392473,0.2956521005735226,0.08172955431282934,-0.14977280551907945,0.2197062501611059,0.8740274447586691,-0.41350599884650996,-0.2385425163455041,-0.4961887353739416
186.0,8.613807916641235,0.44964679863128815,0.24173406827036198,1.0217910956293201,0.007001515704228625,0.015882580468942815,1.1992610738279392,0.022107085518762296,-0.20805055009540097,0.09134544076397955,0.6693863560881991,-0.4882048941471442,0.10904391440533567,-0.6170155413694044,0.11765770507291691,0.014986875856476041,0.72726208048951,-0.14009701477868344,-0.14185796030934256,-0.029260510312083876,0.06762723338264233,-0.06268204808932305,-0.30048627493381846,0.015368419322591377,-0.09842252609920701,0.9434677950701204,0.2400707759601559,0.7234956410815037,0.3012243154988322,0.08543659810479867,-0.15136804404567164,0.2165821113387146,0.8768371792077774,-0.4094887433474728,-0.2365549242622756,-0.49232383004530794
187.0,8.659454345703125,0.4537430634448204,0.2508512618710708,1.0215312449513827,0.0060773260778876894,0.014044752118827768,1.2045172567112907,0.02771547218436116,-0.20463311769226417,0.0880170445873464,0.6779378449887279,-0.4830083384825796,0.10986146576975998,-0.6140509382403363,0.11374582132003017,0.005046006981037755,0.7368172940636804,-0.12055875864754093,-0.14380632232458812,-0.028637056127833682,0.07227973535834446,-0.06363782493082695,-0.2877651706723686,0.008527149324166724,-0.09413189548101787,0.9525936504345588,0.23579108482365535,0.7312825416587856,0.30711831953142965,0.08816872211063734,-0.1528984677705758,0.2137741731488158,0.8793218256002558,-0.40596603871494197,-0.23385989185797967,-0.48838594255437134
189.0,8.697696208953857,0.45722348379572597,0.2585681136553724,1.021387949195907,0.005534422508763709,0.012236104509669232,1.2089705268779796,0.03224195062158018,-0.20081812782524477,0.0863870812921956,0.6861088763515112,-0.4768714375345407,0.11044348911311883,-0.6109272243732953,0.11301344070568935,0.00029858435501667704,0.7452350823994318,-0.1047557365227866,-0.1448738760136755,-0.028284472337867208,0.07601962988771904,-0.06428609747991856,-0.27679603203310277,0.0027018077458486954,-0.09032872352147761,0.9610524201045928,0.23204383994093064,0.7386949793498178,0.31272182391834585,0.09009618573520747,-0.15435066518765034,0.21135992855788463,0.8813773218672322,-0.4030232999488541,-0.23049909359729384,-0.4845175302022913
191.0,8.760578155517578,0.4617444865884672,0.2683347479532958,1.021490985523425,0.005031423271896344,0.010211692997540522,1.214355300950429,0.037271365675412435,-0.1950997670428157,0.08590627583952394,0.6969701328730192,-0.4659545786726624,0.11095977567371015,-0.6061440421167027,0.1158772988359905,0.00016797881732940527,0.7557540520518402,-0.08738172814960377,-0.1449658656386274,-0.02760394237938465,0.07976189687851079,-0.06501333981235054,-0.262871113689625,-0.003995956255975713,-0.08676555674445392,0.9726693099657382,0.2281528027652301,0.7499209275304087,0.31806846307183495,0.09233846150335506,-0.1564201874214755,0.20904713129587188,0.8834803032355975,-0.4001252106221609,-0.2266096478329892,-0.4796655072790956
194.0,8.83063268661499,0.4673698628765567,0.2801794934798798,1.0218417226643708,0.004784228895322415,0.008242963042231405,1.2211589480527156,0.04218442109617211,-0.18766856995811604,0.08610889828437648,0.7116124274403555,-0.4492705269981736,0.11125403214891233,-0.5990237450054625,0.1223128796888742,0.004937356459805941,0.7679388475141979,-0.07106273831108884,-0.143997173675325,-0.026835061115609637,0.08368484970420825,-0.06589840333273322,-0.2463434081388694,-0.010919779781098822,-0.08409961217753872,0.98661195970553,0.22483410540614787,0.7634373964331729,0.3234314250225386,0.09422796062631525,-0.15904354894338252,0.20756105299847807,0.8853516132709165,-0.39787842369983306,-0.2234983790367848,-0.4738595447581927
196.0,8.906621217727661,0.4750889123278662,0.2960790452986419,1.0227760088006983,0.005339931114729293,0.006501751046329159,1.2326293647646192,0.04612865981106401,-0.17456541835083583,0.09076480006133389,0.7351637110568773,-0.41882961705220045,0.111465144256895,-0.5862421313379056,0.13403027258486755,0.01760627364485711,0.7823878495540797,-0.0604738116841959,-0.14166191009958073,-0.02732026987524784,0.08850135803832121,-0.06558795974196185,-0.22550298685363557,-0.018024167425371933,-0.08376377373813329,1.005111689024706,0.2236045853199516,0.7833465956735447,0.3298424475174303,0.095632072799064,-0.16193742352143073,0.20714974891591836,0.8871727686071845,-0.396730656982741,-0.22023542405833946,-0.4676840247741697
198.0,8.985077857971191,0.4827343711392975,0.311748539627846,1.0240761132724023,0.006408848278753629,0.005117788360190573,1.2464345408688409,0.0468953460214298,-0.1574421009037087,0.09998659007710844,0.763049427181177,-0.38099469043096756,0.11207803223277071,-0.5711207266143312,0.14672953594127686,0.032864453692779,0.7946515600407305,-0.05798218505634618,-0.1386812614718257,-0.029454380817994827,0.09299738382559442,-0.064319459111741,-0.20589223657615713,-0.023686242081937363,-0.08714309825948714,1.0234974305992377,0.22527210458443614,0.804796597527514,0.33499215156667306,0.09665162129746717,-0.16444259139909054,0.20705226556611725,0.8885630698928889,-0.39590027726967714,-0.217217564784626,-0.46199184681587985
199.0,9.035956859588623,0.48990271134757835,0.3263618357743707,1.0255878125898117,0.00788726911161872,0.004014601313365831,1.2621409759678524,0.04313959119286816,-0.13589491686465777,0.1140047866736961,0.7957429668884224,-0.3361585525472107,0.11362670555234303,-0.5546003857625187,0.1581832598432555,0.04733812052350067,0.8039838953046647,-0.06214700195101399,-0.13519064623647037,-0.033215403346077935,0.09679183097961416,-0.06262669589199016,-0.18822876970629918,-0.028128555659407313,-0.0955469564793657,1.0401575797830587,0.23076583477381085,0.8245066726889639,0.3389532192111271,0.09665940097048845,-0.1669099283453237,0.2070597291715489,0.8895541371264502,-0.39530896247084524,-0.21413925267273945,-0.4565287244719457
200.0,9.085789442062378,0.49531684140380716,0.33738600031199206,1.0267741737943767,0.009201298483271319,0.002759851117259588,1.275569226594627,0.03718616080241442,-0.11555244555419297,0.12791480955180545,0.8255724150739727,-0.2967203361641471,0.11562985262948001,-0.540917365052275,0.16639074629151196,0.05711180562824315,0.8099399919055148,-0.06753266186795728,-0.1319679581157559,-0.036924897754650673,0.10002104194315665,-0.061300068511199596,-0.17527347903258533,-0.03131759842431481,-0.10476739281975692,1.0518186465802077,0.23683346021170493,0.8388479497715953,0.34180100233796934,0.09583027837321383,-0.1691060832371008,0.207003201800723,0.8899445129780972,-0.3948843750662837,-0.21190598263263932,-0.4521875792858778
201.0,9.13343071937561,0.49931787907801894,0.3455348278680126,1.0276016872530607,0.0099504945903011,0.0014391081664656003,1.2867215061111488,0.029454213049800393,-0.09695176863784241,0.140720221360998,0.8526071209351784,-0.26345559099334587,0.11800802739350144,-0.5303539327276385,0.17145953717179613,0.06211835425053783,0.8134827071084617,-0.071845095461085,-0.1290494812022405,-0.04001136015783951,0.1029012145249038,-0.060736553897859355,-0.16606072866161287,-0.0337521915073654,-0.1135145819081333,1.058745325651463,0.24247921506649073,0.8475058767299373,0.3439870648626004,0.09414790790276159,-0.1713780947385086,0.20679309877582858,0.8896622568386827,-0.39470207147948466,-0.21112983957593823,-0.44924684053856434
203.0,9.166069746017456,0.502576142161747,0.35220691468211157,1.0281818236526246,0.009827223110995013,0.00017981910864660322,1.2965023189384752,0.020294583732454033,-0.07972663916765302,0.15230471259396994,0.8780747706517723,-0.23500902815722252,0.12072269655879514,-0.5222200408592252,0.17448047176150416,0.06388151005914967,0.8158194938087402,-0.07434100842873131,-0.12644515128061645,-0.04223054697562004,0.10576028934970075,-0.06106273622123512,-0.15893418200437348,-0.03599986980851588,-0.12078452455419195,1.0621229420656972,0.24694828868590613,0.8515610252073018,0.3460102131171244,0.0917865677099591,-0.17418523948509773,0.2065178073969485,0.8887752478558337,-0.3950975270168894,-0.2120166306316647,-0.44799472953365693
204.0,9.20455026626587,0.5065231651771098,0.3604032985582321,1.0289161296296583,0.008196998601632378,-0.0005022226058562303,1.3092561289654463,0.0052988083300016696,-0.05796737613556378,0.16687762865851358,0.9115796235106897,-0.202652113196359,0.12534796444770432,-0.513529954557327,0.1767137920769037,0.06463740189443017,0.8177656738900283,-0.07716154946028557,-0.12344846082579655,-0.04396422417282089,0.10886087568713002,-0.0622980693219507,-0.15159454953268764,-0.038908671149552404,-0.12732066583135018,1.0632356866628414,0.2503302115499213,0.8518657580232083,0.34693726311607226,0.08790611095102112,-0.1795521683019819,0.2066713247389838,0.886936196408364,-0.3974403360628497,-0.21516569909594305,-0.4487236456486037
205.0,9.239759922027588,0.5101483201201306,0.36786062698177,1.029634715507564,0.006079373353224622,-0.0012046523449957198,1.3216080262994234,-0.010376214423640052,-0.036922603837207135,0.18035324471130357,0.9438765083304478,-0.17570363355689556,0.1305847413709244,-0.5057215367451457,0.1792479257166587,0.06561936446510633,0.8185495414548889,-0.08076329792311543,-0.12071891475992635,-0.04553634003837641,0.11169464742638993,-0.06318508520474832,-0.1459192209457054,-0.04138117601691072,-0.1322104473179006,1.0637124738629873,0.25218585629343276,0.8527977603783231,0.34598599649278117,0.08399961989792032,-0.18492586374156753,0.20710311298883827,0.885445377815959,-0.400063774229591,-0.21733095324321447,-0.4490439755252188
206.0,9.280776262283325,0.5134987059647692,0.37461662810540575,1.0303282831799152,0.003980526511301782,-0.001932278630995255,1.3334924959887149,-0.025911568881399366,-0.016647379641379217,0.19290402715973662,0.9745226410900192,-0.15548481298948091,0.13645078640566563,-0.49829554807293264,0.18238224132265576,0.06737270506448417,0.8184095717808695,-0.08539571663203022,-0.11820872649940131,-0.04706301598109926,0.11390620872118164,-0.06328974133968424,-0.1421732844494825,-0.04321664934180915,-0.13565909650666477,1.0643787653296517,0.2527705418939205,0.8558518356557113,0.343139609596699,0.07993513142141861,-0.18959492566422337,0.207548128669246,0.8846299744649847,-0.40223870235731335,-0.21722965760811205,-0.4479474606674422
209.0,9.33117151260376,0.516585948602239,0.38069951902219135,1.030965815144794,0.002255839384873452,-0.002617215119890978,1.3447392650065713,-0.04067813689748784,0.0027568578432422587,0.20483000472470658,1.003126050393065,-0.1434235501608736,0.1428961025949669,-0.4910491122356788,0.18591550956505323,0.06978786290380017,0.817737677168771,-0.0907230031406944,-0.11589512388299439,-0.048474558115239874,0.11515324670063914,-0.0625340829551904,-0.1404077228084553,-0.044508174967293576,-0.13798007092919662,1.0654245940735514,0.25246753636667557,0.8611380367656573,0.33901892144490176,0.07557257429180513,-0.19334796771192125,0.20761917997530988,0.8844751616065711,-0.4034015735010992,-0.21461245064886367,-0.44508472188997017
210.0,9.4066002368927,0.5214285516547723,0.3904532190519591,1.0320763050618038,0.001299847305388142,-0.0014426720428961123,1.3627190935840845,-0.0629807607743871,0.03277477543994339,0.22719896555229574,1.0448532337616134,-0.15030700926200494,0.15597396900833055,-0.47824579770742337,0.18907806561220813,0.07414472115852536,0.8173535781312933,-0.09975700648618038,-0.11264005005825956,-0.048874187003471084,0.1127861088206514,-0.059387232068377524,-0.13984677370108414,-0.0463251124010438,-0.14051117328096732,1.0659767876008752,0.2519132968639759,0.8656072641021109,0.3335864757586848,0.06828471829628838,-0.1997478384066979,0.20633037622275324,0.8842941552233119,-0.4042898038105916,-0.21050651640042506,-0.4413973654303594
212.0,9.460180759429932,0.5255808629434374,0.3989350552554486,1.0329788643606745,0.0009118911715018613,-0.000789633840170731,1.3785818576259645,-0.08336719352918341,0.060657915315628856,0.24814578360938322,1.0825204836299096,-0.16599769581872714,0.16930217282278837,-0.46671113600872227,0.19151400051769146,0.07691168490739128,0.8169050286717441,-0.10743721776024312,-0.1097748379439514,-0.048821887226237266,0.11107299491545128,-0.056145632141427905,-0.13955661824610477,-0.048007073120195684,-0.1427851396328661,1.0650428009460697,0.2516567190773599,0.8679860210640344,0.3299058161800174,0.062077076936084344,-0.206069963951068,0.20498700192878372,0.8833234880220655,-0.4053552204000638,-0.2081774452679514,-0.43940149208753265
214.0,9.520923614501953,0.5299839579979977,0.4082429490354039,1.0338960078164767,0.0010835150354633178,4.691031444282727e-05,1.3956035399734033,-0.1065283996043539,0.09015509510139474,0.27128260113216046,1.1211757393392854,-0.19547316431811,0.1854144350785789,-0.4537788686875175,0.19310522171609695,0.07849456158094473,0.8162910889218964,-0.11507929760397212,-0.10669565110258175,-0.04769369410915036,0.10975795342817812,-0.05202130581627435,-0.13969405804107649,-0.04935164932698561,-0.14459338592871357,1.0620532918590864,0.25159100048061545,0.867174713018032,0.32807702398396854,0.0556738564967699,-0.21364184706621353,0.2037548038336887,0.881010638932066,-0.4079169394680233,-0.208702179947309,-0.4410031228819308
216.0,9.594188451766968,0.5344174410167737,0.41789443487691824,1.0346746224522494,0.0013862856463865056,0.0006726729807183994,1.4121026027479657,-0.13172323929696225,0.11681986564263339,0.292563046479664,1.1564332665511994,-0.23476594561864905,0.20134952023018915,-0.4403840127396892,0.19524034820810404,0.079846989659202,0.815387028348153,-0.12254054971163383,-0.10348899780226581,-0.04460824158981711,0.10893970605942932,-0.04769554608363441,-0.14116896449586813,-0.050277120822836294,-0.14537481336142088,1.0567544645283828,0.25128609182140393,0.8632833287701277,0.3278257163777518,0.048142224636540124,-0.22210663651854834,0.2026017104341249,0.8781858002166051,-0.4114609202916354,-0.2100487520722859,-0.444197822022115
218.0,9.65895390510559,0.5386723964216765,0.42743363700508724,1.0352470870934631,0.001878376252632852,0.0012435216817295576,1.4262905720489982,-0.15758350989226164,0.13571162736527376,0.30844685361465357,1.1838596686011047,-0.27755629224999956,0.2135909631283366,-0.42718067160745893,0.19847807027119163,0.08201233499075852,0.8144362295457039,-0.12948739747469307,-0.10044102880071823,-0.038709166761790745,0.10783625391258991,-0.043330968865614286,-0.14393865609387965,-0.051319569150508934,-0.14462082475132432,1.0493378669237987,0.25033917933994243,0.856884118127851,0.32942857395923675,0.03913681590162635,-0.23126160034487675,0.20148065352767294,0.8759255989137285,-0.41489054012449245,-0.20990857154526843,-0.4452666248466335
221.0,9.733424186706543,0.5430337617929286,0.43743804395372143,1.0357144917387469,0.0027079397121055775,0.002004808837022228,1.438774504464734,-0.1848688987985823,0.14729627251518013,0.31992144785030296,1.2038604463140223,-0.31878510666936644,0.22177362281507906,-0.41335145837639825,0.20299516292782785,0.08565150681745717,0.8136278836568396,-0.1362305347521121,-0.09738061717453497,-0.030109351219946637,0.10571772819652024,-0.03817156102783007,-0.14735903756451701,-0.053311358524192096,-0.14194865943319024,1.041019342505516,0.24809832866998743,0.8504285284335903,0.3320548614825698,0.028999739208189625,-0.2418117360956804,0.20038464174383291,0.8741873718067068,-0.41807735549375985,-0.20810629619939972,-0.4431072449863771
222.0,9.80460238456726,0.5479308731926941,0.4490478686209287,1.0359704917850432,0.004852016227155967,0.0019441010607117808,1.4498749784862817,-0.20960219730330665,0.15096362416427853,0.3247067657145014,1.2130069483138337,-0.3546036067931423,0.2243213622934943,-0.3962672660750762,0.20936193913802825,0.08959041284207779,0.811765416369705,-0.14344092106329204,-0.09487908175276297,-0.020533756509836985,0.10331025033556829,-0.03421529937958554,-0.14550544983494165,-0.055367265145611785,-0.13832549176313716,1.0313602873419478,0.24514777037879543,0.8440298879757944,0.33525438101818494,0.02378978118555683,-0.25219093435188245,0.20015665396630153,0.8709377424189984,-0.42259805786924043,-0.20719957271447542,-0.4437223031610734
224.0,9.862362146377563,0.5518563556624817,0.4586590476824599,1.0357030051336074,0.005454085478102045,0.0018172109131780697,1.4582465567728025,-0.23876342763875041,0.1495900761847575,0.3280420771208553,1.215494249195638,-0.38403153323905387,0.2242992304527687,-0.3839249913051999,0.21730472996193476,0.09552347247852166,0.8122487689070748,-0.14946647898273613,-0.09139890932091538,-0.008887177715578915,0.10110497516277238,-0.029794085258152744,-0.15102821436243297,-0.05866914525729448,-0.13195641053968507,1.0221727111843983,0.24058499142919237,0.8395131153205155,0.33961521490290836,0.01027325564263833,-0.263811754256311,0.1983000698898754,0.8687770038279751,-0.42657590065254747,-0.20510946147151035,-0.44403975623851594
