ccrpRepo/mocap_retarget/src/mocap/src/data/output.csv
frame,timestamp,posX,posY,posZ,roll,pitch,yaw,left_hip_pitch_joint,left_hip_roll_joint,left_hip_yaw_joint,left_knee_joint,left_ankle_pitch_joint,left_ankle_roll_joint,right_hip_pitch_joint,right_hip_roll_joint,right_hip_yaw_joint,right_knee_joint,right_ankle_pitch_joint,right_ankle_roll_joint,waist_yaw_joint,waist_roll_joint,waist_pitch_joint,left_shoulder_pitch_joint,left_shoulder_roll_joint,left_shoulder_yaw_joint,left_elbow_joint,left_wrist_roll_joint,left_wrist_pitch_joint,left_wrist_yaw_joint,right_shoulder_pitch_joint,right_shoulder_roll_joint,right_shoulder_yaw_joint,right_elbow_joint,right_wrist_roll_joint,right_wrist_pitch_joint,right_wrist_yaw_joint
1.0,1.9245214462280273,-0.1033438287705856,0.5153637142331668,1.0166830955187538,0.0005541339614731271,-0.006472925424287906,-1.6867879833081574,-0.2744462522494091,-0.1190639826346698,0.048015257621983345,0.9281160938849029,-0.5724698861226413,0.12611041913987284,-0.3392949788563612,0.2772097086853026,0.14806899460068304,0.8779224961383489,-0.04472682472450121,-0.04276828982472067,-0.026478080802784007,0.09279994233668096,-0.0736194800148087,-0.16348696787533024,-0.02932582537079139,-0.06751646049772414,0.9225854930181225,0.18508730936423534,0.773764006100911,0.2630688678171678,0.027706946997415945,-0.08085666949428078,0.06812630772516541,0.8862094129112499,-0.33089962469558465,-0.2652333317322586,-0.6003825936859859
2.0,1.9812862873077393,-0.10334258336611563,0.5153897789296706,1.0167528213027714,0.00043551702974830415,-0.006394786337224048,-1.6868924854395653,-0.2741712443407089,-0.11892856925243109,0.04807147891799256,0.927707226526678,-0.5722220759094807,0.1260768574528512,-0.33894068391548127,0.2772910661381822,0.14823731870428788,0.877335879926848,-0.04432806833753566,-0.04272619915874687,-0.02634248643843211,0.09268735638469225,-0.07373081019041416,-0.16477076261790782,-0.029238400216982006,-0.06748571265125443,0.925589440064384,0.1843979476894787,0.772285545815701,0.2636936115795553,0.02617713878656388,-0.0813155959819342,0.06913242163883988,0.8899740500809574,-0.3296278587189301,-0.26724966947758566,-0.6013579910017154
5.0,2.030726432800293,-0.10407486143586125,0.5149176813686898,1.0165890138071352,0.0003023137927945475,-0.006461816949981561,-1.6851899615618993,-0.27679728380658636,-0.11703430819962848,0.04997659382573999,0.9331399944471612,-0.5678181617841903,0.12552228346536826,-0.33836253366370017,0.27751773057194756,0.1473229262326388,0.8776438060944471,-0.04363745905433855,-0.0419585888366308,-0.026044910202363054,0.09414947619335765,-0.07248523354704217,-0.16607275357797419,-0.02998666644138321,-0.06962367589762004,0.9285709341741264,0.1848731338529555,0.7716729198442082,0.26324894056635173,0.02486412188135753,-0.07935303891651266,0.07065112411688435,0.8935000757013667,-0.3293328863740329,-0.2701357807485368,-0.6059798859013021
7.0,2.1061506271362305,-0.10676379124099258,0.5131767057049944,1.0158978929709153,0.00030636901432138427,-0.006908801942934882,-1.6792306993011654,-0.2853958642950865,-0.1115732907072518,0.054310491359526314,0.9504237621871582,-0.5557809357559949,0.12427482858092193,-0.33674199663505655,0.2777518141793148,0.14334048803837507,0.8783064963694527,-0.0434911207436202,-0.04100802979039053,-0.02639749855267952,0.0971816734730497,-0.07039108013134648,-0.16695038793081418,-0.03078061434631116,-0.07482340354788557,0.9308665283198035,0.18709356810190383,0.7713753383887554,0.260794763933624,0.023341893942932193,-0.07278013067995356,0.0731299122384459,0.8969541788849218,-0.3305279097306783,-0.2740257826774829,-0.616912392079568
9.0,2.173546552658081,-0.11018972370959158,0.5107118598272087,1.014838803027573,0.0007376214869139119,-0.007890309199420596,-1.6705170922246646,-0.30379207553383103,-0.10029394150546846,0.06580132264530941,0.9845165796751265,-0.5336293268652447,0.12538584695839497,-0.33501850136273004,0.27957998130651474,0.14031294518391155,0.8805763926203447,-0.04613921559814822,-0.0384344985139471,-0.024698065349025033,0.10289545162583374,-0.06519396566265712,-0.17151136901769132,-0.0345520375019758,-0.08075646009203402,0.9338275583346579,0.19002391174110816,0.7716740722066506,0.2606492535511973,0.017156398474483005,-0.06498578279108833,0.07642689862564275,0.9008101090670193,-0.33283870901620016,-0.2810683450040328,-0.6299798918452888
10.0,2.252139091491699,-0.11404855233762613,0.5080219141496836,1.0137841793077653,0.0005266720653452944,-0.009085184742155819,-1.6610447594761808,-0.32506712830199813,-0.08617221639867703,0.07971113150605774,1.0239007235793982,-0.5104885559925298,0.12840217264751397,-0.33217411272700603,0.2825414937219859,0.1383063605845873,0.8825557925288036,-0.05030846491124451,-0.03575535121047811,-0.022395092695878777,0.10782021345156587,-0.05856754556462634,-0.17653505293938299,-0.038486158734674286,-0.08546674484956324,0.9361510136022366,0.19254516543261743,0.771681617275263,0.26203588274143425,0.009244468460982189,-0.05876088996492041,0.0817352493458661,0.9044529554389188,-0.33741901886924985,-0.2879824575419208,-0.6414362490031666
12.0,2.3004581928253174,-0.11724181010694204,0.5058649786654683,1.0130030731988193,6.658974241389895e-05,-0.00979629265279153,-1.6536349015005656,-0.3437106821086896,-0.07299638826202016,0.09195723277628925,1.0578254309241435,-0.49288805194889723,0.13194348066047162,-0.32940833698052757,0.2856786625999165,0.1371404267230883,0.8836520038098429,-0.05411710315688528,-0.03363654581691137,-0.020072977779206802,0.11121561388861588,-0.052808607173806726,-0.1807835404898439,-0.041699158985168315,-0.08829710852135386,0.9377622562544192,0.19393293832515207,0.7712665394388554,0.2636925029024717,0.0014667985832733143,-0.05572606780292012,0.08752482974564901,0.9078652976607904,-0.3426000217653473,-0.2930920767855097,-0.6491122250297634
14.0,2.358534574508667,-0.12044768239996245,0.5035458032502536,1.0124803238254247,-0.0009377324984265222,-0.010650236766453092,-1.6472048144221303,-0.3627844512581204,-0.059398147637498684,0.10434253890021081,1.0907405902578609,-0.4799235237211785,0.13707565988064732,-0.32548017407776364,0.28893613503876986,0.13675088394676188,0.8837594672620698,-0.05822469049249475,-0.031846229134600015,-0.01707767454133389,0.11342764818406036,-0.047440730240848765,-0.1836098972171472,-0.0448559835170424,-0.08918634826627966,0.9390252071156298,0.19381221933770443,0.7705030943479008,0.2652848578447172,-0.006564381306822859,-0.05669748919329619,0.09649951191497291,0.910409060370207,-0.35125938868212014,-0.2982863362597237,-0.6529633414467982
16.0,2.4187662601470947,-0.12371905575914002,0.5008796769512545,1.0121979036847828,-0.0020967241697198704,-0.011691084064492811,-1.6414824130775527,-0.3822408796049428,-0.046528015847952894,0.11584706414278578,1.1210005351331065,-0.4718443476972433,0.14308888120561666,-0.32048753072024216,0.2919987457785922,0.13673871060390957,0.8828409044832072,-0.06302278249866983,-0.03074227380881519,-0.013627164787003862,0.11537459386093085,-0.043577340920814264,-0.18460039620598687,-0.04768837626072264,-0.0883705602746828,0.9402525377537463,0.1923971548574191,0.770782695446068,0.26664427171920924,-0.013830222472524937,-0.06025221207128437,0.10765299478152943,0.9117370958073022,-0.3620902288704301,-0.3053262723707438,-0.654454829083026
17.0,2.4745752811431885,-0.12702578813469936,0.497759811224373,1.01216863152584,-0.002883368217144459,-0.013228278818624296,-1.636087567013813,-0.40314914722629563,-0.034005191357494115,0.12781090505532106,1.1490386299708242,-0.4664350933211112,0.15017291953463305,-0.3148284573148478,0.2948189432900059,0.1374437316012176,0.8812005175850439,-0.0687927011723974,-0.030151374793949057,-0.009551883398269541,0.11725215433568822,-0.04125831390917521,-0.1845967708751404,-0.050363232021010784,-0.0867030676138445,0.9413119034725186,0.19015478701674876,0.7715964262842793,0.2673368582597554,-0.02109140239070758,-0.06529670097268836,0.1196166941568976,0.9121200449531603,-0.37364607120295157,-0.3138630654076777,-0.6545101922745364
20.0,2.530848741531372,-0.12974466353005282,0.4950168662916384,1.0122319096518184,-0.0030367476728192884,-0.014576667699400126,-1.6318411647387367,-0.4214520327443121,-0.023516262875087724,0.1380669345517568,1.1710719268036722,-0.4630908897874905,0.156592936665214,-0.3102498243595241,0.2972351527897742,0.1383642746799877,0.879506037348994,-0.0738984531355106,-0.02987869371003272,-0.006125597005010244,0.11877126981364189,-0.0404255465217702,-0.18412585791608976,-0.05254151328496971,-0.08495445863104996,0.9419258636236709,0.1878213882355113,0.7721969058473555,0.2675593235857576,-0.027291728765771663,-0.0704788793819581,0.13001409369297723,0.9122704967493878,-0.3834047006158351,-0.32186849185751487,-0.6539378896189496
22.0,2.6049070358276367,-0.13311805545785554,0.4911697706759479,1.0124687991021686,-0.0028882154364852954,-0.017207076412511735,-1.6272337420039098,-0.43974103962415273,-0.013953271507185403,0.14881647121104408,1.1888969194832633,-0.46030063282147027,0.16307874506923226,-0.3043940262748285,0.29881538464886725,0.13945792495398865,0.8768938737180139,-0.07931543312145495,-0.030424604248872743,-0.0029569831098812255,0.11814391369611106,-0.041959138835142705,-0.18009417030287672,-0.05375587776324808,-0.08357926526255602,0.9415962412149188,0.18528961225578902,0.7709126684137645,0.2659751867047798,-0.03176891399666341,-0.07672818857247427,0.1421311382397376,0.9115630396202847,-0.3949869759214916,-0.3306487858392574,-0.652866134310929
25.0,2.6914455890655518,-0.13651660380057418,0.4867563700052575,1.0126476330849499,-0.002436088220119043,-0.020722767131589978,-1.6232234222240252,-0.4631839317808716,-0.004197989332752568,0.16315242257582507,1.2035375083458242,-0.45647734514418886,0.17137811428908467,-0.29830685817467933,0.30040800941269163,0.1419031778218914,0.8749978117454028,-0.0844855644132814,-0.030477927988276313,0.0023114915845444638,0.11644640342676338,-0.043701440490278826,-0.17693017342981443,-0.057499676669364924,-0.08161103943916004,0.9408551105659033,0.18200082346989863,0.7681314864094138,0.2656658985581015,-0.04152592092657727,-0.08900743576016713,0.15574088360711374,0.9096436025486463,-0.4084242316213389,-0.3404174576540343,-0.6452733405052293
27.0,2.7733986377716064,-0.14020626757988208,0.4813060710381118,1.0129694004951713,-0.0023143309200962946,-0.02409412346293858,-1.6204586664076084,-0.48443329496531207,0.002535794214161306,0.17536659623006046,1.2109772528355505,-0.45366809728958385,0.17764035736065764,-0.2904396110843115,0.3020040238090829,0.14444121346409405,0.8717645093809848,-0.08870271470372604,-0.031121352425704008,0.007907969843103182,0.11484205783425899,-0.04599953890982543,-0.16925083124238105,-0.0602659597427704,-0.0809457043321172,0.9389698919533161,0.17977104031211388,0.7632708897915164,0.2653077367511181,-0.048715935168800586,-0.10157330306547374,0.1700665903879644,0.9068046643353049,-0.4222387124319487,-0.35058659219661786,-0.6368290773977645
29.0,2.847705841064453,-0.14375284672358074,0.47576793380461035,1.013230659987082,-0.0014035255638271636,-0.027626636329922474,-1.6190663211536382,-0.5105218071383008,0.002754336221199146,0.1847155509387038,1.2095801349955921,-0.4507226044274554,0.18114456001354004,-0.2834315859772526,0.3037025916073289,0.14770463836936232,0.8689030902525245,-0.09179293571369587,-0.031063486573713148,0.014348937275835107,0.11408039788750629,-0.04652868107469062,-0.16350673501420482,-0.06564409803983427,-0.08055162339090505,0.9378044519673563,0.17730576964546274,0.7604359632609721,0.2653729689719677,-0.06078321887591684,-0.12097304998375978,0.18502522723717324,0.9019913454346733,-0.43786980147946464,-0.3617743716444515,-0.6231599596270356
31.0,2.934251070022583,-0.14854359907757805,0.46741400546971223,1.0134355179375483,0.0022935313384484634,-0.03212701303251534,-1.6200639274933895,-0.5494943520730002,-0.00799120870074568,0.190216413094442,1.193124118916487,-0.4481334132179918,0.17966043122343256,-0.27534577792024684,0.3061876684326269,0.15286098846344276,0.8640033342761264,-0.09327883019753193,-0.03039531234708429,0.02451672406292714,0.11401295809823742,-0.04848371355607608,-0.15501907460504413,-0.07358805881910485,-0.08173644417656668,0.937402849939572,0.17449153888556176,0.7593089490870026,0.26399418668169056,-0.07994329439476686,-0.1520430221207317,0.2054591089060162,0.8937293149094088,-0.4582064964646986,-0.3779645050056111,-0.5995570754939659
34.0,2.9913125038146973,-0.1502972350516154,0.4639606734828622,1.0135410289623827,0.0047119088073674965,-0.03336598969581457,-1.6215492652996042,-0.564658933467213,-0.015634765875697565,0.18987179618729025,1.180087769439841,-0.44782119034012224,0.1766502286098104,-0.27277594659241394,0.30707378747184655,0.15457872388263866,0.8613019676465721,-0.09271412812934789,-0.030136758994057898,0.028885636107280278,0.11405398884132942,-0.04995383940636863,-0.15121146523832033,-0.07604663156277325,-0.08362851634445717,0.9378892008945905,0.17433421872680577,0.7598818634789033,0.26251102403518667,-0.08740835721571584,-0.16375290237084206,0.2118681790964023,0.890387474603975,-0.4638889058539689,-0.3831220453965452,-0.5893646102620758
35.0,3.079674005508423,-0.15270938289632138,0.4587200432746775,1.0139265144662357,0.006789990606842649,-0.03412044890220779,-1.6241775839475894,-0.5815467356722597,-0.024440121506294224,0.19079637176525546,1.1564172884693833,-0.4470683389717168,0.17238079479091628,-0.2671425966621508,0.3073166609086284,0.1547541678611385,0.8563023464967654,-0.09114933653086116,-0.0308740865799309,0.034054247298806364,0.1140433162901849,-0.051402266780062766,-0.14595158149441173,-0.07809501758430162,-0.08722491342500958,0.9393427158531664,0.17519960077786256,0.7615191473370915,0.2597481512265935,-0.09643138331010422,-0.17777388466431873,0.21763675218357947,0.8856192898923969,-0.4706642364411684,-0.38786043379334273,-0.5802839826137456
37.0,3.1353747844696045,-0.15472119505169052,0.45414165125055683,1.014341443024449,0.008494945949359546,-0.03464548637844858,-1.6265964575459453,-0.5949367743877793,-0.03162845224123785,0.19214005758892805,1.1337873858342733,-0.4457888251310142,0.16872334894268576,-0.26189950047372557,0.30695709239069124,0.15434614388557089,0.8512876024752706,-0.08925001519286935,-0.03172522472568219,0.038082123664672896,0.11422854289544654,-0.05239431038654048,-0.1416268334045649,-0.07970695337684132,-0.09040877111677963,0.9406430393782566,0.17600178383482337,0.7631067608026433,0.2572301185558229,-0.10420403880439985,-0.18974169230538918,0.22210100399293392,0.8813793007003403,-0.4764254651276515,-0.39088513867546126,-0.5736514108761348
39.0,3.1996889114379883,-0.15695691165849385,0.44887959111052866,1.0147392727755853,0.01017158971804052,-0.03489167896897588,-1.6296548088763885,-0.6086181064446602,-0.039620048120052626,0.19351303685612908,1.1057491279256828,-0.4444318577550169,0.16436705554237077,-0.25555845644768,0.30638245225242633,0.15336058339614914,0.845124941132687,-0.08691979862552178,-0.03290718031581656,0.042017331272748704,0.11470885856567237,-0.05298456681104042,-0.13723422929303677,-0.08165961061996,-0.0938319144902488,0.9421518269601219,0.1767026766814493,0.7647112806460414,0.25405182467608867,-0.11332750771292242,-0.20307862004963367,0.2259665915856613,0.8768705516027344,-0.4826042644689143,-0.392268587429316,-0.5668942305700017
41.0,3.253964424133301,-0.15915929624222558,0.4434803470752484,1.015092719469534,0.011970752643449111,-0.03483648083092636,-1.6325216992843194,-0.6212309033913515,-0.048476116843789996,0.1938977909753798,1.0741456330464163,-0.4439049576407669,0.15960153388395693,-0.24889050333988716,0.30558613823582537,0.15172498656663333,0.8380498521100617,-0.08487554257136262,-0.03441295507598072,0.04491585011207199,0.11493801802420077,-0.053455167687350744,-0.13285539435231183,-0.08416139258934038,-0.09730502450262013,0.9437086898933007,0.17722327356194487,0.7658021516794523,0.25064846862773177,-0.12224481047188368,-0.21647557418338814,0.22794026822049268,0.8725505906285047,-0.48755747104279146,-0.39176776242183103,-0.5610995705742382
43.0,3.311250925064087,-0.161306880802555,0.4379424724306935,1.0154755091718404,0.014097085350955666,-0.03474803797765226,-1.6348481735316072,-0.6328948649590895,-0.058256911165640676,0.19363851653389275,1.039573550805108,-0.4450894501739946,0.15464267145633553,-0.2422126248646942,0.30403898170883625,0.14903956524344225,0.830252650063407,-0.08273477440425248,-0.0361966097672207,0.04670860999655414,0.11502920208980645,-0.05405078689578936,-0.12910298547167393,-0.08685873469165972,-0.10039205604530427,0.9454716102250011,0.17755394272192526,0.767040558364029,0.2476006337049279,-0.13093651733891667,-0.22947592332104472,0.22803853931024787,0.8682023282199719,-0.4910758265621484,-0.3901221515993991,-0.5564353896583962
46.0,3.3839328289031982,-0.16351445068748988,0.43197377334141207,1.0158990345416994,0.01649632063197585,-0.03458787866826937,-1.6367238433943752,-0.6443096173961544,-0.06844366506272562,0.19377539564664292,1.0017754631562663,-0.4475808557803445,0.1497437465461698,-0.23523854533858218,0.3018952009411165,0.14533356980539827,0.8217704594941435,-0.080179000871844,-0.03823218443392025,0.04768541470832513,0.11548510126070993,-0.054714608710968914,-0.12599516021357934,-0.0890873718430404,-0.10310729244187827,0.9474198418212036,0.17788594669693258,0.7684777648527927,0.24490173838226886,-0.13969244917493212,-0.24207980267272525,0.22670068195898802,0.8633314913827017,-0.49355223969561773,-0.3886905910267205,-0.5531260550210308
47.0,3.477132797241211,-0.16607222053970153,0.42448266134233975,1.0163703283908956,0.01904431698792373,-0.033277205573471566,-1.6387294701531363,-0.6565229203344319,-0.07816578934071672,0.19549712366007818,0.9570660233147801,-0.45063336969001067,0.1450127325765082,-0.22625130934490736,0.30051826985741004,0.14075332090596243,0.8117696246249549,-0.07760458125221095,-0.04065619984273096,0.04792707401398388,0.11741800474616067,-0.05572104248306556,-0.12292668992866375,-0.09001404778939029,-0.1060619390139282,0.9494301285648785,0.17879120664334142,0.7697419823336304,0.242268144956206,-0.14905460709424245,-0.2541699059964751,0.22296252700764035,0.8579668332424716,-0.4945961352738873,-0.38658932961702586,-0.5524199864866686
48.0,3.522448778152466,-0.16804831837115738,0.4183796693487253,1.0168083836080208,0.02116429126069734,-0.03222244689127451,-1.6401643859550428,-0.6649786341937455,-0.08523094052439356,0.19797530393013013,0.9203769809304895,-0.45169282017920387,0.14166257681655586,-0.2187064271500081,0.29926110147153073,0.13713866946053596,0.8031823421806362,-0.07515439726367534,-0.04253715900837726,0.047613550426446286,0.1191752648225709,-0.056743074004164215,-0.12090487727638871,-0.09004959766707071,-0.10836661636741354,0.9511745744256175,0.17970304565439732,0.7701598936278082,0.2403517671585007,-0.15602917856778087,-0.2626579068134189,0.219427292479594,0.8536267756922034,-0.4947569519547733,-0.3844631874951638,-0.5529428422786203
50.0,3.5601565837860107,-0.16958667315966136,0.4134105337485755,1.0171757129265462,0.022878442566302615,-0.03143697266983605,-1.641379056234864,-0.6706824195635237,-0.09031695137289412,0.20082811612714552,0.8907040236901611,-0.45127940891762375,0.1392033998618994,-0.21238862041106593,0.29806191774447083,0.13429432440610378,0.7959154476561667,-0.07266711936082215,-0.043961611230859024,0.047105487906258015,0.120373547322358,-0.05775897174705648,-0.11967661975655608,-0.08960350819955748,-0.11020316661753847,0.9528892060437959,0.18056930694917694,0.7702309092213218,0.23888377366623054,-0.16107903353805342,-0.26839974376527564,0.21616571549023783,0.8502072937444073,-0.4942201044433805,-0.38219603264376745,-0.5539077852537445
52.0,3.6154603958129883,-0.171252178975771,0.40794910187804523,1.0174613810467403,0.02448668987923761,-0.030427031976628348,-1.6432459888898068,-0.6764757071473271,-0.09527695607826636,0.20373462573199697,0.8613658181051003,-0.45173756186800795,0.13637137472931476,-0.20555544843953463,0.2965299396902633,0.13059819142956705,0.7885302494333044,-0.06901788930166632,-0.04539730091901938,0.046564455541492036,0.12070347179319318,-0.05899677996391612,-0.11883456512596352,-0.0889158043579134,-0.112105988114066,0.9553230249554499,0.18155901344173386,0.7716265179837405,0.23720129146344246,-0.1653656141455901,-0.2729144957322708,0.21155913277032176,0.8468725874225551,-0.4923223500353613,-0.37911588194154344,-0.5558057028465502
54.0,3.6901297569274902,-0.17304501784116688,0.4020269893220229,1.0176572795497123,0.025800534765940887,-0.02918424628115772,-1.6454277951047622,-0.6824348657676698,-0.10044229322328228,0.20604901595614908,0.8333402353747338,-0.45318807249607784,0.13311031750937644,-0.19805295924536007,0.29479911936213954,0.12612817879296762,0.7810439523490744,-0.06478877331239315,-0.04681824862096032,0.04586262297416653,0.12069959268187491,-0.059991809870740403,-0.11796470987975663,-0.08779469466993917,-0.11428001136116808,0.9582639830334165,0.18281289204709408,0.7740723672140818,0.23518179351063664,-0.16824968368919796,-0.2760457286474644,0.20571647167444557,0.8431654807858442,-0.4893917325791394,-0.37694231927421396,-0.5602011230122248
57.0,3.76119065284729,-0.17502716602287466,0.3952260965200608,1.0177224208797964,0.02677618283861033,-0.02750524472260833,-1.6482764088942716,-0.6886705724964377,-0.10568928790750037,0.20802336388813603,0.8054309114620799,-0.4555976257131397,0.12968560424760028,-0.18922326298500197,0.2931874801943433,0.12121407294722228,0.7731843054654934,-0.06012337398655325,-0.04821959245777003,0.04529752052911348,0.12098328781988232,-0.06063884157260095,-0.11679136994696296,-0.08567736768144402,-0.11691516999662271,0.9609031759311619,0.18460548146110206,0.7764853112646859,0.23291190758499714,-0.17062513121584663,-0.27828870160165575,0.1994217426735333,0.8389609828507065,-0.4863185136565338,-0.37536632251997515,-0.5662304750451491
60.0,3.8543694019317627,-0.17743614321719753,0.3861426806892814,1.0175144373000573,0.02770968501217052,-0.025077583131630277,-1.6528681013329722,-0.695299268721457,-0.11184569086146662,0.20831467101402495,0.7760745786148924,-0.46273657204705576,0.12694183900801462,-0.17788042948263974,0.2906855701462022,0.11428696584564081,0.7644512536711219,-0.05216291055924081,-0.04970573460893121,0.04521695947150389,0.12031599885836144,-0.062192132116741274,-0.11569960349243781,-0.082759090796622,-0.11967523428848889,0.9625422286984624,0.1867007686071488,0.7776297613750678,0.23069412923484378,-0.17390976718882095,-0.2799184503197051,0.19208278704421977,0.834544718055809,-0.48228987658353184,-0.3717252895640279,-0.5716129494081914
62.0,3.9402952194213867,-0.1800518139513534,0.37561528238649455,1.0168047548594923,0.027082191223203662,-0.022132513397750724,-1.6582653674751922,-0.698700441098516,-0.11660328161800881,0.2066977389834882,0.7548499725987123,-0.4726897397450022,0.12551569434598908,-0.16234381851284743,0.2886076817113671,0.10785258139267802,0.7536445196409549,-0.04339168740603515,-0.051581739181286265,0.04547997387065119,0.11959352015575547,-0.06523817225673983,-0.10954336764696732,-0.07977638862071249,-0.12278489555094807,0.9618390745228051,0.18871943473022912,0.7772326503233653,0.2281750446259965,-0.17125357764333698,-0.2801788468072553,0.18632183791309223,0.8283257866332603,-0.47864453572523663,-0.3700027301291565,-0.5761964148928383
63.0,4.018463134765625,-0.18257435879265294,0.36503669834587626,1.0151372472274944,0.027814997693884888,-0.01933753149150045,-1.6643090979345643,-0.7036536877106243,-0.12092117980010444,0.20518280137427927,0.7374209268864842,-0.481515539487601,0.1263180993849896,-0.14732259924084806,0.28589645086014204,0.09993175268834002,0.7434277321412281,-0.03298599601543626,-0.05304715216026964,0.045475997541898294,0.11906147167070502,-0.06584096965063851,-0.1089634691167952,-0.07632839470087455,-0.1236427960627147,0.962027853791817,0.18944698204330224,0.7773719096341364,0.225726906554038,-0.17181856771806275,-0.2800972185003101,0.18148439872761152,0.8232852571801539,-0.4753598973761185,-0.3701062907121565,-0.5793026919980698
65.0,4.063976764678955,-0.18454016024639458,0.35669178024354464,1.0136910878319279,0.028455515576390922,-0.01709919977887726,-1.669063457018951,-0.7062775315799845,-0.12311505794937738,0.20467280568336924,0.7265667151210744,-0.48813537932460493,0.12764783162020302,-0.13499533974588385,0.2837808686958798,0.09374309095465788,0.7345861687536064,-0.023942891911714247,-0.054178316704705215,0.04553746008661773,0.11876092610237116,-0.06610899730370758,-0.1088800726145789,-0.07322050147949974,-0.12349414027807862,0.962127668810755,0.18962440700042293,0.7774151031030965,0.22417668416397252,-0.17146807217109067,-0.2794120255898025,0.17884480810777942,0.8192630740504068,-0.4736107289249799,-0.37095385040727913,-0.5811592321752855
67.0,4.130594491958618,-0.18650196669641167,0.3483447017403487,1.0123327995279197,0.029431436345625485,-0.014661825801104221,-1.6739808102017828,-0.7069840928730686,-0.1225071660825322,0.20623552968249886,0.7204448583229747,-0.4924834544532457,0.12934529381813825,-0.12406978555954705,0.2825174525090037,0.08837669458422304,0.7274601282094137,-0.015459098995176517,-0.0549835801744192,0.04598614059075164,0.11860772408675353,-0.06723975394565015,-0.10933946382563828,-0.06953725132573678,-0.12198022542429703,0.9623024462737237,0.18925687400499358,0.7776634467201151,0.22361842355074535,-0.17028530413277493,-0.27778474774801354,0.17839224046234453,0.8160091985653724,-0.4733811626354697,-0.37292482326006304,-0.5824058474926804
69.0,4.190169811248779,-0.1885729127901101,0.33952765424029996,1.0111674557114316,0.030490370715346826,-0.011845783562926232,-1.6794031964012603,-0.7054740332939589,-0.11989789160094048,0.20874004660263495,0.7173268043654528,-0.49473517953370905,0.13093689177531342,-0.11432573157678252,0.28224907099899543,0.08375932027306604,0.7228059517989687,-0.007394827976517671,-0.055387905796421624,0.04671767823341511,0.11807098261243859,-0.06917606055420991,-0.1105368163556629,-0.06582197432506451,-0.11932833709041085,0.9625888712064948,0.18845433172746337,0.7778912571271259,0.2243257753376029,-0.16870488904520775,-0.27582139477927636,0.17960056950439968,0.8138305578872636,-0.47447243943044115,-0.37503304444940905,-0.5830157706755617
71.0,4.252860069274902,-0.19080716106479606,0.32990052855501417,1.0101155053136996,0.03089204965406571,-0.008689198835380517,-1.6856447817201918,-0.7008841883465728,-0.11559072906043386,0.21184080370603442,0.7171556011111012,-0.49675427823088825,0.1321884223264153,-0.10456455799218006,0.28277743575008574,0.07995221090494053,0.7204485129335931,0.0004890705905452098,-0.05549973694067624,0.04761397875297976,0.11694323348526334,-0.07162013282316518,-0.11081828689349724,-0.06218529532375053,-0.1158725664920553,0.9626036722106641,0.18728930838091545,0.7777491694558027,0.2260960078050634,-0.16540394490550916,-0.2734273367853651,0.18245962714245995,0.8123695035424525,-0.4767926201786896,-0.3773608078356274,-0.5833181612818304
73.0,4.312243461608887,-0.19318891956353498,0.31936792218779836,1.0089597444475904,0.03099820808269519,-0.005113084886138264,-1.693082144898301,-0.6941099693043111,-0.10937448606178092,0.2163027446888425,0.7194150263559408,-0.49760894766679076,0.13337534770160825,-0.09470027337894667,0.2837371948052927,0.07651328397484922,0.7201948678592651,0.009220511748122107,-0.05525434576911538,0.04902107683053179,0.11580673185335394,-0.07393898159841797,-0.1104569121311951,-0.05808462638729901,-0.11179243679349021,0.9625233754323685,0.18580788255729314,0.7775746179454197,0.22809321256134035,-0.16072455037834463,-0.2699323105532766,0.1865060887058787,0.8118415649180328,-0.47957086545893357,-0.37969208397427223,-0.5833864981291341
74.0,4.378812551498413,-0.19566161182059844,0.30824597668871356,1.0077655397019645,0.03078603920884517,-0.0015792875477669691,-1.7015824789543283,-0.6851706568396554,-0.10097808084059044,0.22316945002510588,0.724302727724535,-0.4951268681170168,0.13459853436854596,-0.08479130284466413,0.2846235941691385,0.07396010379157766,0.7217526247609554,0.018652484640350617,-0.05481961906557524,0.0511494578045788,0.1143123739356235,-0.0761791985264548,-0.10940305042529379,-0.05364359047990292,-0.10751941604639985,0.962295154328934,0.18418226362563783,0.7774557152019811,0.2299141903877073,-0.1549178234285356,-0.2653510852236503,0.19115150506177064,0.8122827123623844,-0.4822247124685807,-0.3815591123476604,-0.5831711867613464
75.0,4.4174394607543945,-0.19770607564054,0.2989793513856628,1.0068105141372206,0.030262526349469618,0.0011914843591898654,-1.7092161525138865,-0.6766856019287601,-0.0928010969866925,0.2302787352706582,0.7296950402904472,-0.4913914947806358,0.1356146185259514,-0.0763200944295626,0.2851286149252548,0.07257493397910246,0.7234718604500574,0.02678181045517682,-0.0545266039971532,0.05338406895065541,0.11281481796105663,-0.07788444686237635,-0.10811131003856644,-0.04973312915226909,-0.1040017988427602,0.9621471978021903,0.18282778315644405,0.7775784677159905,0.23122398354037338,-0.14961608457846304,-0.2609180709267854,0.195128344731559,0.8132010066081314,-0.48422268500247745,-0.3827776258624165,-0.5829360215893888
76.0,4.4545934200286865,-0.19940817594448312,0.2911256588120454,1.006077829032231,0.029577059717767282,0.0033251421141634614,-1.7160228527748855,-0.6688638208130955,-0.08515794868055998,0.23724229929671597,0.7350715626687732,-0.486739505575532,0.13654997594887883,-0.06891521164743152,0.28513280386354106,0.07189631880099549,0.7250670548622244,0.03360995775973122,-0.054452288276809355,0.0555415532262557,0.11132825231994897,-0.07941291332418264,-0.10659079094306759,-0.04618093689156615,-0.10118745123609557,0.9621456940206178,0.18174424341301035,0.7781301890892152,0.23197885802134754,-0.1445525103441213,-0.2566191408699275,0.19857560552283346,0.8144160185744431,-0.4856834569875875,-0.3835454661719222,-0.5827284133424149
77.0,4.483669996261597,-0.2008651154710618,0.28421823162515514,1.0055792619379542,0.028832613986544554,0.004938260319705415,-1.722051302161722,-0.6618203178650086,-0.07833315326142698,0.24362254537810268,0.7399902888944888,-0.4818296768764004,0.13749919372731367,-0.06216838281473104,0.2845418888103847,0.07146074704712554,0.7263471112104685,0.03922017135974051,-0.05468313312827813,0.057428878730669645,0.10975715842130411,-0.08099930532543738,-0.10482979356766406,-0.043002629872129924,-0.09891835924380192,0.962294280364354,0.18084818972545894,0.7791525018525229,0.23230842907893295,-0.1393930507102143,-0.2525862615983435,0.20174015290060238,0.815806387009534,-0.4868333739721951,-0.38408086260491064,-0.582435252046904
80.0,4.528296709060669,-0.20219197534891514,0.27774936713320125,1.0053450634086738,0.028125178355540653,0.0061204693614703536,-1.7274490844726271,-0.6556414371177199,-0.07245102066110141,0.2490957720545677,0.7442234677531707,-0.47711850324693733,0.13854047440354153,-0.05570654802184914,0.2832914381905504,0.07094422614251178,0.7272571673284883,0.043894950448984255,-0.055279286819173795,0.059013156475237166,0.1079388855475015,-0.08282963480053827,-0.10281992605264417,-0.04013327483413372,-0.09700122773129752,0.962499428715959,0.18005918932545742,0.7805238470098833,0.23238722186880972,-0.13387326519140924,-0.24875700637498588,0.20486598868006883,0.8173585344689593,-0.4878061308810028,-0.38430413259448776,-0.5817920944139002
81.0,4.6107306480407715,-0.20460660063200117,0.26566040254375545,1.0058207750145078,0.028058948794939143,0.006019506627674538,-1.7349907274793983,-0.6488304921198764,-0.0666525085964785,0.2539360930291274,0.7500186546821159,-0.46519634449268477,0.1406411952249456,-0.04527463483974624,0.27832753876466776,0.06965057727594692,0.7290868201251912,0.049688162281836264,-0.05738280255002571,0.06017698099395939,0.10228258825395195,-0.08812707650380205,-0.09945703482659055,-0.034629676267200316,-0.09366296787338416,0.962614232506354,0.17873537199787748,0.7824876870354971,0.2321054543511897,-0.12274669633903462,-0.24057444219508545,0.21031510065627024,0.8206145734865543,-0.48888162899261145,-0.38139810255810763,-0.5802713472516039
83.0,4.6689453125,-0.20681484537907152,0.25471237782612466,1.0064060895583222,0.028431991416112433,0.004814278406068117,-1.7410179424107621,-0.6442277666091777,-0.06314244293211582,0.2568837630149759,0.7553043743249253,-0.4499916343366671,0.14207972590094461,-0.036517706864856475,0.27289517374118155,0.06872672593904414,0.7311150816037353,0.05442190099524543,-0.05960319061153874,0.060698542921721235,0.09592142327234301,-0.09377049925586445,-0.09660510495962671,-0.02917446984296123,-0.09071894048235754,0.9625127579462065,0.17759595379509846,0.784282276603596,0.23146065740496508,-0.11227123140512653,-0.23219442966109458,0.21490239399010871,0.8236370165180148,-0.4894778521550986,-0.3774764503174568,-0.5798823274712411
85.0,4.732506275177002,-0.2093831447313071,0.2421898303892504,1.0069143460055243,0.029642573801652243,0.0024561757033377926,-1.7455638901540291,-0.6418615142642831,-0.0628982332873638,0.2559498564810348,0.7634595910733935,-0.42171387871272736,0.14195824274405333,-0.028591364410436356,0.2660546028072795,0.06706667765298213,0.7354870478627552,0.0597710636443107,-0.062057476939145026,0.0597176787122703,0.08723537062246275,-0.10101258465804092,-0.09460475185352113,-0.02287400701360555,-0.08750871123255755,0.9626042815650031,0.17637187904818669,0.7865294191408096,0.23035865891237622,-0.09968230521962829,-0.2216790461611951,0.21863485692925508,0.827421327594346,-0.4887693055392766,-0.3717921597232944,-0.5810734842114076
87.0,4.790870428085327,-0.21210897961235176,0.22896890247135437,1.007107996933276,0.030912764299263453,0.00037324942464965754,-1.7475221760587976,-0.6407975144807161,-0.06601408997998384,0.2504204241691902,0.7744663378730696,-0.3877420315535628,0.1404672433592921,-0.022039244666257608,0.2585081891480594,0.06259491922602162,0.7427543043676914,0.06708926382001441,-0.06438977426735132,0.05665055014288395,0.07797129320517951,-0.10816286728680272,-0.09401322348430899,-0.016767959488269504,-0.08400532898022332,0.9633455875240216,0.17510194759335068,0.7893151584149498,0.22981511365761698,-0.08505761018998943,-0.21034418155127682,0.2211745235997994,0.8322736732147868,-0.4862011197515147,-0.3656677711727364,-0.5824635491019183
89.0,4.865159273147583,-0.2146688555482289,0.21583344290664427,1.007126201703246,0.03178703075171338,-0.0005225697667824354,-1.746574271219476,-0.6388885018870206,-0.06913865889725247,0.2453249789161162,0.7868361881217926,-0.35929353223878135,0.13964183559521048,-0.01702954632679316,0.24985215543922856,0.0532721288784533,0.7523043273459252,0.07711535036927564,-0.06666755230353827,0.05160799719673899,0.07045162236962857,-0.11446980075174698,-0.0952093338223484,-0.011463051410987385,-0.080281997754055,0.9653202071340931,0.17387414379327287,0.7933305535453863,0.23037613356352238,-0.06819876865372486,-0.1992284372426949,0.22229934110307173,0.8379884189942317,-0.4817897715164933,-0.3609642528308358,-0.5842839124069307
90.0,4.912636041641235,-0.2170630289589458,0.20208728056746406,1.0074010112142149,0.03239308855432828,-0.00036173481698930537,-1.744762895804434,-0.6344909156441243,-0.07055837182135306,0.2428724718086908,0.7994120914364113,-0.3407583867966006,0.1408788394051344,-0.012948639255704688,0.23744855288988997,0.0374162198794421,0.7632411030974513,0.09112450163932576,-0.06978566810146532,0.04657937170012871,0.06480793991000561,-0.1206650603350775,-0.09824287501139947,-0.006783245286265337,-0.07645720081634687,0.9685121407901397,0.1727614353711457,0.7990644985715205,0.23183394686308711,-0.04873401096601156,-0.18816408283343428,0.2221274304361902,0.8447691345641948,-0.47556686735974607,-0.35686281167647493,-0.5859596577962418
92.0,4.946585655212402,-0.21881076950815892,0.19113834238545563,1.007756344744497,0.032796478232778564,-1.853951627016844e-05,-1.7432403410524087,-0.6299422507169423,-0.07209586870677252,0.2408579669099406,0.8089054042914884,-0.33239193314211246,0.14280309271914143,-0.010567564318212508,0.22440984926449997,0.020466166050774916,0.7726120369471705,0.10492583708860372,-0.07321224399318413,0.04316994835425097,0.06101831324185364,-0.12592473761586775,-0.1018680459079035,-0.0034540530752019015,-0.07346724830310157,0.971606630359461,0.17192546313693108,0.8042705176083615,0.2333435702916715,-0.032407728489031,-0.17946873638647703,0.22135760002266536,0.8507022425988652,-0.4696888718377753,-0.35332083067995956,-0.5869545758539071
93.0,5.009795904159546,-0.22037234435109115,0.17961153801473845,1.0082413530819596,0.03346143487166641,8.38726606922312e-05,-1.7437846795458374,-0.6243193421376645,-0.07602186681267613,0.2358541485264205,0.8177320533604777,-0.3323010323220677,0.1451082745343211,-0.009652417650505793,0.20541797612944213,-0.0019058642908861,0.7838723285491087,0.12379086591637692,-0.07820016526127885,0.04206913112097427,0.058238114737242885,-0.1322300331059208,-0.10720453169623725,-0.00013933919327738112,-0.07011241320545449,0.9742528706823456,0.17067632798360832,0.8086018344206582,0.2344598309850237,-0.015967993543474633,-0.1704514462761982,0.22064129662388884,0.8576519644994913,-0.4636709238452692,-0.3490345532562775,-0.5874632367912217
95.0,5.069807291030884,-0.2215460804000172,0.17021157540033274,1.0086632335182253,0.03403532504012027,-0.00045825658634792885,-1.7452706679675725,-0.6193208750033954,-0.08064503288611487,0.230612900651544,0.8242896307325218,-0.3358608745136663,0.14688387987147097,-0.010233605213305966,0.1862610759250275,-0.023100077397965442,0.7948544053378527,0.14190825469117863,-0.08351622492879895,0.0424022275056266,0.05609708392049446,-0.13795987084202566,-0.11241627461392772,0.0029387347319354933,-0.06725776450463739,0.9763105214255097,0.16941562068558708,0.8113849067373736,0.23472594442809458,-0.0030593654013148573,-0.1628760399849291,0.2207628463034421,0.8637301523847247,-0.45923947246613595,-0.34533016006798745,-0.5875429343887171
97.0,5.1249401569366455,-0.22274313160172277,0.1597436554853873,1.009348389414261,0.03421103967224536,-0.0018085824532836589,-1.7493346028728052,-0.6118947290367099,-0.08470826719423788,0.226985731220562,0.8301060792884732,-0.34379729754427435,0.148309379097065,-0.013831130101806633,0.16055882090993456,-0.04861469525509779,0.8119539029065945,0.1666471595931516,-0.09052516179042834,0.044806113739249136,0.054150028119391534,-0.14331852896989797,-0.11824246038088224,0.006646982200547803,-0.06382573390795435,0.9774043886983025,0.1675965470513361,0.8127121150633025,0.23424167872731844,0.010553333249843644,-0.15501867318750556,0.22317376949071882,0.8709405865004991,-0.4565250006912146,-0.34202465718541886,-0.5866086812346005
99.0,5.182880401611328,-0.22402849120206683,0.14831576929667556,1.0102799653821228,0.033705661794652904,-0.003755880924449662,-1.7560781953163827,-0.6018362232853763,-0.08726777396460456,0.22600607640353426,0.8349056575649125,-0.3540170611173349,0.14893456582515954,-0.021125821707779154,0.1300965629738256,-0.07576943224643685,0.836666128068505,0.19888181958830053,-0.09914541123038755,0.04916119442110184,0.05187806607558881,-0.14754281287470275,-0.12454873633166595,0.009832730692387565,-0.05961097550951311,0.9768013248626998,0.1651790309501624,0.8123374763577367,0.2343730131872505,0.024208834672865436,-0.14833389352549445,0.22811911990578232,0.8791310118857407,-0.4559412281772922,-0.3380611450759746,-0.5830634995458768
100.0,5.248723983764648,-0.22530955943218814,0.13667181562146613,1.011301256097295,0.03296811701596318,-0.006175006197767377,-1.7652506795281477,-0.5904966886673242,-0.0893594137481224,0.22609545969377715,0.8382719574696149,-0.365370401247608,0.14870466792393422,-0.03265554742674304,0.09726282316056756,-0.10150108945894848,0.8682929713467268,0.23738647829388018,-0.1093663655394317,0.055066244054541455,0.04950722678703923,-0.15120906748430618,-0.13149182891294053,0.012518389828536456,-0.05431728296917708,0.973927299773897,0.16213068398644181,0.8095973864719478,0.23574603564274607,0.03522710381265361,-0.14354678286434278,0.23588403338491432,0.8878288815854398,-0.4579162288372536,-0.3325784162545097,-0.5755385231822915
101.0,5.296248197555542,-0.2263460904705785,0.12711903910015193,1.012186369785565,0.03243941331667346,-0.008794785469786476,-1.7738353230640094,-0.5808444878581032,-0.09142612378996276,0.2266237812416052,0.8400810316648888,-0.37534227462251857,0.1482952352589676,-0.04507169028996911,0.0692496411154529,-0.12095812830568667,0.8982938824580734,0.27164770104009606,-0.11921907679774449,0.060357778940972995,0.0471280828088219,-0.1543724706749858,-0.1375771170067242,0.014812853923955158,-0.04951918488776583,0.9704986144944387,0.15938038033070015,0.805780218133382,0.23731194370094438,0.04226939832088315,-0.14037357730542444,0.243837257965963,0.8950763695658299,-0.46069903327699463,-0.3268620751381113,-0.567251335616492
103.0,5.326276540756226,-0.22713446550522554,0.11960203858209721,1.0129626807639496,0.032278866243360876,-0.011340960836226193,-1.781353800062667,-0.5730763479254628,-0.09346414878578752,0.22724031947892387,0.8405211217377471,-0.38376240100961667,0.14800179937650282,-0.05791214362785132,0.04741110263587717,-0.13342351813110048,0.9253007464753618,0.2997900589814076,-0.1280380992570287,0.064524943252647,0.04516330493634359,-0.15712143556237934,-0.14268400094608413,0.016858586176133027,-0.04566007118687794,0.9667511499034872,0.15715419013327622,0.8011160642731582,0.23854146108098698,0.045587367416792014,-0.1384992352563967,0.25145326560599224,0.9006448643968061,-0.46384476720884327,-0.32126278111249407,-0.5589929676351724
105.0,5.402346134185791,-0.2279202130753832,0.11119799445656313,1.014097755111366,0.03269781516209554,-0.013099294806394341,-1.7896200901536274,-0.5641292881131011,-0.09510730522919508,0.22733145866414758,0.8399953989487446,-0.39351069864749144,0.14838903539693032,-0.07548758195283284,0.029490773933248494,-0.13969482594616559,0.9562514427141188,0.3246810369506026,-0.13606358797639984,0.06791360992584916,0.04536728035989518,-0.15966429501419835,-0.14837759614418317,0.01945031052148398,-0.043136166814936344,0.9609782813618978,0.15550982102261826,0.7939964643447566,0.2379709358701274,0.04632854067384987,-0.13738984151237427,0.26032317833841734,0.9059090222144588,-0.46818285265614146,-0.3151152643420686,-0.5490542692576004
108.0,5.466944932937622,-0.2287017076195642,0.10199547593674624,1.015506770837772,0.03345242076107113,-0.013589126299600997,-1.7980455856152595,-0.5540716134611519,-0.09596786446937722,0.22679155755702918,0.8389683408928614,-0.40366972377185073,0.14910296674732815,-0.09769970767182484,0.018742525290206313,-0.13877468264342738,0.9901057661188517,0.33533018685332483,-0.1408656724899865,0.07014051919446782,0.04821847319586625,-0.16105588715086883,-0.1546451686252634,0.02226636028470029,-0.04265485396741328,0.9536122111042439,0.15483754369008412,0.7850680609515768,0.23528044651321123,0.04549498370093111,-0.1374437227290296,0.2694064583059742,0.9103635213045116,-0.47294273082221583,-0.3094782495944647,-0.5385533545593415
110.0,5.555517911911011,-0.22953576623783892,0.09005932268022968,1.017413212675944,0.035990189712431175,-0.01180430847352823,-1.8089020609886406,-0.5422160532436695,-0.09448136533463802,0.22574185385775633,0.8378844864820244,-0.4147754625237664,0.1494831677560589,-0.13097361186615208,0.015854082716996884,-0.13140267329991176,1.031740439911419,0.3101959489068554,-0.1402509580410054,0.07163973544217907,0.05593594123056826,-0.16243156787291652,-0.16351292896058695,0.025139691005480164,-0.04409902257587149,0.9431485875713718,0.15556662817800365,0.7714930044875707,0.23222910445329142,0.04174206428154454,-0.13962292664050308,0.27832237457252307,0.913987853358315,-0.47737748451295114,-0.3058705789992111,-0.5254200024112787
112.0,5.637207984924316,-0.23013865846031145,0.07853461922612945,1.019292048867769,0.03927344197128061,-0.008824591011186423,-1.8208880099312987,-0.5310472963449782,-0.09114437171451226,0.22542242380770908,0.836744640576468,-0.42593873263082765,0.14980226600489083,-0.16679733624911902,0.013704996757789271,-0.12569448245928494,1.0715413273805574,0.25573789562523636,-0.13876977958470932,0.07333957263409699,0.06603240272376565,-0.163255037766587,-0.17170997798474513,0.028132676537954353,-0.04714228325295443,0.9321510112104854,0.15800836565913767,0.7559556597704211,0.23038560237814742,0.03652020394243906,-0.1422088724336889,0.28475965963232613,0.91544677268659,-0.48007661339217433,-0.3046592686938111,-0.5148310531687937
113.0,5.678532838821411,-0.2305087292407354,0.06795348153972361,1.0209593953318237,0.04053840286594978,-0.005683756691985076,-1.8307644082511754,-0.5189294227389247,-0.08895400754646918,0.22485777940276155,0.8353127530530129,-0.4366030458648983,0.1499446981808267,-0.20081903907910126,0.010650731083761312,-0.12279148103795644,1.1069456328352243,0.17728785028782512,-0.13732738447920406,0.07301835886040545,0.07570673441298514,-0.1604946961412235,-0.18004419282148593,0.030956327148269788,-0.05125594614263204,0.921831300237826,0.1621382476314165,0.7403746513801353,0.23088628127706864,0.030415778957556774,-0.14427928812167445,0.2873977062108332,0.9143316914474323,-0.4806373307340214,-0.3048344490927964,-0.5101179189392411
115.0,5.724863529205322,-0.23065433357948267,0.059997109200230075,1.0220588529604595,0.040006670812453994,-0.003885229207015374,-1.8371522865591825,-0.508569202672388,-0.08879852152926125,0.22458500724090086,0.8339983847346503,-0.4450195945677179,0.1500695305011495,-0.2271392821000239,0.006365721599029338,-0.12192685436203882,1.1341808510787814,0.10312852034971581,-0.1367001894631968,0.07136133559758993,0.08221925667037265,-0.15619408599133205,-0.18745928213999968,0.03334690928076406,-0.05469487008298686,0.9141799672093962,0.16605081572395913,0.7289124937388662,0.23203913289587874,0.024965984907023224,-0.1454397024930994,0.2875822299984798,0.9116748064908129,-0.47987134673975806,-0.3049301733315404,-0.5095767446157236
117.0,5.786374092102051,-0.23067016821609754,0.05216301585715824,1.0229754196433738,0.037841969306765935,-0.0019216681848735057,-1.8408546866090632,-0.4968519493949654,-0.09062789642478662,0.2228572057239494,0.832281664529385,-0.45310012092057517,0.1503534183531265,-0.2511515137299749,0.0007303098967431083,-0.12331645430406452,1.1547865767261285,0.024912857006699776,-0.1375983981812375,0.06685812637357856,0.08825865371505091,-0.1496051898190065,-0.19660024212164884,0.03541957156768421,-0.05794628278476131,0.9083518277894265,0.17020050825596056,0.7208705734637433,0.2338703056175726,0.01966621062553361,-0.14642717160098484,0.28518065832011613,0.9070895651116941,-0.4782529177593512,-0.3058031125785944,-0.5141895092360875
119.0,5.855366945266724,-0.2306614255238159,0.043823212666418025,1.0237379878242312,0.03487779129860523,0.0004256414659868041,-1.842426113166053,-0.48406427445294997,-0.0937301111674938,0.21987320863877552,0.8303949612302814,-0.4601272869534074,0.15049760742650636,-0.2743592303106084,-0.004354120505158124,-0.12499557071281536,1.1688825334144342,-0.051081902793250436,-0.13888669836302767,0.0599611973532564,0.0944930044691615,-0.14214527553219267,-0.2071165279829703,0.03741397165903251,-0.06111840171764656,0.9038819142667199,0.17428158058387205,0.7156437792458796,0.2351269440186904,0.015235556963338705,-0.14766238838945966,0.2813122946373697,0.9007532101508908,-0.47643736842636064,-0.30781188598427284,-0.5221072964763531
120.0,5.92305064201355,-0.2306433164449359,0.03482846146660185,1.0243648672040306,0.03172794856383349,0.002916702924022163,-1.8422177312849515,-0.4706866672000017,-0.09790563618806716,0.21601475738505738,0.8285067105185603,-0.46609048392455377,0.15036637266886885,-0.2974696145273239,-0.007404325456391882,-0.12494915590325034,1.1758994278244335,-0.12101469881162859,-0.13941838597898892,0.05170435486709573,0.10149734588011558,-0.13526280132655782,-0.21948063023229433,0.04076727232796719,-0.06434569051370159,0.9005419677432569,0.17837160373174893,0.7124855467111169,0.23452330811163888,0.010568583673327903,-0.1477799101266077,0.27649056875490285,0.8937575224704253,-0.47423348778591456,-0.3085630713128486,-0.5312628622375197
122.0,5.9692063331604,-0.23062919803395632,0.027168112027172474,1.0247585734852775,0.029013403810261552,0.0046871898933228216,-1.8410109023630659,-0.45952839969989545,-0.10220704836257491,0.21255244014922176,0.8269116534035897,-0.4706447707841297,0.15022596164546984,-0.316778870548637,-0.00864434352381816,-0.12323263308746427,1.1788971274371072,-0.17555486854133617,-0.13913185298932157,0.044251956917223466,0.1075673530968246,-0.13004931885648813,-0.23073644794338782,0.04455254524763855,-0.06714881670253849,0.8986112323599462,0.18199738861548687,0.7110895233040876,0.23294174878625895,0.006660920108667737,-0.14711186310072558,0.2724230599417209,0.8874142910703401,-0.47253999966078236,-0.3081602085325069,-0.5394021710015078
124.0,6.020815134048462,-0.23066715110510488,0.018982656751668544,1.0249137328737854,0.026462056071292605,0.006428199980866941,-1.8383669422553695,-0.4484903294186877,-0.10681268618487816,0.20911660640497767,0.8258464779252264,-0.4747990691034185,0.14998748422167502,-0.3373607395415096,-0.005946051455206707,-0.11760862457114586,1.1757078095502183,-0.22021406797915316,-0.13705301791337965,0.03585711695394969,0.11430587590806482,-0.12586805838022008,-0.24275745508375052,0.049041404326022504,-0.07115133322933925,0.8979293699176805,0.1869187027668171,0.7110633909225608,0.2314701151916397,0.0033218989253457495,-0.14620830987705308,0.2683625096763306,0.8805048366989721,-0.47116229721464653,-0.3083867689047258,-0.5482316687588696
125.0,6.077057123184204,-0.23081981333217555,0.01038957924209632,1.024680600286797,0.02367893201714443,0.007893537705624577,-1.8345738381779717,-0.4372977833691286,-0.11269279351210607,0.2043987625900851,0.8254959960704601,-0.4795094812021664,0.14921515897349166,-0.3592757712171088,0.0012836592918427105,-0.10705460668068636,1.1676333217750143,-0.25388777826729936,-0.13242666513792678,0.02730447026594101,0.12019370225694825,-0.12180815839576482,-0.2539571837516854,0.053163981695045257,-0.07641974322379842,0.8968466498190237,0.19326284550956535,0.7082630823644825,0.23182312750383074,0.001144634451773473,-0.14578994193707848,0.2638532714710051,0.8730357509656235,-0.4691069117313855,-0.30974174673269617,-0.55583525171379
126.0,6.117780447006226,-0.23100579316579697,0.0032834073866511806,1.024274672317633,0.021319537480094543,0.008782035802692132,-1.8310159266820585,-0.428137234891207,-0.11887145631822059,0.19893584115751012,0.825420831543932,-0.48407558045285426,0.14828248243430883,-0.3778363454882327,0.009743980725130472,-0.09529000125967133,1.1591349194616536,-0.275658815663829,-0.12720746585829548,0.020665638381464485,0.12413364888340431,-0.11839240991906491,-0.26259251613619555,0.05628140949343529,-0.08086637329198698,0.8954908000752873,0.1987873503654375,0.703535555672745,0.2328765783455815,9.46757516647541e-05,-0.14559405872140346,0.25975269297377246,0.8664748667149522,-0.4667518362649646,-0.3105862808529068,-0.5606286746231888
127.0,6.151240587234497,-0.23121038287843984,-0.0028337828643285132,1.0237975184925185,0.019385392618028043,0.009346564801614842,-1.8278122677283224,-0.42041721764974105,-0.12532766708560558,0.19261072273425567,0.8255064960741687,-0.4886013678679102,0.14719397584431299,-0.39414122741207025,0.019069996990793835,-0.08260121101657603,1.1503732509482445,-0.2891986410972085,-0.12182951353061737,0.0155650635164787,0.12683632680368628,-0.11543910742215296,-0.26958194800670504,0.05882398849726152,-0.08431748168674288,0.8938295352637085,0.20329934759715443,0.6976413954622136,0.23393691395871044,-0.00017125629227208593,-0.14526876691115695,0.2557854999241782,0.860724391756183,-0.46402975087793175,-0.3106464152479933,-0.5634900321554888
129.0,6.18895411491394,-0.2314142694833178,-0.007969889114178733,1.023292810637525,0.01790895643648674,0.009614858925847515,-1.8249793084136439,-0.414205303202725,-0.13158871582223158,0.18615518925006674,0.8257676509923642,-0.49263270433872886,0.14609649882037337,-0.40817472556172885,0.028792889981507433,-0.06941895410233336,1.1417952380229506,-0.29567163274432184,-0.11672112889594592,0.011838304879082641,0.12866743216775334,-0.11298010451128682,-0.2752465617697403,0.061008472711419855,-0.08670552256512076,0.892127619427574,0.2066829335792119,0.6917804156872978,0.2344837820713906,0.0004032376737078474,-0.14461382108345608,0.25204898168007056,0.8557063204380062,-0.46134210947400656,-0.3102478063403326,-0.5657291779756867
130.0,6.243409872055054,-0.23169768814943864,-0.014477451264149913,1.0225582173089984,0.0163785643364458,0.009891920010086333,-1.8210174725332482,-0.4071648820918744,-0.13850581520510974,0.17924574704835364,0.8269658083597713,-0.49620320526548933,0.14493004228658238,-0.42576894685533323,0.04295589006677403,-0.05021803278187696,1.1292599057729111,-0.2959747219902502,-0.1106717300169198,0.007494581856571285,0.13119808480612186,-0.11036878715745986,-0.2820386359826471,0.0641411801544042,-0.08908420815044787,0.8894499348522564,0.21019017504101062,0.6854518684160054,0.23441400411410937,0.002260357932367127,-0.14308252782132316,0.24730958759814828,0.8498607236617668,-0.4585156773478865,-0.3119356203093193,-0.5720220441566908
132.0,6.291726589202881,-0.23196370687902013,-0.020525946078427747,1.0218653968333082,0.015177742408652248,0.010167703804201232,-1.817218588996191,-0.40094989628721733,-0.14409272079517765,0.17388735604564887,0.8283022107620066,-0.49860777893306396,0.14408586785976552,-0.4417629195010391,0.05704772168609366,-0.03114103295979806,1.116778012866584,-0.29309772882699836,-0.1052918549886725,0.003774670865480623,0.13384135729568009,-0.10813457025832621,-0.2883206506958369,0.06697549181511549,-0.09103462130970175,0.8868559377767632,0.21326620274336777,0.6795567377525955,0.234271238361466,0.004479952116766127,-0.14168195203850908,0.24286088220291469,0.8442931330522603,-0.456342571019185,-0.3151423896578554,-0.5794102582593714
133.0,6.351712703704834,-0.23234057258039745,-0.027993278330987317,1.0210898427900958,0.013729295763883487,0.010506953007098732,-1.8121884075816317,-0.39316456221160384,-0.14968265597101338,0.16886055133690603,0.8297586286761908,-0.5006230301479742,0.14292800251268734,-0.46006075725639173,0.07437332635135202,-0.00697366411535248,1.1000458009663259,-0.28709447916917563,-0.10043116790780567,-0.0004557789901311368,0.13684029900405234,-0.1055189260906824,-0.295937343576059,0.07010475289193996,-0.09323380678336937,0.8829379900250014,0.21670210813666052,0.6719159318223902,0.23432314607067278,0.006887991699716035,-0.14058514171978637,0.23815424050690892,0.8387248935588513,-0.45401823477313896,-0.32014521783461614,-0.5870453228074308
135.0,6.3964715003967285,-0.23268406598073704,-0.034515180965356426,1.0205879959832909,0.012557502885863436,0.010799662723590665,-1.8079227508972568,-0.38597229217040097,-0.1540287859264793,0.16505477972805327,0.8301864610304296,-0.5020111917923594,0.14186480132981635,-0.4752125687217049,0.08993495499066892,0.015147542858354273,1.0839403764000966,-0.28154970453562844,-0.09715861528447783,-0.00350658310053729,0.13933648480415214,-0.10300135443420613,-0.30249159153106353,0.0725181625715875,-0.09502629913002049,0.8792317702427099,0.21954841839801162,0.6648545553832879,0.2341788222762881,0.00924276530814961,-0.14016483125565865,0.23464452549863005,0.8344259011797901,-0.4525717517271885,-0.32441429272319433,-0.5923392673251788
136.0,6.444327354431152,-0.2330868341249151,-0.04196794266374882,1.0204492859535788,0.011162851656514195,0.01089490724110251,-1.8027995515134405,-0.376654186602201,-0.15810455751090147,0.16205380828997223,0.8286643766280476,-0.5017636925960377,0.14027713020813504,-0.4905781998156725,0.10684566769321185,0.040878308471584586,1.0633195022845412,-0.27833191176306915,-0.09588815131722589,-0.006507838665447508,0.14150172135138075,-0.10000672436716876,-0.3100146733282786,0.07504819766043853,-0.09612147146740879,0.8748833567740973,0.22150122641647074,0.659401980226999,0.23250444876328583,0.012124354277048057,-0.14029074218065143,0.23263277928297832,0.8310841087754073,-0.45232338552661955,-0.3267712888095656,-0.5952273034065393
138.0,6.500084400177002,-0.23343055445930191,-0.048525451736718996,1.0205680945064466,0.010014667070086837,0.010857576260539122,-1.7982937727580561,-0.3677895149654294,-0.16112545202258594,0.1602610644471023,0.8259437550604813,-0.5000812246027257,0.1386595973312707,-0.5028159912791645,0.12185728555626954,0.06435813622011882,1.0438017698531266,-0.27688405836774255,-0.09566814099656375,-0.008838464013843755,0.14318651233851498,-0.09736569162556039,-0.3169943591499691,0.07712870174662434,-0.09621599810236911,0.8714202301468894,0.22236805708668594,0.656590748313862,0.23008250517684603,0.014620567415487097,-0.1403952437195799,0.23133802220628413,0.8286665931012629,-0.4525937780622806,-0.32747237986488625,-0.596782857509102
140.0,6.565434455871582,-0.23381551795252056,-0.05614838061271058,1.0209447770370237,0.008622332671243281,0.01074310952187809,-1.7921169549071954,-0.35680191488111196,-0.1643695814373673,0.15841508866464443,0.8216188204432513,-0.4968310063298154,0.1366474352208556,-0.5146475341822072,0.13868908658665766,0.0916457223125973,1.0203523947576851,-0.27686957166382475,-0.09675168881897146,-0.012045791966440796,0.14477972104548145,-0.09477006048755393,-0.32548975911976485,0.07947403653878703,-0.0949248689675201,0.8682900746399485,0.22197446558162814,0.6568245743036047,0.22645091278719054,0.016996638750868164,-0.13979164007886297,0.23012195496737492,0.8270320990200226,-0.4526293459697731,-0.32636231339668853,-0.5976635881462539
143.0,6.63707709312439,-0.23422468934073287,-0.06482167400817263,1.0215102667167293,0.007029010720557914,0.010749575797751102,-1.7840890638249878,-0.3439604960273913,-0.16866478073566535,0.15480696659913742,0.8158431062472947,-0.49391215187968746,0.1341716094164562,-0.5261046827797068,0.1572819935804449,0.12235235473493013,0.9933164280384913,-0.2766962933036391,-0.09886524462676743,-0.015935995549216927,0.1466206964748789,-0.09233242860431813,-0.33456557153900934,0.08204481282048139,-0.09277174616373547,0.8656325230136269,0.22103656463773644,0.659521646680262,0.22279219818312213,0.019715084959088428,-0.1381858728873618,0.2290378460116385,0.8264550424289245,-0.4520647573952633,-0.32322522855995917,-0.5972825816462237
145.0,6.716476202011108,-0.23467245611296575,-0.07602909301427194,1.022317970685536,0.004989540818019012,0.010398230104474953,-1.7726636550353234,-0.32718535333893545,-0.17549627710140786,0.14810086624683247,0.8072977747468735,-0.4917411628859301,0.13007731151975754,-0.5392462986775033,0.17891296691075825,0.15993389734528785,0.9593696343075331,-0.27428594427589703,-0.1026858985359811,-0.020343919608703513,0.14809406422455,-0.09016483833692304,-0.3448797602987411,0.08381771247663791,-0.09022379581194044,0.8628320392777615,0.2196689415833447,0.664245951151875,0.2193289850758007,0.023507121355694726,-0.13709443068536795,0.22854613694837772,0.827601944682,-0.45024840505356306,-0.316337326352229,-0.5906018406811784
147.0,6.787721395492554,-0.23503458833704238,-0.08732339989504953,1.0231591306421752,0.002517209060275236,0.010037052640031765,-1.7603574768807095,-0.3096613609778141,-0.1829361077479389,0.14016977374772385,0.7978674361236597,-0.48943928069500386,0.12551379664041362,-0.5512045829910229,0.19981551056446462,0.19637603677355886,0.9260698220452417,-0.26886779453628634,-0.10635256619632136,-0.024464875592909507,0.14918262377564764,-0.08787435573230461,-0.3537526908916837,0.08439523030329585,-0.08838828358223344,0.8594195310648571,0.21859008903541405,0.6673766100826766,0.21670944917532056,0.028295895277518773,-0.13773064242003114,0.22948246789458437,0.8292611789100794,-0.4496444141497553,-0.30870425940197754,-0.581753251948305
149.0,6.858461380004883,-0.23524130182137584,-0.09821267698947914,1.023879756160381,-8.587675422016606e-05,0.010040886860204221,-1.74754489709888,-0.29250768870088645,-0.19016006559451687,0.13145038693553773,0.7885169150934903,-0.48690762989660835,0.12115956934488027,-0.5618364723363973,0.2185676814205093,0.22808983081919143,0.8955034547381955,-0.2627651944300054,-0.10926571519688172,-0.02803193402948814,0.1509040183299005,-0.08551987096820998,-0.3606151666979176,0.08441372216716944,-0.08704205629067693,0.8561370919777269,0.21786493132955576,0.6693904087089565,0.2150194112515068,0.03453533533899555,-0.13875927190181633,0.23156949086668693,0.831107144260374,-0.450397717379838,-0.30236284054381474,-0.5744382256209065
151.0,6.924534797668457,-0.23533379896373172,-0.1086674714004297,1.024363720681781,-0.002561263060850486,0.009737728237481473,-1.7346627726857267,-0.2761434210385626,-0.19775265566022987,0.12214428345741221,0.7795427353278235,-0.4847057828285333,0.11712318076026196,-0.5724238833902026,0.2329959986578463,0.25184101126152914,0.8687745792076013,-0.25662372989602433,-0.11144667239910379,-0.030837217308961724,0.15241365159512787,-0.08357487680884199,-0.3658005230981727,0.08380580410095073,-0.08583787267249307,0.8531133929791135,0.21701840799026287,0.6692698129746113,0.21382367480030479,0.041525450136186484,-0.13986607044163868,0.23350934371899199,0.8328059022893395,-0.4511201337243118,-0.29851139727078746,-0.5691469694920364
153.0,7.004195690155029,-0.2353921822313524,-0.11868122030537093,1.0246157441225876,-0.004863826733335533,0.008598456663513972,-1.722179536376832,-0.2606094861723309,-0.2063491039749789,0.11209210283633567,0.7709517293150071,-0.48309023071806756,0.11335745285149516,-0.5839396328987386,0.24149769966222268,0.2648835475726181,0.8466184348904249,-0.24891813954667164,-0.1130030719875042,-0.03278928009872398,0.15268367162379437,-0.08226075034516939,-0.36986464442743194,0.08172682843585258,-0.08461883868661674,0.850491862204293,0.21568345520475443,0.667018854295422,0.21312630984349984,0.04853370788173511,-0.14184864458714644,0.2344865183063345,0.8342293970752859,-0.45143857458943853,-0.2969215489465478,-0.5658112125468434
155.0,7.0662524700164795,-0.23547686321734926,-0.13477140329059634,1.0248480575860268,-0.008154283754546764,0.005481055328764841,-1.7022671595167815,-0.23526719656771244,-0.22215080910244295,0.0938279671743043,0.7558080048526366,-0.48018204663148023,0.10795638716239497,-0.6050051423451757,0.24412942372789437,0.2658178855470287,0.8152784229583732,-0.23089712475044344,-0.11487721218811572,-0.03437308752789794,0.1516064085079495,-0.08060509498302698,-0.3745818522226852,0.07599274212159628,-0.0830650536186027,0.8483616824233251,0.21373054995435653,0.6632005818000544,0.21380082245059473,0.06066716680130202,-0.14565211008564125,0.2340460605772855,0.8367226527128672,-0.45008785034009346,-0.2957597609539836,-0.5615187364841018
158.0,7.132957696914673,-0.2355068770624031,-0.14183105435758753,1.0248899117198706,-0.009444555131153803,0.0038631340344766297,-1.6936524056614657,-0.22430555648643713,-0.22894375836347797,0.08575598644152903,0.7494253177613002,-0.4781850901821352,0.10619303650695235,-0.6150908774297359,0.24057234404708722,0.25692589709983343,0.8036258958582829,-0.22069937493248454,-0.11538345988701595,-0.034490790712839024,0.15074416946869515,-0.07950530836421749,-0.3756582566765347,0.07317150489487789,-0.08284720433031921,0.8483535626769065,0.213529276920828,0.6622704769107572,0.21520246857442277,0.06588983456259556,-0.14671889567843138,0.23291445228948776,0.8385132931236898,-0.4481805653155998,-0.29352585541925097,-0.5587062860003897
159.0,7.207493782043457,-0.23564599097795663,-0.15157400553172623,1.0248664762831388,-0.01261473768202852,0.0023824855398398032,-1.6820137311051742,-0.20830360474526738,-0.2363861882812111,0.07548553787179949,0.7420964308453917,-0.4759701181737651,0.10480930188187158,-0.6234496260031788,0.23446255597931487,0.24258915807678033,0.7937649869795956,-0.2119459213715675,-0.11612133031247915,-0.03619527247343019,0.1500991647139062,-0.0790444102006375,-0.3712819466904437,0.06896907717164663,-0.08358925426351248,0.8464079384594785,0.2138352588059702,0.6619182001271633,0.21763353949769343,0.07637685876176478,-0.14814436570728562,0.2316046362322008,0.8400754034050886,-0.44555082851413774,-0.2896025565964819,-0.5546454794148872
161.0,7.2671308517456055,-0.2357732562172472,-0.16028075633785058,1.02444862389299,-0.014286444692054524,0.0007675124409935469,-1.6711354857253569,-0.1959489736237724,-0.24299254439877538,0.06674733851941159,0.7375649530645214,-0.47388747000829656,0.10355627949881377,-0.6346602226806175,0.2311019358894928,0.23035554963584462,0.78330226875433,-0.20022038167851858,-0.11643368622095304,-0.03631527485208918,0.14958155424729067,-0.07590084455107218,-0.37121797853385213,0.06555100184236604,-0.08275195623320517,0.8468237074205878,0.2129634541416955,0.6608419279216445,0.21935230731155125,0.08120246424986297,-0.14889775337736608,0.2295937217699205,0.8436913623870665,-0.44210020200717826,-0.28285132160071724,-0.5487137083704213
163.0,7.331844806671143,-0.23604613609478872,-0.16995902107854446,1.0238408893068691,-0.01648584736589264,-0.0006816501590560536,-1.6587028977756502,-0.18239124050872452,-0.2500662732144902,0.056099771728886985,0.7340115627263591,-0.4726730118508373,0.10234594201297498,-0.6441798234914988,0.23145237877190689,0.2233093477584149,0.7736512486808671,-0.19032033462454898,-0.11722795649265572,-0.03661588880887574,0.14895387260097415,-0.0717820601392401,-0.36908455441038124,0.06120555122009552,-0.08189565161113535,0.8477422474581964,0.21112336341064492,0.6592903632364967,0.21957405799008964,0.08736002109693666,-0.1502021063901628,0.22758365503413577,0.8477722654473527,-0.43833377556459263,-0.2758898685688401,-0.5417472627846862
165.0,7.3930840492248535,-0.23647289658839274,-0.17973662855190564,1.0230349844871334,-0.018632068297784063,-0.0018413649526701924,-1.645890444405564,-0.16931093014413662,-0.2570043106826244,0.044205481333331326,0.7319995980528109,-0.47200450743666766,0.10118883617599225,-0.6500851834117526,0.23603505880365777,0.22352800848084103,0.7659184168960251,-0.18414267777672952,-0.11862093015667208,-0.03743113082675255,0.14866209221249796,-0.06753803416053762,-0.36541848269087446,0.05705814169787784,-0.08047992159441428,0.8501204935267311,0.2086477789006484,0.6587627361712172,0.2192307770281176,0.09341726025183753,-0.15181423187171744,0.2257467659461027,0.8514370086399412,-0.43522459084264786,-0.2695549398461132,-0.5361157179163882
167.0,7.467714309692383,-0.2369748226998821,-0.18969474448866083,1.0219847991855757,-0.02090707250294109,-0.0031187930369393577,-1.6332912387276526,-0.15675379939000633,-0.2639171620437025,0.03220865578232358,0.7317627781547276,-0.471718790837296,0.09987350112450402,-0.6533283236469802,0.24044358235689456,0.22433236492449624,0.7601130298917081,-0.1748699400486426,-0.12040548015989347,-0.03777604886237858,0.1491193781328023,-0.06323389068600022,-0.36001008617051256,0.053967900920044595,-0.07943964029223503,0.8547074083578219,0.20700969306720213,0.6608824943871646,0.2194990883048767,0.10006190886221134,-0.1526656063169513,0.22423838564239668,0.8542961235158857,-0.4328503430044335,-0.26484979713680795,-0.5333168017296814
168.0,7.50781512260437,-0.23754655710082445,-0.2003388730145073,1.0207678781845302,-0.023453981490621504,-0.004940931756315653,-1.6208304453706166,-0.14365094001186937,-0.27100826953762214,0.02061338249686032,0.7324312342480503,-0.47161389837699175,0.09823144799028462,-0.654515954400859,0.24025860666984383,0.21906739479233264,0.7562173581176287,-0.15764362773188254,-0.12268974565901761,-0.03810744632879547,0.14915403128887295,-0.05976694736853775,-0.352568500439309,0.051005444226349325,-0.0791179032840662,0.861218976221489,0.20594496758447828,0.6673460755575334,0.21954003589375518,0.10824791384564231,-0.15335391737621543,0.22292806618094085,0.8560825712181555,-0.43071235052526946,-0.26168659911460385,-0.5317673360063955
169.0,7.541406631469727,-0.23804568270480958,-0.20907635715087647,1.0197042398290563,-0.025302338464302656,-0.006591362172666491,-1.6107660753055373,-0.13320396082225902,-0.2766671590586579,0.011346688792625535,0.7334176974303463,-0.47127536211407406,0.09674725109034568,-0.6546522921465321,0.2371421411609021,0.21062488041620683,0.7535466732383573,-0.13924397224095172,-0.12480639669649085,-0.03872606990944326,0.14879940856192378,-0.05761750333792663,-0.3468357355932792,0.04852879560976396,-0.07864104047078907,0.8676887798842726,0.20494919170035747,0.6748032282939371,0.21965334822357382,0.11426500870382619,-0.15386739684702297,0.22155890730556402,0.8571338382286264,-0.4287151589430618,-0.25879381713682204,-0.5304412571108467
170.0,7.584366083145142,-0.23848507177685685,-0.2163750224417389,1.018755253347862,-0.026476377666533005,-0.007974185254140707,-1.6024056369749056,-0.12490575146177274,-0.2811591029101843,0.003744027253964742,0.7347589415337654,-0.47078643801209963,0.09545846176435327,-0.6542473474483702,0.23213265658206278,0.20001068837448152,0.7517093694936829,-0.12145956963410813,-0.12683985009703103,-0.03952803435078284,0.14841711129244178,-0.056752741228233275,-0.34259906431119647,0.0465084680116154,-0.07787593241594018,0.8736672759275037,0.2038759577822509,0.6817409065608803,0.2199565723765868,0.11805507440026405,-0.15395866035683592,0.219994430672471,0.8580675165036027,-0.426571411477328,-0.25537570126989956,-0.5289081878015277
171.0,7.624173402786255,-0.23887755696375265,-0.2227112157306687,1.0178802332936159,-0.027145557361694043,-0.0090012507141686,-1.595050565945937,-0.11815189479295901,-0.2848534912371284,-0.003034664416898073,0.7366015875785292,-0.47026701683815086,0.09433905745185883,-0.6533915045921397,0.22664591691233882,0.18902837715412676,0.7505022463024902,-0.1062922683335192,-0.12882038919302527,-0.040414374730264505,0.14853093413067583,-0.05695058005585225,-0.3392143271162785,0.04511463317460667,-0.07687658900418923,0.8789272248781097,0.20276800132643102,0.686741232198553,0.22050642302369733,0.11990489824925427,-0.15341610386575216,0.2182682877069601,0.8592410651816996,-0.42429265221379914,-0.2512221636691239,-0.5273771824718252
173.0,7.665830135345459,-0.2392412059676387,-0.22857377733200568,1.017031128287002,-0.027689992854427137,-0.009768841002068408,-1.5880999298204939,-0.11217806307160665,-0.2881568900402949,-0.009528660862734468,0.7391130208580934,-0.4697759676119349,0.09329564835732462,-0.6519962713193821,0.22138226205945188,0.1786203360722758,0.7499342127372175,-0.09387191420006677,-0.13075625955578166,-0.041246880572695134,0.14931978424334091,-0.057674679449518346,-0.33564217033240895,0.04440441790669237,-0.07601835788392786,0.883673963860559,0.20192963627125307,0.6893244798689884,0.22137816500584198,0.12082692912806704,-0.1522768303565294,0.21654501370517215,0.8606100001837848,-0.42206470588881473,-0.2470411898993049,-0.5264200960508593
174.0,7.723355054855347,-0.2397852617967307,-0.23685103765139232,1.015867489581801,-0.028864610073726017,-0.011241788022912126,-1.5784520662684864,-0.10383372695088193,-0.2923013615282787,-0.017111936450579488,0.7434313748143071,-0.4684846035163992,0.09174939928246464,-0.6488402744317461,0.2147074448122706,0.1660260392193376,0.7508182765222337,-0.07891284992519015,-0.13336835123215274,-0.0421249800673341,0.14970826855080913,-0.05813913536212986,-0.32758588939574174,0.04363231353529162,-0.07611605489928555,0.8901429979371309,0.2015718926398704,0.6911502691712677,0.22211678974879173,0.12402500351194695,-0.15102463945672828,0.21438881569880647,0.8619213502876382,-0.41942725968439676,-0.24416601452342027,-0.5267227007838416
176.0,7.76668906211853,-0.2403411394601925,-0.24459788206435953,1.0148640661079473,-0.03024576864307397,-0.012730119277486192,-1.568878154616448,-0.09589568435364033,-0.29569702991223457,-0.023687910531424806,0.7475895784251312,-0.46660128646870336,0.0902969659590922,-0.6449826284027862,0.20841593668496322,0.15480530913789675,0.75209803624722,-0.06547911905713598,-0.13603682337483392,-0.043547728231471065,0.14927226936682603,-0.058038642123066676,-0.31854464529427545,0.04263089732273234,-0.07682841512035973,0.8966824921680361,0.20148684920203275,0.692749200220933,0.22264264461911457,0.12844832294336384,-0.1503235777937783,0.2122733811318242,0.8626010137919027,-0.4169697910182354,-0.24284797238330846,-0.5275646723365411
179.0,7.823018550872803,-0.24107841689714743,-0.2542844432654313,1.013842246883343,-0.03164367041835557,-0.01465495868321355,-1.5568841571995033,-0.08643342958021726,-0.298595526739175,-0.030231582546709115,0.7521526109800635,-0.4628089214300668,0.08867609644853594,-0.639657406008221,0.20041224009105088,0.1414227939897421,0.7546823863410584,-0.05091372466327851,-0.14011226470071464,-0.045252641897950335,0.14765236237156043,-0.057526125150004936,-0.3055751692128054,0.04073707870624317,-0.07811034644486108,0.905167754872584,0.20162831837465944,0.6963238838746821,0.22353531859869313,0.13540049883709723,-0.1499188152926957,0.20879268363882053,0.8627632172935387,-0.4132749403235662,-0.2421720471179261,-0.5290716934395785
180.0,7.913419485092163,-0.24205546270622294,-0.26775355321417715,1.0130205446445246,-0.03280491444226625,-0.01623430016955809,-1.5409269541325847,-0.07413502789131093,-0.3004745620314213,-0.038864681649547005,0.7580192559071343,-0.4560234420474773,0.08697160074329974,-0.632551359942858,0.186421964184521,0.11915538316265419,0.7591513986263748,-0.03917921659868084,-0.14747462867960143,-0.04573135510182942,0.14589493433900205,-0.05692613348639143,-0.28546686104864244,0.035575971563785364,-0.07982236302645904,0.9178809499208194,0.20170794288991867,0.7050444373847244,0.22636113852436668,0.146992538178853,-0.1509350509120354,0.20234985037987102,0.8620516202532718,-0.4072340263636631,-0.24248802748703072,-0.5317428990204724
182.0,7.9593422412872314,-0.24281792151866377,-0.27889724482255923,1.0125520891691961,-0.03370123727185649,-0.016677552837183803,-1.5271060212261007,-0.06405778899479572,-0.3012357402250001,-0.04712298175176298,0.7632866357892685,-0.4502641386355849,0.08596030452519435,-0.6266349532373181,0.17342764344159062,0.09860498854973296,0.7634729035447472,-0.03307217449150084,-0.15431298811518546,-0.04618231705464904,0.14516829534769388,-0.05654932747607608,-0.2681201350518484,0.030079170798730535,-0.08113507195415906,0.9289499705331192,0.20159031656216814,0.7135241494311502,0.22981536994087678,0.15761000312461385,-0.15265229032157418,0.1963488933962613,0.8607467226601403,-0.4020638084729845,-0.2435274763815761,-0.5342803301838437
184.0,8.025026798248291,-0.24349994182835297,-0.2908056228343952,1.012111260043703,-0.03391812073219035,-0.015870448344038154,-1.5129012945613005,-0.054616857193857074,-0.3009218214994899,-0.05634825926020552,0.7705893456767893,-0.44470960244284763,0.08553730278417757,-0.6213356868193771,0.16062255312890766,0.07767699720244578,0.7700091510359961,-0.031283084911896415,-0.1610473697365468,-0.04592137060195403,0.14637537162178327,-0.05647846516011154,-0.2503771541245795,0.02346977277378969,-0.08075676796764791,0.9411255535931677,0.20043327881367337,0.7242527835690336,0.23516986876507884,0.16735110482632026,-0.15508434591809717,0.18936300491860153,0.8594782577287166,-0.3964181123225682,-0.24400581077975267,-0.536506804602876
185.0,8.073253870010376,-0.24398019940633692,-0.3028400741322597,1.0115785916899784,-0.03323473178954335,-0.014445649924044528,-1.4992144382855006,-0.04703817194397904,-0.2999900414842749,-0.06511655070289162,0.779967295823492,-0.4380350568329435,0.08526415610410784,-0.6170354177494343,0.14984895366188197,0.06032565993922824,0.7789659263399641,-0.03295823462609425,-0.1665092571487146,-0.045456079671738425,0.14957009211366507,-0.056513776435126055,-0.23374531841762888,0.017142788054470996,-0.07751127945481213,0.9541294800414604,0.19730746198787702,0.7378369969517209,0.24103666547007505,0.17497370400016682,-0.15758726914981855,0.18233874604651368,0.8581777253453862,-0.3909072965825197,-0.24360464349473565,-0.5378019751914727
186.0,8.117877960205078,-0.244222119060525,-0.312410692395676,1.0110819595528393,-0.03259391159820297,-0.013149385408450294,-1.4881169670555088,-0.04198027713939742,-0.2991175164916694,-0.07185639242907368,0.788894710723703,-0.4316161634894059,0.08503587863433913,-0.6139318810693761,0.14229878236833404,0.048638553665735815,0.7877637099889175,-0.03519866854521473,-0.16999573345663846,-0.045544661509915436,0.1531405946565951,-0.05665391579613399,-0.22061647722591052,0.012607195728194681,-0.07351006365162215,0.9648593704143691,0.1936807508605361,0.7501343971641854,0.24572767672242868,0.18080958458728713,-0.1596132332938025,0.17714962688707941,0.8564172342431452,-0.3872117939189399,-0.24395312098113564,-0.5389002386043453
188.0,8.164874076843262,-0.24434626166233336,-0.32071940985843733,1.0106491522573686,-0.03219976476532713,-0.012305094792196051,-1.4785521460822852,-0.03812467197762788,-0.298353374764541,-0.07679398273510638,0.7973947943294448,-0.424551286853208,0.08469575737940709,-0.6112493810387569,0.1362873279442085,0.03998958287405696,0.7964187221408127,-0.035991758247833544,-0.1722788492153713,-0.04562889334382182,0.1566187490706613,-0.05696927885635222,-0.2087366898282158,0.009398535101328036,-0.06936820749449729,0.9741675747331635,0.18991982491594983,0.7615172876303169,0.24940617739228416,0.18615149203943962,-0.16131540634364577,0.17331848925792606,0.854166883482985,-0.3849933743136361,-0.24559563690460168,-0.5406171476603708
190.0,8.220601558685303,-0.24444358983136533,-0.33039281590961833,1.0104116516524109,-0.03190818927584879,-0.01217482285587489,-1.4682484369076163,-0.034215457369843605,-0.2969428835708925,-0.07961024271646897,0.8073299487955012,-0.413028184383351,0.08410535325886517,-0.6076476985171253,0.1297048208800682,0.03155415491751025,0.8068710744881323,-0.03134577017572902,-0.17379294160044073,-0.04441089683522524,0.16037422695787185,-0.058194078870598694,-0.1949702951044295,0.007130140698294482,-0.06431742597665976,0.9840791017652389,0.185433507983787,0.7741727992535731,0.25248286037373086,0.19099496148555492,-0.1628725800178657,0.16980129841307318,0.8516236192592688,-0.3834166906988404,-0.24828275329522864,-0.5433451626754265
192.0,8.29394006729126,-0.24458463101639205,-0.34151084997154607,1.0104739674705439,-0.03137620957757323,-0.011985109011412818,-1.4564132771904674,-0.03092101188040611,-0.29353716842840766,-0.08032503847931109,0.8196146876127495,-0.3969978856591676,0.08353537521142554,-0.6026706928297372,0.12339633363894117,0.023032911596920308,0.8183042946873804,-0.021804667886998228,-0.17467334572638799,-0.04236841416871906,0.16412704719610316,-0.060604382212410754,-0.18101364388727564,0.005127939807864948,-0.058929999712175496,0.9944312726205303,0.18060915127171995,0.7875814728439392,0.255224676204251,0.19381557042272915,-0.1644608585192609,0.16578637715107347,0.8495721282588286,-0.3813849775534531,-0.25004852454457316,-0.5452930385669852
194.0,8.351272344589233,-0.24471681447659666,-0.3539579885344962,1.0107798733024478,-0.03093872702913995,-0.011385213830039542,-1.442349766951916,-0.02892890062083929,-0.2872448756119608,-0.07860157339323572,0.8356784770605921,-0.37531700575369464,0.0829734753370795,-0.5953543642714435,0.11859836239582482,0.01573333708763515,0.829859579819052,-0.009147115056128098,-0.1745957585142529,-0.04056011608822791,0.1679402947448712,-0.06317931681637548,-0.16626534976056756,0.002687434257092153,-0.05416484499507988,1.0057007665853996,0.17607217129802882,0.8023010125485057,0.25778789974667293,0.19605266712266567,-0.1669769748962498,0.16127555785522707,0.8474921526892154,-0.379574598727759,-0.2518322248062825,-0.5478875461841723
196.0,8.42539119720459,-0.24472090804401164,-0.36689502568304644,1.0114601989766518,-0.03102153856405701,-0.01079432275946191,-1.4261290045431756,-0.02882352819240512,-0.2781327732647608,-0.07384612450971387,0.8552198744884718,-0.34667564783515303,0.08227014785128145,-0.5854146927406887,0.11467210548052716,0.00992643810424299,0.8401544882092629,0.005332869504394152,-0.17359323378345426,-0.03935356705394134,0.172144179343327,-0.06470463751156132,-0.15079366964411428,0.00043350117631828103,-0.05265411604772677,1.01683924426902,0.1734704007555626,0.817295706449298,0.2583352249570541,0.19851106807487698,-0.17010003349806546,0.15656298843155705,0.8453964776147288,-0.37815301983415794,-0.2527775903008225,-0.550992733222201
199.0,8.502125024795532,-0.2446403816600508,-0.37949449171568705,1.0125344287973421,-0.031891261932829595,-0.010485078023982585,-1.4079791623799989,-0.03128422128469718,-0.26563694344828825,-0.06504308482703447,0.8780364188212435,-0.31180260981659114,0.08179493718301989,-0.5732315544257038,0.11108662934460399,0.005407812994168548,0.8481777701863082,0.019563555658247855,-0.1715920131347657,-0.0388295203250368,0.17708256415822363,-0.0643085527518833,-0.1352657594742147,-0.0003693609968505551,-0.05641749800498701,1.0262126392741495,0.17423584529125458,0.8298249371885024,0.25544748848104276,0.20124394272672366,-0.17303126895899143,0.15260285862280387,0.8435450679361304,-0.37751556786375245,-0.2526171056632876,-0.5539637393687092
200.0,8.577666759490967,-0.24460806974683286,-0.3941498025282997,1.014104048210422,-0.03359001802640335,-0.010803436028656407,-1.3841496922735521,-0.039160497216290224,-0.2436014295191169,-0.04578570522423929,0.9109046134004051,-0.26149127748961126,0.08265327455022553,-0.5567405472845411,0.10653733925793507,0.0006633911458113967,0.8550989713833672,0.033547916327311925,-0.1680192543621109,-0.037946753119177334,0.18298037699808567,-0.06249631156833361,-0.11904619956853922,0.0003060418606550467,-0.06750464291764485,1.0336999369577435,0.1798288298258594,0.838184654206765,0.24872097503498586,0.20186535026263502,-0.17715553213953922,0.14907346067259292,0.8425726697981797,-0.3769901429850461,-0.24940651010441056,-0.5534840803113238
202.0,8.633646488189697,-0.24461009425771668,-0.4055419702053844,1.0154025815626535,-0.03505924359769778,-0.010808365824962888,-1.364110459386628,-0.048193923205399836,-0.2219349758036254,-0.026419952915230527,0.9398856309827882,-0.21719563478677534,0.08445028233565424,-0.5430403717821072,0.10306064240424528,-0.0033866509317997118,0.8590625603189819,0.043665662673440346,-0.16482092462508208,-0.03728360394543272,0.1878783445690339,-0.060957145858617494,-0.1074255370686803,0.001186467332103172,-0.07893889587943553,1.0372742151915473,0.18581930919398082,0.8425316252338477,0.24205822852364273,0.20064384170114158,-0.18088685008583205,0.14627447997452755,0.8423417189550702,-0.37586030865394615,-0.24372585620735482,-0.5488812962617406
203.0,8.689217329025269,-0.24466273725942772,-0.4165791141249867,1.0166798292485066,-0.035721654642298276,-0.010876505573012181,-1.3429786801378412,-0.061449999826687474,-0.19495501635160184,-0.0014716145332683336,0.9719376297226335,-0.17001398511577048,0.08828799359021422,-0.5296090285379114,0.1013853423376678,-0.005333153840177569,0.8616247407118022,0.05087222001459689,-0.16124365384327138,-0.03627869379085483,0.1919731026452075,-0.059940776757715405,-0.09795700861356661,0.0025743941038142005,-0.09142971965654154,1.0375662963209615,0.19256990924718365,0.8423559250462984,0.23472896806372906,0.19661448991729522,-0.18525534258841525,0.1440043267529866,0.8431440718367392,-0.3736363988755736,-0.23420224100482792,-0.5377512009056767
205.0,8.729445695877075,-0.24472569645385125,-0.4250180034327302,1.017620529701774,-0.03572981725320956,-0.010407877272285976,-1.3257268624850091,-0.07474763051157171,-0.17027760498114705,0.02096237876469051,0.9997901817920963,-0.1319442333863466,0.09281983010796946,-0.5193085526292619,0.10187292918576815,-0.0056073055402947845,0.8626441898825186,0.05525252097171207,-0.15813155352438946,-0.035328754963955926,0.19545983558639082,-0.059761838949038124,-0.09163386606494228,0.003910563758894987,-0.10144139045296997,1.0354961249767878,0.1977181250528699,0.8401679011928509,0.22811038218386825,0.19225191180217877,-0.1893629568544575,0.1424118528038173,0.8432824557737509,-0.3718572261891028,-0.22579497112419067,-0.5268451171027333
208.0,8.799020767211914,-0.24476424311016048,-0.4335929541363793,1.0185712440069268,-0.03468193144101648,-0.00960367726683629,-1.3069919179594294,-0.09188908885388872,-0.14118456212793257,0.046569072104448855,1.0321557875578646,-0.09604389957147443,0.0997820158580798,-0.5092803295117605,0.10472448091201203,-0.0036753585933355292,0.863060722110791,0.05739586301276556,-0.1544282244084299,-0.033546387299086836,0.19926455230326073,-0.060336087327111355,-0.087332504255517,0.00546851352257372,-0.11049136937748083,1.030942589576063,0.20178041197719027,0.8345655691148566,0.21993154337809206,0.18650460636239935,-0.19483309962781803,0.14072365536575548,0.8422207420865432,-0.3714212033508519,-0.22010585811473887,-0.5192314272951366
210.0,8.886186122894287,-0.24472722539755834,-0.44480103209803745,1.0199630941465125,-0.03212680622489043,-0.008606906624919416,-1.2803559869635723,-0.11770957683281288,-0.09796378576420392,0.08450035150317065,1.0772011257599823,-0.06524918095102653,0.11329329828824197,-0.4964589495088394,0.10850024620036455,-0.0010286838202637739,0.8624372202450656,0.056750597528367225,-0.1490210232446233,-0.03117138335255485,0.20436731125397106,-0.060444684124094476,-0.08460413191255672,0.007222292593408704,-0.11916684916371209,1.023586532011934,0.2050373573882665,0.8253408555115065,0.20971366789647744,0.17744968944126194,-0.20316456924792423,0.1377303922927596,0.840584749387262,-0.37255894314315163,-0.2150165957601532,-0.5162207774859411
211.0,8.953700304031372,-0.24459847951059255,-0.45549128670885297,1.021363435929215,-0.029045223477697453,-0.007776837501421181,-1.2527054773734734,-0.14487249227268467,-0.051012788943484336,0.12676308310820883,1.121783404574589,-0.054896922311262364,0.1312482271146666,-0.4841820794248661,0.1115632269966037,0.0010490179632665132,0.860807622159264,0.05486410916021904,-0.14337137029850583,-0.02924405372038071,0.20985875495806344,-0.059133134384730605,-0.08379482909131383,0.009579996789718012,-0.12511268596002384,1.0149797456359204,0.2066312521463824,0.8156958880953659,0.20003375515485175,0.16780999153621118,-0.21213286083917707,0.13568202139051022,0.838551671484135,-0.3756633433885148,-0.2113272216233517,-0.5158289360379968
213.0,8.993424415588379,-0.24447093828255928,-0.46396261921833737,1.0224532655540086,-0.026424294251036068,-0.006798409108779577,-1.2296414233658912,-0.16760011636669583,-0.008740504648187705,0.16480727225798447,1.1586625365525836,-0.0593372316317381,0.14954523578677847,-0.4745119205270788,0.11392351260246195,0.0020195093426576896,0.858954363926419,0.05347102026059707,-0.13865138182754,-0.027850579637261293,0.21467320923227257,-0.05733144306231128,-0.08413716885028204,0.01137616429401591,-0.1288229429040626,1.0069093934112228,0.2071534965304954,0.8080805807296247,0.19240242945518327,0.15935899737960507,-0.22039074236149522,0.13433512364796,0.8363081066643243,-0.37919076067189106,-0.2090415750681427,-0.5162846125407026
215.0,9.043704986572266,-0.24425925559193537,-0.4721282127065036,1.0233980631439923,-0.02358471475167942,-0.006970481249877578,-1.2061562781073882,-0.1883776771928218,0.03521751840982648,0.20663810984451209,1.1914414815223122,-0.08524404786139735,0.17181110470071387,-0.46540680233659176,0.11518166086260158,0.003120056632600927,0.8578974958164545,0.05233447226224958,-0.13421999838003523,-0.026213514307217807,0.2170085744418609,-0.05458755016752862,-0.08692675294596658,0.012224582471426361,-0.1306184292291154,0.9981820774943666,0.2066939037967866,0.8001354064836892,0.18672590115812104,0.14933680585295614,-0.230252210420431,0.13338957040646832,0.8340813695050058,-0.3835025415418085,-0.2074151428230195,-0.516164243234138
217.0,9.110685586929321,-0.24400527918081122,-0.4800531503205172,1.0241652089229707,-0.02093187435137703,-0.00779266515650398,-1.1833282245897672,-0.20691898570223455,0.0759496923692865,0.2473706175789453,1.2180296104629327,-0.12778835671387434,0.19474550611467623,-0.4565100343399091,0.11769722647991224,0.006240789792217628,0.8574116816520971,0.05153104802685518,-0.12982644272016822,-0.02312705104460246,0.2169330188118575,-0.0511361446652907,-0.09130731923130145,0.01160641295156593,-0.130774053828238,0.9879168239738088,0.20539896711621422,0.7902698186638453,0.1835434745655973,0.13720651575470044,-0.2412213616588427,0.13280353499779118,0.8335317868490646,-0.38755737885380454,-0.20118879495909253,-0.5116508864252154
219.0,9.175114631652832,-0.24376956286459844,-0.4882655412273575,1.0249494675438473,-0.01901061207052741,-0.009637170675872813,-1.1610781429816317,-0.22512116875559102,0.10768998487544251,0.28154728965837017,1.2386868836695382,-0.1834029038893659,0.2145712309976751,-0.4464051811952513,0.1225098503516874,0.012566605783069857,0.8573137441569445,0.051076262283332764,-0.12514779894594352,-0.01764461197981318,0.21534911884780655,-0.046418370065866146,-0.09508282905008224,0.009572868037281163,-0.129222131687152,0.9762953557486691,0.20329276561216778,0.7791917401882449,0.18328650513272177,0.12420557043400898,-0.25325744586560545,0.1327368642396687,0.8342395951251351,-0.39186746496428726,-0.19115150995939864,-0.5042951313524618
222.0,9.257984161376953,-0.24349669970888568,-0.49672090987651446,1.025593252027838,-0.017853924237560055,-0.012669279789291986,-1.139810342405066,-0.24469680756709844,0.12633081107065353,0.30582430279095707,1.2525418477559407,-0.24516205196955482,0.2281699878428868,-0.4353956739199622,0.12855132526386048,0.020892223802934148,0.85838536457524,0.051531809598622275,-0.12046395170572452,-0.0097728382343934,0.21300594182578417,-0.040749705240229354,-0.09784262445711722,0.005600547125539576,-0.12552106852953696,0.9642545035547978,0.20056575009588734,0.7688824575081561,0.18791660096251633,0.11214624686856157,-0.26727695002834134,0.13287858905889582,0.833413992370084,-0.39716681512594376,-0.18501243878447832,-0.49871554083833014
224.0,9.354395389556885,-0.24279539214920595,-0.5067540816476493,1.0258358394924476,-0.016959814434034264,-0.016704297124614076,-1.116271629932731,-0.2693551319645817,0.1309582839844798,0.3215754934363929,1.2552818237169086,-0.30735283452917356,0.23394148657850322,-0.42251003589963454,0.1364386048747782,0.031275738444234605,0.8615867929709423,0.05324202310542932,-0.11516937555864327,0.0015009481133479467,0.2107262110497122,-0.03499522897529519,-0.10205785120237018,-0.0011936897085445286,-0.11816205743259771,0.9499727337242685,0.19618583471087114,0.7580128719842283,0.19841266338584704,0.09706744639643503,-0.2858222832800801,0.13218010239253364,0.8303274939085898,-0.4035897615531556,-0.1832538599043556,-0.4946214036248009
226.0,9.429526805877686,-0.24170739694509424,-0.5163101616800957,1.02573696133991,-0.016172979052539744,-0.019892268164907884,-1.0944748658793975,-0.2943459877484004,0.12628610612538108,0.3290992402874572,1.2492699644225411,-0.35762574906619116,0.2334186233300688,-0.4104970124064009,0.14444757344729647,0.04064293730009911,0.865061171919707,0.0558408953884694,-0.10988400408929472,0.012455874465791831,0.2103824937616805,-0.030358771742501484,-0.10677796325729622,-0.008016852674342299,-0.10945230901592617,0.9357043041135076,0.1910364715045579,0.7489322060680852,0.20935400191690168,0.08011865147177748,-0.3040065017263538,0.13153052866757375,0.8270316041882981,-0.40925306932878364,-0.18133325582521942,-0.48839143656650386
228.0,9.500747919082642,-0.2402905671396135,-0.5253496401028075,1.025242688416563,-0.015247580814256057,-0.021915286467915414,-1.0737820772654694,-0.3199794954701653,0.1145225536234713,0.3293928355534237,1.2360732631874005,-0.39591533192028183,0.2274737996514794,-0.39980869617045234,0.1520963520526294,0.04811268196734016,0.868704836502977,0.0598628872934074,-0.10454225361227037,0.021966000372509294,0.21122984776727877,-0.02716198018856509,-0.11165280475805095,-0.015298611483435962,-0.10014337736138676,0.9216505706530221,0.18503725185232056,0.7405795321837415,0.2192884671233337,0.06192325431647565,-0.32168139979708754,0.1313833278943553,0.8235973257903473,-0.41442697959176533,-0.1796766085876585,-0.47982092921306246
229.0,9.558192014694214,-0.2386071744299327,-0.5338357751688078,1.024414733547786,-0.013983733973953126,-0.02293054395094933,-1.0535340346689885,-0.34588985606746403,0.09829388334854128,0.3248456732903384,1.2174416526112668,-0.4244672394973713,0.21797032977625214,-0.3906056916831533,0.15960648435153624,0.054425187702440495,0.8725484612571142,0.06481533108095948,-0.09894227671216616,0.02981090569261441,0.21242005362859123,-0.02598097344217243,-0.11620636950083586,-0.022707114295499826,-0.09182968435507716,0.9086994078460493,0.17902739068824158,0.7327363227468789,0.22689182892315096,0.043672011497718474,-0.3379497392083144,0.1307396448811568,0.8197494233465197,-0.41889883729236643,-0.17936782513274985,-0.472654411926851
231.0,9.60201644897461,-0.23715309642006138,-0.5401708408613175,1.0236550076979882,-0.012528167009043047,-0.02320622469790591,-1.037379282275147,-0.36659526382511115,0.08357971705153174,0.3191959954264058,1.2001722285083818,-0.4431631220795478,0.20904672897845777,-0.38422388272104235,0.1655829687392337,0.05925194670244403,0.8754089179509041,0.06922157471521564,-0.0940788758364255,0.03467664365036523,0.21330403347960092,-0.026055093523697156,-0.11908356444266135,-0.028585805754264934,-0.08613799159940905,0.8988630291970708,0.17458492184892926,0.7271155667152939,0.23167901778988365,0.02924148129334463,-0.3501207696979289,0.12970913900174946,0.8164467515247009,-0.4220650476226187,-0.17964983599564935,-0.46839952943056995
232.0,9.644580364227295,-0.23559191707485871,-0.5467602053979848,1.0227790023437713,-0.010170354999466216,-0.0234800815963601,-1.0190854598454566,-0.3885183128551325,0.06799411147793047,0.31396506772455535,1.1784704953429095,-0.45874569526151043,0.1995799571268832,-0.37806228945316794,0.17216673587541576,0.06472429912491307,0.8784073701578756,0.07405246997152726,-0.08880186213815738,0.03888691142788901,0.2128223144210254,-0.02734133159338177,-0.12166732253641745,-0.03453733438345139,-0.0824673375129244,0.8901112901141441,0.17112073066503095,0.7219233758757635,0.2348132952821471,0.014279671425264928,-0.36257449292754695,0.12719301506660258,0.8122612821924238,-0.42522057152497067,-0.18083487669496195,-0.46784748119906827
234.0,9.698737621307373,-0.2343148169194625,-0.5520863149048482,1.022089601027214,-0.007552325889684852,-0.02349889757746042,-1.003106427246758,-0.4065887332082779,0.055753358557638216,0.310767483526846,1.1588330289021238,-0.46963189634635094,0.1923727159869703,-0.3734889096449693,0.17765434635879485,0.06940017568180377,0.8805100217111509,0.07801445586075269,-0.08407921883516997,0.04143489234494302,0.2120491300975103,-0.02897381277984483,-0.1231761532769493,-0.03914504965419393,-0.08063471807390672,0.8833348006267789,0.16894575172985507,0.7177647895051049,0.23638164994236951,0.0021896498334915792,-0.37252327221239223,0.1243991054790658,0.8084274793949211,-0.427589776862058,-0.18260015135124336,-0.46922768638556256
236.0,9.762101650238037,-0.23279599937369572,-0.5581961929848182,1.0215237331487521,-0.0043319166014769254,-0.02300161036101212,-0.9848763674977443,-0.42583790457102577,0.04567323030627914,0.31139606819700627,1.1346601052079834,-0.47984938421809176,0.18568676937845868,-0.36826665773395034,0.18411887695458506,0.07452365188308507,0.881892893933051,0.0815763591645915,-0.0788723589104153,0.04426572110890092,0.21212867947450087,-0.03180451572295721,-0.12501489662804272,-0.04312539563194266,-0.08015921436600507,0.877331363893229,0.1674007469896029,0.7138026432013018,0.23614945320258862,-0.011184550905633523,-0.38250516282057034,0.12072456093507217,0.8033042968037344,-0.42986679992285937,-0.18557262870476163,-0.4724545379749234
238.0,9.823985576629639,-0.2307127804884319,-0.5652129305322944,1.0212239865366128,-0.0012188314402235651,-0.022132902722805145,-0.9659424122008666,-0.4449834709631371,0.03762496418402489,0.3159359823194111,1.10618431493053,-0.4915636669367023,0.17939831341904305,-0.36129028062976914,0.19080193432405085,0.07951284354916763,0.8818760591771166,0.08367232532296388,-0.07368819665151227,0.0487608045084472,0.21344609644388665,-0.036218170995945737,-0.12848296755046715,-0.04650288684661451,-0.0802728482649469,0.872686914642054,0.16642563724524462,0.7113341995977044,0.23541365733180664,-0.027642178123459822,-0.3928565169213026,0.11695049310015777,0.7972064075455132,-0.4330321925008008,-0.1891875993939323,-0.4770944702743911
240.0,9.900049448013306,-0.22812591391647408,-0.5726065388250036,1.021186128813239,0.0010228785424710638,-0.02095065726933724,-0.9477255926564252,-0.46246507694657524,0.031767869706171695,0.3235694994512059,1.074848332048207,-0.5042830710816257,0.1735442747057485,-0.35231265197585715,0.19681292865963715,0.08290643214221836,0.8796596969653772,0.08400336850642426,-0.06897833732226566,0.05429548386818597,0.21617518666301294,-0.04074619343815608,-0.13235556343165691,-0.04905039858912535,-0.08099856231915038,0.8693980665459726,0.1661047304781892,0.7103530438665856,0.23428633429277929,-0.046457503750839346,-0.40293396105487145,0.11348161296013727,0.7905415298211508,-0.43679771228971503,-0.19365726384195234,-0.4822212369300528
242.0,9.970788478851318,-0.22527235580830307,-0.5802517428526945,1.021229209574257,0.002301745265341925,-0.019001703744132254,-0.9292966069988572,-0.47844153608720696,0.029746817778054574,0.3362116101181869,1.041155134757364,-0.5144908130262121,0.16835674990550448,-0.3417610836233089,0.20308609220446894,0.08460778392222176,0.875099170523869,0.08301708853757425,-0.06444998105077207,0.05910571595609117,0.22048724086478252,-0.04427610974785787,-0.13544699485224074,-0.050976770115666925,-0.0825972179963475,0.8668609353298162,0.16635251164998843,0.7102570549854519,0.23231518978909976,-0.06648922306827018,-0.41223792025089334,0.10973387346776892,0.7831174420891087,-0.4402251273695182,-0.19915569015439635,-0.48768314741769503
244.0,10.025672435760498,-0.22235349463626808,-0.5877537645857632,1.0213314234213111,0.002651720629347133,-0.01585474628917505,-0.9115893088616771,-0.4928707755262227,0.031126943735926026,0.3519525352129246,1.0073827090167493,-0.5201429115863272,0.16337039629160877,-0.3307492294056673,0.20997929016015182,0.08471934084831437,0.8684180504312637,0.08074848683551893,-0.06031400627597382,0.0627455758465293,0.22570670208630328,-0.04709821391330321,-0.1376075976192237,-0.05274434557126309,-0.08523527386561841,0.8649784559652671,0.1673488678617924,0.7102994943263092,0.23013710817000937,-0.0867547751225074,-0.42051757207701457,0.10512365002478916,0.7752619242055431,-0.44284531796619586,-0.20580134309502768,-0.494307933182255
245.0,10.089159965515137,-0.21934985131913312,-0.5951039538418352,1.0215322741567232,0.002298326369792384,-0.011799565271902178,-0.895233540683909,-0.5071135934592876,0.0335041623532605,0.36717619201665747,0.9741483706491024,-0.5208820884310814,0.1571440875405701,-0.3196475980393743,0.21659284618580477,0.08289486838073576,0.8600458338479963,0.07810272683697637,-0.05693770521304404,0.06621556796470346,0.23120414946105805,-0.04951736722491537,-0.13872175571490858,-0.05416601154084956,-0.08899583447045334,0.8634611282878393,0.1691647672684221,0.7093628566661303,0.22770796923582498,-0.10709279023864027,-0.42724313636079403,0.09963116687933135,0.7672292160002578,-0.44450252023104586,-0.21335801926495862,-0.5022793391519598
247.0,10.125884532928467,-0.21687438095849415,-0.600943509628614,1.0217825495281945,0.001786952095861228,-0.008237616444761345,-0.8828871235474596,-0.5181783682333689,0.035445146269757886,0.3788491193454562,0.9471558447432955,-0.5177883694095964,0.15118347595123788,-0.31048392005009984,0.2211416932210753,0.08014293101425082,0.8519898834821489,0.07642572133228101,-0.05472153293301946,0.06894998618750925,0.2355031395519553,-0.05115561469990415,-0.13933055539660327,-0.05517606594114623,-0.09230814995457433,0.8626312906513064,0.1710235687052764,0.7081905997829194,0.22604833214923223,-0.12368238607453683,-0.4316580003160696,0.09489853393903336,0.7611874581163681,-0.4453399820479839,-0.2201654508221662,-0.5087340393891135
