ccrpRepo/mocap_retarget/src/mocap/src/data/output.csv
frame,timestamp,posX,posY,posZ,roll,pitch,yaw,left_hip_pitch_joint,left_hip_roll_joint,left_hip_yaw_joint,left_knee_joint,left_ankle_pitch_joint,left_ankle_roll_joint,right_hip_pitch_joint,right_hip_roll_joint,right_hip_yaw_joint,right_knee_joint,right_ankle_pitch_joint,right_ankle_roll_joint,waist_yaw_joint,waist_roll_joint,waist_pitch_joint,left_shoulder_pitch_joint,left_shoulder_roll_joint,left_shoulder_yaw_joint,left_elbow_joint,left_wrist_roll_joint,left_wrist_pitch_joint,left_wrist_yaw_joint,right_shoulder_pitch_joint,right_shoulder_roll_joint,right_shoulder_yaw_joint,right_elbow_joint,right_wrist_roll_joint,right_wrist_pitch_joint,right_wrist_yaw_joint
1.0,3.1939234733581543,0.7146352863255953,-0.32212322672507954,1.1279248547853005,0.02283914876430425,0.04992810552500324,1.8675627357917157,-0.0990227407304822,-0.06883411839933513,0.1029720749710362,-0.08136259691484313,-0.07140199201272061,0.14067102074052013,0.01890933929640963,0.16248021956181735,0.2533718813833807,0.2848067529591396,0.20065410773157627,-0.05377409588234702,0.15031554614423157,0.18998064452577546,-0.009561569932805589,-0.1157257156528636,-0.13936918033175885,-0.36750577283145547,-0.03436526332655115,0.20957046939985904,1.0011301487725646,0.05761293825376458,-0.19303363026331333,0.20902255278654114,-0.14939710066022702,0.5127884374434843,0.11327808251858824,-0.2438798614213628,-0.20965604328348209
4.0,3.2728445529937744,0.7146337390695099,-0.3221214481102011,1.127921337926977,0.022815535485905356,0.04989874651755999,1.8675559545546978,-0.0986796918739635,-0.06884996724471153,0.10295112203909738,-0.08215914279344186,-0.07104175139467878,0.14067155250590432,0.018866653537622548,0.16250711850337396,0.2533716577666225,0.28482660617506844,0.20064609072616707,-0.053776690843649604,0.1503254458016654,0.18999282263402636,-0.009604683322637041,-0.1157222008318391,-0.13934781989851677,-0.3675273365461913,-0.03439078087844797,0.20952049464069938,1.0011568149771795,0.05765069656311414,-0.1930198115224998,0.2090270068769015,-0.1493918600493922,0.5127693897879404,0.11327776590059391,-0.24386711079577217,-0.20965529904795732
6.0,3.3749232292175293,0.7126708268302799,-0.31749958361910935,1.1276072032677449,0.023744616563459164,0.04881771537634581,1.8610454162881922,-0.10555651943271521,-0.066857839820193,0.09390888608187037,-0.08252687139032082,-0.07795750515958863,0.14107960707851885,0.02282896254881421,0.1621001850340042,0.2520370041659481,0.2862804652990052,0.2020174278471099,-0.05445664264630405,0.1477099234836618,0.1886549666110157,-0.009481674858164427,-0.11608592527945781,-0.1375277957399882,-0.36583796146975855,-0.04285086124760904,0.19538676186762682,0.9868568945397794,0.03934632039084589,-0.19485484870714442,0.2068533995184456,-0.16119407197848706,0.5110989879536956,0.13317273586975859,-0.24569449629095713,-0.19755776652521945
9.0,3.4517581462860107,0.7096114824900908,-0.31088605490819243,1.127111584324581,0.02437859578540616,0.046955375074622,1.851637227462746,-0.11463701689333461,-0.06394451067982113,0.0828378581116134,-0.08293149960294066,-0.08833441718961704,0.1419444188142614,0.027704201358801292,0.16101148186166578,0.24979651840362999,0.28809494464125135,0.2050366909501693,-0.05542747505495178,0.1440901733442469,0.18536005616532464,-0.010204500671507005,-0.11592980032104774,-0.13412189655750134,-0.362915634983339,-0.05590035150987352,0.16914644952225089,0.9621582551174392,0.005605787825805935,-0.19642367096198676,0.2035719613374789,-0.17801251610948482,0.5074108499100489,0.1631503168120761,-0.24959616953203662,-0.17704571642313008
11.0,3.5375304222106934,0.7050850591535887,-0.3011807321549511,1.126071788907566,0.025044720976369467,0.04424674541213835,1.838311456416419,-0.12433814450372035,-0.05937832768952733,0.07402437523969657,-0.08361432952748625,-0.09975182911008082,0.14284688485394148,0.03490692547157645,0.1601162241558805,0.24885124844563744,0.29118621035137915,0.20946649407875578,-0.05654922089600437,0.13812184370795721,0.17957345299913768,-0.012073388371781443,-0.11548163583000806,-0.1295456481621888,-0.35603256830147517,-0.07324851547148337,0.12947487531000967,0.9276106311838158,-0.04356167374729041,-0.1962047425902081,0.19842213366092498,-0.1992369164718068,0.49907316160629245,0.20308878599248367,-0.261015149240103,-0.14500310538101166
15.0,3.6236631870269775,0.7004251510011743,-0.29128999687590873,1.1250318371728079,0.02524848432718045,0.0416309443313837,1.8245376021466386,-0.13196201880379066,-0.054238827970256205,0.07126385013452995,-0.08358287268717851,-0.10818076856095898,0.1434353597905655,0.04233442075699047,0.15953337345592083,0.2500053970798113,0.2938592644044061,0.21469628181015488,-0.05756753655237778,0.13150862423218151,0.17179269878506415,-0.01436040653927969,-0.11562546643106461,-0.125310691802396,-0.3487645305579703,-0.08835049359198519,0.08874970052663879,0.8944425875687153,-0.0923867225222212,-0.19549296242197356,0.19140142483476447,-0.22000927052874014,0.4884185375477512,0.24181482403578686,-0.2709476883924139,-0.11247619346690968
18.0,3.7396435737609863,0.6937193337964992,-0.27875515582826194,1.123639137256942,0.024572494548038445,0.03799029519569037,1.8050415502898065,-0.13547825191932578,-0.04721309342355881,0.07834372760480832,-0.08319768444580378,-0.11164992766274011,0.14445327707887146,0.05066300675049283,0.1586524170261019,0.2550995541809561,0.2973864408553174,0.2236455151145671,-0.058130954635597656,0.12256396634430813,0.16086514834581844,-0.017810085589799074,-0.11962510859149864,-0.11359873487073299,-0.3451592908001887,-0.10163079100359157,0.03679255532464884,0.8692810793712271,-0.16250146173817617,-0.19199964853363066,0.18042876956994147,-0.245218778590172,0.46708783241184126,0.2836077833382791,-0.28822513555994855,-0.07868218624192222
19.0,3.830986738204956,0.6861294509879945,-0.2655433495808146,1.1220038833964305,0.02368515843343536,0.03453977905095652,1.7824371843030535,-0.1354541578831946,-0.03968008233310906,0.09679888381029682,-0.08085676565619443,-0.10214756243715685,0.14500505531760957,0.05865854652764192,0.15684168167394943,0.26247361764022437,0.3021861037105087,0.23465198224911527,-0.05851933385386396,0.11382543300864856,0.15007017002983816,-0.022953855250843872,-0.12377436478546698,-0.10406770578161298,-0.33898239852078194,-0.10964447634217578,-0.005248726506489627,0.8533481043259851,-0.21445605970990106,-0.18849042495590557,0.16699774084340951,-0.2732783496418485,0.43639914888703596,0.3193125910016967,-0.31530260518326814,-0.05520614396020744
22.0,3.887831687927246,0.6802713244410913,-0.2555737428804067,1.1208489348078887,0.022725606456833157,0.03244375486699074,1.7639557905704946,-0.1331444866933995,-0.03406687627964315,0.1162502110199659,-0.07979280334496845,-0.08692771696611269,0.1449587390611503,0.06453740953428974,0.15482992902691445,0.2696990356920703,0.30557175907488465,0.2438724838389369,-0.05884157023192482,0.10858090636576492,0.14133770812817673,-0.027500935943735066,-0.12739893461252208,-0.09717925998318588,-0.3335735982089201,-0.11257188345533825,-0.03211248212980092,0.8420491326695978,-0.24330954987303746,-0.1864285353434572,0.15494993229895054,-0.2957145245538545,0.40974246377305834,0.34276761352832485,-0.33337888276109207,-0.04440499470302009
25.0,3.985090970993042,0.6734304247260208,-0.24452366419752458,1.1200712156948687,0.02272094474673618,0.0321676637650928,1.7436254615932687,-0.13034614393884725,-0.029114815568991648,0.14473249628856094,-0.06998250406304493,-0.05480530123174729,0.14448152605556344,0.07212514802267417,0.14987042368306092,0.2770344807344085,0.31031600719985675,0.25224346834217415,-0.05944733577407726,0.10206758848668554,0.12988864600885236,-0.031995077827704735,-0.13131712530962408,-0.09136676913908079,-0.3239386497800626,-0.10911381675056275,-0.045023030723689454,0.8258988600844749,-0.2511434957264277,-0.18815084830243056,0.1336784714220755,-0.3182741477018885,0.38022280976090883,0.3549808358479454,-0.34018397512549325,-0.04705484653504839
28.0,4.07638144493103,0.6657452936043755,-0.23297195712106122,1.1199289539213253,0.025137670865987206,0.03400830120636239,1.72408689187501,-0.12526850099748144,-0.026497875746788045,0.17359956551191358,-0.05454607547104128,-0.01608646474670427,0.14448818344912273,0.08214888934617798,0.14201177774407883,0.2830627595824902,0.3169156679736539,0.2570913410151665,-0.06013558921642301,0.09426754198534035,0.11724333509128734,-0.03250517819400625,-0.13491855109613948,-0.08662031411892258,-0.3119645829207921,-0.09859349662703625,-0.04530259231879882,0.8121501767366575,-0.24044800288930507,-0.19169403079312886,0.10520779094020014,-0.33939352795133537,0.3465711496246964,0.35406470366624465,-0.3468135252835519,-0.05749276516964366
29.0,4.165594816207886,0.6569902954834119,-0.2205045527286816,1.1204534058565878,0.030037721795183825,0.03704413406669674,1.7048824978027364,-0.11628162969104489,-0.027614667079790454,0.19334797590276837,-0.0371626627539559,0.017737065530364127,0.14424694792459025,0.0942691775514963,0.13145910459549037,0.2867613705339991,0.32622695640648974,0.25854306768321117,-0.06104246568509172,0.08438464496718955,0.10223742861218331,-0.028702933628040855,-0.13992828629813767,-0.08412036785626124,-0.298190786990735,-0.08059870423967988,-0.04019006562690501,0.8058379633039293,-0.22059136825940578,-0.19752568807248494,0.06876306619212941,-0.3639336834814092,0.30788551613502296,0.3410379037306542,-0.3587031593184379,-0.07703340254883434
32.0,4.221728324890137,0.6499413769343712,-0.2108526303347813,1.1210279626521544,0.03514214838497906,0.03979878674657378,1.6897934127142382,-0.10702778251792944,-0.029946442182605774,0.20524255621797938,-0.024419897879398664,0.039834513778304964,0.14401684538569853,0.10373110540351563,0.12219670699551487,0.28825551129123517,0.3355800561265775,0.25867727965167486,-0.061898822738553134,0.07747052481262048,0.0904375477664994,-0.02381115204372195,-0.14494444733510017,-0.08378462824615826,-0.2871884268126434,-0.06282397860683761,-0.035615417440378244,0.8042685392596718,-0.2021216646589166,-0.20180733875041146,0.03772904840213928,-0.38400144975064576,0.2744875173477695,0.32534560018177405,-0.3696767607674052,-0.09643973225966398
34.0,4.30077338218689,0.6419451383002729,-0.20026860436219107,1.122085408885553,0.04146272483091297,0.041745161313651344,1.6736907562521428,-0.09251707451831509,-0.03419428776381125,0.21087452788419048,-0.015107069551890218,0.04790367314701359,0.14384152054747282,0.11133168131110202,0.11057146251771074,0.283491748478162,0.3493559088856344,0.25996997423401985,-0.06395163513235018,0.07010214643333249,0.07683520767505204,-0.01914165785434494,-0.14805355365533118,-0.08850124010844387,-0.2731011116247688,-0.04074642552296435,-0.027362778136935093,0.8096374040531028,-0.17312047150884496,-0.2057653255215785,-0.00034115467960064635,-0.40783024022470626,0.23601579596492464,0.2977456881509587,-0.38388369078908174,-0.12281467943905246
36.0,4.3687803745269775,0.6343152402137164,-0.19052076320670608,1.1233192216483354,0.04773629338673932,0.04275471154570723,1.6581136459246455,-0.07594321623461987,-0.03893772356562202,0.21391523834311524,-0.009901943945048529,0.0451206032440969,0.1439988728319558,0.1151722209402643,0.09806904602472108,0.2739232735489678,0.36622343917002353,0.2623024102523476,-0.06703925740268893,0.06490839465315003,0.06438479145636303,-0.015271447802411183,-0.14822704473835124,-0.09573815600860681,-0.25971359650171527,-0.020969870786036217,-0.017553087626510814,0.814952613329917,-0.1408268985418445,-0.20819277693678206,-0.03721920583653171,-0.4311937784043155,0.19772028898610267,0.2645729043153285,-0.39484878129975204,-0.15266870394588988
37.0,4.428360223770142,0.6267036310388705,-0.18106000009859374,1.1246121442776587,0.053713757664160935,0.04283640221121553,1.6423938407096492,-0.058158076193027666,-0.043693675531855145,0.21684444016599297,-0.007388929255342321,0.03564799444853952,0.14423495240775208,0.11497279495919233,0.08393311406011858,0.2587804008935223,0.38694140856059933,0.2662915856377928,-0.07141167839256701,0.0614628956437856,0.05247095586141587,-0.01223127408201376,-0.14536809010544965,-0.10320615534771788,-0.24810768402862188,-0.004926669300021858,-0.007806962869805201,0.8175813077656628,-0.10996207178982867,-0.20940473554512018,-0.07415550718573301,-0.4538075202899233,0.15916950138633693,0.22349723267063837,-0.4033207100213473,-0.18511625739610071
39.0,4.484677076339722,0.6204114661003266,-0.17333611376344887,1.1255943487859814,0.05909517434917052,0.042982650058804944,1.6298084458126727,-0.04278844255973676,-0.04796970628288397,0.2198849222734888,-0.0057725513840197,0.02610606363024729,0.1443593183702434,0.1126979778512966,0.07104744656326518,0.24302905925534363,0.40811503874964644,0.2692332718857273,-0.0758670650205682,0.05899481821926915,0.04292774422503512,-0.009236213902198928,-0.14195283654783544,-0.10915963935743812,-0.23934574019064866,0.006883387907146856,-0.0008898791531772371,0.8176967983342136,-0.08675470309415756,-0.2091326980049016,-0.10522784073881561,-0.47118771100498913,0.1250211205176591,0.18419983317120442,-0.40688578135227016,-0.21380348350546488
41.0,4.539151906967163,0.6138573852011432,-0.16561875079726146,1.126590537022599,0.06485670731604312,0.041992100914842054,1.6186073837218176,-0.027453629788037184,-0.05138509072711055,0.22414410830377898,-0.0039278407979513675,0.01635084220656782,0.14400593422798316,0.10777482090253024,0.057353182519832346,0.2226652103001194,0.43327960260909343,0.2727133137600314,-0.08159291742946259,0.054908736370603825,0.033923301478286434,-0.005444395034656166,-0.13459001184725028,-0.11417733348234141,-0.23237176374373328,0.014960053320198695,0.004555603105368008,0.8162029131562238,-0.06740992739049981,-0.20648757195141876,-0.13652855514831208,-0.4870668702817653,0.0894204881088115,0.13853086093578534,-0.404232693978001,-0.24235720378313347
43.0,4.594875335693359,0.606814263551245,-0.15745710612721905,1.1278024607675,0.07039705845722145,0.03967159458328562,1.6080985246642587,-0.012291443962746864,-0.05400027452306816,0.2287476127086689,-0.0018469269390303067,0.006650164550773027,0.14310323947497577,0.09939383256357096,0.04260497334864598,0.19842980466135707,0.46300621595841784,0.27595816486423563,-0.08942951774011856,0.04920571124718594,0.026161454128217247,-0.0013080962005121448,-0.12510763939716374,-0.11879712927279203,-0.2252635231356046,0.020825847771931732,0.00939338941423706,0.8157101905932503,-0.049246802959742736,-0.20334310365335717,-0.16823147894870222,-0.5022628741105625,0.05086533976624118,0.08614449693860324,-0.39618168418449784,-0.2717098467982344
45.0,4.676545858383179,0.5994186012751168,-0.14883519171102702,1.1291467479492867,0.07520832077647654,0.03616799702161959,1.5978304295301373,0.0025788678892470825,-0.05619608251830355,0.23252243897330677,-3.837324426236052e-05,-0.003651612799210336,0.14201437340616305,0.0866903453589036,0.026344149059817072,0.17042303328033798,0.49771112811157975,0.27794372842578924,-0.10010369762205062,0.043111340540045825,0.020025210549675536,0.0028155671759177883,-0.11622413900159742,-0.12303238035831512,-0.2175709982103059,0.025522577447723453,0.013679783707431985,0.8169698535190506,-0.032256338594830444,-0.20140702441729968,-0.20004596460639895,-0.5159896674985285,0.01003113813856981,0.027380859893986073,-0.38438049227352267,-0.3009745713411004
47.0,4.749820232391357,0.5917392736637004,-0.13989988044911156,1.1304018540702345,0.07900251305062347,0.0315439487557825,1.5877531860522343,0.017033705197330554,-0.05826515915901345,0.23466198421419754,0.0009663136666787969,-0.015182600154388451,0.14128379426586798,0.06926800148024169,0.008624729132027734,0.13918209954594132,0.5376382924420506,0.2778892626268076,-0.11389183946763082,0.0372882517428748,0.01594464226047349,0.006838302708126778,-0.10743872971700416,-0.12680648016363755,-0.2099584384186664,0.02843057369552395,0.01732067118275135,0.8200577248436597,-0.016887036882900414,-0.20054105111609036,-0.23107939126751054,-0.528310915935024,-0.032745301869035424,-0.03946988561617172,-0.37112361276423056,-0.33149751935798555
49.0,4.82341742515564,0.5843069561885575,-0.1311334061977117,1.1313022051445074,0.08103200149741616,0.02648398687678535,1.5786988072092027,0.029888651122174058,-0.06061117860302791,0.23474526486391084,0.000666517266982484,-0.02751318637354806,0.1411101879076023,0.04722612805636421,-0.009379886281848895,0.10749838820589533,0.581869455420222,0.2755297633704347,-0.1301126849324736,0.032317360309645785,0.01430237988113019,0.010432320635025756,-0.09989750623874077,-0.12944881875247477,-0.20276986855948032,0.029108937670052924,0.019390491917632216,0.8243151158665217,-0.005277065356019352,-0.20105503532930874,-0.25834049429011435,-0.537844613379904,-0.07578570705884355,-0.11400271046046828,-0.3566158277295317,-0.3643622650234329
52.0,4.884869813919067,0.5773389505395965,-0.12244907137311598,1.1318276242230698,0.08103114846958209,0.021707200972555272,1.570901507405606,0.04078693823159053,-0.06354787733720729,0.23330647511462582,-0.000809386760058571,-0.039929974078064825,0.14122477196667296,0.021271537458361973,-0.026183382876677264,0.07831272904769802,0.6294900670867565,0.270502781924965,-0.14777149961199804,0.02811499857063051,0.014044835675227733,0.013494157906332245,-0.0951975421727105,-0.13024483296186704,-0.19674457358167868,0.028614025787042488,0.018111616527122266,0.8317377786184532,-0.000964374454317046,-0.2034816025268315,-0.281875707796836,-0.5430794954702497,-0.11785952231425394,-0.19511425644121183,-0.34178372084403597,-0.3987571070218495
56.0,4.991256237030029,0.5687572648508322,-0.11085248214571182,1.1323539848881783,0.07919510917413188,0.015920863220508515,1.562627688352928,0.05301981051534208,-0.06738285949297165,0.23205867946580183,-0.0030658735828502912,-0.054539404051644744,0.14180622967732553,-0.009400253178076393,-0.03888854152588331,0.05513817036022298,0.6832127556365677,0.2587435779143904,-0.1666731590232108,0.02492005612124521,0.015286141844806051,0.016536189190294263,-0.08688430865803637,-0.13091831765357695,-0.19659304343570794,0.023530641571011753,0.014315151074256445,0.8436575978740195,-0.002988819748227845,-0.20364736246929366,-0.3074201427259413,-0.5449150521361036,-0.16205538284074167,-0.29017231257019477,-0.3309048729006569,-0.4334493893634933
58.0,5.094680547714233,0.5602740338811346,-0.098440554091035,1.1328063041189118,0.07662053582069528,0.010249711187343354,1.5564385725847971,0.06482719310640547,-0.07103484483193413,0.23148446715879295,-0.0046677807641395935,-0.0673169320042767,0.14186402281615523,-0.04934986825050132,-0.03795751689571783,0.04247345606414425,0.7448239457064156,0.2349309792230569,-0.18228536182131455,0.02183092081584317,0.018421813362988017,0.02398048898086158,-0.08268652546591673,-0.12637111178717678,-0.19614431312766437,0.01717584642389395,0.012029972648616428,0.8552574527690346,-0.007014964548299888,-0.20384040833207367,-0.3292835170250793,-0.5345499193423595,-0.20325960117972916,-0.39835531951006986,-0.3232305910492159,-0.4699525892203629
60.0,5.162206649780273,0.5533431851942446,-0.08713737896123988,1.1326515998490754,0.07247228585659318,0.007499709764910978,1.5516663136391249,0.0736543777361569,-0.07637837494773261,0.23070978940175108,-0.006508085791828693,-0.07756470316103478,0.1410852021335076,-0.08737403107416605,-0.02976160639769564,0.04054265211167792,0.7971061437452686,0.20746726933284154,-0.19018082668147646,0.021680213192192557,0.020757252054884302,0.03183970390466016,-0.08590070556842994,-0.12034370374128275,-0.19444673519735428,0.014578447427995439,0.011993974015722794,0.8683613557242509,-0.009253744284330522,-0.2043634239522355,-0.34745611229496953,-0.5103229584628175,-0.23477470009643608,-0.5171965753466181,-0.32028244427131736,-0.5121465487634199
61.0,5.226318836212158,0.5480237927199257,-0.07731818203265978,1.131986640262593,0.0682653200894717,0.0075915627846662274,1.5470351204772363,0.08070428266875762,-0.08324015608636173,0.22996864616032178,-0.008540019530270424,-0.08614967724340142,0.1400881477039101,-0.12222417489887519,-0.01663663485477987,0.046130053990546795,0.8385175774111571,0.18014121297788674,-0.19155595945724097,0.02421843028784964,0.024149261561799834,0.03954510136788636,-0.0891152094005648,-0.1154046446366448,-0.19207591846750277,0.0123442761052365,0.01398732733063086,0.8776732730527859,-0.007635970273494816,-0.2031581710707382,-0.35948997260955873,-0.47872279056366285,-0.2524098667866208,-0.625048826701275,-0.32409901428559323,-0.5593558411372938
64.0,5.287275552749634,0.5449445481314251,-0.07051213437855237,1.1310817650408058,0.0649328881941517,0.010227718202064924,1.5431541649129181,0.08526669452575969,-0.0903408047020936,0.2297722443595948,-0.010537381977295802,-0.0919671803623638,0.13900636543648953,-0.1491446111357549,-0.004714016075223712,0.05442667424627672,0.8673508431755015,0.15820287325478097,-0.18930650907896207,0.02735395363344144,0.02729454194521541,0.04510101413699662,-0.09230876747930795,-0.11123284483143166,-0.18783749190133361,0.011248277039466802,0.016127798554108255,0.8823773871197528,-0.004453322597009692,-0.20201000586692516,-0.36610123367217795,-0.44581543409140256,-0.257093097505847,-0.7071889802502567,-0.3297354423129978,-0.6038017610652759
67.0,5.366332054138184,0.5417485995946483,-0.06211368905141867,1.1295974234128694,0.061289491104430466,0.015795538813199443,1.5420586763876458,0.09055959261518616,-0.10099464104721996,0.22734844633004678,-0.012334160947170011,-0.09818165162280443,0.13731247188451487,-0.17554045576201974,0.011323141775269514,0.06521756941910026,0.8855683081538963,0.13923579962321622,-0.1809571947163473,0.030632618952005534,0.031175389088000632,0.052696595989313894,-0.09662290439870602,-0.10989348461671453,-0.18314361828354586,0.00995318388040746,0.019112232191991464,0.8819275287815953,0.001788500790937783,-0.1951033268400909,-0.3803072747351287,-0.4006951169995583,-0.23337106643268385,-0.7875691992097487,-0.3489034228173845,-0.6552127598147284
70.0,5.4812304973602295,0.5381932801696035,-0.05210068361180138,1.1279187139227496,0.05755793190058323,0.02298416842280883,1.5436692641239285,0.09676584156525933,-0.11370015023751474,0.22277807165800928,-0.013467837692921675,-0.10446268779757611,0.13459954722974568,-0.2020607921662555,0.030189571748953706,0.0755385433103723,0.8906715130306864,0.12354804113234855,-0.16856499589813287,0.033075475897870375,0.03371004114872223,0.06235506410525128,-0.10041182666558873,-0.10969876372275704,-0.1799915519364702,0.0069094620330655485,0.018891490712219176,0.88167600587044,0.003455002368541931,-0.18071630642242897,-0.4075164018729414,-0.3422494283138898,-0.1692112214153169,-0.8577591980221366,-0.36692183538822426,-0.6863621435018153
72.0,5.5661396980285645,0.5340058633750011,-0.04086201651094876,1.126139157246799,0.053145329018448456,0.029764261245194212,1.5460799996382288,0.10315006109973889,-0.1263703802603496,0.21863250677143778,-0.014237055823813835,-0.11030931445105274,0.13193443821002396,-0.22841908284063409,0.05136760164073997,0.08639805223402451,0.8799927258204382,0.1124036986405278,-0.15346276949390225,0.035354300515710084,0.03395992142264717,0.07305066981358499,-0.10399534976909028,-0.10867836379085491,-0.17882474228498596,0.0010680200199347446,0.017153176730989615,0.8834996210420303,0.0014227610905693782,-0.16206992657450636,-0.43956236740139754,-0.2741555274619946,-0.06400423646144279,-0.9180997367536368,-0.3559506294209972,-0.6746719106690404
74.0,5.631714820861816,0.5298587290663456,-0.03047842845232955,1.1244949962954152,0.04874088291217019,0.034395955691980354,1.5468248125977715,0.10892470245828972,-0.13651965419286763,0.21633983744735047,-0.015408335072266473,-0.11549921709599742,0.13023254829750253,-0.25131892344216333,0.07243781728783052,0.09807163594374718,0.8594233927365548,0.10553290495078901,-0.1381915034348096,0.038768138563106305,0.030664288381860583,0.08189145413393291,-0.10790846748058298,-0.10806436533249456,-0.17970559919369383,-0.0050477836782072336,0.015201332334868822,0.8862820532987001,-0.0017280024427074358,-0.15072514389654418,-0.4703099172429791,-0.20556451026146888,0.059303571603298265,-0.9656216393207271,-0.31253964834586406,-0.6200913883059291
77.0,5.702672004699707,0.5260504268374036,-0.021270019834949274,1.1230056908638797,0.044733132647171936,0.03722247370784613,1.5451893815341387,0.11433278826789624,-0.14429003205175173,0.21584682132184874,-0.0169682466071856,-0.12026120925232488,0.1291221970883546,-0.27037017748871467,0.0907851927276389,0.10893923897715307,0.83148873644204,0.10211657705418163,-0.12477249695640762,0.045051240738105625,0.02261345066042978,0.08836502361534576,-0.11317981706901026,-0.10890494069476062,-0.18342813799208202,-0.0097298277986544,0.013661780845752172,0.8876109320630157,-0.005114158787105083,-0.15261616553226587,-0.4962968027160255,-0.13765398330618642,0.19430095482827558,-0.9945747653386744,-0.23908286340755405,-0.5102241210884387
80.0,5.810091018676758,0.5221887263149133,-0.010967042384882745,1.1212299145327755,0.03998186044144493,0.04010865928674277,1.5412506505149417,0.12059681557984994,-0.15219818070976865,0.21788757412640353,-0.01901440268353623,-0.12635368156410276,0.12795035598869553,-0.29015547706768474,0.10702464847591808,0.11956870863085653,0.792963511269627,0.10164004740194117,-0.11286074397500465,0.05760949311563322,0.008865725981023724,0.09484282590034793,-0.12287388399859647,-0.11241989619980347,-0.19253504702789387,-0.012802235018939429,0.014065608036691693,0.8861451465320849,-0.007780917807269345,-0.16877449606519807,-0.5148497392532801,-0.06393359347007188,0.35262936024085256,-0.9976514245118389,-0.1413744483576195,-0.3040644717642972
84.0,5.920489549636841,0.5188757470116746,8.750089602648729e-05,1.1192469558219365,0.03610947325772952,0.044711592320605856,1.5374646334489621,0.12866864498559896,-0.16164502444485923,0.22010912487755951,-0.021096269433215804,-0.13420521563019974,0.12651826147548612,-0.31060601499084317,0.12159684968550458,0.13363183290616415,0.7500198962016945,0.09699776665784816,-0.10241710947004301,0.06943458740013445,-0.001947024445444694,0.1016476829158603,-0.13505462037164084,-0.11685414253465279,-0.19947244733120492,-0.011509990592300417,0.012960736073245195,0.8818170381083302,-0.01135458771914657,-0.18633598683860675,-0.5208684474886861,0.0011118295179645375,0.49962977624964877,-0.9712452484040949,-0.05663941915656606,-0.08217845410383035
86.0,6.0317816734313965,0.5157743218173362,0.01322444287136026,1.116939869525031,0.03457677491513635,0.05153312974767687,1.5390380161714636,0.13987219236017717,-0.1733762616443143,0.21794260895794704,-0.021139403180219153,-0.14285519201586067,0.12350102284078406,-0.33289911121110094,0.13171354531076085,0.14929136109350416,0.6986210350015818,0.0813926774373294,-0.09530973337277712,0.07229771025828222,-0.006674673699996362,0.1089514286407806,-0.14806487645766786,-0.12221869254903406,-0.1984025125620951,-0.005008576974545544,0.0076779275489810015,0.8756055712269898,-0.015685510113021994,-0.1909965459171417,-0.5106083941517227,0.03962214278817359,0.6086137589044229,-0.9217284954745819,0.002705960406047838,0.06078528685116984
87.0,6.098656415939331,0.5133820874649571,0.024666120786890587,1.1152664654575206,0.03520777473810795,0.057205373000564115,1.5443845696872152,0.1507486039145332,-0.1821913060860934,0.21692152565427167,-0.019766795642699758,-0.14893825316471562,0.12113799286412891,-0.34927791537786723,0.13729062246499596,0.16238564015501353,0.6510612037502715,0.0640804465752434,-0.09151304936697033,0.06690766844886076,-0.008431688390997817,0.11351861872691499,-0.15777949983713355,-0.12757439663461637,-0.19156084402139015,0.004456302658616585,0.0013425495418823209,0.8697614650859764,-0.017446961162392374,-0.18991174383483012,-0.4977179908519445,0.06300299048925007,0.6723886929672676,-0.8743028914725708,0.03424181322487835,0.11666811777754221
89.0,6.154175519943237,0.5117875934165057,0.03290806410900505,1.1144082613912636,0.036877335069174524,0.06084828679846229,1.5508084854866535,0.15943048167009902,-0.1874175610332478,0.21641288614155063,-0.018086498497840924,-0.15243289013136413,0.11956623828609178,-0.35834309329201885,0.13932788385471226,0.17120648100614216,0.613442656048165,0.050671557449915305,-0.09012964759904059,0.058148762123952896,-0.00871824746851679,0.11542827771087213,-0.16369593165951787,-0.13206084821810507,-0.18296241811345593,0.01447430750264536,-0.004417925686668571,0.8646393563027999,-0.017220175741707578,-0.18723925009376435,-0.48844086993596086,0.07881590156614818,0.7025377325575044,-0.8366384417625174,0.046074845921125804,0.11145105619290926
91.0,6.197637319564819,0.5103514101270579,0.04073901341856524,1.1140689500918206,0.038829536663972854,0.06328724285773464,1.559542550919472,0.16781610122288518,-0.19046930964022396,0.21610889388371363,-0.015536800825143617,-0.15484321665576695,0.11837118235265151,-0.36400873601386263,0.13844745375061565,0.17683516693480544,0.5766000836575926,0.04037707945969293,-0.09087211790818288,0.046441788719034094,-0.01015025983413299,0.11638776569078474,-0.1650258938677685,-0.13717053131244733,-0.17396525276257832,0.022439058002502107,-0.009592708942748707,0.8591300230034123,-0.014514177849641622,-0.18105422504266186,-0.4815938049186118,0.09207327608048488,0.711320730071735,-0.8096247276283848,0.04464929992836099,0.06754916323756115
92.0,6.26205039024353,0.5090055329378209,0.0486410071669595,1.1138266869746105,0.04086300733034403,0.06505034494590108,1.5689487420649497,0.17649061778677805,-0.19260189805240996,0.2142035264473569,-0.012577721193353163,-0.15786210374346327,0.11733665120649883,-0.366893474329975,0.13599941626979967,0.1809831568519185,0.540349791705984,0.03402992564042641,-0.09285737464033486,0.03383350442306645,-0.012535813654646639,0.11739784677153692,-0.1621411073564793,-0.14186674817606548,-0.16526601294300008,0.027839239730868465,-0.014171704407588932,0.8531365830732627,-0.01059595359847813,-0.1734947382661414,-0.476670073187201,0.10661302307529491,0.7098251217077209,-0.7903656632349634,0.03458343266779295,0.012689219768562437
95.0,6.319834470748901,0.5079207783669454,0.055491721606842126,1.1136139456438994,0.042539608569703735,0.06622829138371866,1.5768226793821625,0.1840439031286917,-0.19418206080209324,0.2108376216728665,-0.009960410853662904,-0.1612584615298463,0.11639685236312347,-0.36746094818031494,0.1331195596646222,0.18348851332008748,0.5084059828721005,0.03159690980254681,-0.09513844703704281,0.023168676285082426,-0.014516008671237743,0.11875694584922478,-0.15802687198695925,-0.14519107453534214,-0.15826924753812524,0.031383330083973114,-0.0179708346758565,0.8481826530169279,-0.00725256839737052,-0.16677258282111718,-0.47366646501402876,0.12072706165192676,0.7066653452782197,-0.7737084992101336,0.02313243241358948,-0.036524993139902255
97.0,6.397248268127441,0.5066063010701879,0.06549988610243987,1.1129841310464106,0.045634664307999326,0.06823481389274232,1.5843491658666269,0.19610940519466347,-0.19735488789337924,0.2044163957024701,-0.006259589342817373,-0.16841941330780924,0.11547890361166846,-0.3694173702346824,0.12823092226339425,0.18451639259660343,0.4734007729602837,0.03186507939214245,-0.09956426713853359,0.01008416429421303,-0.01669068646327838,0.12097757792223304,-0.1515202001334324,-0.148021900053747,-0.1473537689732386,0.03567954550591036,-0.023316463906058273,0.8463618826948136,-0.0033421999640172906,-0.15812481490139838,-0.468610304704346,0.1306210428149935,0.694836362273832,-0.758059423696537,0.004046458456722482,-0.09741319961358927
99.0,6.468076944351196,0.5054244455748395,0.07579024276271171,1.1122998970200897,0.048570003003056694,0.0696350716309246,1.589819573597755,0.2087755005261941,-0.20051259701241314,0.19572459743686735,-0.0030523314597204784,-0.177735297779952,0.11461526267580056,-0.3710766481077347,0.12423858543497497,0.1847866801357104,0.4430534169052241,0.03575447832648347,-0.10420932038205669,-0.0021321734183866957,-0.018162106144246074,0.12279937795148145,-0.14519807916097655,-0.15034224464447143,-0.13588949913747592,0.041066450992023426,-0.027741495512837326,0.8469737164645736,0.0021006425238030537,-0.1508765926235619,-0.4653840874667301,0.13759692039030305,0.6804692103967998,-0.7441451035338507,-0.01588955428328547,-0.15683190533295638
101.0,6.557283878326416,0.504416853285838,0.08626601504444588,1.1116113981356994,0.05145849722477241,0.0702930314554133,1.5938055634102386,0.22187835006147977,-0.20316778926018367,0.18595206848089757,-0.00022615681147946168,-0.18857489638092875,0.11404017584819294,-0.37196911053061876,0.12282355777470372,0.18751321724666797,0.4178079057457251,0.0415442074956897,-0.10810650480885317,-0.013856310524253873,-0.018671152567801993,0.1243210152287255,-0.13906262155456092,-0.1516389624251866,-0.12410057902149788,0.04777674054945939,-0.030558496975072326,0.8499804572964128,0.009435262567606587,-0.14370477752077537,-0.46337628647073437,0.14248385682292458,0.6633511854765927,-0.7337105655094429,-0.03516462805423238,-0.21753633355721963
103.0,6.614442825317383,0.5036398263491801,0.0969639804182822,1.1107960140196331,0.05460314982839412,0.07029002212177946,1.5966920577144035,0.235567981545788,-0.20489585569222046,0.17713750088255975,0.0024538194577683817,-0.19994817632227865,0.11410218189563895,-0.3711405961572456,0.12295037675726944,0.19000768794262543,0.39754280273211573,0.04812250491628322,-0.11109777888055342,-0.02501667449340375,-0.018857980028213768,0.12544798233110496,-0.1335326098679135,-0.1521975858261068,-0.11262251722519148,0.05642230141526243,-0.031072619989645587,0.855055717985435,0.01926448384973424,-0.1358229350162353,-0.462745857058354,0.14557578233549126,0.6428050930261314,-0.7280832457021971,-0.053963222659690974,-0.28266718333297824
105.0,6.686967611312866,0.5032057269725304,0.10746842208209156,1.1097816828153502,0.05771611547011353,0.06980909381853939,1.5983356697380233,0.2489258217953198,-0.20555326429511123,0.17088550378736558,0.005058879914610903,-0.21053907034597807,0.11491567399596031,-0.36780517541141805,0.12234046498793502,0.18642360673399622,0.3832355011822889,0.05517688305692447,-0.11367224213451277,-0.034737160925514064,-0.019435796763561112,0.12559260066516928,-0.12916869847579884,-0.15251070271345443,-0.10301918894731837,0.06744587299388391,-0.02843466427826981,0.8612578075391591,0.031876095939683366,-0.1268873327957983,-0.4646420018772055,0.14726020319599803,0.6186888981719614,-0.7277884757717327,-0.07273949953729633,-0.3512127435798127
107.0,6.755964040756226,0.5030699081725298,0.11822412222122564,1.1087054735232544,0.06084387881901894,0.06908949566494921,1.5994966061259959,0.2620552431644356,-0.20519595586854966,0.16732669512132703,0.008308588132618519,-0.21913277855041857,0.11622089408828039,-0.36229047479488186,0.1196972731843195,0.17491497625068253,0.37460241521308923,0.061959343368462254,-0.11690145816233566,-0.043752245236203476,-0.020219499987466298,0.12433389620097116,-0.1257168381972803,-0.1521085925783599,-0.09516029061650358,0.08119299570404068,-0.023123892187153373,0.8675721155144605,0.0461395566295259,-0.11607611693321784,-0.4680042504797315,0.1473677709394529,0.5895559076009316,-0.7321398297470139,-0.09301456776574982,-0.4242506850731304
109.0,6.817028999328613,0.5032051878121145,0.1292120729627136,1.1078991276740264,0.06412131243060179,0.06786894822591832,1.6010231884551818,0.2748693887972592,-0.20364669701325616,0.16426594908429482,0.012645300292321051,-0.22548984136636568,0.1174659760802357,-0.35481490036935603,0.11577129605636748,0.1577707288197585,0.37219375874537586,0.07009582312059788,-0.12088069039701582,-0.05285218000329765,-0.02115212798854972,0.12239083521304253,-0.12322684070450182,-0.1509946058232688,-0.08878321856384422,0.0975638482010106,-0.015613729521874323,0.8757808890891913,0.06154511004616155,-0.103353504634588,-0.47240758366431357,0.14539476202764645,0.5550747109405155,-0.7394053870878003,-0.11504057374375082,-0.4987519963490933
111.0,6.8740832805633545,0.5035542577514773,0.1404835658741912,1.107440094716197,0.06778765895399974,0.06621273713695335,1.6033860548609087,0.2875594163431924,-0.20113879160413567,0.1601256452722039,0.018352287153467088,-0.23003805235644187,0.1185472755306565,-0.3457305127235518,0.11247133160406661,0.1403089258127228,0.3751294766592386,0.08102523506876425,-0.12455343228718628,-0.06226310530006847,-0.02254643573492588,0.12068647019575485,-0.1208418544054019,-0.14972174454536746,-0.08390482799263244,0.11526089298798957,-0.007186102163300028,0.885324691724691,0.0766195547554088,-0.08819744537401555,-0.47817768905354097,0.14081759552722883,0.5150187865914074,-0.7486790534042835,-0.13884344255432668,-0.5726565267661635
113.0,6.935406684875488,0.5040298393482282,0.1520861114213136,1.1072907863552859,0.07197493697277345,0.06435647656381,1.6066853852965117,0.30010924164414543,-0.1976538883524005,0.15624839934931048,0.025798233883959173,-0.2324533090383869,0.1198986122052959,-0.3350053398354212,0.11149283017356618,0.12765639226802838,0.3811448019842436,0.09231044974639248,-0.12658625331483103,-0.07225986261519299,-0.02425668480280263,0.1185718796124381,-0.11834644707299899,-0.14812351447440564,-0.07975418672311593,0.13329909281887262,-0.00023484475008670727,0.8921413982283883,0.08817910025479424,-0.07146780878475506,-0.4846729434131823,0.13313821272553633,0.47005166042180985,-0.7593870440004813,-0.16338477627931686,-0.6450148403794964
115.0,7.000070095062256,0.5045777261669873,0.16396338290617968,1.1077413439257107,0.07676720341764884,0.062406321964819295,1.6107314354917992,0.31223702104911044,-0.1930749023536611,0.1533697113176148,0.035419991954160304,-0.23226345681470945,0.12145754611229899,-0.32261977457874946,0.11355323528241301,0.12248324860731069,0.38806612017135733,0.10173510666529292,-0.12642014619740952,-0.08321384377830435,-0.02602587047428378,0.1159997640596139,-0.11556680317913007,-0.14610922981799268,-0.07509643227705665,0.15148116648926813,0.00393299614068845,0.895713284635206,0.09520386039267575,-0.053807054033659554,-0.49092917998821917,0.12208336275358173,0.42012861060138196,-0.7706441767279015,-0.1878797628145271,-0.7141229880100415
117.0,7.069319009780884,0.5052101655407174,0.17600560318022473,1.108788618389359,0.08218812279521323,0.060987866616617085,1.6151302245810188,0.3233094941098476,-0.18760716167128327,0.1533356101180769,0.048182707732155154,-0.2278935880718164,0.1230103479470596,-0.3089769993926555,0.1171313339361427,0.1227862696258901,0.39532136786273697,0.11064624725879985,-0.12439946666178225,-0.09466181485954538,-0.0283186856076366,0.11366564583548747,-0.11129599875354078,-0.14367159399000123,-0.07013142914748965,0.16910019840631207,0.005730524987285086,0.8952764943311038,0.09836736902901408,-0.03497504196747872,-0.49674282041989026,0.1077378782508632,0.3648642612953779,-0.7815678813320726,-0.21257277891821857,-0.7775834148711654
120.0,7.140465974807739,0.5059539767960683,0.18817769373926913,1.1101852315392098,0.08782796388912403,0.06074193724814646,1.619740491867418,0.3321770774085652,-0.18120063139270676,0.15896271949040888,0.06518363720238007,-0.21749677125319725,0.12476246516059483,-0.2941718810134592,0.1200736532229707,0.12509327402709286,0.402312924574462,0.1203225181900049,-0.1210882378256429,-0.10595787213642088,-0.03119780962610922,0.11149250339700731,-0.10569202607941348,-0.14104887151210677,-0.06538948812120587,0.18622335341738033,0.005504587923992042,0.8935050215980154,0.09813623106256603,-0.01554517613656485,-0.5019759319607731,0.09019485553717807,0.3052530856479172,-0.791432236693873,-0.23732540670174224,-0.8335748308314948
121.0,7.227222681045532,0.5071263204855406,0.2029910009035052,1.112366388980174,0.09412205267876711,0.06267202010474993,1.6243167165483845,0.33888021006476726,-0.17372311571957685,0.1693495440827515,0.09101061375063385,-0.1983493131537734,0.12654305745094574,-0.27460307572495235,0.1212948114139385,0.12854394575402556,0.40848067558993484,0.13223839974054324,-0.116238318048929,-0.11808617270104686,-0.034012470843370515,0.10770371432291646,-0.09811857095252667,-0.13891423877122405,-0.056577108282617944,0.205743032680937,0.006519264409239651,0.8959315392212823,0.10360155330829188,0.004130792963419615,-0.5068175775860255,0.06818270706475263,0.23213137552023125,-0.8028889696139707,-0.26523170055313217,-0.8868204904181707
124.0,7.286872386932373,0.5082053379486776,0.21488906931185353,1.1143216908336075,0.0988446786775897,0.06489233544849327,1.6276952869817642,0.34133763136024664,-0.16756524210040102,0.1778034345265474,0.11642463489205507,-0.18209909471087016,0.1274810787553538,-0.2577634096233156,0.1213995203208676,0.13118916312729248,0.4111412186265958,0.14209311489189688,-0.11212204098168074,-0.1260187779783654,-0.03450794326121617,0.10563482999636882,-0.09162483301198522,-0.1374879055786956,-0.049291617494048166,0.2207237192465804,0.00891365888992154,0.8987665203329973,0.11075138801931338,0.021791169786209937,-0.5105570982390547,0.04883464912520479,0.16893448164268854,-0.8138772494050277,-0.2875478198506387,-0.923723296078391
127.0,7.368595361709595,0.5098052222140218,0.22932083881971332,1.117057785152027,0.10402965026968677,0.06900687712970431,1.6294146359027384,0.3400983497973534,-0.16067076301624858,0.1882861936045691,0.1531446682658671,-0.15932972287824776,0.12805599984877633,-0.23650556215076018,0.12060484583963393,0.13553715184621845,0.4118106843197995,0.15165594048829145,-0.10726322475673924,-0.13296236121329508,-0.03266682257537235,0.10258995859762307,-0.0815734209428727,-0.132781592668627,-0.039893460071919934,0.2378442661538414,0.01515075410933235,0.9062526781201621,0.12338012338565395,0.03662281672506779,-0.5188247750497739,0.031200430967219955,0.09676389110300146,-0.8320193546537196,-0.3154564410378269,-0.9544916726523072
128.0,7.4634480476379395,0.5116347819126602,0.2455051960262955,1.1200073022745785,0.10890226114866126,0.07396870909361056,1.6286561752518258,0.33289449481599387,-0.15070573048648483,0.20672139449648216,0.20260709907415225,-0.1311782545683216,0.12990489922425633,-0.21304976683858962,0.11928737356097652,0.14055138005641932,0.4107768900554818,0.16161693755201612,-0.10232569270283953,-0.1371845505037137,-0.02980849750991974,0.0984614190938794,-0.06874729653490307,-0.1254622366036779,-0.028852543023755926,0.2537244594988869,0.021786303992154542,0.9122410476643276,0.13605167403671284,0.04625606227027692,-0.5273682008902794,0.012670011505465057,0.0242036590483623,-0.8550972161435855,-0.33626993911682346,-0.9757526730905401
