ccrpRepo/mocap_retarget/src/mocap/src/data/output.csv
frame,timestamp,posX,posY,posZ,roll,pitch,yaw,left_hip_pitch_joint,left_hip_roll_joint,left_hip_yaw_joint,left_knee_joint,left_ankle_pitch_joint,left_ankle_roll_joint,right_hip_pitch_joint,right_hip_roll_joint,right_hip_yaw_joint,right_knee_joint,right_ankle_pitch_joint,right_ankle_roll_joint,waist_yaw_joint,waist_roll_joint,waist_pitch_joint,left_shoulder_pitch_joint,left_shoulder_roll_joint,left_shoulder_yaw_joint,left_elbow_joint,left_wrist_roll_joint,left_wrist_pitch_joint,left_wrist_yaw_joint,right_shoulder_pitch_joint,right_shoulder_roll_joint,right_shoulder_yaw_joint,right_elbow_joint,right_wrist_roll_joint,right_wrist_pitch_joint,right_wrist_yaw_joint
1.0,2.72192645072937,0.002178558946987323,0.9704746681324292,1.103811273768697,0.056359598206374414,-0.1192166730105822,-1.5392699195540844,0.05602023491840109,-0.24340311425714353,0.04476147563901471,-0.08636259179210552,-0.0022549182858372,0.11677820135137354,-0.29371214067224144,0.10902292538374525,0.28338362299286646,0.7074726013459288,-0.14988349799797834,-0.02400974465467108,-0.020563257431950838,-0.07597927170626242,-0.045845551922329655,-0.14110544314343976,0.03900621519437708,0.1070602499190484,0.8737912785562694,0.09216031259049905,0.706453371662608,0.37953190833355244,0.05058060411510137,-0.12313809529228968,0.22280163074792314,0.8955329887041358,-0.4468183659683145,-0.4238679437551798,-0.6144541930123195
2.0,2.8202106952667236,0.002178595989634995,0.9704752679872992,1.1038123420711332,0.056356624027506574,-0.11921290030255494,-1.5392703205965774,0.05602254268534829,-0.24339849939047456,0.04476116542694979,-0.08636251746180851,-0.0022542965540426458,0.11677744401248188,-0.29370369113918526,0.10902494601582213,0.2833823411660874,0.7074581830781628,-0.14987489155217176,-0.024010038082707068,-0.020565408884290218,-0.07597970114430543,-0.04584721713837094,-0.14111361684529647,0.03907233070528655,0.10690253117802412,0.8738304008564641,0.0919472144749448,0.7064386981828596,0.37961004019547717,0.050524057797835635,-0.12323627078520497,0.22309013186430518,0.8956042976209284,-0.44656574943738553,-0.4238602896214292,-0.6145673570668265
3.0,2.950044870376587,0.003282050199966278,0.9700007489628365,1.10388002899042,0.05589249087542463,-0.11856624837042076,-1.5388892298258425,0.057113029494490604,-0.24385611019036685,0.04456550752806002,-0.08635674512619973,-0.002560848746250107,0.11641044355500846,-0.29244695204300214,0.10861293308195591,0.2834154588097138,0.707713865551699,-0.15190445218186097,-0.024408832686055284,-0.02013400182960088,-0.0791757673984873,-0.04730043685188297,-0.13944706444885793,0.030723963583185694,0.10098135877440195,0.8762293163160653,0.09139743437353268,0.702807494756298,0.3739642240668326,0.05126198392165431,-0.12150906391456982,0.22625460014848256,0.8972540570366632,-0.4469160264983466,-0.42591107140568074,-0.6125004183346406
4.0,3.032529592514038,0.0041284552590351966,0.9695586060201109,1.1039353611355787,0.05563789076611178,-0.1180860764287504,-1.5383577681945424,0.05799162963668555,-0.2443101139802728,0.04360125486726914,-0.08635887355044289,-0.0031610349795049364,0.11621397294483443,-0.2913100611373729,0.1084384745719883,0.28367805221375614,0.707834914690324,-0.15442916061763212,-0.024855914479838925,-0.019935989932802073,-0.0815817209714621,-0.04862090453727835,-0.13877286599891425,0.0238266940688076,0.09608996438474651,0.8787354118255464,0.0915491487546368,0.70030395673646,0.3702957508116048,0.051384188694860285,-0.12030803005646623,0.22908767054761633,0.898619186863052,-0.4477542433010044,-0.42808669208786065,-0.6103402334311543
5.0,3.1186347007751465,0.005189067173013805,0.9690624420049097,1.1040160705367528,0.0551543011339429,-0.1175352268150742,-1.5374838248957314,0.059293459259158354,-0.2449433495231839,0.04200441864594919,-0.08636259642169247,-0.004438238043059284,0.11624692041731494,-0.2895996938560824,0.10846691950897572,0.28441080311022215,0.7079617124664337,-0.158213514395289,-0.02546545240180071,-0.020320112539983382,-0.08361716464950408,-0.05003458619006737,-0.1373350816873387,0.014565271044504708,0.08918229792821214,0.8826877303577969,0.09263511171673636,0.6982061654924407,0.3666709862154394,0.0522929523426738,-0.11982830742102826,0.23407658500685696,0.9002670992552195,-0.4507071406066505,-0.4316648044835812,-0.6078067493787488
6.0,3.173995018005371,0.006408618439927741,0.9685903796125356,1.1040510190914976,0.05471816673732839,-0.1169421212790886,-1.5366254614159476,0.06051661762404532,-0.24578512884100256,0.04006689560532243,-0.0863685953728856,-0.006274360441265747,0.1165113820821968,-0.28780093898820364,0.10872685661741632,0.2858055734901223,0.7079373790623715,-0.16253620976394262,-0.026145345800947968,-0.020883953616321435,-0.08525044106117108,-0.052100489351479026,-0.13544215346912447,0.004306841042706134,0.08123301644005365,0.8872771250981342,0.09432670337857962,0.6961592370072174,0.3631918275894374,0.05345036492630305,-0.12000824562824859,0.24072877792625588,0.9023286602584202,-0.455351898836747,-0.43481330024410336,-0.6045389320849319
7.0,3.234356641769409,0.007772236348084981,0.9680764625508805,1.1040153385688634,0.05444106980124451,-0.11629947777306004,-1.5360663180879857,0.06143349421851545,-0.24677125372839823,0.03844602160077583,-0.08637078508631746,-0.008433447849203524,0.11678261183532493,-0.2861189749702279,0.10878163867514298,0.28727115698731787,0.7074001627439028,-0.16641059362810703,-0.026944692291721938,-0.020733361957733502,-0.08752857621971741,-0.0550362316932175,-0.13274353888159154,-0.006769169609860607,0.07256246492543401,0.8914679183501908,0.09647170861424954,0.6930449101044528,0.3600813389787758,0.05464451081136277,-0.11989403437031909,0.2481818921066059,0.9048110283566094,-0.46028469957290463,-0.4357075065817812,-0.5994936982764145
8.0,3.342519998550415,0.009874906821537707,0.9673143860810335,1.104002183206869,0.05375648940290473,-0.1153390268757849,-1.5348497456225576,0.0628679926728059,-0.24821265867439793,0.036993848020936665,-0.0863418785791854,-0.011182208934243251,0.11698960125585926,-0.28271432391912854,0.10858716819808618,0.2895685255244086,0.7053609131655705,-0.1716346396147403,-0.028150937736078935,-0.019821184994915267,-0.09077393567238352,-0.059256387330338486,-0.12529179543326585,-0.022564228368832696,0.05728501307001577,0.8970976331826515,0.10076492448905824,0.6867485793031043,0.3529320295431979,0.0584884026361936,-0.11898052592275686,0.26093234865162174,0.908565165073929,-0.46761108444270516,-0.43423837550296407,-0.5895376075226642
9.0,3.4521219730377197,0.011229599419337086,0.966794283581339,1.1041656998032021,0.05322656128258363,-0.11430416435816665,-1.532682931139778,0.06416086981385666,-0.2487375016660604,0.03452371451764364,-0.08630186392409536,-0.011829430971979398,0.11659601069379072,-0.27884705647956826,0.10957233950807793,0.29204309191321215,0.703459570084698,-0.17700650587623765,-0.028681383334043062,-0.0196048660550987,-0.09161412702166363,-0.06180083295767795,-0.1185152269003858,-0.030899434753144103,0.045694824881422014,0.9005187308555485,0.10435446266488665,0.681826759043278,0.3454874780193399,0.061662656528550235,-0.11737064320743147,0.27002765573408083,0.9104934632306333,-0.47210533245695163,-0.4323683660249863,-0.5837037621731086
10.0,3.487711191177368,0.011919299186738012,0.96646833627896,1.1042249021390842,0.05329150070440698,-0.11361715450551628,-1.5313509963611769,0.06461990960654665,-0.24891243390597997,0.03247199837203121,-0.08629738091660676,-0.012533876605518888,0.11632847417805378,-0.2770038139433696,0.11025046606694414,0.2930272823205603,0.702776411389775,-0.17987973319715916,-0.028754360939422244,-0.01968128172498839,-0.09225496511759079,-0.06393601264304699,-0.11562416746452393,-0.03588612868177142,0.04046470549795607,0.9020585611542979,0.10588359106403188,0.679562100253879,0.34294366630580086,0.062182180754937935,-0.1172582791946894,0.27436509288915,0.9111110930099641,-0.47478977487706253,-0.43182059816341656,-0.5818866162558751
11.0,3.6234192848205566,0.01335781905491012,0.965650543122446,1.1042197228347488,0.053772935566663974,-0.11283115901624663,-1.5295740777012798,0.06521904699220768,-0.24989880477548143,0.02958298807679462,-0.0862979682534694,-0.015228143948967128,0.11610791045221346,-0.27454412143576656,0.10971527390317848,0.29326530278724516,0.7015148084568814,-0.18266360235629653,-0.028869114093021904,-0.02027399980409904,-0.09426038070237286,-0.06869495033178782,-0.11237747965939288,-0.04798510526333932,0.032573184961471914,0.9049093360272729,0.10723114757295679,0.6777297757014793,0.34051738347825616,0.06118464085811921,-0.11859878366277167,0.2827407966125064,0.9112079620711255,-0.48057626444888923,-0.4306414188446691,-0.578114458121705
12.0,3.703583240509033,0.014131145750820896,0.9652666766442811,1.104170378042681,0.05359101317590016,-0.11289769013318754,-1.5294528097385605,0.06598022406961293,-0.25100880466394737,0.0280095452063943,-0.08628611245409848,-0.017020941700959535,0.11614443196471448,-0.27329814112530193,0.1086785991383434,0.2933936332259753,0.7007952773315257,-0.18299094475733124,-0.02896554903737883,-0.02017154208928565,-0.09541740042024398,-0.0701763961549986,-0.11061539283721676,-0.054256404470697496,0.029141858099402403,0.9062974276787699,0.10780305373877341,0.6776235137462662,0.3403390851487935,0.061106439182035885,-0.11894393444656276,0.28662720453272794,0.9106729979461938,-0.4833653589856736,-0.4296391848249271,-0.5770999020773332
13.0,3.7764649391174316,0.014999018018124186,0.9649170867377604,1.1040985083607182,0.05260013027017789,-0.11287378825872883,-1.529927368027141,0.06762822411913763,-0.25223253954017016,0.025816051592723478,-0.08626950967883887,-0.019778398531891277,0.11653550566921818,-0.2712707180178215,0.1078829629821347,0.2940860054567578,0.6998867031240734,-0.18322965668840438,-0.029005544598838973,-0.019278378301118282,-0.09678694910140567,-0.07102015797046596,-0.10663774645805021,-0.06133279245892872,0.02508764319080201,0.9078876668661213,0.10886519091526556,0.6771550673510922,0.34086395793428365,0.06275000938446887,-0.11903602807135091,0.2901533389558479,0.9098786654814113,-0.4856133611294906,-0.42895259519568973,-0.5765514707872111
14.0,3.851583242416382,0.015938812152363556,0.964474057364364,1.1040687579509632,0.05102921117002127,-0.11223794539535502,-1.5305343484644007,0.07000816236829775,-0.25283699043745955,0.023616658349344156,-0.08625320421549691,-0.023253291267854026,0.11734302236085067,-0.26828015091729845,0.10792259894671785,0.29518485099220004,0.6986131397601261,-0.18407007941164072,-0.029031541547461792,-0.018409357356339445,-0.09820038845967038,-0.07199047624332965,-0.10179343728516244,-0.06957450770989598,0.021476597900521595,0.9093483035749721,0.10954935324469647,0.6764260548121745,0.3423605434050614,0.06448360346661969,-0.11955889513846424,0.29342107482647173,0.9092446151183942,-0.48729010100022707,-0.42782411138538146,-0.5744663814283246
15.0,3.9297540187835693,0.01696834872462163,0.9639307318358636,1.1040974684050824,0.04913666237343263,-0.11132816223117312,-1.5309211561597205,0.07288880379144506,-0.2531515274278927,0.021535969667565328,-0.08623167506772109,-0.02688043419432517,0.11832399802081715,-0.2646531937071039,0.10798746390103256,0.29604280154167933,0.6970027704349233,-0.18495543286903673,-0.02906630726112008,-0.01793322821112203,-0.09984774941577473,-0.0728387745604166,-0.09718876501029783,-0.0791026826430728,0.01875891931550831,0.9104437368322215,0.10915149043925979,0.6755645129722673,0.34388570292393905,0.06531543812167633,-0.12109336559349854,0.29658213745832196,0.9085237852104323,-0.4888185286937645,-0.4259082763724625,-0.5704436369399255
16.0,4.01242208480835,0.01803211599380548,0.9634587735025527,1.1041513287970395,0.04696144557671429,-0.11052239000716613,-1.5309717614114575,0.07606622783427261,-0.2535343345986856,0.01981092087762231,-0.08620701870677734,-0.030256434055139912,0.11947008922876101,-0.2609056695341794,0.10742123971898565,0.2961031792290968,0.695403311529587,-0.18498690331650014,-0.028977016657007165,-0.017470925032949954,-0.10100906550626332,-0.07290896779761072,-0.09272676969589347,-0.08823749406072563,0.016476168194380303,0.9115444357616531,0.10806164263884763,0.6751392126555871,0.3439689628196688,0.06633664989723936,-0.12304169247386343,0.2990212385808976,0.9073657185005226,-0.48968469692664873,-0.4246245614877122,-0.5664398281697811
17.0,4.09894323348999,0.019139314794564724,0.9630491350327166,1.1041376096993836,0.044730057948435,-0.10985092411726322,-1.5308732558739555,0.07926102634858012,-0.25404765380588706,0.018671979083735288,-0.08618926263663074,-0.03329185731978198,0.12082925195088745,-0.25736975425217945,0.1063613854975366,0.2955946272134038,0.6940184634646589,-0.18439431225820863,-0.028828463633321248,-0.01687840477108138,-0.10138244555552041,-0.07298015335977094,-0.08916967917466224,-0.09644430779713734,0.014876767234479896,0.9130322301469699,0.10671251213207524,0.6757314903964513,0.3440069290909137,0.06739040028720074,-0.1245985490310067,0.3008728080232599,0.9058872562586231,-0.49038810190902704,-0.42399656112044515,-0.5642650856849413
18.0,4.18863320350647,0.020275771492739535,0.9626249551026529,1.104080043121761,0.04279823504778765,-0.1090975999897631,-1.530798654048906,0.0821729037291273,-0.25451158703742466,0.017653119722207553,-0.08618897146621111,-0.036480288396450386,0.12235447710028814,-0.25404909259865754,0.10558380354720351,0.2954437732074835,0.6926133561820045,-0.18398118996772067,-0.02863873156031895,-0.016295142157771232,-0.10157199544374318,-0.07404038645101835,-0.08624355932096886,-0.1036845075890596,0.013828197870405675,0.9147262609521174,0.10541207654853843,0.6763998554786419,0.3446416062645564,0.06804946118574434,-0.12537414949236822,0.3023638927614104,0.9045723175647946,-0.4908294628477877,-0.4232190375618522,-0.5628850148869864
19.0,4.266514539718628,0.02138178243060611,0.9621979292599019,1.1040656774913218,0.04116215464026927,-0.10818258229302237,-1.5306005531188493,0.08478145948401636,-0.2548562368651474,0.01598203490069308,-0.0861926026257043,-0.03960347418329056,0.1237223888023408,-0.2506320070056478,0.10552200097610188,0.296180732638102,0.6909452586164635,-0.1843389770271211,-0.02846951261797314,-0.015815098220273008,-0.10231456551033791,-0.07602017829293825,-0.08280282002346975,-0.11045215745794226,0.012117357738628213,0.9165890162251563,0.10458175254210286,0.6762814007558917,0.3447072715001182,0.06894994783491853,-0.12610150765565464,0.30368728883032314,0.9035847820824703,-0.49078766524819395,-0.42242477928571126,-0.5605646135120762
20.0,4.359581470489502,0.02307390309269349,0.9614682589735848,1.1040807147834881,0.03855475072988859,-0.10679548590658273,-1.5299984607084196,0.08894423572722955,-0.2555170741448931,0.012382007081007666,-0.086181428305644,-0.04383711239666671,0.1253798614630906,-0.24449145358034852,0.10615656921004082,0.29858170849096766,0.6877750833230329,-0.18601599144061226,-0.02841296774659735,-0.015637251532611085,-0.10403942204414213,-0.07961457391195245,-0.07603157829140639,-0.12149058668724823,0.0072206963485489,0.9200045108896573,0.10403609585009452,0.674249350984304,0.3424602360581307,0.07139798393952532,-0.12912598199535733,0.3059744191676521,0.9016929781981586,-0.49088857695095534,-0.42089153550580605,-0.5554559853587664
21.0,4.419137716293335,0.02384987862194105,0.9611249533407238,1.1040858997659562,0.03710834369150456,-0.10632249518397408,-1.529768690794043,0.09108373207265699,-0.2559643467389606,0.011141782506901506,-0.08617161194678799,-0.04563953352631439,0.12611849028690175,-0.24120136203668302,0.10668714737176671,0.30043623762368354,0.686356207250423,-0.18762038975292464,-0.028463607487337013,-0.01587734709532051,-0.10355232168102796,-0.08049280964583994,-0.07303627089258496,-0.125376858347021,0.003965185492962592,0.921635886628976,0.10443215891706988,0.6732500689069095,0.3399047153525421,0.07238005799649044,-0.13029987823837774,0.30700236949549586,0.9008472035959916,-0.49108094120998724,-0.4192865869745256,-0.5532875269328147
22.0,4.489197731018066,0.0248140247950504,0.9607633589714913,1.1041083900343458,0.035348817321846276,-0.10558167663198831,-1.5297187276676172,0.09358397550273925,-0.25636440041896164,0.009794561558522718,-0.08616439176901793,-0.04793004818379426,0.12703089347491073,-0.23722127447406743,0.10766216578651577,0.30302672416238097,0.6847318901619599,-0.19037645691916105,-0.02868882332918783,-0.01600487792682291,-0.10230606561475568,-0.08121424179958876,-0.07025930703844177,-0.12875227536350875,-0.0005189368174175724,0.9236820665738854,0.10573994129285849,0.6729084478658227,0.3365943874998103,0.07282145003818775,-0.1308079381616516,0.30778608361008525,0.9003964581737673,-0.4907328253687928,-0.41613850877861525,-0.5500476692851117
23.0,4.55281925201416,0.02590111681616647,0.9604336334091583,1.104163176562861,0.033314742165127816,-0.10455644114921345,-1.5297833805232113,0.096342160592041,-0.25657552563716474,0.008198655935388766,-0.08615464976823678,-0.05048825586033556,0.1278878409499383,-0.2330667008888202,0.10862449997404551,0.30514072967523875,0.6828840555714532,-0.19298404591873436,-0.029102350044693248,-0.015902167482492638,-0.10221029503474773,-0.08192939520327508,-0.06690246746884729,-0.1325017436635301,-0.0066339394284060625,0.9262277507122204,0.10846641222576853,0.672625865221298,0.33394949935472473,0.0736888512291522,-0.13129132299108334,0.3079597048739996,0.9001735852610471,-0.48928226940204744,-0.41161552174607974,-0.5449312407566339
24.0,4.639816761016846,0.02702676625193172,0.9601005957705272,1.1042224515533299,0.031092574822733483,-0.1035880025672013,-1.5296571467710032,0.09930163290487999,-0.2567899734420618,0.0067826409640118195,-0.08612855361057717,-0.05242386103184646,0.12842535208407518,-0.22884899656713786,0.10931224377103038,0.3067512083161213,0.6809466070427104,-0.19522599238859542,-0.02959219852163089,-0.016021792209688007,-0.10334488035606618,-0.08260132240596874,-0.06314309395210843,-0.136739143862374,-0.01417549879511695,0.9291555839872516,0.11244875691150732,0.6723013402972131,0.33207170511964546,0.07488065002462219,-0.13224818930809248,0.30771218917068066,0.8996338801624241,-0.48712869181266355,-0.4064017846227509,-0.5381780252464319
26.0,4.783273458480835,0.028709364230862983,0.9595445404223636,1.1042648397407833,0.027398412620747728,-0.10236043285244245,-1.5289688752242587,0.10420060384157279,-0.2572296783082129,0.004911319746682468,-0.08607434525454635,-0.053630443214145146,0.12855666829246154,-0.22215569924755244,0.10989456468999387,0.30847241737810993,0.6782315435610453,-0.19820303921385693,-0.030233840449032538,-0.017189673929924362,-0.10513871481614251,-0.08364142315085599,-0.05923521005963976,-0.14284259451489423,-0.026575916198555392,0.9342257476343856,0.1193052543840671,0.6731882625506209,0.3289594048132213,0.07589176649370925,-0.13479341548759988,0.30736892028032403,0.8967146094623699,-0.4839718360242735,-0.3978494505379987,-0.526613901826288
27.0,4.949145555496216,0.03068055956779786,0.958874889498666,1.1041413490903658,0.023658446745732822,-0.10180110189399286,-1.52763151276873,0.109189367009461,-0.2582917632912259,0.005176328186548838,-0.08603489743410356,-0.0541227003752138,0.1291312169214343,-0.216356847625313,0.10879183897975953,0.3083816991066344,0.6776296290349104,-0.19885382758551762,-0.02998593534951567,-0.019830881495880956,-0.10470955948014843,-0.08618100445777685,-0.058277263758851644,-0.1476620962732995,-0.04079819986870706,0.941564209123578,0.1297725979653462,0.6809031479196348,0.3306401656753134,0.07606831478611464,-0.13788008013614764,0.30808615085636404,0.8917104052635333,-0.4841446953692098,-0.39345570649767914,-0.5216378831161721
28.0,5.008967876434326,0.031630565914319626,0.9586186035110709,1.1040392251721887,0.02222396890295822,-0.10171995922266186,-1.5267083303526596,0.1110438770223247,-0.25898868470671327,0.0055070990290833795,-0.08601446554905023,-0.0532059538502517,0.12882883135992637,-0.2143262864482119,0.10790609076167684,0.3080384036545937,0.6780348291926621,-0.19947675865582323,-0.029799908182718653,-0.020785739645718868,-0.10447321980920402,-0.08788647396803302,-0.057363489281976,-0.1490735096886519,-0.04859096868922852,0.9439086098360048,0.13623856999591655,0.681078686007748,0.3329583869013542,0.07604543011573196,-0.13894446054670667,0.3075070751049675,0.8897955941374995,-0.4837298085410322,-0.39154811359076636,-0.5210137708479735
29.0,5.087297201156616,0.032639048204746786,0.9583150167206955,1.1039334115044492,0.02061469826708004,-0.1019133497416666,-1.5255524985901001,0.11309163561807978,-0.2600074859847335,0.005720991234859759,-0.0859723059752012,-0.05105089814318145,0.12772905271642832,-0.21204832110642194,0.1068682985907336,0.3080650978555104,0.6788845936338355,-0.20090989871950304,-0.029631023084078605,-0.021722641714975805,-0.10422680801902426,-0.08941680160807913,-0.056047754193803326,-0.14967292409396474,-0.0576990064875869,0.9452116529066621,0.14450145793130487,0.6776886255962883,0.3371614124829193,0.07532350509771998,-0.13950009914968503,0.30630795084152385,0.8884766706116358,-0.4826761772300684,-0.38905385728709335,-0.5203976073775622
30.0,5.166801452636719,0.03349687698238811,0.957947411046028,1.1038685175829148,0.019223451956849172,-0.1022382283395532,-1.5245593658623906,0.11500101844800131,-0.26102564965034863,0.005420339839299599,-0.08594404043602069,-0.0492459525755065,0.12626354955067473,-0.21001312344138026,0.10579484670312543,0.3081010726364105,0.6796613879117956,-0.20213214939988922,-0.029557805901449876,-0.0225490905894786,-0.10521184304484024,-0.09075505986750593,-0.05552455068279645,-0.15049652320492973,-0.06629556369030423,0.9462180247248911,0.1530582695896105,0.6737341077977099,0.3436848521537719,0.07412243522777573,-0.14109042287323284,0.3048449231864893,0.8871238119770453,-0.4812649654770045,-0.38617975520203507,-0.5179293199683039
31.0,5.2829108238220215,0.03524586301925266,0.957273721089289,1.1037721756000283,0.017296129271722315,-0.10189659971852633,-1.5221009551618683,0.11785726660582588,-0.2621690179930877,0.003348901530530417,-0.0859902134839315,-0.04803140354878835,0.12410941637558871,-0.20647083009614708,0.10437244032831103,0.3076515885106419,0.6799418309561625,-0.2046519838992594,-0.02975822399855512,-0.024131966460697193,-0.10936609130877284,-0.09345977192484026,-0.057214179377002954,-0.15364547675556695,-0.08333579895140661,0.9510149120743049,0.17054566944701788,0.6715163752160968,0.3580937061677437,0.07446234680268757,-0.14753516949264928,0.3011024070133092,0.8812438033983845,-0.4797847270407125,-0.38177940171894154,-0.516608246982967
32.0,5.354689359664917,0.035843480896445463,0.9572531414570008,1.1037381736720644,0.0168602819751015,-0.1013876499269949,-1.5209903083988132,0.1183301508169039,-0.26230840230751123,0.002068498969035575,-0.08599474310624868,-0.04763299447889282,0.12386071628024083,-0.20525699673913625,0.1045602286387377,0.308052264258584,0.6794499924370972,-0.2061383299352372,-0.029851566625664842,-0.02449264086905069,-0.10934742280488499,-0.09338212770538144,-0.05795839503626452,-0.15302859920824552,-0.08740590320192404,0.952973525219357,0.1743338521485454,0.6738520102019084,0.35851348572085184,0.07616106095476272,-0.14831811051900085,0.3001896190635893,0.8792055929611511,-0.48009199825602056,-0.3819233035478503,-0.519882953499283
33.0,5.412956237792969,0.03668390960046923,0.9572743035358392,1.1037165082156892,0.015607721500626014,-0.1008461639558634,-1.5195704764601907,0.11963207979930957,-0.2626713508858865,0.000219569443940348,-0.08595531128792232,-0.04627791323186134,0.12313311128049698,-0.20288033562057284,0.10476749909992084,0.30887414212522635,0.6788104301843657,-0.2080860344600901,-0.02975653289726935,-0.025097193499590047,-0.10852112917570388,-0.09227864176907208,-0.05834815680366927,-0.15103894624114014,-0.09187831840666774,0.9553815234083936,0.17801958761919046,0.6780179302231135,0.35617104779295017,0.07867430581173629,-0.14917195208851297,0.2998632294106446,0.8774378204470586,-0.48056293407132167,-0.38264998684392726,-0.5222672967154744
34.0,5.481723070144653,0.037665001614364216,0.9572481130598041,1.1036680368187923,0.013844673457476146,-0.10035184219359299,-1.5182580581847216,0.12155774537144134,-0.2631225013049184,-0.0012979388035877716,-0.08590711083731825,-0.04449879744960401,0.12205775277933065,-0.20001912698571922,0.10476939456080202,0.3095628404571168,0.6785122188925917,-0.2098551989978049,-0.02953269668441874,-0.02613538874882186,-0.1084211080919802,-0.09155368700233138,-0.05973784007012145,-0.14888553089651624,-0.09616927368970887,0.9577745663142865,0.18143809155558593,0.6824888505865866,0.35313947257986994,0.08048587166765148,-0.1516913698299908,0.2995781502947237,0.8756001183708968,-0.4812272993983376,-0.38356355456589986,-0.523000267028441
35.0,5.570067882537842,0.0387505892696552,0.957143537615602,1.1035712633095844,0.01231403344237618,-0.09999859960705518,-1.5168975775043907,0.12335897695381493,-0.2637989555506341,-0.0025157800006688044,-0.0858853499568429,-0.042992423045399464,0.12112197546304998,-0.19766703114370832,0.10402904807665517,0.309372858759669,0.6785729068504547,-0.21068417357728486,-0.029333247462188183,-0.02734223977731153,-0.10918879273695958,-0.09208237547817283,-0.06342104498118162,-0.1462793681621808,-0.09964559867791835,0.9593070852562243,0.18455389426666716,0.686195232365957,0.35063634183667336,0.08024382526782098,-0.15447123451743033,0.29854524869652876,0.8736589384905344,-0.4813060709167002,-0.38348837122278745,-0.522730239509237
36.0,5.704937934875488,0.04056826882689135,0.9570319591527203,1.1033373463114988,0.010339677313452207,-0.1000235949411317,-1.513934534565832,0.1257640621026733,-0.2656744374467194,-0.004933104668983089,-0.08589851427229703,-0.041060041829901986,0.11989667253040945,-0.19527341654203942,0.10065040705293796,0.3065624291845742,0.6791906604147561,-0.20970576873128527,-0.029064246632152825,-0.028949170509868796,-0.11068243416526971,-0.09382422191495551,-0.07102232496087564,-0.14135993769586028,-0.10385806500607178,0.9599772089191874,0.18916210639563316,0.6901047345461528,0.3480537740350125,0.07853338453683902,-0.1575995416922836,0.2955171189293151,0.8703293808137609,-0.4793335988147779,-0.38201793950611335,-0.5203332228422219
37.0,5.781699180603027,0.0413316238829274,0.9570694574310012,1.103171703029713,0.009480300576050597,-0.10030314072043077,-1.5120494063856562,0.12673119497129687,-0.26676285195722377,-0.006378335433833906,-0.08589144939576454,-0.03994558370236968,0.11905675394518894,-0.19436078703658,0.09885171317803178,0.30520078718927957,0.6796597941944478,-0.2092814854764637,-0.028887265296009827,-0.02984864478394393,-0.11107705015416124,-0.093952845485713,-0.07315923294390135,-0.13933140474781278,-0.1058028591102113,0.9599540575509713,0.1913574980308335,0.6909488260703955,0.3475460533337459,0.07894519537589492,-0.15886151152961447,0.29373710626074995,0.8688310863493223,-0.4780697691463113,-0.3816476507663869,-0.5198549509169723
38.0,5.836482048034668,0.042085603377356576,0.9571464873144566,1.102967600857672,0.007908710148338166,-0.10084197244344655,-1.5092664402219653,0.1284225187142403,-0.2679199176925582,-0.007618647876775511,-0.0858365968170974,-0.03756196791910166,0.11766274683651054,-0.19230651484031305,0.09733625313431131,0.3044305734996234,0.6805202481445174,-0.21007337723052227,-0.028509662500682736,-0.03144716605426323,-0.11187928673144096,-0.09289972571458867,-0.07478866359566005,-0.13672258794133832,-0.10905606232293472,0.9601136787147833,0.19404374059108054,0.6912209766857589,0.3448337053216569,0.07997727575525135,-0.16077007686776143,0.2914841264514051,0.8673643847216537,-0.4768744261782401,-0.3817284612703089,-0.5204793548981992
39.0,5.91331672668457,0.04291183330840967,0.9572605285957321,1.1027602093259556,0.005655152116051715,-0.10153439932921852,-1.5057448366464512,0.13082922032765087,-0.2691342613729817,-0.008598364633003444,-0.08575969645532049,-0.03426541094488319,0.11610391507052815,-0.18937373506907867,0.09586357693045197,0.3036850174887197,0.6819571012155503,-0.21202995367304317,-0.028020205510509877,-0.03365441904086047,-0.1133242286088992,-0.09103766003350318,-0.0774827753947863,-0.13302518710023434,-0.11398330346382615,0.9604617352071847,0.1973106586383091,0.6908346993172219,0.3385788592335538,0.08025422346377933,-0.1629836558779612,0.2887766650216994,0.8658879166961624,-0.47571449181799097,-0.38211958489325737,-0.5219075938904092
40.0,5.999284267425537,0.04396996695337557,0.9573965436533012,1.1025730243691938,0.003745934861646954,-0.10202022662475904,-1.502553991460211,0.1328194537972156,-0.27043127641626613,-0.009626610039355093,-0.08571219016856173,-0.031155996563197914,0.11464674804621498,-0.1872806046442273,0.09400839740227762,0.3024344784807521,0.6835440605163382,-0.21346120240432714,-0.02756053825679523,-0.03580495292427084,-0.11451750125964752,-0.08960694179963696,-0.08179796353835155,-0.1288214156956456,-0.11938011527607145,0.9608309193346111,0.20077035979871433,0.6913069452504395,0.33091811541625116,0.07947014006026733,-0.16544913460409244,0.2858507749070657,0.8643976370930921,-0.474725979242418,-0.3813485280405212,-0.5231399199172412
41.0,6.0929882526397705,0.045155847891068135,0.9574525449748282,1.102404466494451,0.0029734600188263604,-0.10219450016181356,-1.500679510713037,0.13359589604437913,-0.2716697335430445,-0.009964602293591172,-0.08571825861974,-0.028724232247268618,0.11338381148218013,-0.18728498667090687,0.09144400223488328,0.2999928505104246,0.6851659706501907,-0.21273164094896596,-0.027272304943405365,-0.03702266684085272,-0.11546028396483976,-0.09010704176217324,-0.08732992038819108,-0.12475830927951678,-0.12421366527984257,0.9608902827958477,0.20383775996151926,0.692621467331378,0.3232629240255204,0.07734059264776134,-0.16807682965504997,0.2827791521140819,0.8631182054041782,-0.47368480515216727,-0.3790706920848206,-0.5232947414306753
42.0,6.1641764640808105,0.046406545416173506,0.9574614510210872,1.1022539335907209,0.002841633046607039,-0.10197587252652816,-1.4994393267234105,0.1337132298746342,-0.2725859498785663,-0.009607601520478164,-0.08575691512120945,-0.026907334976211852,0.11222475409345076,-0.18879832383591996,0.08835389934851152,0.29584024484162563,0.6871384260590887,-0.21018434814909936,-0.027144734126940274,-0.037639754780708204,-0.11607511895351275,-0.09170464791242228,-0.09310093914039001,-0.12049129562230065,-0.1287881299479611,0.9607920763120478,0.20678785337110495,0.6936803673236371,0.3156704121404344,0.07484493835728954,-0.17043751750132283,0.2797104243964714,0.8620633849787005,-0.47234166071687567,-0.37708999985624403,-0.5229007637805253
43.0,6.237143278121948,0.04768935211398541,0.957600053718992,1.1021672624778163,0.002760727920006592,-0.10123009277831772,-1.497657804561274,0.13360990674036632,-0.2728865411487054,-0.009342448230585266,-0.08578444304811803,-0.024939538408982675,0.11105422404575989,-0.19058771183771964,0.0857516670712258,0.29106027327272366,0.6893023330972219,-0.20740353833854241,-0.02692412041791977,-0.03832612889337439,-0.11551521471819307,-0.09210202813682093,-0.09837457819175872,-0.11606171090118624,-0.13336455954733462,0.9610022831848237,0.20984578852320449,0.6952813436069758,0.30825406828353724,0.07337423707847567,-0.17270512975510413,0.2768884398575978,0.860959248701261,-0.4710193114230351,-0.37613149306014115,-0.5226569977790416
44.0,6.326051712036133,0.048959721802701923,0.9579170696242763,1.1021116015431374,0.0028118114305490174,-0.10039386936711639,-1.4952549458314937,0.13313469152921623,-0.2730483429234518,-0.009415749861806327,-0.08579438799541857,-0.022629579497415668,0.10985481267462399,-0.1925713882106222,0.083632402278763,0.2866421070206487,0.6916058133539755,-0.20504568348736482,-0.026558983607503032,-0.039078571528526236,-0.11429219446030464,-0.09128691948355291,-0.10368541088085134,-0.11100609814920437,-0.13758719774626146,0.9611341444290344,0.2129807782838083,0.6976271161488108,0.30132904797092674,0.07219594488003514,-0.17443480749908327,0.27430348653185793,0.8598079939480322,-0.47002274685376105,-0.3749763361195293,-0.5231407703384604
45.0,6.4099321365356445,0.05018030021857824,0.9584222587136294,1.1020578120381594,0.0027292141798987675,-0.09991341516063577,-1.492940791307198,0.13261453608542956,-0.27358343831508836,-0.00957132425401681,-0.08579651478758836,-0.020348380906630496,0.10876245003362811,-0.1949673045643196,0.08133460758488256,0.2825444114038221,0.6944029580688691,-0.20265606593971658,-0.026236068132632052,-0.04000965346738675,-0.11295461827267722,-0.08978406768502954,-0.10888181671421522,-0.10475525889194143,-0.14117269019747092,0.9607993149723302,0.21603722016723256,0.6999954462316644,0.29472114971774677,0.07090497869089074,-0.17501882201908717,0.2724993892645476,0.8587135171383478,-0.4700037593827784,-0.3731462320324595,-0.5249761365110313
46.0,6.489585638046265,0.051966095308898286,0.9594613658186575,1.1018961123240145,0.002558947074197459,-0.09952794074115763,-1.4901037123699055,0.13154213673539178,-0.27482259177257423,-0.010137744988988765,-0.08580221164330452,-0.016273254681929285,0.10695883414184593,-0.2005031546399422,0.07670647526337365,0.2749433223000078,0.7006398958398297,-0.19736011031921508,-0.02603480805434263,-0.04227559051707298,-0.11037315440721143,-0.08705308134206226,-0.1168103946659643,-0.09540335297698377,-0.1453360583036537,0.9588234803509925,0.21967980614176313,0.7027027831384123,0.2846321450259546,0.06863236841544984,-0.1773531711977776,0.27065409253549066,0.8562313321762858,-0.4718474966086714,-0.37022816738553,-0.5281103709608431
47.0,6.6152143478393555,0.05305313029797224,0.9601430914702647,1.101629153733548,0.002896613839937436,-0.09902916384962475,-1.4887076125640806,0.13036327508840234,-0.2754488767444121,-0.011111566787582863,-0.08583795107688938,-0.01367146255397289,0.10614554228157728,-0.204981099549574,0.07390286523637327,0.26981045917690016,0.7055392265306679,-0.19369988162713664,-0.02575625929995454,-0.043769250975514096,-0.10886537683737253,-0.08590550147000794,-0.12051985019131622,-0.09296608615678009,-0.1467946114649102,0.9570209667575702,0.22098458254194547,0.7036756326129682,0.281004203605581,0.06788364703003935,-0.18124977406260678,0.2692896462586903,0.8540409243630342,-0.4727689361616148,-0.3694196373333466,-0.5274918331890709
48.0,6.681057453155518,0.05374197618221033,0.9605026386966933,1.1014312435138902,0.00279825669747274,-0.09830733994145431,-1.488207570416964,0.12993848305874445,-0.2753391822922457,-0.011781875104178993,-0.08583494967319347,-0.012094145207815214,0.10523468643824926,-0.2082167007387615,0.07235150675103005,0.2658379049162736,0.7097717981734444,-0.18963868484020713,-0.02574266644753062,-0.043553327095861044,-0.10796388920190088,-0.08435971174446227,-0.1221042472712068,-0.09009613423061638,-0.1479493087949879,0.9559384632486998,0.22268912458251605,0.7038117001147906,0.28014895534536405,0.06836070708318384,-0.18355390034297203,0.2690225090894437,0.8532019643791783,-0.47341782744356375,-0.36909692497912827,-0.5265519961512064
49.0,6.764870882034302,0.054714833332763335,0.960863585424616,1.1012031520295134,0.0028576471290814,-0.09766903061821265,-1.4878810872345103,0.12936468350908695,-0.2756036815657017,-0.012308065799948371,-0.08583965591016215,-0.010396537771444898,0.10406150801720104,-0.2128415322703251,0.06993267329387527,0.26078719436965236,0.7159279128051224,-0.18368323219632557,-0.02570833099932061,-0.04286270488346583,-0.10730864473711801,-0.08284375200208524,-0.12551728655504338,-0.08553601436389827,-0.14862578580442853,0.9542730350058783,0.2248096407898777,0.703819116491077,0.280049798652763,0.06721084794623648,-0.18484198775149663,0.2683643917763672,0.8526028550484273,-0.4736651610485245,-0.3675588720539251,-0.5258177333082851
50.0,6.841676950454712,0.05575173109613042,0.9611490496668293,1.1010053742103092,0.0031372924540165777,-0.09726201792260081,-1.4877313993469832,0.1286545423718692,-0.2761244326953799,-0.012197641440455816,-0.08585691635795215,-0.008577799506153803,0.10259483633648198,-0.21869591058260404,0.06719223256526957,0.2553814530735466,0.724104470754305,-0.1767870391001729,-0.025572514924498576,-0.04219396691336755,-0.10723909342464852,-0.08232145378585246,-0.13068281253138553,-0.0802013099740409,-0.1482082624606184,0.9521787718414065,0.22640171627148237,0.7028730389522932,0.28013608143408225,0.06406629833794812,-0.185661447818747,0.26694781808394097,0.8522346898423199,-0.4733988748233918,-0.365148520133904,-0.5255023700353458
51.0,6.918517112731934,0.056775236493468745,0.9615287314273835,1.1007726941258456,0.0033415122187926234,-0.09681482430184715,-1.4876521705934211,0.127933886888098,-0.2764790569821411,-0.011485881047500517,-0.08588702321543686,-0.006689968322896062,0.10121478083323524,-0.22550066457068688,0.06473389644028611,0.2499952656499129,0.7338512694820574,-0.16954405710862655,-0.025292788968453685,-0.04186391810901398,-0.10718190335460225,-0.08221145203638158,-0.13542287346670026,-0.07495298584877391,-0.14698361632719475,0.9503946819738437,0.22739481246923632,0.7012311830968887,0.2805400468024344,0.06111162578542001,-0.1866338748416285,0.26557936743675103,0.8519845205767322,-0.4730718326226645,-0.3632693748797999,-0.5251194136698607
52.0,7.008610248565674,0.05775129074632343,0.9620475533630662,1.1004769517473143,0.0035394497195353936,-0.09634740363283575,-1.4878761941461973,0.12703460152235513,-0.27677620190046615,-0.010540395998855399,-0.08592053431147284,-0.004779623464267107,0.09983522378432742,-0.23355289606862628,0.06200045513808469,0.2440335064355935,0.7447787363062676,-0.16085304059751485,-0.025087088622947062,-0.04172431083018602,-0.10725684932568347,-0.08164334617112598,-0.13877950327819208,-0.06965754836801863,-0.1448020631932212,0.9488829956732672,0.22769251003203805,0.6996209558602247,0.28128133852299214,0.05934891315514984,-0.18710785295361876,0.2643327676224043,0.8517729653420982,-0.47284095446550256,-0.361317857326943,-0.5255894743131568
53.0,7.0794689655303955,0.05872135801985384,0.9626847749873741,1.1001478892062106,0.003927412334280847,-0.09589535163248344,-1.4884882995731359,0.12568577650202384,-0.27716392969524983,-0.009116675784823813,-0.08595710085753513,-0.0029043096015379907,0.09858759095812021,-0.2429370532933715,0.05895888247492244,0.23770942801460038,0.7566596289129842,-0.15077636055370114,-0.02499116376442899,-0.04164267374687483,-0.10702809877853536,-0.08011076201268742,-0.1412926989267902,-0.06484507950648821,-0.1416723149198315,0.9472491166473,0.2272077296335991,0.6989135282051071,0.2823476473183575,0.058270689285342556,-0.1875330106168856,0.2628971827118224,0.8511600649802488,-0.4729350781854663,-0.3597399942538895,-0.5279103280440693
54.0,7.1812944412231445,0.060197248885788895,0.9637334432453317,1.0996329296645535,0.005014612937063239,-0.0955463326662973,-1.4906179394719845,0.12285178870888641,-0.278170525097391,-0.005701588793995604,-0.08601316480903284,-2.5455511453605778e-05,0.09706583388299264,-0.2604692691376941,0.053752065522646164,0.22735928872976321,0.7783449574004605,-0.13337460584716196,-0.025379988711687097,-0.041493699670421685,-0.10586807878909316,-0.07699431717114066,-0.1463364451848641,-0.05818111614095327,-0.13438724760131726,0.9427424665608557,0.22479177292004335,0.6978820928810419,0.2850968869682396,0.05400825955490953,-0.18954142703194704,0.2606527688318583,0.8493311006604432,-0.47382172901994335,-0.3582894584879771,-0.5315821420228527
55.0,7.233515024185181,0.06080335278807782,0.9640318569991002,1.099464524737191,0.005424174728942523,-0.09548781079225427,-1.4921668798240268,0.12195267143190998,-0.2786988585685057,-0.004414319894180931,-0.08602406822097973,0.0007865468970486396,0.09651927424626114,-0.26842838693485616,0.05138501127487803,0.22264935505069866,0.7884557395918312,-0.12605036956635335,-0.0260467675689806,-0.04117800502354192,-0.10533265121028287,-0.07628224427667898,-0.1496167372997486,-0.05526247497371628,-0.12987602269255877,0.9397679166037516,0.22276530805075095,0.6966868532306225,0.28644115972966616,0.04970058399525552,-0.19067516072354046,0.2595902314418493,0.8488593614943496,-0.4734122481497799,-0.3568389859411413,-0.5299341612389301
56.0,7.342306852340698,0.06202531913601325,0.964332963235675,1.0992770220947001,0.00564057665929199,-0.094909265945739,-1.4954425459787073,0.12137355417376061,-0.27941439233728216,-0.003042955486850364,-0.08604104444071989,0.0006358214096638377,0.09613377439444093,-0.283153255640389,0.04719551084974377,0.2137654480223568,0.8071912219504405,-0.11438623775251439,-0.028035384555868716,-0.039369916900833093,-0.10313143962098745,-0.07556944528521536,-0.15584995263109291,-0.04836781781567319,-0.1210840877183515,0.9342540370695922,0.21859599373635158,0.6940786460440671,0.2874049125950785,0.04073235427926841,-0.19075217890683774,0.257030409230243,0.8487994152789233,-0.47066476931456597,-0.35236160635781005,-0.5243707968999176
57.0,7.402371644973755,0.06277212267903129,0.9644119462850962,1.0992479433027675,0.005503559254119984,-0.09421063692648207,-1.4973216978986652,0.1214815797153927,-0.2795210696929901,-0.0023285107052956637,-0.08606446512631197,-0.0003812512231722542,0.09650742775661572,-0.2910055265712387,0.04553836969384911,0.20962908774982902,0.8171186220484608,-0.10903083760564511,-0.029065288355288828,-0.03788344077250643,-0.10127453892241692,-0.07483792784000316,-0.15880554957244492,-0.044555044298492164,-0.1167773684748547,0.9318525589592905,0.21667603141460667,0.6925818468094,0.28795584006926633,0.036919714628537076,-0.19044922803004707,0.2556637924625042,0.8485435165915263,-0.4698819435849308,-0.3512209801075876,-0.5244846976846573
58.0,7.478024959564209,0.0635850964561624,0.9645028907166755,1.0991713584793148,0.005126954531898293,-0.09341899242087917,-1.4995647475358909,0.12184138262099688,-0.27962008325682564,-0.0016000302758349314,-0.08609205165632837,-0.0020996087224048245,0.09715587567868661,-0.29962624039506386,0.04451892706511565,0.20592995123292285,0.8284260507851796,-0.10173661729947894,-0.029748861490953772,-0.036701774487543755,-0.09999881990354265,-0.07347979955727563,-0.160800515329733,-0.041404566925500756,-0.11212845173799274,0.9297538550671164,0.21447466774364793,0.6909149436771937,0.28925523379299467,0.03440734858535336,-0.1913322049327989,0.25460337925637166,0.8478650821469724,-0.4698148188889125,-0.3519058794967229,-0.525477227093936
59.0,7.6161558628082275,0.06486856127446322,0.9647356989628932,1.0988050297884902,0.004322670990428426,-0.09308219747933236,-1.5037256922726039,0.12266622641358291,-0.280944182300534,-0.0011987109042557631,-0.08611258799598562,-0.005858584131761749,0.09794559785689833,-0.31489424205337946,0.04427088314776285,0.20207281165022267,0.8496607869509116,-0.08347644829898168,-0.029684224585147075,-0.03614444130092986,-0.10083142661262132,-0.07061587766498208,-0.16237756139012138,-0.036548692161872086,-0.10299575293475516,0.9255120616248642,0.2095032059559604,0.687239503166869,0.2914343084948213,0.031236176034073568,-0.1939337315293464,0.25332223476951343,0.8464216804991153,-0.4688160755891329,-0.35395884219623386,-0.5223940909800907
60.0,7.666787624359131,0.06541702749290705,0.9648450237348354,1.0986415079932095,0.0040572146206138745,-0.09330556881424153,-1.505500585487518,0.12299445312717758,-0.2819633563067884,-0.0014466146498949236,-0.08611040040394816,-0.007643741986677254,0.09799569250266868,-0.32181908520896896,0.044784053733808254,0.20161562641029943,0.8590623347111636,-0.07402323706238068,-0.02914352821482334,-0.0364957997525309,-0.10189690811368392,-0.06926097575663487,-0.16301424480156956,-0.033720274734532166,-0.09803937422173321,0.923220905346049,0.2065980416390005,0.6860626201311142,0.2918115291382897,0.029281180760619648,-0.19411456572647107,0.25268123862414166,0.8460106832395716,-0.4677365070790897,-0.3533295540133903,-0.5195917796721575
61.0,7.744776964187622,0.0660919563419669,0.9649951201055809,1.0985291574601312,0.003660718251394363,-0.09312412523992228,-1.5071055044123849,0.12339126070087722,-0.28257763719790807,-0.0013947783459121736,-0.08611208917471858,-0.009439728849616448,0.0983184641406946,-0.3297423678166546,0.045938567268473625,0.20125097719781107,0.8691664264484206,-0.06413094857114858,-0.028293757364643457,-0.037325517565678555,-0.1020118416955009,-0.06738768650698164,-0.16397382407147387,-0.03040969391694362,-0.09227176203948914,0.9211408425590073,0.20322386582515056,0.6863602364195382,0.29212948972366237,0.02714911586946306,-0.1940470970439273,0.25173982873005313,0.8453809010307538,-0.46731502103340383,-0.3528148949510542,-0.5196242568359251
62.0,7.821553945541382,0.06690610148817837,0.96511378218642,1.0983802642605298,0.003342964835892797,-0.09249895761492938,-1.5084603938535528,0.12372452910206393,-0.28281722824327127,-0.0011892335873647751,-0.086126250165274,-0.011401526286861832,0.09915891272431601,-0.3389450536193299,0.04810624245752553,0.20112850926217637,0.8802614528380031,-0.053858918762362866,-0.026934156636416004,-0.038228547856215364,-0.1013161162078505,-0.06545320804800822,-0.165820417631228,-0.02645105734773563,-0.08619477665452277,0.9191398237017052,0.19996155319314127,0.6869129112499637,0.2929110705431298,0.024748062060854024,-0.1938509996647742,0.25053345733536203,0.8443929782380561,-0.4675842956532662,-0.3538908151284253,-0.5229731096184059
63.0,7.934567213058472,0.06836624074128443,0.9651115388341214,1.0981001656867455,0.003461736032442787,-0.09140695089777624,-1.5109019273667763,0.123890812772219,-0.2833189923034301,-0.0009079530489901017,-0.08615281303250516,-0.015100585895481328,0.10077792207001998,-0.3565150199814589,0.05262412525961832,0.2013075338856467,0.8996030863456748,-0.03613227026309099,-0.02433406231437058,-0.038655020491570186,-0.10070900776930189,-0.06283110800978,-0.17041615266075327,-0.017883486892876277,-0.0761092575313627,0.9153905038492325,0.19510217695931834,0.6867326807004486,0.29420720099951836,0.01939927977480398,-0.191669015206181,0.24800419756531222,0.8438530941835698,-0.4667207118133082,-0.3550228566142911,-0.5277110605074605
64.0,8.011743307113647,0.06893800811353663,0.9649841396627092,1.0980544280653046,0.003596557298447431,-0.09104067489308401,-1.5121239723966537,0.12407047411704747,-0.28355389189956337,-0.00080589937816374,-0.08614997322333272,-0.01653658721084006,0.10118826149860943,-0.364379587005922,0.054168969042576905,0.20084538154370793,0.9072827187549795,-0.029078258932964257,-0.023857189714602947,-0.038668134871289166,-0.10133475999892863,-0.06212391443133465,-0.17221260056415033,-0.014178712507706245,-0.07219157912317814,0.9140093097069435,0.1933935889123483,0.686500447511722,0.2949759997380183,0.017239331635924577,-0.19051562522353632,0.24710274139793287,0.8442766599798712,-0.4655593291551648,-0.35477325634227763,-0.527020480940251
65.0,8.101429224014282,0.06954319654428061,0.964795049435105,1.098030643142638,0.0034881630240379416,-0.09046397937121342,-1.513427960721435,0.12455263915754526,-0.2835070804896282,-0.000567157539252211,-0.0861340775684481,-0.017399818749131036,0.10132308489365702,-0.37286219794909836,0.05537705502042094,0.19921600283418078,0.9150126084529031,-0.02274930712783792,-0.024025509132564103,-0.039287874841042354,-0.10208278507817745,-0.061807889448004805,-0.17354620708594937,-0.010613657634952886,-0.06833248404268037,0.913132694706287,0.19169234872770627,0.6865255178440675,0.2957962727911736,0.015941113309046247,-0.18983460340639308,0.24642968428015613,0.8443552773182073,-0.46471028664493497,-0.3557894313663089,-0.5267384894620044
66.0,8.185405254364014,0.07019150598009782,0.9646728633834993,1.0980171366282627,0.002906513221965399,-0.08965781368204176,-1.5147626577798707,0.12537913493452815,-0.28314600674708085,0.0001563927619507978,-0.08611663890584442,-0.017885047472879365,0.10136080701153023,-0.3815260856692959,0.05681717515175276,0.19712856060124045,0.922641874297805,-0.017848292251619303,-0.02435485949245202,-0.04061731493077285,-0.10207182847253929,-0.061076920589479236,-0.17388540452427667,-0.007038078864858986,-0.06443671505072526,0.9125566801563512,0.18948836180857354,0.6866856047395753,0.2952640709876392,0.016049114523763182,-0.18972428450725637,0.24587883240313413,0.8438290820426847,-0.46480496832052265,-0.35871168082621263,-0.5291114723916472
67.0,8.249914646148682,0.07084670886650976,0.9645881917169321,1.0980567879038046,0.0019400583798164276,-0.0891602690294985,-1.516291114711624,0.12657265258843053,-0.2830760599417125,0.0012224164783131218,-0.08610885642369981,-0.018756931579268155,0.10129931128251868,-0.3904115891405763,0.05842181984271089,0.19573842856268303,0.9301774979450321,-0.014210003749252522,-0.024768678272587604,-0.04230540929131997,-0.10154698019897139,-0.05917612237903909,-0.1740351064844243,-0.0030399831050240554,-0.059843185581186356,0.9120742798471826,0.18669895061776093,0.6873245608471477,0.2942723913481834,0.016452604044960198,-0.18998091650428,0.24583023687977357,0.8430615767375562,-0.46580177969687814,-0.36230655148666,-0.532369039574027
68.0,8.308080196380615,0.07149781561030563,0.9644332984491972,1.0980362980800584,0.0010414767579859001,-0.08895797049678925,-1.5176712748190082,0.1277603190330924,-0.2833282347083526,0.0023759310158116484,-0.08611540440294088,-0.01981918789764602,0.10123632884604608,-0.3991308679509732,0.05967704886702499,0.19467320036154626,0.9368608846850517,-0.012267623035353305,-0.02543818658460756,-0.0437979937059626,-0.10098461491216483,-0.056787089711301954,-0.17532167577739777,0.0012714419005912716,-0.055296943401988624,0.9116662432502559,0.18429764533444293,0.6880487626664129,0.2940447586253998,0.015789255889106856,-0.1900586120843345,0.24575989647734586,0.8422938747916449,-0.46714503966525034,-0.3661942353211102,-0.536599354525958
69.0,8.443084716796875,0.07262415057954094,0.9639196245867112,1.0978500382048815,0.0005088606467272504,-0.08819213729933195,-1.5192740876972595,0.12899190993069798,-0.2834408185821517,0.003748820455764466,-0.08615177203765792,-0.022119064176013357,0.10166550214092135,-0.4134485658617183,0.061385745480377,0.19198121905782348,0.9456520324137243,-0.011928531400050166,-0.0268997818830864,-0.04543647306782585,-0.10000531499295916,-0.05370885973535657,-0.1797086297329338,0.00806255687983355,-0.04925777854455218,0.9107580735539905,0.18171468125304208,0.6884626896642839,0.2947419954324801,0.01218734077426795,-0.1896837083118112,0.24394167216477275,0.8419786027459955,-0.4678596865983063,-0.3724186026905706,-0.5437938758118764
70.0,8.53252625465393,0.07315852945677496,0.9635762495477138,1.0977740066187431,0.0006179823882257637,-0.08757986552550714,-1.5198285381608718,0.12936621559751998,-0.2833714258218773,0.0036171345649899326,-0.08616942453856266,-0.023786598484460714,0.10217963964994933,-0.4196569982877605,0.06153888181930035,0.1897736643892456,0.9478772692564168,-0.012420100802944383,-0.02787560506997503,-0.04562879040361927,-0.09952680061556976,-0.05305594711521247,-0.18147964338034817,0.011266220524172926,-0.04760977591499993,0.910902754456935,0.18148382977278116,0.6893103910470056,0.29517566589696304,0.010710993309793512,-0.18865832025172724,0.2427709424048858,0.8429699288760757,-0.4666931845242001,-0.3733425449698258,-0.5442347061286928
71.0,8.567977666854858,0.07380782244941198,0.9632099888340692,1.0977420450476774,0.0006669678801501831,-0.08680750558613265,-1.5202831690851786,0.12989849541834556,-0.2833552753576645,0.0028837086648098942,-0.08618352006404456,-0.026199122348279456,0.1029459858999488,-0.4263451422310983,0.061402404477985645,0.187095405954623,0.9489660057879477,-0.01300628852449707,-0.029094760386810904,-0.04559947794578741,-0.09925216958414171,-0.05217705933835433,-0.18224036266297816,0.014941399481231403,-0.046327327914710295,0.9113967165120684,0.18172589400034544,0.6902351958985858,0.29581109177613635,0.01024272217329291,-0.18680261428983125,0.24187031003100823,0.8451072976195184,-0.4644962380007398,-0.37144720482241345,-0.5412848544517259
72.0,8.689726829528809,0.07499767307718735,0.9625285641167032,1.097773840452133,0.0007612350217845678,-0.08530431434197328,-1.5204072359404903,0.13081342336407056,-0.283233557842548,0.0008635718411597274,-0.08618735532901542,-0.030138074661128077,0.10416093773143928,-0.43609453135875503,0.06174394502892169,0.18361131179867213,0.9496078660011069,-0.015292836064506819,-0.030560273374729698,-0.0459751023352636,-0.09860997382526748,-0.0509533309712482,-0.1828153752157239,0.019073982456182043,-0.04441201096185424,0.9120790891939048,0.18194912225344337,0.6910935756051682,0.2977586663702784,0.01040462977517693,-0.18490878670448954,0.2406006308701561,0.848139864680584,-0.46111985352118834,-0.3690745103960071,-0.535582174907032
73.0,8.75731635093689,0.0755206324937641,0.9620820110076702,1.097879459199934,0.000690050732233902,-0.08422978838975065,-1.5204600168225841,0.13149477969170145,-0.2827305577946455,-0.0004736597272317109,-0.08618742833993148,-0.03205384018583917,0.10447374664017044,-0.4426520829122022,0.06314399812841245,0.18216292474531195,0.9494106760606614,-0.018985207210415286,-0.031460879722763055,-0.04641098358142926,-0.09828787631624744,-0.05007765846345677,-0.18452559560385484,0.02121758099471233,-0.04271031026554924,0.9125139515247724,0.1814472628626349,0.6912427257399274,0.29852592307930614,0.009916640384148799,-0.18454194280486008,0.23983416858383866,0.8484737707741755,-0.4601068418751447,-0.3708635432019337,-0.5353128864636632
74.0,8.836699724197388,0.07602428228147431,0.9614757371728816,1.0980696881266812,0.0004598741411215552,-0.0830672468262962,-1.5207563291487585,0.13257083869402214,-0.282027403346661,-0.0015217930982953723,-0.08618191362018757,-0.03379354633107255,0.10483739526772784,-0.4496528380831718,0.06471998637615232,0.18063150909897485,0.9485423824874756,-0.024122673352529565,-0.03288599319402044,-0.04733982580629571,-0.0985054683990006,-0.049737682757603444,-0.18666469684452608,0.02281889499958555,-0.04084124501203648,0.913067496519826,0.18049461829660762,0.690561001494052,0.29888365380924065,0.00924121483601488,-0.18518473772926697,0.23863352075309752,0.8481830838808406,-0.459712067539223,-0.37411211790083587,-0.5372470329881427
75.0,8.935091018676758,0.07652925768357721,0.9608146458153723,1.0982787090704238,-0.00013005841487132735,-0.08218575351251087,-1.5210591540435376,0.134141711088646,-0.2815721127288072,-0.0024423185056204563,-0.08616913335632514,-0.035606515090496546,0.10516849802130329,-0.45662653567958456,0.06603359728741715,0.1790872008759024,0.9466570131280154,-0.03012859048387958,-0.034564082070505264,-0.048766289216601304,-0.09950043308714478,-0.04891735713326684,-0.18826825517374868,0.024257862194235168,-0.039093370931895625,0.9142691026441709,0.17970586264352462,0.6900676126322582,0.2996469979138209,0.00984810268335855,-0.18592763566015083,0.2376971338946282,0.8475915995177299,-0.4598719624390525,-0.37747680048537824,-0.5400389464571822
76.0,9.014309406280518,0.07709755448798217,0.96014975477528,1.0985019021076061,-0.0011706778680274225,-0.08118725380273975,-1.5210355102110482,0.13609658194946792,-0.2809296655834595,-0.002867740870004958,-0.08613991251615172,-0.036670113030678506,0.10547173964867401,-0.462390905448935,0.06775999366104489,0.17786747469083417,0.9431432162119688,-0.037347273207601145,-0.0356574791015811,-0.050152442982473025,-0.10007192963215239,-0.047078679532253205,-0.18868161151842536,0.025744680489847873,-0.03766390223948616,0.9164348780796615,0.17939465721357994,0.6915768440034444,0.30099255757086363,0.012500935498477778,-0.18580835193281298,0.23731103116125948,0.8471555545154168,-0.46014786145181796,-0.37999052010847306,-0.5426433611446484
77.0,9.107369422912598,0.07769779279207482,0.9594428040885836,1.0986481665473495,-0.0020159251579607036,-0.08000549823003067,-1.5207085986210829,0.1378147292462515,-0.2800800696158497,-0.0028132717614676034,-0.08611363535930189,-0.036918334782819584,0.10596219680201821,-0.46780341366842065,0.06993186555913797,0.17703115512566506,0.9381934086638974,-0.04573889208257961,-0.036252343640021285,-0.05128512634128668,-0.09997693111635719,-0.045466004400875795,-0.18943959778772554,0.02783689882003032,-0.036482456189035214,0.9188474881641071,0.17938860951020164,0.6940395476740372,0.30207561741138145,0.014668617223117554,-0.18467850652770235,0.23713600548559147,0.8473256106661036,-0.46008927026941593,-0.38074602929657103,-0.5440468573653436
78.0,9.184882640838623,0.07826793323997379,0.9586112696595483,1.098690038132435,-0.00235657695942646,-0.07900389091637441,-1.5201492275700828,0.13913079629517616,-0.27941584346902515,-0.0026576216313437873,-0.08610719255057335,-0.03728927326781167,0.10643956617830805,-0.47348864387557044,0.07117794470068459,0.1756492533694775,0.9322041211366812,-0.05301115668488457,-0.03737278942109855,-0.05226138052461999,-0.10029807259064544,-0.04451329226246643,-0.19164108546577718,0.029886442984719833,-0.03543777978363284,0.9212306004872628,0.17961058179743117,0.6968486932253098,0.3035039183981799,0.01511493862203481,-0.18347349854967546,0.23676688943838298,0.8480414880352448,-0.45915836367808793,-0.37977042743606393,-0.5426898547534387
79.0,9.259194374084473,0.07882321350478178,0.9576150905122408,1.0987157485697416,-0.0024260543716019137,-0.07800798123823811,-1.5194739139321967,0.14037684471975298,-0.2788008990233501,-0.0029235037048774472,-0.08611812315919264,-0.0384004858536965,0.10660514954745152,-0.47911425817672476,0.07194281098712887,0.1740205273253369,0.9253180803817198,-0.05794844067498134,-0.03897478775082165,-0.0529576831714965,-0.10098936759602828,-0.043787497647293346,-0.19464394024169587,0.031581615644627054,-0.03429733614344136,0.9234921590909864,0.17980461986872434,0.6995621759793703,0.30541852533375374,0.01468443854139671,-0.1822413659956419,0.23610852434761326,0.8493231062887869,-0.45726603955333306,-0.3774239875395634,-0.5389619459190741
80.0,9.332343816757202,0.0793931347822571,0.9565854239301399,1.098710578350631,-0.002508138136413649,-0.07709479310843838,-1.5190828955512419,0.14169050778098025,-0.2783874358186819,-0.003335372764978484,-0.08613977703700598,-0.04016685087928602,0.10683132820434206,-0.48475877557919034,0.0725258958398108,0.17256823940582133,0.917973357892651,-0.0615449102018149,-0.04078988940584699,-0.05337763324133496,-0.10150076641165404,-0.043268107282673204,-0.19649725742718158,0.03276884324863558,-0.033416281621733164,0.9252963256764083,0.17976168462498723,0.7002101080638945,0.30672888860126374,0.014959437722940326,-0.18154868353731113,0.23562319522269468,0.8505581273822488,-0.45589559077391284,-0.37656853312551997,-0.5364634688101908
81.0,9.428993463516235,0.08036105913128495,0.9551487387955439,1.098748366423644,-0.0029947007789333374,-0.0760576165689947,-1.5193528633613163,0.14386996743125177,-0.2783558750496151,-0.0037479499218001965,-0.08615942850677735,-0.04368279128672381,0.10763509774728763,-0.4939750606080281,0.07209182881986867,0.16951615817245147,0.9048045838313112,-0.06548666707480114,-0.04468910755513385,-0.05340954476972491,-0.10233962753729048,-0.04171784669171233,-0.19587993587794117,0.03348139024569333,-0.032651124412459,0.9281083068191972,0.17945998756933612,0.6992558579418934,0.308250233979222,0.018494921721520924,-0.18171382760370602,0.23568601582417048,0.8523088977766156,-0.45614526671010325,-0.3769984594882657,-0.5367548161556832
82.0,9.489351511001587,0.0808044063101667,0.9545617690807758,1.0987711883529108,-0.00324979060831736,-0.07581880084416455,-1.5198035505246565,0.14481143947244854,-0.27868586997046685,-0.004458099334308724,-0.08615323349922219,-0.045343893682638595,0.1079776572386329,-0.4980869053030357,0.07192340709438633,0.16844933259006967,0.8983184565132185,-0.06789767076242476,-0.04633400358784051,-0.05323569777039255,-0.10250249751198864,-0.040510818258141526,-0.1956687539387228,0.033461280701610245,-0.03191732142838662,0.9296878206007329,0.1790174847853931,0.7003040613041374,0.3091800335146112,0.02042132405337669,-0.18200616907077644,0.23634683559945602,0.8527676724104247,-0.4577268768147118,-0.3771595848158207,-0.538944095517972
83.0,9.566972017288208,0.08122625728585142,0.9537614047289381,1.098756214687831,-0.0035046272781344935,-0.07546597460063406,-1.520256417283762,0.14598848017625904,-0.27890110965110887,-0.005669912036613254,-0.08614403180172998,-0.04716241943119702,0.10816593657908384,-0.5023201650999347,0.0730476655546656,0.16846738216429824,0.8905355430581685,-0.0729503877084314,-0.04740963530841609,-0.05312176143976757,-0.10247624082569173,-0.03902992436404605,-0.19674304825703365,0.03319112625122705,-0.031021816578274637,0.9315880734954116,0.17846076961452254,0.7024448777127519,0.31022448858172486,0.021889422351347762,-0.1822550575024991,0.23745359327076765,0.8529805522406525,-0.45989770109145994,-0.37802235767058867,-0.5418291576186627
84.0,9.65922498703003,0.08162126807774925,0.9528175426685708,1.098774940208994,-0.004000630885906357,-0.07475563520820877,-1.5206845950158407,0.1475150265045072,-0.2785943243443422,-0.006291129865910469,-0.08612816668867548,-0.04872040358615566,0.10834308367385884,-0.5064629263782142,0.0748228393375017,0.16854510626067004,0.8810627404164185,-0.0780973177352193,-0.04847249651713435,-0.052934588252235425,-0.1023313064692736,-0.0369975712836114,-0.1972924324268056,0.03252783667214016,-0.030940666947844916,0.9333474475637613,0.1783007538729643,0.7044087769504379,0.3109044046779381,0.023959346394436618,-0.1822951456358382,0.2386374269625524,0.8535866263207228,-0.461447548663279,-0.3785851579554692,-0.5433270301561282
85.0,9.777544260025024,0.08228198914174598,0.9511971653963371,1.0988301401564562,-0.005220811791194239,-0.0733417757121392,-1.5212909833849322,0.15049846298369712,-0.27769860571274774,-0.006817684997143388,-0.08609055143439212,-0.050462250335994094,0.10856024057111213,-0.5134060288872138,0.07651039360459269,0.16681396343308405,0.8626124695296777,-0.08179687692591278,-0.05149511535560915,-0.052369225159481204,-0.10247926937563404,-0.03296261310129362,-0.1964913508382347,0.02999951940306031,-0.032343109186627556,0.9356881032579757,0.17854802173447523,0.7062762379076044,0.3115365472939598,0.02808358504935484,-0.18333543901727173,0.23977415628364673,0.8552102806721711,-0.462419259603459,-0.37834184292974443,-0.5429290093292989
86.0,9.869292974472046,0.08272488166076827,0.9499249980344067,1.0988642810632914,-0.005888793561055981,-0.07273844703890076,-1.5215295454470286,0.15260670801334184,-0.2774308125389818,-0.007706896421497945,-0.08607041960353806,-0.05099414216131948,0.10813936087202333,-0.5179324510271074,0.07653979833901618,0.16507317633034724,0.8487305992096741,-0.08065148397372388,-0.05423428440773197,-0.05175685235028724,-0.10361938041644621,-0.030700168549701277,-0.19663011171587702,0.02805952868510444,-0.03371592466792348,0.9366251397358056,0.17879604447618158,0.7055338728393665,0.3118091310001822,0.028838827494017186,-0.184098991233131,0.23935567962848223,0.8566821101120593,-0.4614960209209197,-0.3769470923789793,-0.5409782320475878
87.0,9.940258026123047,0.08296665246997197,0.9491158662339733,1.098872048027195,-0.00602739332600829,-0.07270418947477249,-1.5218428481426307,0.15366403745199692,-0.27760998518528196,-0.007852490786383809,-0.0860680879732908,-0.05149160480621963,0.10790368055703685,-0.5205368290435807,0.07668570037911361,0.16465855826800918,0.8412738603686448,-0.08042402129871451,-0.05541800342067407,-0.05156605848543678,-0.10440159962799167,-0.030096862211779804,-0.1967282670955006,0.028042036752994125,-0.03405591420251665,0.9371504594849298,0.17886365751946126,0.7050631448533223,0.3117341906709774,0.029029192279251693,-0.1830070211879123,0.23942293975011775,0.8578364821512581,-0.46053479671595265,-0.3760552073999357,-0.5394149682499273
88.0,10.011145830154419,0.08328141804661396,0.9480677097090338,1.0988709642006222,-0.006200876643588215,-0.07271695086670676,-1.522314885648725,0.1550236924644643,-0.2779521595883604,-0.007909969578364992,-0.0860679648882839,-0.05250800875696242,0.10792344467768715,-0.5242281653030771,0.07693928964699412,0.16410867108171157,0.8315936245576258,-0.08054550439561955,-0.0569011384676069,-0.051568024808593196,-0.10503843156329049,-0.029590258716599777,-0.19598232411652833,0.028369332408649597,-0.0346878047696345,0.9382917366117777,0.1792417785120272,0.7051394104841731,0.3115671034043935,0.03041822209557668,-0.18086618285866102,0.24010692718365462,0.8596676519981097,-0.4595343840342949,-0.37537143239714177,-0.5376548381092244
89.0,10.10192608833313,0.083837771664074,0.9461297365931534,1.0989681977715562,-0.006443060740355595,-0.07202133668910198,-1.5228153386132783,0.15738463817100712,-0.277756965834618,-0.008255173891516112,-0.08607134900196275,-0.05475165861349582,0.10817221761748667,-0.5308852938298914,0.0778570774966329,0.16232568283094098,0.8124256440972825,-0.08129624896465808,-0.059900627977561405,-0.051657513593606916,-0.10523778687109347,-0.02864097213117534,-0.1937247814003634,0.02796187808199921,-0.03704890885795521,0.9410129518907178,0.18057222069873174,0.7052653793601427,0.3112253379918379,0.03430879843954987,-0.17780077206467565,0.2413928476375737,0.8633762055732686,-0.45842507972674396,-0.37485480886864586,-0.536306849773045
90.0,10.162237167358398,0.08408914571309282,0.9451508528314798,1.0990424644418306,-0.0064029354152890915,-0.07124906272320689,-1.5226845630566506,0.15845030050092945,-0.27720100795248553,-0.008943707392516063,-0.08607285987519593,-0.056126928887137634,0.10828364759221142,-0.5337386252683154,0.07851998433973308,0.16118650082271863,0.8030421167921629,-0.08200266951552865,-0.06126697415920571,-0.05168603614001736,-0.10512058512504402,-0.028017187711494307,-0.19280778704294052,0.026576523208661468,-0.03839815720395746,0.9420857026763557,0.18082772095323046,0.7046715914135011,0.3104075828825871,0.03601831270593183,-0.17758828963373,0.24123366607745322,0.8650085180942834,-0.4575275889686051,-0.37480190554894144,-0.535605602953854
91.0,10.230746746063232,0.08433629230719417,0.9439146455067879,1.0991206697377378,-0.006201973509016585,-0.0705053023995447,-1.5223353075433261,0.15971875045300155,-0.27674888600744263,-0.010349042461871152,-0.08607208671366225,-0.05801682208716279,0.10831041782830095,-0.5369874971075046,0.0793820525426477,0.16018159935251602,0.7925467860433433,-0.08254944766821543,-0.06254940158345224,-0.05181153637886919,-0.10564091990493252,-0.027282767411467956,-0.19240718527081063,0.02411818572117223,-0.03989588619560787,0.9431606751963111,0.18071561280800208,0.7040904208269501,0.3089520120447241,0.0375647715620485,-0.17792849347830986,0.24033146933942806,0.8668636780405596,-0.4558068825826084,-0.37437019716175934,-0.5339863738317681
92.0,10.36781907081604,0.08473525752263233,0.9415369291234983,1.0992353777815878,-0.005243859926688489,-0.06910055051175873,-1.521367131986859,0.1613468487368192,-0.27583848487007745,-0.01311408306940717,-0.08606781399110075,-0.06117169989862403,0.10826479658230007,-0.543575999752584,0.08154350774558689,0.15828339827621413,0.7726169311981717,-0.08211705059815433,-0.06457890003351435,-0.05261019623765407,-0.1067333377612136,-0.026615578386257943,-0.19146384320979482,0.018392988238798216,-0.043494012221205705,0.9459767617603823,0.18107276322924998,0.7045553767711281,0.30690600715319055,0.041399855194151125,-0.1795480484337089,0.23886032987833755,0.8701598591853261,-0.4535451335227534,-0.3745674549007081,-0.5324579110245121
93.0,10.451659202575684,0.08498015343291754,0.940413042964205,1.09924342972618,-0.0045594315202648426,-0.06827961993315362,-1.5208692600968294,0.16173960576011487,-0.27530833577488767,-0.014312108216290078,-0.08606374463374045,-0.06225708280204331,0.10828449620863465,-0.5468802908846332,0.08275057313434722,0.15727042520747125,0.7633458285392591,-0.08153406494177418,-0.06545686938856479,-0.053107022259971916,-0.10638012470232489,-0.026649969642166416,-0.19020657233877936,0.016195247614642905,-0.045828630294744044,0.9473826557868281,0.18183981961180096,0.7046520894180692,0.3058530043693211,0.04385440802271823,-0.17965202648566742,0.23873582335485935,0.8717777735524843,-0.4531444834386169,-0.3750321055522099,-0.5329457159672412
95.0,10.534721851348877,0.08535624674526093,0.9391058345231991,1.0992101629669508,-0.003949370741281107,-0.06738070631047408,-1.5207121239837302,0.16239737818461975,-0.27487684471990614,-0.015476068484518116,-0.0860554076896664,-0.06359093610376718,0.10832386341935794,-0.5508503435292078,0.08274647390762627,0.15414982698277976,0.7532407513184787,-0.07964499562121863,-0.06715490491785199,-0.053417283146659694,-0.10568857454080527,-0.026634196034595544,-0.1886637825721641,0.014492524780773529,-0.048605938270657074,0.9486130349596497,0.1830274226447005,0.7042711870310354,0.30461275699689117,0.04616873159013006,-0.1780477986107709,0.23810775154044295,0.8743372641526161,-0.4525702306377306,-0.37205052974629926,-0.5349857996293244
96.0,10.687949895858765,0.08618199863473447,0.9352615842738969,1.099235111133582,-0.0036959568833411626,-0.06702790495702102,-1.521094180512796,0.16634415988309414,-0.2754730842952602,-0.01767095161181674,-0.08596846040206603,-0.06752880301078025,0.10758927758883835,-0.5607699394423356,0.0784895059579089,0.14161634779976628,0.726892412603481,-0.07256542675668462,-0.07322238967937676,-0.054752759636190265,-0.1062203297496975,-0.02489070791154306,-0.18850040391470468,0.009409219581387431,-0.05415102617443544,0.952130120291489,0.1856598631716056,0.7062003490029153,0.3038911798097808,0.047003342542355976,-0.17267278041837575,0.23499861730113655,0.8816978827101347,-0.45023395347362705,-0.34926295796217743,-0.5368360598112519
97.0,10.740699768066406,0.08639320452352307,0.9336941394437757,1.0992979613153082,-0.003610069164391553,-0.06703423849029658,-1.5210792339482908,0.167944107533361,-0.27557178420514583,-0.017849375929032137,-0.08592951068433141,-0.06860209443760809,0.10713120001486498,-0.5643681884625307,0.07728500617260992,0.1373841179927618,0.7158929907965825,-0.07094605302843629,-0.07562336281527114,-0.055371709170217547,-0.1068914798443126,-0.023937721394619936,-0.18912412624365715,0.007218506354696012,-0.055876492476445425,0.9539935499534626,0.18615025706137922,0.7062046549433284,0.3032453998552772,0.046998654410935994,-0.17099197588296117,0.2349625375199346,0.8841874878436586,-0.4487942210678283,-0.34127169203818436,-0.5330796640738831
98.0,10.846311807632446,0.08666637745992872,0.9314782220544569,1.0992621520158312,-0.0035769500337635343,-0.06655398712226569,-1.5206690671784049,0.1701080492210535,-0.27499880457325343,-0.01756515082167923,-0.08590574310173886,-0.06961221874523046,0.1067580557557561,-0.56984780060765,0.07691145724086625,0.13174936623222513,0.6993803620359622,-0.0703501981894263,-0.07908424389766991,-0.05636065171013667,-0.10750742493818904,-0.022186987846167128,-0.1893972369176259,0.0034044541644422483,-0.05859196478243159,0.9586263176538583,0.1862860494621704,0.7050600859965346,0.3007987627044724,0.04946432964114613,-0.16925906347165176,0.234527433808221,0.885541258742113,-0.4474320912902695,-0.33723638049536997,-0.5348937947326338
99.0,10.885803461074829,0.08685149916309509,0.9302742354820512,1.0991690617209184,-0.003492711259447753,-0.06647293497428375,-1.5208458647308478,0.1712900531703655,-0.2750075163440982,-0.01725567332609415,-0.0859043036093917,-0.07072968651689908,0.10686213780162518,-0.572776741335427,0.07694091350893449,0.12914440694744897,0.6919692937213984,-0.07017705313313076,-0.08056712286694431,-0.055924866095088115,-0.10787059187049508,-0.021492845608275746,-0.18946425193643007,0.0019110156134154322,-0.060470284784332404,0.9607764626370838,0.1867479195346196,0.7039162544654269,0.2992078154963145,0.0505457132762934,-0.1675071562370164,0.23333096792460786,0.8863695247774837,-0.4461646119821461,-0.33528246484689483,-0.5379304193621268
100.0,10.974663496017456,0.08708021487542311,0.9287282284725842,1.0991203951530264,-0.003084421373232636,-0.06649391184046713,-1.5212003452938156,0.172589923525017,-0.2752244145234821,-0.017125106092646482,-0.0859021707993906,-0.07273510594637,0.10708379242310712,-0.5761718002516989,0.07725691979319471,0.12659833625853306,0.6840841967371389,-0.07058512713802509,-0.08199651270032243,-0.054919418331703246,-0.10790714618809291,-0.020864301139399605,-0.19050905871036286,0.0005146494515965042,-0.0627858591726121,0.9628733208316991,0.18776931979649492,0.7035675654075465,0.2980458124408478,0.050493716546904335,-0.16508114652737405,0.23204092239339555,0.8879363400257444,-0.44451589280675785,-0.3313408882841513,-0.5397770211750925
101.0,11.105584859848022,0.08749282444515555,0.9255715284210188,1.099165368306172,-0.0027420788825268374,-0.06712350333442743,-1.5215437533898792,0.17582423147007134,-0.2762574266912161,-0.01754217264519684,-0.0858299220535812,-0.0759262026049725,0.10675488017707428,-0.5815022231282678,0.07834843803930622,0.12366696428030519,0.6699311324654689,-0.07102633077316749,-0.0836468984322632,-0.053401376301116854,-0.10816946270252809,-0.019100941430258297,-0.19257183225238655,-0.00288576559472201,-0.06687762946001595,0.968065466996908,0.1895941013094636,0.7075289577310868,0.29650140519812546,0.05188010875715774,-0.1613104796746052,0.23165656601060697,0.8908973990081874,-0.44221168290292456,-0.32623010098253213,-0.5399863112190033
102.0,11.147790431976318,0.08765772031685556,0.9240169750479479,1.0991338596466684,-0.0027139814329210548,-0.06742944282048928,-1.5213083155255278,0.17747282215879673,-0.2766479640515689,-0.017562954502877426,-0.08576817687502841,-0.07619724109054593,0.10617899941587464,-0.5839836961311834,0.07903364983823681,0.12238174164173748,0.6639909692812543,-0.07091932459061434,-0.0838513586506517,-0.053248212792584015,-0.1081074569198154,-0.018188974546378234,-0.19242445524983343,-0.004943888170779889,-0.06842467518150255,0.9706353539198231,0.18991838934452993,0.7093441717392446,0.29555997711717213,0.05444681132150538,-0.15986066254533582,0.23256253380486225,0.8921909480407839,-0.4406470526062788,-0.328104025959822,-0.5372890519196936
103.0,11.285946369171143,0.08795836917028824,0.9211581027618793,1.098944195106876,-0.002246302732698124,-0.06699710619390437,-1.5202642885847446,0.17994382749068044,-0.27631779743456203,-0.018502386544395014,-0.08572179745313507,-0.07647223367486757,0.1050107265075301,-0.5890932486174051,0.08147814563469527,0.12009219078329358,0.65358608650173,-0.07219639431383133,-0.08406596346729434,-0.05362383499943251,-0.10620204971565755,-0.017156026940851585,-0.18968556354656524,-0.008907168962854171,-0.07126787715056267,0.9737960797911931,0.19022101255979537,0.707118277677534,0.2939075840370684,0.0603117900477238,-0.15753308424081797,0.23371308008477154,0.8949269384049239,-0.4361823311758266,-0.33690832108911123,-0.5308435952353225
104.0,11.371592283248901,0.08811621585844624,0.919653662254519,1.0988642880745507,-0.00196326508647857,-0.06686314993537718,-1.5195827646959401,0.1812027113497544,-0.27628098247318733,-0.019372443416930604,-0.08571722982278354,-0.07716527312681473,0.10462539494587249,-0.5916044251923179,0.08305776687792263,0.11976608123554791,0.648057529529877,-0.0735345875958676,-0.08432396732797473,-0.053952791315334994,-0.10531332317702738,-0.01678802199150449,-0.18725953385842148,-0.011215849404078623,-0.07294428156400859,0.9748482694741164,0.19051433470684193,0.7047783774906342,0.29338084982635587,0.06331225213882354,-0.15668363494317877,0.23400432874027272,0.8966033971300613,-0.434467816657619,-0.3404105593876751,-0.5288872028757451
105.0,11.435462474822998,0.08830303882396853,0.9179563079725788,1.0987704648996708,-0.0017018705049434962,-0.06703265480447743,-1.5188921506636475,0.18264074195455948,-0.2765466444131183,-0.019742265690641893,-0.08570763322130667,-0.07803978346189155,0.10441841055631199,-0.5941355637077927,0.084321291933495,0.11907569460372748,0.6418383469815361,-0.07477850234128253,-0.08473488810911181,-0.054330880073393054,-0.10498043843960836,-0.016008863166564965,-0.18414778355892786,-0.014129791152778235,-0.07457556351847579,0.9757280123100864,0.1907022081528734,0.7025504025393896,0.2932027001246316,0.06689671096913527,-0.1557173970818108,0.23428287093997965,0.8985473369386563,-0.4337497360905449,-0.342081050171792,-0.5292632847536795
106.0,11.524190664291382,0.0885673818949943,0.915973952779163,1.098646220245435,-0.0011478866974587866,-0.0668973641085382,-1.5180476357110388,0.18408441215497542,-0.2765197522502676,-0.020272970673176925,-0.08568931627877403,-0.07915993483152789,0.10419097793844051,-0.5968756965651628,0.08526567951156558,0.11683958737415298,0.6348097035346962,-0.07535784883074964,-0.08516951163538314,-0.05467030548066024,-0.10482694670197608,-0.014680385745586704,-0.1810581341530908,-0.01759633506274802,-0.07605118212014016,0.9766916739843197,0.1906968229154261,0.7014031795638304,0.2931589236727734,0.07061480613356386,-0.15406173044905086,0.23405627423073286,0.9009854338477594,-0.43275125190331193,-0.3407456694740335,-0.529941362602605
107.0,11.582748174667358,0.08884660175814552,0.9136201630376557,1.098501512625335,-0.00013422806189121363,-0.0664900898461384,-1.5166294840643304,0.18552293860931413,-0.2761541588352116,-0.021216957972906403,-0.08565832853704788,-0.0803364071920522,0.10391817390457171,-0.5999179863598714,0.0863339808577368,0.11405690672419175,0.6272731352191511,-0.07587769176208183,-0.08553324960265862,-0.05551353889354166,-0.10435554326253499,-0.013638863431818648,-0.17895256408740928,-0.02135844513365384,-0.0774279499344881,0.9781511488260255,0.1905968482789127,0.7020206639870857,0.2930303597257232,0.07324718568685251,-0.15160097076249254,0.2333544463024267,0.9039818093856151,-0.43054990650628944,-0.3365878612294857,-0.5281038348744856
108.0,11.700144052505493,0.08910894183085408,0.9097152693039146,1.0983095654700314,0.00136547750193571,-0.06624028507026752,-1.513874872427015,0.1882383206280463,-0.2755767381491662,-0.02146314540406412,-0.08560891680061442,-0.08213385580220019,0.10353846263391175,-0.6039439007301991,0.08803493275746571,0.11034580228634325,0.6157841127170407,-0.07667230071291263,-0.08625176178127217,-0.05803733115176837,-0.10345770963901033,-0.012757452804403187,-0.17740379783802485,-0.02745081296944635,-0.07908066348018544,0.9818314888567401,0.19029910032978253,0.7063158191712572,0.2935595621689822,0.07626443979753696,-0.1474764135513793,0.23243752106625604,0.9080328017928964,-0.426159421827004,-0.33033716683092196,-0.5222680649850562
109.0,11.758423805236816,0.08916957548275009,0.9080318909285295,1.0982272685186698,0.0016778452155372934,-0.06652964375738737,-1.5126126935433197,0.18970432488652297,-0.27554112619468557,-0.02047814877843681,-0.08558315410753883,-0.08264844814741829,0.1032967784806598,-0.6053820458049045,0.08861157671898809,0.10906159790523393,0.6115737481283494,-0.076750769878906,-0.086674079129302,-0.059349437416957224,-0.10338395016745283,-0.012318843996507515,-0.1766803720998527,-0.029771144296050846,-0.07950181613401242,0.9833918944302197,0.18986634698639832,0.7078788242251512,0.29338905210096367,0.07780720491848686,-0.14573447311854837,0.2326532821172588,0.9091058236721264,-0.4245038590334972,-0.3297533716896729,-0.5194325417954182
110.0,11.81998348236084,0.08932386141346202,0.9060774374109819,1.0980714017567266,0.0020563826261484775,-0.067153971342353,-1.5110570687409295,0.19132333877007496,-0.275965922927083,-0.01970639115609933,-0.08553736026515296,-0.08269295027343446,0.10263159807983421,-0.6072566128090784,0.08849668050421433,0.10692135606811178,0.6078184772305789,-0.0760681135161396,-0.08714527852067677,-0.06059772352634224,-0.10337972413927586,-0.011966201723693275,-0.17567518224499373,-0.031555568500707745,-0.07988836040828787,0.9841231047516794,0.18917693943836406,0.707395970432857,0.29221574975027703,0.07904044565772839,-0.1432906359673832,0.2332918358094767,0.9102587857371778,-0.42301780226599184,-0.3296277835389101,-0.516611586144938
111.0,11.904032230377197,0.08951115355049838,0.9038332640630048,1.0978212763661404,0.002646075225454789,-0.06813170078755518,-1.5093906652268756,0.1930580968074453,-0.2769731006404866,-0.020102436784423118,-0.08548631957311585,-0.08287331843605109,0.10159122086070205,-0.6096304104067808,0.08763549187752709,0.1037429388331872,0.6042707001150689,-0.07478040383546944,-0.08776559848494891,-0.06181675080649225,-0.1036561747050326,-0.011865204572117663,-0.1742740101098812,-0.03343395238615793,-0.08020192124929906,0.9848165170413745,0.18839272469242896,0.7065706396617166,0.29107694288814623,0.0808503016459611,-0.1405994504104468,0.23408350289751315,0.911254558488608,-0.42199005896876185,-0.3301762032073457,-0.5152917066281264
112.0,11.991814613342285,0.08967540790962775,0.9011828506386717,1.0974474391469122,0.0034454016405869358,-0.06903624727234468,-1.5077455542322915,0.1950656429167903,-0.27797480157659993,-0.021127855540131323,-0.0854474804959516,-0.083543148787425,0.1006004058273077,-0.6121169893892788,0.0870674223106076,0.10030823901877502,0.6006322310708714,-0.07367285853885538,-0.08843048864313657,-0.06310265744231458,-0.10399445120344986,-0.011874503173533588,-0.17283419696549696,-0.03567803423634494,-0.08038338647512905,0.9864183541556648,0.1875064171701742,0.7073368101097326,0.29011283858513587,0.08324832114204275,-0.13762836017251753,0.23476215863912464,0.9123251419969336,-0.4210975792418817,-0.3308752329770869,-0.5151962050218625
113.0,12.123724699020386,0.08996581772968612,0.8965737510807487,1.0968129215480729,0.0050157203372539,-0.0696102315939342,-1.5051796310187053,0.19842908683223776,-0.27870503320596574,-0.023087223941739687,-0.08542338360983512,-0.08534972241339245,0.09948346923018503,-0.6150818378130656,0.08705276977204648,0.09477902448185282,0.5941305674780273,-0.07205344833883821,-0.08937665164188527,-0.06377858733396258,-0.10465687929606413,-0.012103601567994886,-0.17009452567515618,-0.03942822035127798,-0.08190915290644873,0.9895332992912949,0.18730891613822837,0.7090124644904284,0.28969812107915527,0.08677403544015731,-0.13279238704258334,0.23575389535791896,0.9153710608232422,-0.4184338060928888,-0.3283609121381502,-0.5104814340574728
114.0,12.19114089012146,0.09010025081716695,0.8944702575479889,1.096608833218488,0.005653740114589608,-0.06971576990738716,-1.504274457648895,0.19995574120526535,-0.2788582301743052,-0.023901967577538822,-0.08540294855961926,-0.08650299031754011,0.09912937825794632,-0.6157465588009418,0.08728541457647887,0.09258219757118556,0.5906465490997156,-0.07131362252163936,-0.08985654982575868,-0.06351345782865105,-0.1053731163953436,-0.011989771939414362,-0.16784118643268464,-0.04205857701448193,-0.08310489950491015,0.9905303744327295,0.18763433942856378,0.7094684211508233,0.2905756109801587,0.08858165800513926,-0.13212688219338703,0.2368638052482559,0.9170618371784599,-0.41754492504851926,-0.3249170513356946,-0.5048813830679271
115.0,12.264446496963501,0.09022801514444642,0.8919816963081418,1.0963055779493405,0.0060012379105820685,-0.07008361200923155,-1.5035037936601914,0.2021631555326377,-0.2793812062339883,-0.025374193411792735,-0.08536640533417794,-0.0880925759432458,0.09868981664424223,-0.616022352079559,0.08799079595012264,0.09125193293149507,0.5873217011136203,-0.07046276658201248,-0.09034432442172248,-0.06405346505907505,-0.10587235585009049,-0.011796595647058886,-0.16579668922689383,-0.04587349391394305,-0.083810792942555,0.9914320737319506,0.1872706806000502,0.7103423559396658,0.2914339284896198,0.09011379078822218,-0.1325221078490043,0.23799766353731994,0.9179731622876908,-0.41754928884286724,-0.32223737079351733,-0.5009905839549197
116.0,12.340250492095947,0.0903779858163011,0.8891716834036165,1.0958367422243223,0.00600890738223679,-0.07091955007679202,-1.5024489591945227,0.20520604741238618,-0.2805803689530739,-0.027989304591414035,-0.08532189066706397,-0.08999549462906072,0.09808287223975903,-0.6159119056620114,0.0888144732996072,0.09081883494544034,0.5846669749348021,-0.0690487113945495,-0.09067568312277524,-0.0651635750454979,-0.10628315329118831,-0.011466454645420076,-0.164152510570312,-0.04960893772073422,-0.08428534261612294,0.9927456260950736,0.18668581099153642,0.7118798604509884,0.29197293720389167,0.09215800234626076,-0.13221641076178842,0.23863023931779492,0.9180657526119421,-0.4176131298961856,-0.3218922150770668,-0.500606947926088
117.0,12.410305261611938,0.09062005528856118,0.88606962847861,1.0952640693057076,0.006326466443236036,-0.07208746375554796,-1.5009705002394345,0.20837194819615007,-0.2822801756080089,-0.031051457020005946,-0.08529027670083622,-0.09214205347887933,0.0975048836505867,-0.6160750464361938,0.08892388432412596,0.08975495734054112,0.5823105641063177,-0.06651843903344207,-0.09098337636290257,-0.06609436175084898,-0.10673999436926424,-0.011158586383448316,-0.16187711709539526,-0.052488852042721974,-0.08513119994780918,0.9943039008081864,0.1863779681232534,0.7132063102015951,0.2917571298047381,0.09504892951302471,-0.13111348453271035,0.240154565288147,0.9184063762327643,-0.41808293942192376,-0.32212840873650395,-0.5000705245789734
118.0,12.493872880935669,0.09092807855426965,0.8828732626529705,1.0946699478437154,0.0071075176115109225,-0.072913332596533,-1.4993012640610068,0.21119854993716736,-0.2836126867665012,-0.033657234182250834,-0.0852865525792928,-0.09426974536582408,0.09717648865455705,-0.6165388449979472,0.08905944467153248,0.08843076886261092,0.5804898324909589,-0.06315792857068048,-0.09122643882620377,-0.06705770990928643,-0.10659328950969688,-0.011452696468656438,-0.15963745501000798,-0.05447053851057236,-0.08638051544408085,0.995591725098522,0.18620429905822097,0.7133320124584537,0.2901932959419188,0.09735337854545713,-0.12969188779577412,0.24218299965537873,0.9187740885049716,-0.4187732760683251,-0.3225795515738307,-0.4989521192661832
119.0,12.568074226379395,0.09116849778252592,0.8795966204507084,1.094128367263883,0.007851687224012655,-0.07344504993946449,-1.497308811490444,0.21409962456051676,-0.2844651402174808,-0.036418845393200595,-0.08525744773174213,-0.09601020942569874,0.09670050124119288,-0.6162949410514763,0.08991987527102574,0.08813376848206739,0.5783487528287532,-0.060123003263646835,-0.09150637869018022,-0.06805986115613794,-0.10674458388753828,-0.011677598877822989,-0.15703416871358197,-0.05641677316567627,-0.0882887830719577,0.9966381051734492,0.18641835226302522,0.7126430523417593,0.28822306216582705,0.09996385518083979,-0.1280772383632146,0.24378767902290563,0.9187835829467978,-0.41854839089247164,-0.32251127003583685,-0.4964462100230356
120.0,12.655845165252686,0.0912661407884727,0.8762379642405161,1.0936554586401865,0.008242295061031949,-0.0741079081221481,-1.4951855523262987,0.21738910274615225,-0.28520917036229165,-0.039380912702378076,-0.08518745157320252,-0.09738085205108254,0.09587068168107878,-0.615035670953832,0.09105306053114257,0.08849827818063705,0.5758346421823206,-0.05705805130717237,-0.0918381652846835,-0.06917263343039169,-0.10757970001105362,-0.011388500598466838,-0.1539964309257557,-0.058805897533188246,-0.09021093354542507,0.997583253280167,0.18671970656454884,0.7124062703250067,0.286908300964174,0.10312141335474913,-0.12652202686881717,0.24493604384150452,0.9186013010359375,-0.41753590484070296,-0.32109561005408094,-0.4925022753786377
121.0,12.748093128204346,0.09131177306152774,0.8727642492195626,1.093135161588154,0.008388378639024039,-0.07468839964547015,-1.49330573559132,0.2210088630842877,-0.28576592275659285,-0.04222440929254066,-0.08512018828891271,-0.09855298810396662,0.09476404679899932,-0.613453522250558,0.09237046600581866,0.08857221922678948,0.5740322577587011,-0.05286829256017393,-0.09201698083927035,-0.07080291443738644,-0.10824435332599794,-0.011154667512983697,-0.15137573451368672,-0.06185244992409991,-0.09146782842162837,0.9990187756218057,0.18672547880399887,0.7140616280817363,0.28675055487889334,0.1062919161290134,-0.12494660551704478,0.2447054254036343,0.9179144328413161,-0.4157061210801276,-0.3204148798315345,-0.49053363139440964
122.0,12.81512188911438,0.09132420473767093,0.8692075171636005,1.0924538215589115,0.008692369567900654,-0.07531277004740417,-1.491572880665618,0.22455805326136835,-0.28639765105599047,-0.04532635750669854,-0.08510154350398472,-0.09989319339182262,0.09363393330686041,-0.6122662656804206,0.09376778936500024,0.08858002263833425,0.5734446921768669,-0.048075461234436935,-0.09217264799207138,-0.07281463333904331,-0.1091584943192466,-0.011296654838906546,-0.14903110802851366,-0.06579132798627085,-0.09247429882424327,1.0009727383298517,0.18647315703886796,0.7162432676421742,0.28708838171891937,0.10989421948537521,-0.12374326924598854,0.24271196871763273,0.9166450910993225,-0.4132184047836244,-0.3221941757795773,-0.4923717131049301
123.0,12.94904112815857,0.09132324216109058,0.8633672476486423,1.091116503838014,0.00989881852463988,-0.07677273633494519,-1.4887950863423245,0.2297675974336857,-0.2880856765668019,-0.05069461341749937,-0.08518771441559403,-0.10278179603762921,0.09246318950786911,-0.611267193277282,0.09566907266610455,0.08939929645657999,0.5742331850230924,-0.03992758523693345,-0.09246227239963245,-0.07550665323829812,-0.11049543619764268,-0.012376951906501763,-0.1454036536103001,-0.07140576543049706,-0.09502381719250423,1.003750792132669,0.18660654310221012,0.7171810219243733,0.2866684081764745,0.11538297134874062,-0.12124154589101471,0.2385169119238853,0.9152829428100319,-0.40966448415989437,-0.32557477815370595,-0.49975189603495274
124.0,13.035866022109985,0.09129123084866969,0.860696338727621,1.0905008378929397,0.010571511615430261,-0.07781986307706663,-1.4874066957662966,0.2320413895292593,-0.289189380015871,-0.05274972681101811,-0.08520020462703515,-0.1037216378832623,0.09201514460131242,-0.6108593701198242,0.09593502884316815,0.08994665334883269,0.5752035517076062,-0.03628801636853747,-0.09259959847657181,-0.07664982235414136,-0.11078585086250615,-0.013022080878060973,-0.144111760646818,-0.07312076064302234,-0.09643679702579465,1.0048684586673151,0.18700972855351544,0.7173340181458492,0.2862198197739468,0.11697715322640187,-0.1201928003817963,0.2372917102541246,0.9149550547398224,-0.4088873005260388,-0.32702562981428007,-0.5028364491468622
125.0,13.115577936172485,0.09118702822486234,0.8575117182512277,1.0898679827580295,0.01108886733184636,-0.07925183885833213,-1.485590106800326,0.23507505055783284,-0.290459520413622,-0.054945534277659414,-0.08513925023277537,-0.10435396385959901,0.09122216250782673,-0.6098843371680959,0.0957268792449692,0.09000657299749792,0.5764013917385885,-0.031727347797060504,-0.09277335252626645,-0.07821283882276306,-0.11139428454273795,-0.013555756106763673,-0.14220044258584605,-0.0757645587007841,-0.09810710168396902,1.0060727367365905,0.1875178125970226,0.7179930261760419,0.28626002571589226,0.1188095173065814,-0.1203056113525724,0.23611833002763694,0.91443693716364,-0.40813852493623615,-0.32856742988071874,-0.504507520209588
126.0,13.180667638778687,0.09113145946701692,0.8538888491134148,1.0892073409617935,0.011431777896445172,-0.08067114325527192,-1.4838556941674188,0.23882613625080906,-0.2917990173329319,-0.05776441031112674,-0.08505105303672542,-0.10540255363640097,0.09050180996869647,-0.608218422062908,0.09565634213164925,0.0898860020024071,0.5773711937249213,-0.026110365667828546,-0.09291847689182808,-0.07932726626616271,-0.1115412485371928,-0.013652215624220868,-0.1389395310818007,-0.07858245072836552,-0.10050162731970874,1.006926651059141,0.1885535380075158,0.718235952468103,0.28647664197859973,0.12157075990711594,-0.12085523568624387,0.2355103469524818,0.9142260110669955,-0.407661685134552,-0.328683577425004,-0.5044680017588792
127.0,13.28218674659729,0.09123866592962984,0.8473545662155844,1.0880063612767985,0.01203521401588641,-0.08287546155651301,-1.4815154455862847,0.24576039889136053,-0.2942124057231652,-0.0626455571114085,-0.08501346594425455,-0.1085143002615288,0.0901457867335875,-0.6051524642055085,0.09560810182678389,0.08947981612124502,0.5796930952292029,-0.015008509422573405,-0.09309416423885164,-0.07999129412125755,-0.11108133992262934,-0.013594152692216952,-0.1337649984520381,-0.08192499347561918,-0.10454493883849154,1.0079956081487969,0.19057941187664235,0.7185449266317988,0.28653791964626846,0.12627644554260584,-0.12133796000162633,0.23581940974085047,0.913473507344913,-0.4077681644319329,-0.32927854306399196,-0.5034272520561566
128.0,13.327423334121704,0.09133991431748578,0.8443974480500873,1.0874842315443884,0.012348106869754337,-0.08352878699243141,-1.4802797854087197,0.24881115500815892,-0.2948295876616331,-0.06385477639518028,-0.08504022494557796,-0.10994153402823237,0.09041588497786276,-0.6037133819102278,0.09566935426807599,0.08938172122707017,0.5813595881936621,-0.010596833682085909,-0.09324756981035431,-0.08035246200759805,-0.11111899291690416,-0.013793334115108972,-0.13212144675607973,-0.08302753503080032,-0.10621525018594001,1.0083627346155488,0.19119868630844503,0.7182584888594143,0.28552863436186454,0.12812134845862636,-0.12100638783333759,0.2350515640728647,0.9126004180898514,-0.4071569520467917,-0.3313872760442246,-0.504814807487127
129.0,13.388660669326782,0.09140715225874294,0.8409474419144614,1.0869002541378925,0.012835986082552504,-0.0841660024975057,-1.4785698301423875,0.25209340068845754,-0.2952113142171985,-0.06463092347949724,-0.08502690939960711,-0.11079281259188056,0.09045247826597864,-0.6016617695122015,0.09591310392111008,0.0896226737613971,0.5832348304374486,-0.006597744260228371,-0.09348726890964346,-0.08132747477504268,-0.11121731331536297,-0.014164811518958289,-0.12957733109721659,-0.08503446202197326,-0.10820630497595453,1.0088619288758403,0.1915869052904123,0.7178178588684287,0.2837236816492098,0.13050871452902243,-0.12159349320794463,0.23411808580868887,0.9119750595114943,-0.40668293821967777,-0.3334781744333441,-0.5061972105580383
130.0,13.53386902809143,0.09138725433213479,0.8343153141090258,1.0857874252707798,0.014353165382911755,-0.0858582293419147,-1.4750663484903135,0.2578347392452657,-0.29623801203320865,-0.06668074705270616,-0.0849749890940037,-0.11199942835884684,0.0896719901936006,-0.5976882100407442,0.0959485977723256,0.09010380539485549,0.586637689965464,0.0010601867678597288,-0.09363550603796869,-0.08380230694052251,-0.11174644648828663,-0.015514464829348406,-0.1243771911083574,-0.09023503763768463,-0.11085513325120475,1.0097480398038852,0.1917869929461623,0.7176682186590521,0.2828066910932676,0.13378900439309144,-0.12568614248102666,0.2347051788053771,0.9121388711726925,-0.4076762074911723,-0.33187271037038935,-0.501784798550627
131.0,13.60308575630188,0.09137739271306405,0.8311929414880936,1.0852198678007858,0.015251399990049815,-0.08654712476025334,-1.4728508989037379,0.2602975512339174,-0.29659763591073196,-0.06860539762201182,-0.08495017912681904,-0.11219220860869797,0.08891675050374218,-0.5959120461794286,0.09602022785289058,0.09065010410569621,0.5884299303575723,0.004351614760211505,-0.0934588604853611,-0.08515181173462283,-0.1118014916508368,-0.016253547491888364,-0.12239613706817376,-0.09212473910538388,-0.11195943196861632,1.0101887656399162,0.1918788340047604,0.7177731320488181,0.28218317687867456,0.13496062944499293,-0.12677353550332437,0.2342905328152054,0.9121969671992622,-0.4073868308669579,-0.3301069493090071,-0.5000882183949796
132.0,13.67625641822815,0.09137473394850792,0.827661789534597,1.0844932519132633,0.01633649087452407,-0.0872314124227419,-1.4700350136149338,0.2629024342723747,-0.29703965627382134,-0.07186516291857435,-0.08490022495315541,-0.1116667291116192,0.0876853679411049,-0.5938065011867771,0.09607909064280351,0.09162756601614946,0.5907182230328085,0.0068719312759146,-0.0934064304278246,-0.086575516517376,-0.11130970807113821,-0.01682578630515877,-0.12059968971283194,-0.09340289913178484,-0.1136670730206612,1.01097521129451,0.19205483374094612,0.7182527922718311,0.27952959040223635,0.13696580197624114,-0.12678847903966772,0.23283678548966646,0.911695660826084,-0.4061906060731949,-0.33052538087694916,-0.5010078074358301
133.0,13.761826753616333,0.09131012105421892,0.8235954774748703,1.0836818703648077,0.017968681913534564,-0.08811787776714985,-1.4670230834841682,0.26557167752024824,-0.29772851824523355,-0.07628046184569717,-0.08486336064234773,-0.11122084623499946,0.08641427653402585,-0.5915500630960936,0.09582150235134752,0.09247114245176652,0.5934983265838746,0.007827160991848455,-0.09378270164117576,-0.08787418708073033,-0.11085500452402663,-0.018115248379039984,-0.11941566798318634,-0.09437762385945273,-0.11547381633354412,1.0116544546584045,0.19242004108250768,0.7181869716856435,0.2769473702497463,0.13801679842402825,-0.12699900241736667,0.23196899863073658,0.9117492293676115,-0.4050342866587111,-0.33021388949069796,-0.499562142493286
134.0,13.82411527633667,0.09119508056242454,0.8188941713663254,1.0828338432855904,0.020098892453311805,-0.08891222449692673,-1.4637034180673045,0.2684829162865971,-0.2981217022439183,-0.08055672500943181,-0.08487114706224855,-0.11117579661944361,0.08560243489297215,-0.589215349875453,0.09577431876990734,0.09331035630971818,0.5971786479152528,0.0070307681161101195,-0.09430263443694739,-0.08983308526085892,-0.11019537381613695,-0.02071260394661524,-0.11903606267427438,-0.09530375388494143,-0.11670050262826695,1.0120843046475239,0.19227197132702856,0.7170117959126179,0.2741265671265526,0.13727828855401966,-0.12743668041951786,0.23077292886329404,0.9123791140039424,-0.4036638378089248,-0.32888214185078124,-0.49742487327346224
135.0,13.94496202468872,0.09103089244495609,0.8111925760819545,1.0814736327998136,0.023333514675609512,-0.09052551620729343,-1.4582495890196023,0.2737376089285377,-0.2991712623953325,-0.08770215236678292,-0.084944138331753,-0.11049048828764038,0.08400066282113447,-0.5855979469361082,0.0954188182852764,0.09504561204582504,0.6051919184125952,0.0037360743026352344,-0.09485165326647023,-0.0946602644827689,-0.1079934903654555,-0.02589037627685877,-0.11800980107929812,-0.09643944770532012,-0.11724689705340874,1.012438536861259,0.1906108896421581,0.7135926232043446,0.2685458427122453,0.1368123968843701,-0.12817947139217203,0.22685260378656377,0.9115353932580684,-0.403098422588436,-0.3324452538126354,-0.5064270295128221
136.0,14.02948522567749,0.09100638469045769,0.8078359366705125,1.0808984406891555,0.0245837276813269,-0.09158315526428894,-1.4560120872735316,0.27631840040530536,-0.30031640891484823,-0.09263327547469,-0.0849125394155325,-0.10974685362805021,0.082529502206355,-0.5839516186720276,0.09449504081779711,0.0952904429135473,0.6087554570028934,0.002815469858231866,-0.09498084693767765,-0.09654153973105901,-0.10661165889569625,-0.027522062396720226,-0.11608511458384005,-0.09653581519076355,-0.11746657781165325,1.0129525438957427,0.19029023675280243,0.7133571202222031,0.26734142498154556,0.13879024765961995,-0.12824988710364865,0.22514230644342847,0.9103156275812205,-0.4041552198365801,-0.33636225762939875,-0.51555916518673
137.0,14.09023928642273,0.09092342837927933,0.8039104658260975,1.0803617249155713,0.026215423467409814,-0.09272086759823445,-1.4534475375209843,0.27912474220477046,-0.30124699011420886,-0.09754843528566112,-0.08482303719205661,-0.10898426652085702,0.08128333351066377,-0.5823547991735558,0.09218784105439565,0.09302263687103723,0.6119381341420336,0.002723992107566047,-0.09560682991747602,-0.09753298679893396,-0.10549856566789458,-0.02843025961594456,-0.11332694313255304,-0.09719980633605751,-0.11829672061374864,1.0135620310088163,0.19064874782401742,0.7146329771846782,0.2673081417666614,0.1416345913090843,-0.1287061424226164,0.22347318249163,0.909743908050368,-0.4041046113331429,-0.33927870361752066,-0.520722581308284
