ccrpRepo/mocap_retarget/src/mocap/src/data/output.csv
frame,timestamp,posX,posY,posZ,roll,pitch,yaw,left_hip_pitch_joint,left_hip_roll_joint,left_hip_yaw_joint,left_knee_joint,left_ankle_pitch_joint,left_ankle_roll_joint,right_hip_pitch_joint,right_hip_roll_joint,right_hip_yaw_joint,right_knee_joint,right_ankle_pitch_joint,right_ankle_roll_joint,waist_yaw_joint,waist_roll_joint,waist_pitch_joint,left_shoulder_pitch_joint,left_shoulder_roll_joint,left_shoulder_yaw_joint,left_elbow_joint,left_wrist_roll_joint,left_wrist_pitch_joint,left_wrist_yaw_joint,right_shoulder_pitch_joint,right_shoulder_roll_joint,right_shoulder_yaw_joint,right_elbow_joint,right_wrist_roll_joint,right_wrist_pitch_joint,right_wrist_yaw_joint
3.0,3.726092576980591,0.05480650886084082,-0.6072561195941883,1.0416832493824288,0.04314106695480741,0.10754405559100483,1.283828245627118,0.24771116789226583,-0.26390992963188986,0.02052828446106366,-0.08693698182100956,-0.20425155516364013,0.14151271965879286,-0.36518316471106466,0.14552347631036128,0.17509937474158874,0.8414963679190792,-0.11800231186756041,-0.06235282716860967,-0.007040209283975224,-0.11676461411795423,0.006684918435548882,-0.19263000421651422,0.0068677965132107905,-0.038467319770962904,1.001832317575987,0.1639305598547925,0.650351883045353,0.3047399591449586,-0.006293968937734151,-0.08891700870384901,0.1128241575623953,0.9598485982653822,-0.3649614677340026,-0.39555019977531336,-0.7184265274818932
5.0,3.806771993637085,0.05664375348447833,-0.6053434404479163,1.041758768212298,0.043834830403800165,0.11105632526565057,1.2855554575155783,0.2485941261399125,-0.2652620334217397,0.028255190707122044,-0.08693552644469567,-0.19331338519580926,0.14043751192369344,-0.3628827362252294,0.14465349082455614,0.17817980569136058,0.8434727227780369,-0.11947439752295594,-0.06119150953687624,-0.007694569977623767,-0.11494233277755507,0.006347522741443899,-0.18879862909880546,0.003504681191812968,-0.038229232601405386,1.0027732398353202,0.16239824423646254,0.6501519489466346,0.3036543543608323,-0.0023596504851881453,-0.08264793436513648,0.10873111586414483,0.9642104030689145,-0.35909546982798035,-0.3946545034007911,-0.7212366255850766
6.0,3.87198543548584,0.059795986177435104,-0.6020834601693588,1.0420048666463473,0.04521644273198263,0.11753365077371573,1.2890309599213516,0.2498736024712512,-0.26780179734092674,0.04266421675422592,-0.08693188841763495,-0.17274127960211225,0.13848852937735398,-0.35889620895267493,0.14199274638400375,0.18255077715994894,0.8468992383461449,-0.12130012179184102,-0.059403441521250794,-0.008564665026390018,-0.11273373191752695,0.00636273905616841,-0.18274663307905298,-0.0023321525333047147,-0.03869881665359212,1.0038968730458122,0.16089889912197133,0.6480046509446566,0.3032331046814664,0.0041749545330061226,-0.07364132697299519,0.10375432744426302,0.971799082923338,-0.3521820815381227,-0.39313996705337156,-0.7269197486264871
9.0,3.9289958477020264,0.06288047397682231,-0.5988328658255047,1.0422285649457903,0.046722015470490444,0.12435447379113068,1.292502855936445,0.25115609140862716,-0.27091164003163726,0.0562522446306131,-0.08693638476455745,-0.15116851967691763,0.13620858357177348,-0.35497086033433506,0.13906569104225486,0.18722208106850163,0.8505835161683419,-0.1231516043307015,-0.05750915687520751,-0.008872630337178392,-0.11099627933966158,0.006606144566820335,-0.17733456895070196,-0.007478833857183183,-0.03989796020566182,1.0050985969594948,0.16025199889543196,0.6453633030915151,0.30305904097484787,0.010130121884580538,-0.06495075172362802,0.09992357296194053,0.9798617958943259,-0.34667830842718395,-0.3919992764939818,-0.7329703614501714
11.0,4.010249376296997,0.06730660998201908,-0.5939628083437948,1.0424567390341524,0.049082159812028806,0.1355043780564977,1.2977232995208785,0.25321359360596274,-0.2776144233973473,0.07038081587948886,-0.0869221243179792,-0.1164671371891443,0.1319105040125774,-0.34894070979128555,0.13485066875943877,0.19611950013876095,0.8561159490515777,-0.12657079401149932,-0.054218505472368325,-0.008338842372377185,-0.10944151227961033,0.00749465311925729,-0.1725894948012807,-0.013105907219643952,-0.04428311642766452,1.008026887167478,0.16191258614893334,0.6413119484011687,0.3020862246719378,0.015599040846810281,-0.05518437905390475,0.09842033223493606,0.9906108731073416,-0.34326910571607294,-0.39093703991391976,-0.7394553398895043
13.0,4.084819316864014,0.07193469131338667,-0.5895570215860908,1.0416697524329412,0.05703273308287578,0.1385387750368869,1.3068255103231774,0.17245726792440666,-0.26566539121429117,0.10298198185976525,0.09943238046117572,-0.1655836027159962,0.12723902922066932,-0.3362056165040448,0.13511502510548185,0.19732759283162474,0.8622246759012063,-0.13124134397017045,-0.051691551288028145,-0.010917792024250703,-0.10315418022208925,0.014448963026058425,-0.17344573080608272,-0.019110157087288415,-0.05009582745481381,1.0103971527347457,0.16464045370828567,0.6428671250371952,0.3002258491045411,0.01640147696551466,-0.0505179490722765,0.09872806159734623,0.9980809125571859,-0.3421237101779964,-0.38805497684692825,-0.740677081341011
15.0,4.154138088226318,0.07680148366948367,-0.5860140954331977,1.0395275546131686,0.06227716246600705,0.1293148518371131,1.3180711053265217,0.06856772289133409,-0.23280014717167613,0.13849977300155064,0.33605598689485594,-0.23997404630386043,0.12369121975079561,-0.32474873894851053,0.14634164952438117,0.1889619722587651,0.8663773572833653,-0.13471253113828385,-0.05064525179511528,-0.01441078279927025,-0.08616816010064005,0.01899794399769781,-0.17681054713292482,-0.027235702695716478,-0.05692108329512356,1.0097783966403973,0.16770629105845047,0.6512828799094399,0.2980636173746909,0.016121022670715718,-0.05208215385074897,0.10006897140625534,0.9998317325921776,-0.3421357334621606,-0.38436741021850807,-0.7349832496209183
17.0,4.226842880249023,0.0816444637288661,-0.5829544532981508,1.0368507838541352,0.0634157770337026,0.1128954738862957,1.3295745805563257,-0.032520811462136784,-0.1879723994943386,0.17079878719548441,0.5623868581852999,-0.3143085301446211,0.12227949818134128,-0.3162864814079349,0.16453917198468715,0.1755012161067142,0.8676206776844582,-0.13703567543095763,-0.05059077597297259,-0.016934109356662855,-0.06202715221144228,0.01941819837675195,-0.18039513198976456,-0.0365239459468196,-0.06403746148605001,1.005892353858882,0.17086722293322082,0.6626108112872637,0.29639596157891357,0.01575572720728373,-0.05835372135143871,0.10240541415007265,0.9963586487463494,-0.3435611346655987,-0.38193840166533993,-0.7254036551895926
19.0,4.292016506195068,0.08607477551704726,-0.5801920611021447,1.034257803298953,0.06065443371054444,0.0933263188408346,1.3397209291357342,-0.1175518303621649,-0.13921669741354345,0.1958478371739688,0.7466646066973525,-0.37702643703924216,0.1234720668269646,-0.3110480306833202,0.1857896803664939,0.16034116325251135,0.8655198666966939,-0.13812856978497562,-0.05126045198616221,-0.01753232344540899,-0.03468524690292878,0.01626567797442391,-0.182541828035999,-0.04595974860285612,-0.07065052926774165,0.9990847651838057,0.17418063095707753,0.6749761706691983,0.2969662958540873,0.015562757968793424,-0.06841183653449903,0.10574812274209139,0.98798446054621,-0.3468885695710445,-0.38224209829452827,-0.7145545083731784
20.0,4.336433172225952,0.09025532866416473,-0.5770911392060486,1.032268286483282,0.055088761890839444,0.07550778508960042,1.347144101958359,-0.17635783414942213,-0.09496681129825865,0.2120430801749824,0.866051195051146,-0.4155468615670771,0.12671949444979672,-0.3079487962766268,0.2061511991029042,0.14773734048039946,0.8604861345295409,-0.13829353534777708,-0.05214555363035777,-0.015776854799134724,-0.008519202582399795,0.010879686484151017,-0.18108309546893098,-0.05623605244531653,-0.07637592120307343,0.9906620033826737,0.17735279090550776,0.6862190238373881,0.3006645198148016,0.016588933902861078,-0.08198368175904303,0.11046351662728793,0.976560825733437,-0.3528637740040015,-0.38474029634921897,-0.7037014687595762
21.0,4.389487266540527,0.09349227397057153,-0.5744124855661134,1.0309216727067425,0.04908051980326094,0.06105486201776908,1.3516294112511544,-0.21778193421044273,-0.06004979093815008,0.22162492279251955,0.9445082578271342,-0.4416407141998298,0.13026505289063878,-0.3061369133759295,0.22311428863799343,0.13876781488140394,0.8541807475604904,-0.1375388881251919,-0.05301861962587239,-0.013422621027363371,0.012972192760116606,0.0055642534879366224,-0.1777321124199638,-0.06546092539637954,-0.08039661705400247,0.981959809590947,0.17974052694980003,0.6960254458173938,0.30552833187267703,0.01827305516014441,-0.09494855039726291,0.1143713456122872,0.9649244919191284,-0.35844138199630377,-0.3862244320286487,-0.6941169828846563
22.0,4.421591758728027,0.09606950659373531,-0.5720305527178408,1.0300501592303242,0.0436301753324011,0.050133037282415555,1.354109139263678,-0.24788240803016498,-0.03321649440129928,0.2279698868730956,0.9970990541036316,-0.45966960114167954,0.13398054563683193,-0.3046231513236493,0.23667855662276086,0.1331896960064416,0.847730651789621,-0.13639036600759463,-0.05375035898931127,-0.01097764242952238,0.029772635432206904,0.0010270455128105814,-0.17352895019112227,-0.07333869058960879,-0.08295484866197245,0.9737324047603553,0.18141831819781812,0.7046547969690162,0.310691235447645,0.019918973450464388,-0.10647313729230737,0.1173664450917574,0.9539578696878954,-0.3632797920327252,-0.3861843956100093,-0.6858384944476283
23.0,4.453442811965942,0.09822818842963009,-0.569848430661585,1.0294915501417048,0.03916336279016896,0.04246617690349103,1.355344252775047,-0.2702436494069711,-0.01273575812671708,0.23314012443727736,1.0327959061081964,-0.47199086797225165,0.13791724806660494,-0.3029869277547984,0.24739856693886936,0.13065838184648607,0.841971618526167,-0.13538309520850023,-0.054219544421438795,-0.008483762120052687,0.04252363026868558,-0.0026148759811718604,-0.1693386899791795,-0.07956829938439236,-0.08426106318521182,0.9663412675447538,0.18253970645641343,0.7120793350378101,0.31571691430658444,0.020900628050208345,-0.11598862478187133,0.11955643234073328,0.9440868143202295,-0.36720916684853533,-0.3850509712683223,-0.6787647597570732
25.0,4.4874982833862305,0.10017312779565823,-0.5677333237174715,1.0291241043313042,0.03586466085981711,0.037472040975033725,1.3558411695756254,-0.28761457502060683,0.00311906676848902,0.2381973296181109,1.058089359728189,-0.4804685182348355,0.14208872565563255,-0.30094973477018644,0.2560158036033377,0.13069717301416853,0.8373891345006423,-0.134903763069768,-0.05434701743382299,-0.0056737919304225065,0.05216550161228107,-0.0053643137548562494,-0.16550276816755943,-0.0841113457912999,-0.08442930102939777,0.9597293374169806,0.18329601043143712,0.7179086673016108,0.3209016441541396,0.020814293695221166,-0.1235230010593783,0.12133207964330014,0.9353240947082024,-0.37048074621402877,-0.3839441696099604,-0.6727497371442805
27.0,4.546545028686523,0.10282441197305055,-0.5645630512532875,1.0289080087021982,0.03436754243485743,0.03538476115834833,1.3554849299022862,-0.3054386548524899,0.016518343882009637,0.2450428770674753,1.0802217107885541,-0.48668322300353906,0.14748258871014347,-0.2964712161475999,0.26371002607881766,0.13442625095305,0.8341523528876513,-0.1356075949047173,-0.053996236532021624,-0.0007927557756746786,0.059920188091236455,-0.006963053233101223,-0.16043573604792233,-0.08800387484403197,-0.08240746843863526,0.9531521488747734,0.18346516344845376,0.7199842388738642,0.3294906223674565,0.018035804078349437,-0.13210549933788954,0.12488434060793241,0.9266941536242401,-0.375867771564345,-0.3848930760201574,-0.6662330877672342
28.0,4.607608318328857,0.10589838564655807,-0.5605885067735674,1.0288067376223424,0.03428410901593758,0.035263945183301074,1.3537969229335702,-0.3237509809054642,0.027223955555178286,0.25256454224448915,1.0984826544398443,-0.4911969640732776,0.15320177576456756,-0.290290828035063,0.2696625256057311,0.13945139533372752,0.8319771034150938,-0.13547936979274874,-0.05368113617566555,0.005055062285488811,0.0659382781076944,-0.007477295378769752,-0.1531767116240766,-0.092425149533471,-0.07845764773065193,0.9467593493827233,0.18264981764349825,0.7185768937212449,0.34067038499551966,0.013382641954597567,-0.14283637688746634,0.12984769323291878,0.918412502726816,-0.38352267735456663,-0.38633413819229045,-0.6593636625368537
29.0,4.651876211166382,0.10855279757293027,-0.5569913311380151,1.0287410812389135,0.034378020367692254,0.03551498669994367,1.3515473137827403,-0.3392226751960986,0.035732653907483154,0.2593225210816269,1.1115702786673158,-0.49427572757264115,0.15826154338312462,-0.2847431730744792,0.2741178212450641,0.14378204907653572,0.8302868206367195,-0.13452883673819782,-0.05346096098724007,0.01003449895096145,0.07054579335973805,-0.00762323739229904,-0.14619951312915933,-0.09652172177404039,-0.07452920045787641,0.9414231765894341,0.18161984271804194,0.7169291452680615,0.3507153226954987,0.008626030404757807,-0.15278126285983978,0.13409824353647223,0.9112966049205087,-0.39059318290281675,-0.38686800820707645,-0.6536436889320274
30.0,4.687767267227173,0.1108507971433158,-0.5537752170647084,1.0286649966374373,0.03434177830762456,0.035837463813036895,1.3489889973408964,-0.3522794582703833,0.04258327772786498,0.2652069269509809,1.1202721164357514,-0.49613394743095707,0.16266209599513923,-0.27999995087972274,0.27760919448661125,0.14734860915686496,0.8288407613415452,-0.1331443198076428,-0.05325595246735913,0.014061386427717463,0.074106230107279,-0.007708066543269337,-0.1400730265011147,-0.1001413930200353,-0.0710721345234394,0.9373207334278368,0.18061768376411513,0.7159921039067341,0.3590353816398426,0.0037583066240609543,-0.16173095134759602,0.13735077035580237,0.9052333277589434,-0.39666538702265897,-0.3864500477207067,-0.6490180332609174
31.0,4.716403484344482,0.11283759852732463,-0.55095632353358,1.0285292858023736,0.033970323771369534,0.03599695311642351,1.3462515881411952,-0.36338642177103775,0.047730050119448766,0.2696585780901234,1.1252137209072683,-0.49705242054911125,0.16612973308464046,-0.2761685140101543,0.2807030197624809,0.1503359702013055,0.8275106520655046,-0.13173827587911982,-0.05295255056560316,0.017335916054280448,0.07695957046692918,-0.008018684477116974,-0.13514115003411498,-0.10299124793071585,-0.06838270106919006,0.9344688117751805,0.179846485597766,0.7162525561898228,0.3652375343065136,-0.001130250636309552,-0.1694575133012463,0.13961761817122165,0.900112321510308,-0.4014583158296906,-0.3855044857244737,-0.6450722418919391
33.0,4.759821891784668,0.11469831032134195,-0.5483259829483387,1.0283202280155668,0.03331980603187017,0.03607508001803107,1.3433257516356312,-0.37365712876118357,0.050922277186425655,0.27231623861867327,1.1275244955562802,-0.4974053676160043,0.16848072283288434,-0.2729128812279017,0.28387479037238805,0.15333882492347994,0.8262674070073928,-0.13070895114323922,-0.052463266451620846,0.02052205543812053,0.07943791230001604,-0.008696590470436704,-0.13114215764529732,-0.10487690194726651,-0.0664415469850877,0.9326729821006996,0.17943271958537033,0.7174354165575478,0.36968976761162686,-0.006124963936542037,-0.1762277877839494,0.14150615961512428,0.8957258633252192,-0.4053321142136629,-0.3848711814545669,-0.6409616076220778
34.0,4.813558340072632,0.11728148590248602,-0.5445820074143873,1.0280326942759572,0.03255123484166901,0.03659387534827779,1.3388733170822054,-0.3878037893091115,0.0503571103661788,0.2723108114720163,1.1260491835924595,-0.4969373750051276,0.16925054916123877,-0.2685280408624075,0.287511509845967,0.15732104736853464,0.8247970168116106,-0.12936093815238725,-0.051809653404758745,0.025383124157305665,0.08192801112526968,-0.00986110945745271,-0.12571454563341725,-0.10602992728817692,-0.06516070163684251,0.9323290632042416,0.17943348357403957,0.7198695005621631,0.3732029448101998,-0.013206577173036827,-0.18515571363033237,0.1445160622745611,0.8912774169267128,-0.41019261921826944,-0.3852642426495238,-0.6339763852865106
36.0,4.848133325576782,0.1196066625007917,-0.5410429119765264,1.0278101302055789,0.03168783496951763,0.037000936034231366,1.3344702959382166,-0.4010602431901925,0.047882146560921914,0.2707572053262132,1.1225378205014294,-0.4961299440387621,0.1689439564897135,-0.26453877365316103,0.2906303223385336,0.16085124083596883,0.8231722984727186,-0.12759008068466357,-0.051248396274474736,0.030061368094716233,0.08425768634778254,-0.011051842301033125,-0.12056326830324926,-0.10650202777452954,-0.06461221733641856,0.9324230733741143,0.179730633573463,0.7228571068178704,0.37522236899592076,-0.020080762411671345,-0.19326443085331219,0.14729222025247327,0.8875601656359822,-0.4144872859932883,-0.38540415040687137,-0.6271085897264354
37.0,4.906133413314819,0.1223784277278091,-0.5365401236808585,1.027594334816296,0.030869986932855316,0.037447580745332255,1.3288996935646038,-0.4169100072092269,0.04175018679362423,0.2668024742358091,1.1141123124540806,-0.49444730695618877,0.16720662541054787,-0.25950493103847017,0.2932196544805506,0.16385397197386492,0.8210595762187515,-0.12392896410932062,-0.050748286994735076,0.03512354076443381,0.08707466660752955,-0.011956470227780553,-0.11462128870019873,-0.10625780663608725,-0.06475241353226677,0.9332992250749341,0.18013414780518033,0.7275358608248296,0.3752262006181617,-0.029666857889457974,-0.20311647914251793,0.15053477201309085,0.8838572786018134,-0.41996301076080667,-0.3844789734665057,-0.6194432268397959
38.0,4.943156003952026,0.12478072060124742,-0.5325274348715294,1.0273964479191462,0.02985106091333215,0.03778172825498415,1.3237406406809225,-0.43100308214916266,0.03476542334539275,0.2620464789366834,1.104602858032184,-0.4928932737238089,0.16487635087564353,-0.25535413960158104,0.295060895211561,0.16589825092226584,0.8189925253560967,-0.11957574370517665,-0.050345289427220344,0.03905241477525086,0.0896577051966233,-0.01289988448034931,-0.10973749765939098,-0.1057927592053107,-0.06506057594796029,0.9340594764321533,0.1803028040705375,0.7320918836037884,0.373887896695858,-0.03894994226594052,-0.21203696434298558,0.15363159989260955,0.8807328139792727,-0.4251622467407471,-0.38315711788525775,-0.6126065762729356
39.0,4.974348545074463,0.12685067892809365,-0.529021493788028,1.027196086931812,0.028575231447184945,0.038044673831574755,1.3190370154858897,-0.4432765251972864,0.027477979614289473,0.2569149295243595,1.0944781549684988,-0.4917836609268156,0.1621401248552107,-0.2521635831309277,0.2963223836200625,0.16712464932968008,0.8170988275799975,-0.11490540623234827,-0.05005209125484682,0.04191779190302429,0.09177668220002999,-0.013982055627604986,-0.10612036257241986,-0.10518333817547383,-0.0654410740892675,0.9347949849548309,0.1802454597909983,0.7363021127853573,0.3715401930854958,-0.04780393536194588,-0.21997259549158263,0.15661923763867835,0.8780586105659048,-0.4299927246496057,-0.3817989694636942,-0.6064567788245965
40.0,5.00939154624939,0.12878231466644605,-0.5257690374672946,1.0269881393509932,0.027062435570161344,0.038301582745504104,1.3145661142042644,-0.4545284164493585,0.020405789639059674,0.25203745405458206,1.083708680991876,-0.4911043761411087,0.15926807355420208,-0.2495933186354582,0.29727247761102893,0.16782349419669024,0.815384653688101,-0.11017337687784778,-0.049863768548709594,0.04428384420009087,0.09334686576844173,-0.015198945163125562,-0.10345838614749175,-0.10441800027613607,-0.06599539959415462,0.9357691696797505,0.180207078363844,0.740171210744003,0.3687151534086654,-0.056482460742371614,-0.2273236569836092,0.15953128700318275,0.8755654085834668,-0.4344632589865401,-0.3808371034295503,-0.600553125916544
41.0,5.059713840484619,0.13160965949371836,-0.5210067913628204,1.0266929624912358,0.02410823940724381,0.03866276896033877,1.3079387287535789,-0.4707577400652355,0.010806023653317214,0.2461760719194896,1.065263347670871,-0.4903160543234191,0.155142601565237,-0.24654109025385534,0.29824946636241995,0.1680223138182801,0.8125540188866683,-0.10237193547936546,-0.04974302483128405,0.047592932249336105,0.0949779815882173,-0.017322279638739748,-0.10045317705772532,-0.10277366146828146,-0.06763326886194053,0.9376497066728697,0.18079392910860687,0.7456114598696207,0.36397085701459786,-0.06977912411931922,-0.23768413509185266,0.16358192680561462,0.8717730251180661,-0.44034194015789263,-0.3799244636626629,-0.5919156164602409
42.0,5.090144157409668,0.13283379678015836,-0.5189236627241648,1.0265740337354692,0.02286793134355241,0.038745141670286615,1.3051353643005723,-0.47738095001569736,0.007691817587681819,0.24509178590788694,1.0562541334895628,-0.4899690412797473,0.1538328094813498,-0.24520552384198444,0.2983606809490873,0.16756094359596713,0.811263356225796,-0.09879962370285315,-0.04978023593185239,0.049071458324392754,0.09540591497276592,-0.017918992018786304,-0.0991560131829688,-0.10192179179542174,-0.06892092677681758,0.9387363637218291,0.1815662537002709,0.7477375511187658,0.36204939785356544,-0.07532243006202993,-0.24185050215839485,0.16485642378812793,0.8701185495485231,-0.4423566556178633,-0.37977657651922697,-0.5887600696476091
44.0,5.122810363769531,0.13422146074367705,-0.5165389600681045,1.0264365012033017,0.021743285723876092,0.03878968829861726,1.3020409552612329,-0.4843855029438716,0.004768702723500031,0.24488429737699502,1.0453701228079142,-0.48980302265352627,0.15269248590362627,-0.243445658263304,0.29820352573923187,0.1666651886490903,0.8098370974420244,-0.09479653772701752,-0.04988674781261469,0.0505883229707129,0.09573253133597388,-0.018104154206409734,-0.09743055694397583,-0.10107783041548465,-0.07076636068932939,0.9401662460901976,0.1826515495190612,0.749999891890784,0.35983029343228146,-0.0810926750547952,-0.24648274920325006,0.16595357263062008,0.8682552175543692,-0.44443485786738246,-0.37988874822280144,-0.5857595892624657
45.0,5.176476955413818,0.13649857911933205,-0.5125473873039332,1.0262134374866112,0.020580135004079445,0.03880586229473203,1.297261155403815,-0.49472039878987106,-0.0005363223681770432,0.24455404740187198,1.026752640207433,-0.4912112304688786,0.15064905663546474,-0.23974412373095272,0.29781724095861317,0.16526228967280499,0.8076591935965225,-0.0895333580250315,-0.05022980564113116,0.05243439286410389,0.09595925085792184,-0.017841481620928405,-0.09467328777514843,-0.09984189927765401,-0.07397610075330156,0.94289917110925,0.18405650310069754,0.7537225316454619,0.35496173687659777,-0.08974473956335449,-0.253771812136269,0.16738494153263284,0.8654211437595358,-0.4476438175501303,-0.38038467032920886,-0.5812948869150966
47.0,5.227976322174072,0.13879471477648578,-0.5084774424972018,1.026028496939419,0.01949160544682145,0.038816571653110574,1.292604459741363,-0.5046077753963473,-0.006444581582794531,0.24385522481738914,1.0071564618085513,-0.4931945385786167,0.14834754999697233,-0.23562033749655953,0.29748593057046485,0.16411796550845625,0.8051156685774765,-0.08488597318713732,-0.05068112419746232,0.054233358570951545,0.09613754954319768,-0.017640587339437536,-0.09220428174452902,-0.09816538991964913,-0.07722547693382945,0.9457268025693291,0.1853942554677545,0.7573492356143585,0.3494373114799414,-0.09839091628177168,-0.260577017008022,0.16872492620073917,0.8627292713926549,-0.4506452678183751,-0.3808260674992531,-0.5769868252556014
48.0,5.273492097854614,0.14166353534474413,-0.5033250652233322,1.02587787364739,0.018085093018747556,0.038243513102436004,1.2873343136961384,-0.5161532339301302,-0.013196660713009647,0.24343074159267225,0.9819623112925404,-0.49629920863435495,0.1455104456527312,-0.22985027738878278,0.2974703621042277,0.16247669079795446,0.8011459992596222,-0.080565256639652,-0.051501864291304135,0.05674987221486054,0.09686287615352188,-0.01763595405654117,-0.09000390270391587,-0.09470046425890061,-0.08092833937267546,0.948871995648658,0.18727748323529103,0.7611714436835856,0.34298111800290576,-0.10878105872741417,-0.2671394641018163,0.16994945719380988,0.8594987385723458,-0.45405893394828856,-0.3811636561124633,-0.5738083195270821
49.0,5.3073413372039795,0.144191622808864,-0.4987734136476366,1.0258303196060152,0.01660964630788406,0.03764134686745486,1.282980992846957,-0.525813038371621,-0.01853524857267353,0.24403580427298205,0.9586795330029173,-0.4985923937021267,0.14311664655457595,-0.22459256048800666,0.2972979307427898,0.16073130663973595,0.7968421157356746,-0.076994009367842,-0.05238903706360128,0.0589252908760166,0.0977490992234866,-0.017776314422922646,-0.08871183687070566,-0.09104652104407063,-0.08389417130215356,0.9514996373990042,0.18887770000596105,0.7642582717064432,0.33729177113140485,-0.11787759167815935,-0.2721058685204554,0.1709883211007196,0.8566718188508806,-0.45734053004404096,-0.3814745411992043,-0.5728012709566495
50.0,5.344698429107666,0.14637662656699538,-0.4948376576672168,1.0258761168320512,0.01508122068452641,0.03702774053495905,1.279419536152819,-0.5336636919170101,-0.022028087652894407,0.24617515408473803,0.9376887462626908,-0.49984019411619957,0.14121040526128054,-0.21996588146474993,0.2969225210735691,0.15881530488953186,0.7923904475623008,-0.07398434334694344,-0.0533259138945401,0.06064250401836624,0.09874255389287304,-0.017983410093414746,-0.08834897283661047,-0.08757550820082705,-0.08608094722032898,0.9538039622796777,0.19004511394201717,0.7669942059894042,0.3322705577924108,-0.1256816618809401,-0.2758005639024565,0.17185982842010422,0.8542430472374342,-0.46054484627017933,-0.381820361613989,-0.5737567698833599
51.0,5.370437860488892,0.14839665972371258,-0.49119858229273494,1.0259703511845562,0.013550318027052307,0.03641527172496482,1.2761262239050777,-0.5404875057006202,-0.024138255950255816,0.24977491236326446,0.9179342563197702,-0.5004071807775144,0.13954082257119,-0.21564864282078972,0.29630998986309426,0.15667055378846687,0.7878645494791899,-0.07115448337498875,-0.0543345660240654,0.061976509854166945,0.09963866026566487,-0.018144694234645653,-0.0886294441321934,-0.08455744796970299,-0.08782078678121832,0.9561578387271494,0.19080566128231213,0.7698420350587135,0.32740109605111933,-0.13280944331385972,-0.27902219379701504,0.17251120428633593,0.8520621236261168,-0.463572080689151,-0.3822051516840954,-0.5755592242073075
52.0,5.40198826789856,0.15025332541377315,-0.48784451776515025,1.0260862985401966,0.0121182536100455,0.035834824845602915,1.2729962051498278,-0.5462949074191206,-0.025372200213538566,0.25420789107283026,0.8996136546254039,-0.5007058837865342,0.13799062917276084,-0.21157518716600904,0.2954898628060352,0.15443027179065466,0.7833951953101993,-0.06847877944763853,-0.05538959027031945,0.06299172501479909,0.10019051935276037,-0.018260085215854694,-0.08931966478011996,-0.08217560859721271,-0.08926622618463638,0.9585660903161219,0.191255473475742,0.7726890909910312,0.32281335691510504,-0.1391783968905661,-0.2818652331269206,0.17274825152590526,0.8501989948555209,-0.46586326041544784,-0.3825786206918047,-0.5771683519670776
53.0,5.437747955322266,0.1521334177216181,-0.4844399943869705,1.0262139988753836,0.01079076783982488,0.03520512463703114,1.269754387654569,-0.5518160386327717,-0.026559407609157336,0.25877496977343917,0.8814495682443684,-0.5013323608417345,0.13637136425429472,-0.2072996786304942,0.294569913052317,0.15206159322259016,0.7788643410988376,-0.06577194060189984,-0.05651112658152241,0.06391792525484827,0.10032230341835158,-0.018337096627199193,-0.09004090838393443,-0.08028028476360163,-0.09066671591093509,0.9610734258542483,0.1916585160608712,0.7755104493269357,0.3186497483004238,-0.14518126951450444,-0.28467666631547384,0.17250681366216347,0.8484263448469692,-0.4672514102440707,-0.3830659699569724,-0.5778446855206639
54.0,5.47899866104126,0.1540450054948053,-0.48098265368253124,1.0263821345013808,0.00960928866111517,0.03461814458226726,1.266472901901214,-0.5570310730387124,-0.0280599005147793,0.26306040009255416,0.8634807848026764,-0.5023265132229003,0.13466713169527902,-0.20279868350164793,0.29349929331847996,0.14961802887995518,0.7743307964269266,-0.06291758634232275,-0.0576672924677584,0.06464337213702322,0.09994927392741389,-0.018326265449331212,-0.09066328783244651,-0.07908920008419884,-0.0918812128401479,0.963565715446169,0.19197661431765994,0.7782722833246061,0.3153412753898107,-0.15064732465911004,-0.28758667843247077,0.17183595898122697,0.8466018531386106,-0.46778901670690104,-0.383931125580828,-0.5775080205724438
56.0,5.526732921600342,0.15598816936662036,-0.4774648771759616,1.0266040891346981,0.00855935145538861,0.034158971489043476,1.2631826218856868,-0.5619677706676461,-0.02993563497681595,0.26706196895067663,0.8457757117139972,-0.5034243196441104,0.1328140815153306,-0.19809980771320318,0.29220255226262276,0.14712479465606038,0.7698405817490452,-0.05981757986199669,-0.05883390986363935,0.06507424288836003,0.09913541130090991,-0.01821888813566968,-0.09129376236477227,-0.07868962888235581,-0.09268522222078146,0.9660316721464632,0.1921191121284501,0.7812920205625384,0.31318288112662185,-0.15555398939367518,-0.2905844162619572,0.17082339186599305,0.8445963977297437,-0.4677259286383861,-0.3853280927622402,-0.5765637621438952
58.0,5.5923802852630615,0.15873702918391835,-0.4723632749875255,1.0268641706878343,0.007160222151726424,0.033445645188959434,1.2586464877998795,-0.5692479042870437,-0.032259836510914505,0.27296617533960477,0.8232844178936238,-0.5042581765922707,0.1298135846090466,-0.19142114387325584,0.29027836539422913,0.1432993650542506,0.7641837035207157,-0.05551029124580981,-0.06039769410326551,0.06558320161682142,0.0978673557381511,-0.018304317693437343,-0.0930204064959764,-0.07858120416992342,-0.09288789011370191,0.969025594804293,0.19232570829549778,0.7867329950935635,0.3126472351263612,-0.16175955712078047,-0.2937928162942066,0.16863677358543544,0.8413832687115378,-0.46674836891709626,-0.38763508455382983,-0.5759151027949311
60.0,5.654326438903809,0.16203327379042065,-0.4660030912886295,1.026934692670279,0.00539928890533069,0.03210668647706487,1.2532724758999345,-0.5784937520525056,-0.034477650589856634,0.2804600662471708,0.7982866344511285,-0.5040036342579721,0.12591103187163508,-0.1831831683538508,0.287735020607965,0.1375641359173871,0.7573312613235887,-0.05036340853072304,-0.06222189988320131,0.06701554429697178,0.09677569212901518,-0.01865336567436388,-0.09622728191292274,-0.07711570747145818,-0.0927224819352375,0.9716528463891343,0.1930231554052217,0.792624724908741,0.313286295111749,-0.16905895491755774,-0.29567889299733524,0.16554629440482038,0.8378868139617601,-0.4648844820597603,-0.3896687341364482,-0.5761560290808293
62.0,5.714881896972656,0.16568384929967883,-0.4587816638395193,1.0268147749385153,0.0036464736746973673,0.02996213176361381,1.2469889351278738,-0.5885929237083862,-0.03642664143941671,0.28820316316636574,0.772675670380049,-0.5031442187263023,0.12167114976576054,-0.17363447911987379,0.28437437983417463,0.12950786776945153,0.7492998555306085,-0.04456445759671605,-0.06433641620610095,0.06949140372818233,0.09639772135739433,-0.018759806799205046,-0.0992023022981389,-0.07475409016510709,-0.09226915639007682,0.9732269669581797,0.19375157752568462,0.7972089983858053,0.3141709267304207,-0.17578851220448272,-0.296753578498285,0.16287915034008998,0.8346076572593778,-0.4632437313427523,-0.3916991077841925,-0.5763898457596008
63.0,5.771997690200806,0.16952909599078075,-0.4510160830625286,1.0266892832001684,0.002009500588120807,0.02738522769539422,1.2399358209509932,-0.5983424534229584,-0.0382170701609995,0.29494831037361763,0.7481940991478429,-0.5022883746931175,0.11767511612019838,-0.16317503719067436,0.2801001408569139,0.11966781789142211,0.740423011388117,-0.03861678165242875,-0.06671051966393232,0.0727205986325892,0.09632238398933977,-0.01869315148172454,-0.10113822731001368,-0.07233736006579661,-0.09151350924135988,0.9737107948040697,0.19418785181075654,0.8002807598647392,0.3150959984753059,-0.18060736461560514,-0.29742037744748806,0.16105892028548158,0.8315216536025061,-0.46250432816350695,-0.39431179783643766,-0.5772790775918972
65.0,5.829819202423096,0.1726313852141209,-0.44468051911195905,1.0266186576827299,0.0006517773704474048,0.025344051583273124,1.234269138494439,-0.6052342177158498,-0.04002245904991392,0.2990052253474329,0.7291440854358536,-0.5016424774815769,0.11481807246287312,-0.1543424892592694,0.27637316994433747,0.11148857479045662,0.7324594845315355,-0.03400960039432256,-0.06871896287115334,0.07552244043294727,0.09608219440904364,-0.018549948134143252,-0.102457558243369,-0.07015563021089596,-0.090708129123973,0.9734815034356223,0.19440592482091387,0.8014099490153521,0.3158947210623505,-0.1834800484715418,-0.29741685416977,0.15998989215251486,0.8294589222425359,-0.4624199996080969,-0.3966129992589682,-0.5786284043959576
67.0,5.888415098190308,0.17605034085333943,-0.4376764471631195,1.0263487602584702,-0.0009457473418456013,0.02333709585442674,1.228439315128364,-0.6118628587962498,-0.04329049825578421,0.2993927040565635,0.7117529809287746,-0.5045607157086702,0.11289640228297981,-0.1446652193044718,0.27338893789299507,0.1041911244204972,0.724511030187261,-0.03156575697840143,-0.07066038149481407,0.07824068704808815,0.09539665104976984,-0.018642476099251945,-0.10449094246556787,-0.0673978085290622,-0.08928443973912098,0.9723580375555521,0.19444489887737781,0.8012356174436687,0.317173297848984,-0.18612385521277003,-0.2964844434796189,0.15972180651041495,0.8278338228670545,-0.4629620410758103,-0.3984021069165473,-0.5801402811423708
68.0,5.935318231582642,0.17976528215300164,-0.4299607263287024,1.025769208489729,-0.0027203119902541643,0.02123949778652007,1.2222345237811754,-0.6178839932206381,-0.047680825326752704,0.29658567530178337,0.6965932797387185,-0.5117003753439286,0.1120083510555295,-0.134366722816423,0.27077700248177783,0.0970003039969971,0.7171009635468462,-0.029833262527002014,-0.07237272605389838,0.08105971841178633,0.09477644951534361,-0.018875237933211074,-0.10773187945174159,-0.06407126016569756,-0.08724501764058207,0.9708906333022325,0.1944138208801815,0.800814976441613,0.31910185366794397,-0.1885874392736946,-0.29458889369073776,0.16061751208037395,0.8266129727814489,-0.4642857457960433,-0.4001903361734894,-0.5815683484113043
69.0,5.975157260894775,0.18290497119653962,-0.42338283048351244,1.0251986095741663,-0.004168471823759035,0.019297734240996612,1.2169022174182258,-0.6219676033764221,-0.05109680126051272,0.29357660058899654,0.6855622622084314,-0.518296384075809,0.11168654801722708,-0.1255542317718729,0.268587144290772,0.09065121410941662,0.7109619832265028,-0.027494202352431826,-0.07364857606951725,0.0833485183082848,0.09447383395568792,-0.01888451775188121,-0.11049766244549653,-0.06133007058208944,-0.08527452068646152,0.9696746227662052,0.1942506017386968,0.8002983364600035,0.3209450836394143,-0.19001081355470992,-0.29264526242949956,0.16205486717826623,0.8259842670357176,-0.4659005731712602,-0.4019179417586003,-0.5826485232589177
70.0,6.0231263637542725,0.18716822233287644,-0.41442643404611934,1.0244430399029838,-0.005809014452985284,0.016048670004654545,1.2091700953929279,-0.6254455077307787,-0.05384093532653443,0.2903650656622427,0.6734700212930811,-0.5253842954130554,0.1114788229027784,-0.11302327042498561,0.2653066688567909,0.08091618804125134,0.7020317189621993,-0.021203085451474764,-0.07524020844107839,0.08620999375615351,0.09452108588238474,-0.018182985792042066,-0.11271870433163166,-0.05849021670061445,-0.08233797486783465,0.9681676069192536,0.19361362172546376,0.7991051026744382,0.3236745234862047,-0.18973399958825082,-0.2899343698834028,0.16521089125413774,0.8258659505312833,-0.46908480575907713,-0.4049998297230415,-0.5837190822542813
71.0,6.045203685760498,0.18870601286438526,-0.4112245357406687,1.0242051028642467,-0.006249331667167717,0.014722774813515131,1.206058460231523,-0.6258518985902006,-0.05361630113480573,0.2902292580248303,0.6706183777862473,-0.5259245027682828,0.111299626759853,-0.10847901338124624,0.2641421882194252,0.07741556167528019,0.698902090302644,-0.017850795528428387,-0.07573698968325632,0.0870707590665265,0.09439881378481502,-0.01770607816179184,-0.11234880561843918,-0.0580911967350243,-0.08126542203306719,0.9675517483873829,0.1931453922115554,0.7982910737101387,0.3246089677859769,-0.18834824774441558,-0.28905177223237244,0.1668578064135297,0.8260769137307078,-0.4705754708340062,-0.40617522380692966,-0.5836732606906747
72.0,6.098146915435791,0.19163695291892668,-0.40516724033820806,1.0236964755533204,-0.0071409775453959885,0.01255547788138232,1.199794805798839,-0.6264298939144368,-0.05254547602163223,0.2904412621338932,0.6670767333667444,-0.5253561049244474,0.1108170306200767,-0.10045890963145229,0.26243112640773825,0.07227582315032216,0.694167707295617,-0.012114612908341961,-0.07655607980617352,0.08874563910952629,0.09341548344858382,-0.01714282947081649,-0.11122311384958825,-0.05756106665787449,-0.07927541213565467,0.9659778465785296,0.19215362324523944,0.7965476315255664,0.32617676162550935,-0.18521289367827354,-0.28728362794533235,0.17036328097574174,0.8263646093801094,-0.47336941351047274,-0.4079691760236627,-0.5828484686884303
74.0,6.130823135375977,0.19324602061278612,-0.4018140879577162,1.0233565587031694,-0.007765183383727375,0.01161882412465445,1.1962846020138744,-0.6268361081780438,-0.05206821286763731,0.2902248250741686,0.6660682113943326,-0.5247294885395306,0.11064147388564441,-0.09656144875559947,0.26176370897687984,0.07027644457769708,0.692511061055858,-0.009541172078502382,-0.07691030283599706,0.08988090227666173,0.09257937378959807,-0.017169725284912632,-0.11121690405168327,-0.05703628962197263,-0.0782391471561101,0.965014314154464,0.19168107636608783,0.795756156324939,0.32683895114791955,-0.18383022979391722,-0.2860966866201664,0.17226677784933886,0.8264407931281784,-0.47468084532377514,-0.408859515843965,-0.5823041397301835
75.0,6.176252126693726,0.1960936919021843,-0.39579641885399786,1.022637445170565,-0.009135170363415664,0.010150701385633001,1.1901144446400165,-0.6274456558082058,-0.05160949937925709,0.2883907340642099,0.6664200402041478,-0.5228111907722115,0.11093518311714234,-0.09067629681809608,0.2613323275082871,0.06807817455497295,0.6917456446907315,-0.0058496142506863245,-0.07729457997516574,0.0921842375321838,0.0911827822889765,-0.018069054756809175,-0.11282523390175084,-0.056089273028006106,-0.07661660115748821,0.9634815737187012,0.19096992687635153,0.7947553361518074,0.32766445811621703,-0.18223180056855495,-0.28386496088116575,0.17525464918076314,0.8267674691312258,-0.47652118163147333,-0.41019687960041107,-0.5816887271273934
76.0,6.215461254119873,0.1990142909845287,-0.3896444229136522,1.021897171261664,-0.010491254861447639,0.008490861400965267,1.1837072340585777,-0.6275683237564549,-0.0508529565787603,0.28619827126322317,0.6677583036913954,-0.5201497855698374,0.11152189339783453,-0.08478994591457929,0.26128998691061733,0.06630860985990268,0.6915024999606355,-0.0018861533938855464,-0.07761599452166394,0.09444650266214122,0.08998248211237693,-0.019240854661905706,-0.11439328316123376,-0.05570680038928656,-0.0749701688993815,0.9620470730628825,0.19017103353710618,0.7937189776125689,0.3287406037899214,-0.18042739544157227,-0.281815977933803,0.17821815206067626,0.8274526128873405,-0.4783992929700853,-0.4112697893253448,-0.581197443770354
77.0,6.246796607971191,0.20199109083530672,-0.3833782360859749,1.021149670561993,-0.01171206168886131,0.006680179457516151,1.1770835434633384,-0.6269871335857902,-0.04971630371954197,0.28410832550028126,0.6698502068926887,-0.5166988427108425,0.11232316345344404,-0.07889752697636684,0.26142506844220803,0.06481702480015011,0.6917500078851051,0.002567997451817239,-0.07784279729137317,0.09650200514926854,0.0888440436876079,-0.02049054517662565,-0.11539945247931438,-0.05584963286522415,-0.07328042086340865,0.9606930254705217,0.1892881323294927,0.7925839814955751,0.3301536873134219,-0.17799805454853412,-0.279779808957386,0.1812410610853743,0.8285229632641227,-0.480322868849433,-0.41175986246890517,-0.5807802201103044
79.0,6.295228958129883,0.20477075525796787,-0.37748294598388743,1.0204548971018024,-0.012678365679180239,0.004940615750600056,1.1707795465787587,-0.6255421260206674,-0.04830115372729328,0.28247551370222623,0.6725259909941816,-0.5126679939824789,0.11326728177403503,-0.07347257901221294,0.2615634892735312,0.06373325884180038,0.6924166338608395,0.007530218731412529,-0.07792080385074322,0.0982611390428183,0.08770053846349998,-0.021601523075519272,-0.11565167416610321,-0.056024219943214715,-0.07177737516151482,0.9594954594687013,0.1885582493919959,0.791462802201909,0.3316815668000652,-0.1749360718887148,-0.2774079544080203,0.18404633363450154,0.8299057970447663,-0.4820175388645869,-0.4113331441624618,-0.5807618578847301
80.0,6.334728479385376,0.20837210761792407,-0.3696187689059315,1.0194869193435312,-0.013857836283105229,0.0028788326941582188,1.1626418891077794,-0.6222122671014709,-0.04623293545960315,0.281084721313966,0.677237606791129,-0.5064868705212605,0.11488789572422134,-0.06675447413589772,0.26110116909491116,0.06233896333978711,0.6941865918394526,0.014742582242192128,-0.07781792927685513,0.10074958395171286,0.0856205558013785,-0.0231797295976017,-0.11532306652229135,-0.05452237093050788,-0.07067772267421488,0.9580949950842443,0.1887102278348315,0.7903448842662295,0.3336111931214673,-0.1694948997360689,-0.2723135078869497,0.18742301308784776,0.8320697491879473,-0.4836079135527977,-0.4092450136728657,-0.5820559031940442
82.0,6.382612466812134,0.21180552872377312,-0.3620874431498873,1.018561248400687,-0.014939717296993492,0.0009359871970689179,1.1548749320767806,-0.6185352292451226,-0.043818664890965406,0.28030506705892666,0.6826598693814341,-0.50027420779591,0.11664642458189253,-0.060040632615932815,0.2602457663848847,0.06086316339950884,0.6956045000895059,0.021125822752893243,-0.07791121538525839,0.10339722550655561,0.08344266209273053,-0.025008412881162078,-0.11506589404224618,-0.05234983781903148,-0.0700441451503305,0.9569010855507281,0.18945602067842818,0.7895765841889384,0.3356268659646908,-0.1639646320304552,-0.26685463363004197,0.19064225851157313,0.8343109529722209,-0.48479101626082155,-0.407063125634562,-0.5834642678515001
83.0,6.4406938552856445,0.21623404602546833,-0.3523472823138728,1.0175842843210814,-0.016152834474386944,-0.0012246344035503772,1.145244085032721,-0.6134103925496903,-0.0396308241876855,0.28124025364746913,0.6913787787862549,-0.49164437628733737,0.11936112806653223,-0.05041305488179029,0.2573542108528567,0.05766743858978117,0.6963777711385084,0.025511167141381373,-0.07894157895736811,0.10642762712799689,0.08032884555523132,-0.028311523413505346,-0.1152456347109376,-0.04941138803572504,-0.06944565688012039,0.9558223126909253,0.190703669016724,0.788900649794464,0.33837736952765307,-0.15673618865700178,-0.25997117095980427,0.1950881713867334,0.8377177838608332,-0.48567312408094665,-0.40488987191035675,-0.5831136220481288
85.0,6.497989177703857,0.22022911233836265,-0.3435802636739678,1.0169842052298268,-0.01701127966582108,-0.002796460249247505,1.1366868455328403,-0.608880705877462,-0.03526142415121881,0.28314245097224733,0.699924484266224,-0.48411979034006447,0.12201728192633594,-0.04093249523519027,0.25348673992246884,0.05416797141677582,0.6960415175938428,0.02729497072253135,-0.08055017881292983,0.10897269263439695,0.07716845827747665,-0.031764827931336864,-0.11527697483991432,-0.04664588357415114,-0.068906639087742,0.954982001004118,0.19174580101005692,0.7881011483553824,0.3404600829298325,-0.14994042812548547,-0.25353900972918486,0.19939901871179158,0.841288593590855,-0.4861176011135771,-0.40276253115826954,-0.5817771446899318
87.0,6.5592687129974365,0.22488912718351767,-0.33326141655164704,1.0170109746889782,-0.017919745076714635,-0.0030032908069034074,1.1275277879593975,-0.6049042591546631,-0.031075101345453104,0.28509934378237173,0.7090698758751891,-0.47725229659804835,0.12538411552999887,-0.02964317814183314,0.24639032027521476,0.04952250473795414,0.6946240359199358,0.025606702165218723,-0.0832645614118452,0.11047666478359977,0.07218237374071401,-0.036750573467552505,-0.1138631267138322,-0.04314960559843495,-0.06803484225388365,0.9537944367214033,0.1921396228218178,0.7857128060714527,0.3409365054149215,-0.14049783948233835,-0.24504220028613427,0.20490671845812455,0.8460149868148081,-0.48689309819805504,-0.39873862275465205,-0.5804666080654358
88.0,6.60693359375,0.2302038592921421,-0.32140811331015157,1.0174699750789653,-0.018782139520786077,-0.001507949734427747,1.1187439041099523,-0.601950940100951,-0.028503319400108536,0.28539909078452486,0.7185865939659649,-0.4687266515815864,0.1288834187209667,-0.01783444476064069,0.23695411724356225,0.04482239199808101,0.6938170938179151,0.02253824699122467,-0.08642468647648598,0.1100238988599048,0.06505041595119793,-0.042507030387463805,-0.11073496861056223,-0.03845482135811609,-0.06690552789267422,0.9519722274600364,0.1917955417384521,0.7816476689256683,0.3389798773526556,-0.1275790883453986,-0.23432974536447176,0.21161810922258578,0.851190701555463,-0.4887377820728408,-0.3931185675013731,-0.5816998753952376
90.0,6.652831554412842,0.2347418934409739,-0.31136819904733193,1.0179591387426403,-0.01923310925327571,0.00048154830197526006,1.1126067414849754,-0.5999384352638875,-0.027299950621392094,0.28515033408839735,0.7268539887712048,-0.4589676600897505,0.13150382937329133,-0.008450928230194688,0.2286436628085098,0.041124289042873095,0.6939568280509552,0.020083928445310584,-0.08908659726477856,0.10845649291819776,0.058014729880788395,-0.04715546020745828,-0.10739929123622224,-0.03372452500882954,-0.06617194912487437,0.9503422128364715,0.19142836395639734,0.7780393899191224,0.3359061644179394,-0.11519320765352288,-0.22454304369159556,0.2175302650331573,0.8553838770829854,-0.4903530307532741,-0.38767236850148123,-0.5839493581650506
92.0,6.715942859649658,0.2400128084027251,-0.2998851814726897,1.0183167441661545,-0.01933313706551453,0.0020996941124940154,1.1082975116483766,-0.5970250945973761,-0.026295440979522675,0.28487666415006,0.7380306002339151,-0.44125397833891655,0.13361621805230334,0.001238465254945525,0.220477681321025,0.03674007050000514,0.6963422807464386,0.019247270861312442,-0.09150289291231617,0.10494441440533031,0.0490786185730455,-0.051282338212383,-0.10436533804613427,-0.02785728044209395,-0.06590167041216766,0.9496614792597879,0.19165725067499345,0.7760729270774119,0.3323892734148181,-0.09920068689784264,-0.21309769813645466,0.22328095614519777,0.860492832369987,-0.49040797378509826,-0.3802189125750009,-0.5848180606467639
94.0,6.773123025894165,0.24562787939083194,-0.28761360544098563,1.0184896288258969,-0.0191112721952814,0.002785494272270308,1.1063026833038152,-0.592698327944943,-0.025207486193844213,0.2852630397401995,0.7514356838538165,-0.42041299769307,0.1352910014654061,0.010774809236821614,0.21205102093762118,0.030021467517199397,0.7009020412662381,0.021078777871297135,-0.09367489552636524,0.10001930191899408,0.03893937620034784,-0.05558935913620382,-0.10406544421368533,-0.021022525356795187,-0.06606095814581656,0.9507293472281757,0.19279536826608926,0.7772793845628274,0.32929482515693986,-0.08216682016829052,-0.2002161894208873,0.22751873639196135,0.8675556573100618,-0.48755816656435147,-0.36791019051861884,-0.5823308599436037
95.0,6.838930368423462,0.25142390547653737,-0.2745290351271921,1.018661004655815,-0.018957185827958554,0.0027666256604575038,1.10563528134518,-0.586909636292489,-0.02368417869512384,0.2865322161097151,0.765858716000962,-0.40296686348528726,0.13721138644905634,0.019878117938350457,0.2019569018924392,0.019818230984627896,0.7073894530217897,0.026213735080569275,-0.09597557709210221,0.09480235400099984,0.02846557751173003,-0.06113967156265933,-0.10784302521289071,-0.012978964958497208,-0.06688796947841248,0.9533012648551916,0.19462132388376524,0.7806339808974634,0.3251671000425607,-0.0652815480649446,-0.18557119230987207,0.22987082960963226,0.8767142073869523,-0.4817315935707801,-0.3512884065176416,-0.5775659701508344
96.0,6.872943878173828,0.2562351041614288,-0.26350240997190444,1.0188516392208453,-0.018441576045145097,0.0028052942185535076,1.1053486419226406,-0.5811566238034329,-0.0229728021744574,0.2874576675098834,0.7774345569402186,-0.39199320403063576,0.13889440604021994,0.026981331243320347,0.19160937893802424,0.008907769985274712,0.7141647892096187,0.032489111064706484,-0.09828395183333777,0.0903419867677642,0.019473267869944567,-0.06627879866465121,-0.11235035640649965,-0.006140402374241541,-0.06802587266166234,0.9563003044568306,0.1961758608843467,0.7841095551199768,0.32043760265077204,-0.050760736064749484,-0.17320295293254592,0.23132206026552055,0.8844666831265149,-0.4757298239809954,-0.33649657179116466,-0.5728707073262751
97.0,6.904781818389893,0.26005859632315304,-0.25455302462758234,1.0191045367285854,-0.01743043416391275,0.003093024488118176,1.104876498507551,-0.5754397791785942,-0.02362835270729451,0.28734138198034936,0.7857214659756476,-0.3873747175277545,0.14016150805604163,0.03200289924148347,0.1806652449986193,-0.002488160460571715,0.7212633604945995,0.040111266768511344,-0.10066627292113689,0.08673823408764139,0.012059804122294345,-0.07058821029264045,-0.11653534940925711,-0.0009689886548663418,-0.06935713354599043,0.9593672924444371,0.19718646505634718,0.7870967059828672,0.3150928260788685,-0.03813534792279834,-0.16383399592602996,0.23242187090407865,0.8902948324668736,-0.4703756357830385,-0.3251479754800992,-0.5687782716621922
98.0,6.937789440155029,0.2632122998711079,-0.24699470916332733,1.0194535642507525,-0.01592745582214635,0.0036800444088667325,1.1037410558046936,-0.5695481553297929,-0.025868829582115557,0.2857716478817736,0.7912898365688016,-0.3868781656656031,0.1409069600479102,0.03529962442391597,0.1687549743297486,-0.014303960984684417,0.7289959660178543,0.049502629841020246,-0.10319056515208865,0.08393977853456866,0.005856192218979936,-0.0739423893917439,-0.11980213433952194,0.002727705349453038,-0.07074535568816742,0.9622114613577453,0.19761966576876966,0.789335898315599,0.30927588193798083,-0.026392735959443896,-0.15711767696676496,0.2337910851711414,0.8944491405999333,-0.4660619815913819,-0.31735316410127784,-0.56510562768227
99.0,6.975137948989868,0.26601132437077574,-0.24011655299489137,1.0199161093976554,-0.014104943380232,0.004458584167677622,1.1017941409339307,-0.5632237817119039,-0.029410765206962005,0.2830042851250625,0.7949504203498436,-0.3885977690747838,0.14118142013935817,0.03714106820797895,0.1557298525790096,-0.026586927524737694,0.7377196127349572,0.06110480345537425,-0.1059086454726991,0.08198741430366373,0.00045624960789109005,-0.07665017033020358,-0.12245373668447918,0.005564775619572159,-0.07203906902670806,0.9646807549088319,0.19769225153324588,0.7909193497554989,0.3034757132568493,-0.015149051675171261,-0.1520673364853087,0.23565532572040504,0.8977796189021091,-0.46259242288951197,-0.3116096405322477,-0.5610738377770434
100.0,7.0068511962890625,0.2687506300763263,-0.23321424795923412,1.0205096917929066,-0.012253369644216758,0.005321114789090711,1.0990502535632791,-0.5562539319344941,-0.033484864798940486,0.27988657746895834,0.7975537289059661,-0.39175694730288974,0.1412849514237915,0.03768260048565476,0.1414995492199364,-0.03946058659328518,0.7478617579115716,0.0752122563841563,-0.1089331847004652,0.08091275809474299,-0.004607698394038898,-0.07934520127908945,-0.12533742919426918,0.008328610473176007,-0.07311758179123096,0.966695753870943,0.19768570990870432,0.7918308452485538,0.29812648149971543,-0.004251080711252207,-0.14739593924484326,0.23796522200220638,0.9012786412120992,-0.4594847454854655,-0.30605409541695733,-0.5560970678634806
102.0,7.049363374710083,0.27143178672875135,-0.22633589012123825,1.0212015077163963,-0.010493829429417704,0.006297125923068312,1.0956146935962432,-0.5487864324343743,-0.03745483799376542,0.277281214556681,0.7992594965411226,-0.39621499536262383,0.14149445095003926,0.03673492750080494,0.12634935888715623,-0.052633816657145296,0.7595522140335306,0.09148843699478482,-0.11240271434774682,0.08066929998886471,-0.009590501331084226,-0.08219939348886712,-0.1286079051175823,0.011089551663508408,-0.07381247678706995,0.9681879400943847,0.19768359884797435,0.7918795079412738,0.2938402548124934,0.006060652616499292,-0.14294299103388314,0.24070159162669255,0.9050658970216834,-0.4567237718094914,-0.30011340263677105,-0.5500847520582451
103.0,7.110757350921631,0.2750139005357868,-0.21700119119252365,1.0222259077905917,-0.008635976202282132,0.0074821134885683215,1.0894680536983805,-0.538100156877014,-0.041197669096642235,0.27560104712498645,0.800580769223538,-0.4040604862866826,0.1416535307318092,0.03229730618477446,0.10427872765858594,-0.0713332946614186,0.7786777338518562,0.11791302505000287,-0.11801369384626217,0.08146436044979759,-0.016554797624301332,-0.08611154767737442,-0.13316567748484043,0.01383298746743539,-0.07377303723489875,0.9688230595148146,0.19763946081862066,0.7902138325714535,0.29133332550941204,0.018962657002534473,-0.1384099154341177,0.24513492997997413,0.911069539868752,-0.4541942310655614,-0.29150623249532504,-0.539203674871673
105.0,7.164658308029175,0.27824011003833354,-0.20855679711502506,1.0231131797197868,-0.006866864306578242,0.008844911651289884,1.0832670714600008,-0.5280312557051601,-0.04432213723801033,0.27508328339571153,0.8011842112190459,-0.4115629834881567,0.14154709063642135,0.026354347741142772,0.0819105117114446,-0.09013020556068696,0.7988979482479268,0.14478025738026762,-0.12434516481603983,0.08261777712355795,-0.023530581851357875,-0.08967347045590268,-0.13750343539476617,0.01588142900465098,-0.07354183390948978,0.9693389500589105,0.19769318858459456,0.7882875599904557,0.29026173198833394,0.030347382491963545,-0.13527182971990698,0.24995347835571147,0.9163968743301463,-0.45222880172861224,-0.2827005352346011,-0.526713655329709
107.0,7.2300190925598145,0.28195608506203546,-0.1985483251784678,1.0240829377085026,-0.005071916438211678,0.009868797572547026,1.0749219030960582,-0.5158721942296245,-0.04692910341643018,0.2751365009702582,0.8016877997255656,-0.4200178196710942,0.14077963288347878,0.01635295509431236,0.053364272563746096,-0.1139318782542594,0.8272452921165945,0.18165192003104863,-0.13352138839639013,0.08443710036912458,-0.03010583691238007,-0.092992211439209,-0.1425890889736758,0.018124542948905628,-0.0735678378136814,0.969306932265715,0.19829814345741015,0.7861918761633333,0.2900818334332479,0.04296510472168538,-0.13297376448659962,0.25714414644719746,0.9227599295279154,-0.45102247818605123,-0.2724941749084179,-0.5079539601737573
109.0,7.287693738937378,0.28584902358680225,-0.1875700665408364,1.0251208031967738,-0.0031591219346260627,0.010973342664079143,1.0651611233454472,-0.5022096697747012,-0.050021180745598776,0.2754474988950995,0.8014807255519922,-0.42963686874457996,0.13974410718903127,0.0019067120224131066,0.022431097508930437,-0.136989433326217,0.8627592348124207,0.22510859352890494,-0.14508119218832236,0.08635100193484793,-0.034930574147438775,-0.09537062455472954,-0.14850821169182865,0.022018811063976674,-0.07401226682554263,0.9683131642414936,0.19950634174823895,0.7838500945354642,0.2892698258955861,0.0552761830718729,-0.13052475151510065,0.26642320908991046,0.9288840286105581,-0.45089963894484997,-0.2622314505655213,-0.48604947863127657
110.0,7.337207555770874,0.289785972861921,-0.17624537304075139,1.0262191584251017,-0.001412431221849981,0.012550304730998902,1.0545197612801316,-0.48795035284710964,-0.05425169048528401,0.2751937357938137,0.7999541213043447,-0.44081407230358804,0.13885130611449928,-0.01737616139071934,-0.006080681609439828,-0.1536151107211671,0.90317104898167,0.2683863064354588,-0.15785817341167635,0.08807326783659947,-0.038841762123524956,-0.09747681310886214,-0.1560642829399006,0.026662676148362263,-0.074056828593646,0.9663530548692549,0.20045369725788256,0.7814530079598638,0.2877412930850751,0.06492176883856421,-0.1292267726784429,0.2769430854067549,0.9339051549317927,-0.45161423674354984,-0.2529083697496175,-0.46113381938301334
112.0,7.384073257446289,0.29302229588036804,-0.16687432475883948,1.027118413756346,-0.0001135969422737286,0.01438324404754082,1.0450652564528478,-0.47621775145720446,-0.058310633184140356,0.27498810185069106,0.7979228359557491,-0.4509256903979685,0.13831054489401112,-0.0363278756400993,-0.028596876746545426,-0.16398712592197412,0.9392998436602242,0.3002880355308208,-0.16941399026680382,0.08963473738878089,-0.04214451046398621,-0.09969019765785939,-0.1635321997653515,0.030718761757710537,-0.07362311122212276,0.9644203490322045,0.20088141659530706,0.779301972344516,0.28614434633057345,0.07096620069251276,-0.12890604981469223,0.2859829456571532,0.93685149961428,-0.4521416596453767,-0.24503008159363718,-0.4388463964159526
114.0,7.444945812225342,0.29635856845934905,-0.1572060050790642,1.028090876861605,0.0001370059555377023,0.01572194696757049,1.0349475043985108,-0.4646832857957319,-0.062014972296565066,0.273756210295263,0.7954986076715934,-0.4621552822649583,0.13804093262587985,-0.0599332859052102,-0.045161982338255025,-0.1674506887091097,0.9777158292058041,0.3172763619900062,-0.1796396603009841,0.09083717974800384,-0.0441298040470828,-0.10252046241879587,-0.17275746996980815,0.034294309586459085,-0.07241381627638818,0.9613222943119974,0.2007273062124479,0.7754168217711976,0.28496427286725234,0.07352357568061829,-0.1300964492164934,0.29416137649617335,0.9388688223914152,-0.4527548505660074,-0.23804476989028517,-0.41715300304774117
116.0,7.520302057266235,0.29970629142899674,-0.14740203506594382,1.029110973995724,-0.0003333597306782628,0.0162389030167429,1.0246528391067335,-0.45296969703600976,-0.06511800558697692,0.27197798326145706,0.7927556062755876,-0.47377578994307834,0.13779110264065975,-0.08812734677573261,-0.05407926083745837,-0.16416047641430725,1.0175235344884517,0.31434479095803153,-0.1865472631799087,0.09062177195600515,-0.044171636354128095,-0.10463297519342268,-0.18252559537744006,0.03741715413366013,-0.07090821861695609,0.9571366141915849,0.20044353787277402,0.7694392651514377,0.2845649281609449,0.0741199432379643,-0.13262866996662673,0.30091903217087157,0.9393452095646074,-0.45355748229479154,-0.23312724109212002,-0.3993607371559465
118.0,7.5838141441345215,0.30309777283533457,-0.13746546411141206,1.030172063751102,-0.0008043823792217877,0.015850752324569256,1.0148961759760975,-0.44033310664461456,-0.06785160661062653,0.270045993204467,0.7896821146034716,-0.4854820599943711,0.1374213401099762,-0.12002038618353564,-0.055760209681392184,-0.1557810517113747,1.0575494664521365,0.29163087183108094,-0.18918413089497674,0.08822506386711665,-0.042228632340008385,-0.10481943067218313,-0.1933040262710719,0.04090485167643387,-0.0698420300393148,0.9526641264492397,0.20078008848565732,0.7627274131465727,0.28458652564255094,0.07309914229460764,-0.13577530590189063,0.30590506571704873,0.9379188815205516,-0.45434890586239407,-0.2309300352582661,-0.3870042948305723
120.0,7.663897752761841,0.306573788225152,-0.12721107416178723,1.0312200038365509,-0.0008524666305420456,0.014697169530137557,1.0062143114252087,-0.42655099594896195,-0.07094685883098732,0.2674944598448668,0.7865034138140197,-0.4970627988961779,0.13680602364616343,-0.15409691900408243,-0.053161585131236276,-0.14556802866778099,1.0961700662153524,0.2524792263279365,-0.1883749161703102,0.08369873205452724,-0.03857518200444857,-0.10306204714082388,-0.20616793013738854,0.04581783680266878,-0.06968173876448197,0.9484327797764737,0.20218478019564384,0.7561221438966086,0.28414384933071857,0.06951631207551794,-0.1384275748960941,0.30871210995455867,0.9350061007424464,-0.4549115063170468,-0.23001372141816726,-0.3808042524387867
122.0,7.715143203735352,0.3098715236459849,-0.11705492322135733,1.032075415434955,-0.0005720567675048978,0.012897877749049843,0.9991567718385077,-0.41263211698042257,-0.07416483729448944,0.26482747007484364,0.7838283525716279,-0.5071020474363435,0.13595810136991637,-0.18830616408367362,-0.04868401129401842,-0.1363076702717877,1.1298421546653747,0.20185076618267056,-0.18566625031624523,0.07761730717663437,-0.033676307910215975,-0.1003601646960228,-0.2206912808272113,0.05202505089011736,-0.07045954783791107,0.9448000159142323,0.20465785021993993,0.7498179646520404,0.2832495425725403,0.06339055856278293,-0.14010811882488927,0.3087113914084707,0.9309793344586237,-0.45500332409061484,-0.22928058741818866,-0.381958333155951
123.0,7.772406339645386,0.31298490403177215,-0.10705354886775062,1.0327037143142128,0.00041801212707308805,0.010460872254788447,0.9940795935561242,-0.3985914063513478,-0.07724530638518558,0.2626326119161171,0.7818075389636452,-0.5147428596846562,0.13495981167932736,-0.22184661040239445,-0.04252267425598859,-0.12784193967866359,1.1572081269355643,0.14490397569547195,-0.18151779699716136,0.06999876632679317,-0.02866258396519665,-0.09629334357873848,-0.23530570182761418,0.05869978298076185,-0.07240987929138945,0.9419623012402258,0.2081144438308119,0.7436834046684331,0.2819093436527973,0.05728319825739792,-0.14132285773715153,0.3062095451529303,0.9256852693713111,-0.45475410757602813,-0.22992696694475323,-0.39050396998849357
125.0,7.827780485153198,0.3153647278792704,-0.09919662709080734,1.033036610093267,0.0020444521735581396,0.008794521108648945,0.9910964096181172,-0.3872612147852992,-0.08041559207953064,0.2613039326705115,0.7801553409390263,-0.5196931067976736,0.13411479620847888,-0.2488036963390362,-0.036637437437530646,-0.12026771457203869,1.1767511429802147,0.09512747010364032,-0.17697786968166057,0.06318176065397774,-0.025422096725179345,-0.09195650423030484,-0.24680599421278088,0.06425423251262885,-0.07466521189694526,0.9402822547791346,0.21135874691223627,0.7385394626101298,0.2801394379296934,0.053255144382419864,-0.14220014433558467,0.3031195991732211,0.9201808058111302,-0.45444739691174074,-0.23138483999897835,-0.4014271246416473
127.0,7.887558460235596,0.3178460286872147,-0.09097992413230191,1.0332689939716575,0.003975348686982865,0.0070535231085356205,0.9899286370300244,-0.37567405357009265,-0.08457811090554473,0.2589607357638962,0.7783151403202853,-0.5240836717811341,0.13323805247717527,-0.2760539045913789,-0.02830633137033406,-0.11193032090716318,1.1896049325828097,0.042342436958526936,-0.17099968040900604,0.054780089904648305,-0.022465481869318325,-0.08680391809824799,-0.25773396564687634,0.06947466918816608,-0.0778591684169303,0.9382635277987718,0.2150629462825861,0.7320438940163303,0.2778062311407856,0.050798687553399426,-0.14362890682296922,0.2981697487036401,0.9133845343646363,-0.45399657828665774,-0.23452280227883066,-0.4174383937228153
128.0,7.934219121932983,0.320503704326332,-0.08219582910599772,1.0333470969587144,0.004977011378114531,0.0051583238732745,0.9903451049855461,-0.364432682019065,-0.08969956886144367,0.2545533960100553,0.7764391543972887,-0.5289111456497552,0.13238818305645014,-0.3037165625104683,-0.017980252072326786,-0.10375182860629871,1.1948182432491254,-0.009114497641297094,-0.16414277789502635,0.04561861369051428,-0.019449003406344555,-0.08274516876852765,-0.2692188288923337,0.07424840624062484,-0.08156744958330858,0.9355087550355485,0.2190524808905089,0.7244059109325109,0.2753521974631771,0.048166902349429074,-0.1449285407579413,0.2910482329816618,0.9066322634625236,-0.4529945326622553,-0.2344979433640333,-0.4363133366780925
129.0,7.977553606033325,0.3227510473331839,-0.07479424032346882,1.0332955103504786,0.0052746609612156665,0.003836404706354591,0.9915711330067323,-0.3556329044698384,-0.09461490960185123,0.24998833413104557,0.7749098606594249,-0.5329976708299801,0.13175203247695674,-0.32646358884464544,-0.00890364690370915,-0.0970133514415123,1.1956471007901641,-0.04940911046932744,-0.15799800783560333,0.0380002330153292,-0.016958688019595863,-0.08021222387545773,-0.27914610666281076,0.07820433825530679,-0.0847642175580779,0.9332831295112138,0.22253209464516666,0.7178069768087104,0.27314416537025316,0.04602059977769361,-0.14521528800088176,0.2839735289963799,0.9008524524840965,-0.4515583851847177,-0.23232310898485556,-0.4533172464039035
131.0,8.031630754470825,0.32474400847524787,-0.06830240460815418,1.0331514859806614,0.005068179294323175,0.002844075016402427,0.9933071874228901,-0.34856273163170215,-0.09897410609408483,0.24576825917223896,0.7739980980424327,-0.536386128976077,0.13130200683764257,-0.34583883428220225,-0.0008539021075319913,-0.09139589384615301,1.1934695522257042,-0.08085768967204723,-0.15256854237935258,0.03133680546032203,-0.014452770397509699,-0.07878649424514232,-0.2881103764667123,0.08189045956772066,-0.0874999856736238,0.9317196056979113,0.2257375439908085,0.7123718775129465,0.2712801113271357,0.04438543571129193,-0.1443298208306528,0.2768506881250633,0.8955466617584767,-0.4494222433918413,-0.22993789834648465,-0.4690190823235981
133.0,8.092684030532837,0.3271340837250755,-0.06078203620411712,1.0327821494342928,0.004442952700216551,0.0018993319107082462,0.9962724435588093,-0.3414737311148738,-0.10282050716752503,0.2424015056826273,0.7744004470863878,-0.5394754703713006,0.13113479413510684,-0.3674132586013782,0.00881851964169726,-0.08495142610913663,1.1855821651785987,-0.11015944032806019,-0.14668079586292582,0.023316173353359535,-0.010587006763199132,-0.07805284583492215,-0.29868858969175616,0.08704005257840565,-0.09075086765254745,0.9308471825984729,0.22994399641979002,0.7079106580227192,0.2695282876073104,0.043706156913804015,-0.14141803852010332,0.26794638622990874,0.8888205151745453,-0.4450880281287326,-0.2322056917714791,-0.48695064469093374
135.0,8.143694400787354,0.32993281712913036,-0.05230007245048253,1.032198265611183,0.003470460088977162,0.001284152344759213,1.0003005601781896,-0.3342870230160536,-0.10603786805123414,0.2403391042383431,0.7755264353699973,-0.5419853409652933,0.1311644492228359,-0.3915541259884912,0.02138398426076693,-0.07591447996882951,1.172246418244352,-0.13883404420389425,-0.13971836575382177,0.014425556778645272,-0.005786575922547592,-0.0778582141271055,-0.3110967357334564,0.09344415926514828,-0.09503009458127182,0.9309479600504579,0.23524047621205807,0.7049299530392608,0.26696321492555153,0.04376987797973166,-0.13755497262898664,0.25893250462955625,0.8812457938429823,-0.43975533191550886,-0.23874691499326503,-0.5041320253158845
136.0,8.209670305252075,0.33314709618623306,-0.04281511686102217,1.0314475439037794,0.0022054387793810845,0.0010266619104903744,1.0046519496845925,-0.3264496864036652,-0.10985956078514267,0.23784243495820928,0.7766220318659411,-0.5444964071481778,0.1308376753915225,-0.41814244962410635,0.03634687849271784,-0.06419917082012896,1.1534801448337815,-0.16460085135652705,-0.13202790752499535,0.005501886659833244,-0.000912476529402859,-0.07826593628029893,-0.3252732159068753,0.10027809432858843,-0.09974618669424062,0.9311156150165059,0.24084205534560899,0.702523372518874,0.2634501614842166,0.04316283199390758,-0.13371604961030478,0.25008688965699916,0.8739677952207596,-0.43441539730875633,-0.24508176273875837,-0.5194212717774069
138.0,8.26158595085144,0.3358995363428855,-0.034835324064687374,1.0307706221792738,0.0009788784363636836,0.0011271993695838307,1.0080437123750887,-0.3199636448413009,-0.11364193921742133,0.235016420446092,0.7772165575780416,-0.5468070398062578,0.13027783949697075,-0.4404294212583083,0.049359569922725825,-0.05333515744307608,1.1357210745200963,-0.18267905480557406,-0.12564085282534546,-0.0010508343464926814,0.002735600290514341,-0.07901770980184891,-0.33760972321729954,0.10563752685436138,-0.1035927684574035,0.9314337172801964,0.2454936056091141,0.7002566171635874,0.2605730158126438,0.042283289968288985,-0.1309187486326604,0.24314165090976592,0.8683212933357418,-0.4305760857819484,-0.24982297677550422,-0.5308687969692835
139.0,8.30451512336731,0.3388978219699784,-0.02632572379123413,1.0300411818393733,-0.00028475243927940657,0.0014707406858338267,1.0108726441662856,-0.3127448261614527,-0.118923323076909,0.23010620590024877,0.7771274158723923,-0.5504100089503281,0.12924610214210877,-0.463025311737881,0.0627360270382416,-0.04109827516619274,1.1134943729910098,-0.19433629967392468,-0.12026977296413777,-0.00612774080691685,0.006322878117711149,-0.0805975752465322,-0.3510765371321155,0.11066269839533502,-0.10684950219437975,0.93112645150041,0.2500490434623536,0.6974545364378726,0.2590323213261678,0.039726405802030185,-0.12873342786921607,0.2375175726994774,0.8633304568871181,-0.4281912646218974,-0.25355110686488647,-0.5404537173187844
140.0,8.34458327293396,0.34138103059882774,-0.019312261347966358,1.0295125659887292,-0.00158846253788648,0.0018817756433749731,1.0128528535182904,-0.3067558901565622,-0.1237674159071154,0.2250899043968819,0.7763964060649378,-0.5539501061218368,0.12822047916624302,-0.4810451023928529,0.07383324536919447,-0.030441016756687034,1.093170349660538,-0.20037035763367997,-0.11646828138887826,-0.009188770759599438,0.009631650899973304,-0.08232842642640158,-0.3626517004530791,0.11450219977462589,-0.10883922047932873,0.9310318564785768,0.25352101733867893,0.6947195817959947,0.2585428492251062,0.03691397969396936,-0.1272220336045362,0.23382747843715215,0.8596727923807352,-0.4272932893875633,-0.2568170790325611,-0.5474359606725862
142.0,8.381232261657715,0.3435079017890544,-0.013310806733345242,1.0291772974968616,-0.002871859366043826,0.002275612853948475,1.0144691344329204,-0.3014333031559927,-0.12788444707007682,0.22066232403241953,0.7750931319593448,-0.5570703909623627,0.12727307761222698,-0.4957673950879473,0.08338932538487223,-0.020905056638592854,1.074025061615528,-0.20308639482734486,-0.1137848707067293,-0.01114058190144153,0.01291072725110744,-0.08388948275844477,-0.37271437203344615,0.11767783648323071,-0.10972634603787716,0.9311297627032411,0.25605950150977347,0.6922022278028335,0.2586808615893893,0.034231712163329604,-0.12609573705113886,0.2317093673325441,0.856957455634475,-0.4274243849879058,-0.2604117248186788,-0.5524901658178017
144.0,8.448988199234009,0.34617208092382623,-0.005826152936691015,1.0290048419228348,-0.003974312351015938,0.0026907525742201374,1.017100829651106,-0.2935321204185299,-0.13207322425747742,0.2169640653653763,0.7722853104613485,-0.5597503964882143,0.12609618188502625,-0.5123338221480626,0.09469518919825362,-0.008781131076518763,1.0481743664060545,-0.20407620561422435,-0.11156623876779638,-0.013438746815231387,0.01677971152378048,-0.08469470242495522,-0.38372781935708355,0.12169256389190887,-0.10942976413550762,0.9301901181150543,0.25801270586726077,0.6895035852833361,0.2591484422210203,0.031425561876301425,-0.12474994799736192,0.23104730873350063,0.8544630090359115,-0.42843874335994914,-0.26473604169825743,-0.5563420738464446
146.0,8.506004333496094,0.349229036380469,0.002664370461213353,1.0291108101485182,-0.004775789433043726,0.0029029979929771628,1.020543921177423,-0.283061440595556,-0.1357608478437918,0.2143563720830428,0.7672732541703893,-0.5614656746059112,0.124905873917705,-0.5289254896793386,0.10652609405100923,0.004535939655194986,1.016648356873445,-0.20317496839800345,-0.11047138119818073,-0.015283322698805555,0.02035238432029036,-0.08417937747497266,-0.39419611286874146,0.12538181394435213,-0.10816750078226467,0.9277891761312765,0.25931624747350174,0.6864037174764128,0.2604292402530548,0.02893565601497762,-0.12325864083343857,0.2309917328247312,0.852800927100704,-0.42957954315855096,-0.26735386873962647,-0.5585208144004893
148.0,8.573755025863647,0.352703048779309,0.01216742614320622,1.029402584717518,-0.005121074018978804,0.00294929143697085,1.0245806965302797,-0.269889387344188,-0.13947161211850612,0.21214976950699493,0.7597165990871886,-0.5622498866730545,0.1235393343477467,-0.5454942493165509,0.1177502575749191,0.01772812187637138,0.9795623922729618,-0.20088646988652176,-0.11080867517073356,-0.016488239511646578,0.022875709285739423,-0.08237569831272776,-0.40395859668686807,0.12758801757844304,-0.10640555626641587,0.9235479640356354,0.26018350468085016,0.682724560611415,0.2630613989606305,0.02694796160687287,-0.12259396823833216,0.23097455216892576,0.8513653080623913,-0.43050808986967226,-0.26835978333451116,-0.5587191152265545
150.0,8.648561954498291,0.3563526038697763,0.022184888415015334,1.0298322393911383,-0.0048582030297288584,0.0031296252246549986,1.0292606301500709,-0.2548083844706567,-0.14334224042106417,0.2105546399109963,0.7500647690596014,-0.5615280448482498,0.12179382738848533,-0.5612572966608863,0.12666033680929573,0.02914957017188199,0.9393513903589299,-0.19836974139510483,-0.1125709696017077,-0.017199638306481774,0.024442802790689513,-0.07975058096217319,-0.41215748673740477,0.12818279222552614,-0.10465761264948698,0.918002662401165,0.2605089623810517,0.6783438866933259,0.2656295031922885,0.025988368072860916,-0.12312495505627764,0.23176889275565798,0.8499325942838015,-0.4318252497558476,-0.2695321726896498,-0.5568945822486548
151.0,8.715282440185547,0.35998570807208785,0.032191451212980816,1.0304049918277296,-0.004299468376917327,0.0036369512110046116,1.034737204551547,-0.23906485720586124,-0.14766162515279302,0.20854482749327785,0.7390422008578792,-0.5596015769338616,0.1198312445533585,-0.5757690277830096,0.13258875044421875,0.03779433216968726,0.8984939894474286,-0.1967107322958383,-0.1153666217346758,-0.017779947537874378,0.0252459135043733,-0.07699111337849479,-0.41856342925456835,0.12698731857002485,-0.10303921836739768,0.9120627388147811,0.26020090901394116,0.6742850016184279,0.26759835912999425,0.02615303889068227,-0.12483963321161878,0.23322830665811406,0.848533042795325,-0.43357520709642683,-0.2713419063097478,-0.5538504012797477
153.0,8.76020336151123,0.3629057242769276,0.04020211854219399,1.0309888614790732,-0.003986148977949578,0.004233674591064581,1.0395364712150128,-0.22607663820844087,-0.1515680898405764,0.20596711030078618,0.7287214903604613,-0.557362616225194,0.11818697469825351,-0.5863731760241693,0.13619537454126324,0.04359658168723229,0.864543168568374,-0.1957602534579586,-0.1178910081031975,-0.018279597222685788,0.025748212667505092,-0.07477265787336601,-0.4230357321857267,0.12499666421806732,-0.10152055581192353,0.9072291392970435,0.25964235101996647,0.6713110295368422,0.26930309260098473,0.026628702102772364,-0.12699262887078977,0.23449652764077414,0.8474204994202645,-0.435219266607458,-0.2735977102497172,-0.5510743432152713
155.0,8.810114622116089,0.3660938854178366,0.04880325388776052,1.0315369877796323,-0.003853165277841958,0.005319644298230196,1.0455114505147913,-0.21323841126288864,-0.15668465157755196,0.20105424271528965,0.7182975440086348,-0.5555706979719944,0.11658990007446901,-0.5973649874419781,0.13921390724479699,0.049039383324393906,0.8306384535381425,-0.19866157087167513,-0.1202720889772622,-0.019332798566439196,0.026414996201422628,-0.07336065491837591,-0.42791387782623674,0.12259689560970831,-0.09970971123610944,0.9024669330693706,0.2587964786935273,0.6686775400161298,0.2711185366275437,0.026462783586215684,-0.12945395832339898,0.23583781613426363,0.8463917959491714,-0.43680757600373515,-0.2768432701572156,-0.5480128456882373
156.0,8.879889726638794,0.3695558389303466,0.058039519862869926,1.0319338802006983,-0.0038511062751452017,0.006746712784085805,1.0526759340891045,-0.20044054473613593,-0.16255821369566498,0.19469246212424768,0.7081493767916993,-0.5537286786637088,0.11491511026410005,-0.6085267354279802,0.1432867475935149,0.05634867593690532,0.798110371055949,-0.20726184078610901,-0.122121520757654,-0.020899781827296612,0.027691520120693536,-0.07261997919976265,-0.43259241486608424,0.12020076651469142,-0.09814979538316264,0.8977278899908826,0.2580288303492264,0.6649939944663753,0.2727757319267564,0.025591621508437468,-0.13162182832882396,0.23703454441808128,0.8457354058789018,-0.43815316021147876,-0.2810877098105091,-0.5454159982200039
157.0,8.918141603469849,0.3724803600291331,0.06577871650191906,1.0322216477812114,-0.0038922530303711483,0.00798217552534173,1.0592174339367395,-0.18952649821450168,-0.16760202670336377,0.18893937675341108,0.6991108492405335,-0.5514224988955541,0.1134628394290628,-0.6169853707149109,0.14755604495554328,0.0640548949745135,0.7720391097226509,-0.21734599482630385,-0.12329506385941329,-0.022443917918653675,0.028841144438015602,-0.0718947092082769,-0.43556932010634786,0.11763560800011388,-0.09718284192884513,0.8938970256589398,0.2575411869349482,0.6613433695873991,0.27422255535289003,0.025216514579609828,-0.13366819967572058,0.23777242424207057,0.8455711747564044,-0.4391592045458774,-0.2854295965605719,-0.5436356757970624
158.0,8.943079948425293,0.3750425510117709,0.07249989837651596,1.0324261945832947,-0.0037593179574284714,0.008951518173890402,1.0653801797423823,-0.17957024543397884,-0.17193002514207262,0.18385659619413247,0.6908933415212055,-0.548649005860658,0.11212416904612268,-0.6235223514596187,0.15214087683899935,0.07239495742539556,0.7508266435574302,-0.22861174812224166,-0.12406173989349453,-0.023900893926329447,0.02961106396441226,-0.07077392592823771,-0.43708370648487543,0.11454387462793925,-0.09685011373277505,0.890721721901836,0.2573129237552342,0.6580344124773232,0.27553987498452054,0.0257580821794089,-0.1359147502647069,0.2381284513743268,0.8456845714275634,-0.43988851562438736,-0.2897620903447071,-0.5422856956661846
159.0,8.97959041595459,0.3772434086519784,0.07820768720795052,1.0325610636235036,-0.003398568645759659,0.009532414670837788,1.071001820661496,-0.17046536504430923,-0.17544868736065874,0.1794520529336725,0.6835135089840823,-0.5455574253407166,0.11093220870402212,-0.6280528035981878,0.15700858394033312,0.08120337079020276,0.7343741295902846,-0.24047747692481736,-0.12451098189999485,-0.025185922816911857,0.02998114833695381,-0.06907274194622176,-0.4372918820626631,0.11091454095302614,-0.09708773085437984,0.8881869095531139,0.25738213568672114,0.6554141627211636,0.27693842044415934,0.027240598494563322,-0.1383165885048127,0.23800936978844703,0.8459759240289736,-0.44028414130137444,-0.29361196574027915,-0.541296475369199
161.0,9.028903007507324,0.37927988659305323,0.0834329170021004,1.0326247247598,-0.0028202833870152873,0.009763422624228442,1.0763200146130862,-0.1617138502319149,-0.1784426418666515,0.17533776541697235,0.676784366318752,-0.5424888664401162,0.10988714691793522,-0.6313312097430968,0.16218377664866804,0.09044181771668672,0.7210463947283732,-0.25294077854680375,-0.12479328536155859,-0.026374840742380855,0.03015714060789735,-0.06688357048333718,-0.4367561095758066,0.10693891109791273,-0.09764457018041131,0.8860165429347107,0.2577139484661236,0.653585989399208,0.2786684134434936,0.029339629368864424,-0.14061439576891513,0.23742758393753838,0.8463291595136164,-0.44036672096792884,-0.2964439855069061,-0.540642340008494
162.0,9.08083462715149,0.38219923301492026,0.09079742560106999,1.032497231259097,-0.0018746720446400304,0.009725561412722208,1.083721223372915,-0.15020449870833064,-0.18202305940633667,0.1696900497082578,0.6698653984118419,-0.539820366639082,0.1087499269564866,-0.6353924520919543,0.16999726727369918,0.10379223261371813,0.7062141173914347,-0.27189345257064595,-0.12500677344603983,-0.027979762104957628,0.030856855514964567,-0.06380480972829372,-0.43508449439717933,0.10184768397985161,-0.09863381175629024,0.8828986141019551,0.2586237302091536,0.6508908369176749,0.2823976895749848,0.03226628336346171,-0.14261400937234092,0.2362452491842877,0.8468341355732538,-0.440027976725501,-0.2973148018419206,-0.5403158571977636
165.0,9.127013921737671,0.38494571280903134,0.09771314386783306,1.0323559076207793,-0.0008663925150039429,0.009768655040018316,1.0905067359758056,-0.1392800354533041,-0.18550138065973465,0.16429790038365333,0.6635023803232867,-0.5377430108159267,0.10793797516940118,-0.6384668854554212,0.1770148553902737,0.11612722150085067,0.6938949691996232,-0.2901131123294934,-0.12507439887381727,-0.029266371218735324,0.031578906026526174,-0.06095292661150097,-0.43266986318554507,0.09744271730692733,-0.0995300477150458,0.8796519487826486,0.2597956875384774,0.6476605071780384,0.2866771518155285,0.03479948111496619,-0.14391191772859294,0.23522734045673327,0.8476110353809498,-0.43968991450635486,-0.29631918125036005,-0.539548378433095
167.0,9.211081743240356,0.3894052207509059,0.10857281423608875,1.0319180422687624,0.0006125907284010513,0.010422006805241265,1.0996280857017877,-0.12337007398282596,-0.190295184741809,0.15747927030594494,0.6563772093333884,-0.5364094401142355,0.10726871963797635,-0.6425556561845378,0.1808395519431989,0.12232280409708246,0.6798525197125435,-0.30743530266418356,-0.12450469899066982,-0.029397070765681137,0.03214023780315956,-0.057494527897572346,-0.42900470852778594,0.0908884776676408,-0.10099555271220559,0.8779805984323463,0.26036599255041726,0.6490153054348192,0.2891336316034707,0.037630834281452016,-0.14532552104435076,0.23465613702856175,0.850205202772637,-0.43899412760941925,-0.28875373468691895,-0.5341877620556608
168.0,9.27082633972168,0.3943415619650026,0.12027810931387338,1.0311193145776982,0.0021677201931292064,0.011483294734965718,1.1089337676301152,-0.10674448251621375,-0.1950414914770729,0.15128366350376254,0.649838024475897,-0.5346504838309277,0.10681477862966901,-0.6455059660211325,0.18191309358837016,0.124270822855092,0.6692994084986061,-0.31916260172876365,-0.12378664247402471,-0.02872194190666842,0.033041456289900656,-0.054544805037908234,-0.42530746934205255,0.08332019624157039,-0.10163209892994567,0.8784136604721424,0.25924249719441467,0.6548114683002799,0.28884071691515334,0.03997473631460276,-0.14662022303853514,0.23396644568954866,0.8530770429170074,-0.43774956182554803,-0.27975747322274663,-0.527474271307737
169.0,9.312505006790161,0.3984756140381226,0.12998986199684318,1.0302387350860602,0.003605216789182624,0.012534856207579693,1.1165372993663978,-0.09280454746996056,-0.19909012556350097,0.14642384466213856,0.6446575017871206,-0.5325163756809076,0.10661039838114575,-0.6468701496055593,0.18130769686290588,0.12385595745221287,0.6636003592755726,-0.3246470428656577,-0.12317688748041963,-0.027935434843871586,0.03438560270051318,-0.05276629729164743,-0.4217652665730548,0.0771967750260607,-0.10172440196201867,0.8792011234973023,0.2578255396728549,0.6598917119041157,0.28798447627905116,0.04158190127642397,-0.14721459881452956,0.23337752268164774,0.8553916023387536,-0.436308562899435,-0.2720481184915997,-0.5213811958608152
171.0,9.361001968383789,0.40198333551960563,0.13817531345184292,1.029288452070783,0.0047897878387281045,0.013426508250161784,1.1229766151055462,-0.0811716467275871,-0.2025243994306053,0.14232788504514737,0.6408978962574567,-0.5301751331533706,0.10650980624434933,-0.6472015715039958,0.18028184672045422,0.12279805456653464,0.6613042136467575,-0.3258631140900581,-0.12271749130338713,-0.02735711198672074,0.0364884212498294,-0.05208908729202232,-0.41803570524152545,0.07259672575272519,-0.10169958836884395,0.8800637565852197,0.25660343634157035,0.6632449431675687,0.2871584814597542,0.042826979635093465,-0.1470214478175325,0.2328585487872351,0.8573538829984769,-0.43472706817615314,-0.2655700797094148,-0.5162833210980514
172.0,9.418717622756958,0.40593462635018523,0.1471837408588676,1.0279800778577926,0.005563979773961911,0.014236843004523428,1.1299639214124628,-0.06967119962863606,-0.20577561137454367,0.1377103423206198,0.6393884776669695,-0.527779680403572,0.10643069518668791,-0.6461476584689836,0.17913458141994787,0.12092810327894093,0.6621936736796181,-0.32172428896000727,-0.1225782401531626,-0.0269793751631425,0.04047752838296875,-0.05269443697726987,-0.41173683610379197,0.06890332952203755,-0.10218381370437454,0.8819321796605952,0.2557779439655162,0.6652196509541687,0.2862658302353479,0.04480016910634547,-0.14600137018342052,0.2325147562840874,0.8596926187883038,-0.4331130083848439,-0.26000282322268353,-0.5123983640762447
173.0,9.449448823928833,0.40947171494968143,0.155107147949463,1.0268147149392168,0.00633260542452152,0.0148649895963699,1.1362993495981266,-0.05978325254884173,-0.20840601530014183,0.13344823106819131,0.6390210304865656,-0.5257973955812983,0.10637463156508395,-0.6442180077444528,0.17799637479091834,0.11900897300047557,0.6641002954101503,-0.3158021123027468,-0.12268674851698083,-0.027126828101271608,0.044020588133898704,-0.05323628137677689,-0.4047890432865841,0.0659829465919455,-0.10293285118153958,0.8840893848495359,0.25535368756874277,0.6666291649843799,0.28560990378755263,0.04734960370246724,-0.14529608850112402,0.23244637453115435,0.86143365214771,-0.43204333733709793,-0.2563955590458805,-0.5100123510055007
174.0,9.478826761245728,0.41286911298015994,0.1625338997607477,1.0257669988148785,0.007332181894668888,0.015511660015685186,1.142438734477199,-0.05067729104723406,-0.21061751965379422,0.1295578133223857,0.6394429767460472,-0.523920975895117,0.10627146383553739,-0.6414381094128111,0.17684119344329713,0.11734051970509123,0.6666014920101058,-0.30832810423013735,-0.12306767064662849,-0.02762657255791135,0.04658854824672509,-0.05339488111242224,-0.39727862158408506,0.06304723577615942,-0.1037902690743587,0.8867157471954185,0.2549590100907464,0.6685855622773074,0.2849464026594646,0.050613004201161674,-0.14507076667174534,0.2324439202344975,0.862756944114397,-0.431216447417029,-0.25412675986303784,-0.5084139323802335
175.0,9.527638673782349,0.4179646238955858,0.1733828034323876,1.0243871815911496,0.009786301063923518,0.016714742991314487,1.1520002942304015,-0.03688399550695719,-0.21380961843289947,0.12382974563586084,0.6403646791426159,-0.5202117259240875,0.1060117762894884,-0.6352534701978876,0.17466195570848633,0.11552231942139526,0.6716624847114305,-0.2933881779077689,-0.12425642995370619,-0.029200581096104607,0.048363560657051274,-0.052789544322509395,-0.3847141782845934,0.058049027838685666,-0.1051562699542056,0.8913516199128737,0.25426610954003726,0.6731499894804666,0.28401273290105067,0.056903081672249625,-0.14540109269602475,0.23227152455549033,0.8640216491997512,-0.4300357708529672,-0.25154090051736755,-0.5069199037474982
176.0,9.548873901367188,0.42017332089980797,0.178000346931183,1.023896652146084,0.011054652003294965,0.017484397723497008,1.156102883823112,-0.031002052856664318,-0.2151446283168883,0.12160724089430897,0.6406954277857106,-0.5179843315094974,0.1058405305978088,-0.6321824895392737,0.17325112693812494,0.11459453785861706,0.6745083952770972,-0.28499372449723537,-0.12504423945663878,-0.029974249048722416,0.048246417668484504,-0.052465542516959465,-0.3791085649078193,0.055763144472934414,-0.10575301167405536,0.8936889338092944,0.25393849838358684,0.6761021532512694,0.28362129611364817,0.05978203168128285,-0.14547891712297517,0.231992196872517,0.8645680197991401,-0.4293766678024781,-0.24965141607149316,-0.5063082282447287
177.0,9.571120262145996,0.4227400350020048,0.18335060689406904,1.0234368727736753,0.01224925977874108,0.01855691731511336,1.1606169040020045,-0.024544717022942822,-0.2164495749152654,0.11939735017864572,0.6410725807944502,-0.515028915439272,0.1056354432405743,-0.6291097639585631,0.17070238647713853,0.11204321135849135,0.6782678545164809,-0.27384623127545615,-0.12612806759010647,-0.030721608785557228,0.04786897418077131,-0.05245553850756826,-0.3728315102741475,0.053222250154934675,-0.10635999895938422,0.8967749468478539,0.25350771180823733,0.680232180746638,0.2831630234042468,0.06273718225016553,-0.14537232556580615,0.23146367508701018,0.8653224476823008,-0.42848124721238934,-0.24681612035294676,-0.5056120781652014
178.0,9.624471426010132,0.42757903641671,0.19348617991169936,1.0227982608618282,0.01383341874132032,0.020568252861860266,1.1689494165817031,-0.012767429458609616,-0.21826081570907852,0.11542530318843222,0.6416825759015418,-0.5088073575719912,0.10537734836966817,-0.6247280780030374,0.16294934684873552,0.1019707710926758,0.6859617671322522,-0.2499487056942715,-0.12850710322247483,-0.03215024778749509,0.047458722280490244,-0.05326761591663026,-0.36130735786727874,0.048494165623662176,-0.10719614527575472,0.9030836118121016,0.25246869640089076,0.6886188665745414,0.28261980962892486,0.06754155624431128,-0.14518282795599396,0.23008088126579002,0.8664247794718569,-0.42658589348712483,-0.24203037997588567,-0.5049001245750836
179.0,9.651250839233398,0.4298270548450026,0.19824861230924987,1.0226413969801573,0.014007239831947467,0.02119496402033746,1.1727322256835122,-0.007711637613541396,-0.21847188701883807,0.11344316449497285,0.6423074388991705,-0.5058387863057674,0.10539434058572301,-0.6236102742739433,0.15793467066076192,0.09432037752073258,0.6897020924430473,-0.2381172500850498,-0.12980695584895596,-0.03273879630635755,0.04788155449153152,-0.0541315973958911,-0.35593509255130296,0.046092693730259454,-0.10740364800542823,0.9062169605726835,0.25187672012904605,0.6921451197769151,0.28293784009138995,0.0693836059067684,-0.1453446983259352,0.22916765789898053,0.866791525343886,-0.4254731477812289,-0.24090923336340442,-0.5047579679245632
180.0,9.674627304077148,0.4323686878343316,0.20369827956725217,1.0225595719835219,0.013565136834434725,0.02134403243741357,1.1768549700889404,-0.00271775592891925,-0.21800512055959365,0.1107534732625686,0.6438379405182144,-0.5027703176462783,0.10556555117181207,-0.6230294747518897,0.15166772921262978,0.08365655736988323,0.693884193591698,-0.22492827710653546,-0.13138610679765925,-0.033108694515815475,0.04919970532896935,-0.055484438531512754,-0.3495929745455457,0.042924205080780056,-0.10756289601432092,0.9099545871390677,0.2512204945415397,0.6953037405895459,0.2841910938194049,0.07128070350095371,-0.14586338505423418,0.22782796370079159,0.8674022206772654,-0.42382003256678585,-0.2405956299348856,-0.5041975988799051
181.0,9.722784996032715,0.4370857110999379,0.21396011253233863,1.022504256285735,0.011620683583606739,0.020218035958719748,1.1847095163223835,0.005046580782974581,-0.2159089713367096,0.104029987871559,0.6485921798273016,-0.4978135721681787,0.10620857086678459,-0.6222919171270473,0.13936219013799778,0.06059821569607618,0.7010938543838903,-0.20048465282144903,-0.13450597308403733,-0.0336445157239892,0.053525115417527296,-0.058526770632705415,-0.33711996830255775,0.03579887575158661,-0.10765506253861526,0.9177500559625129,0.24988712307719263,0.7006179403851607,0.28842320554941664,0.07503140209961177,-0.14747112844258703,0.22476765433399973,0.869325676804208,-0.41988461521122067,-0.24058821634225921,-0.5016823707725134
182.0,9.747128009796143,0.43927057029330374,0.21878207564557808,1.022475250124932,0.010340304810787054,0.019082067793501148,1.1882488838629575,0.00795272767173212,-0.21442854940748726,0.10035427402570052,0.6517305003365954,-0.49607282240338063,0.10668597437289841,-0.6217545511141092,0.13368825959576758,0.04904032851254679,0.7043060360670867,-0.18908978108337665,-0.13597718579840953,-0.03369483163168391,0.05636604976043878,-0.05993281136077541,-0.3310344191777508,0.031932637148116755,-0.10729220254351085,0.9220210178135622,0.24895098542241367,0.7037549999043999,0.29105705303798424,0.07704477082858811,-0.14841907248181446,0.22318424112963206,0.8706177032399562,-0.4177784091687289,-0.24038255708986322,-0.49982785553800835
183.0,9.792223930358887,0.4433255251472887,0.22780798583214032,1.022333436953872,0.007814245506169475,0.01634707141851909,1.1945325475574355,0.012656004624051052,-0.21097711824297727,0.09368558573967076,0.6591365025177207,-0.4939700073240027,0.10782295425076707,-0.6200165231374417,0.12391326292330124,0.02789880953522314,0.7105955629238301,-0.1673761885316662,-0.1387509579115331,-0.0335909811877861,0.06256310234928622,-0.062221465854671434,-0.31957532236046804,0.02430299451407709,-0.1053552497300921,0.9311457834825083,0.24606713927104717,0.7117538190431074,0.2961258629333599,0.08117541022033041,-0.15025628482443348,0.22021296325013734,0.8733074697052525,-0.41382406961961277,-0.23950877255737912,-0.49591937291860566
184.0,9.821478605270386,0.4455185148332632,0.2326909547370922,1.0221949752668487,0.006720050431577746,0.015041142804422172,1.1975179729033527,0.015252091891962234,-0.20912521487123034,0.09085927608028153,0.663558819436125,-0.4930022459409973,0.10843805126003599,-0.6187913076429342,0.11961896635242134,0.018347968488928397,0.7146347696790236,-0.15591156942810483,-0.14019354815845356,-0.03326416173505061,0.06576451386122714,-0.06309489857693107,-0.31333329737088883,0.02042678557182564,-0.10360021769382988,0.9362174967073602,0.2438883256517801,0.7165362082540263,0.2984970170472322,0.08325658521256812,-0.15110284507117977,0.21870720093360604,0.874694822456646,-0.41188310962254115,-0.23886825565084868,-0.49403751366154147
185.0,9.853723526000977,0.4480355832613663,0.23828969761943275,1.0219849600090605,0.00590050311634681,0.013907066766131963,1.2005594747158235,0.018504029688639644,-0.2072099053119479,0.08848898042083703,0.6688263415591027,-0.49137604255398326,0.10904712257728108,-0.6171810089708067,0.11600285811997654,0.010141537831683516,0.72013601505459,-0.14340468211130902,-0.14171939920983762,-0.032643575620894046,0.06898261351748508,-0.06372699897708518,-0.305919521576897,0.0163243678101399,-0.10097476894784674,0.941855183995034,0.24096591227936076,0.7216704022290816,0.30115400201036013,0.08526477453402728,-0.15192726335396023,0.217066525046635,0.8761953397674453,-0.40983671070484795,-0.23791947424010898,-0.4920908125890737
186.0,9.894369125366211,0.45276188627562053,0.24880433634830118,1.0215605234922154,0.005050120451657062,0.011954734669606271,1.2059392857166462,0.024912940594594993,-0.20347976723176014,0.08526626065528528,0.679451452231898,-0.4866244999488837,0.10996699705275957,-0.6137599271533158,0.11194084536362571,-0.0005226059805139109,0.7316757777563105,-0.1210321629346307,-0.1442097785515151,-0.031402098384540375,0.07443665328121662,-0.06452784892064353,-0.29141319985191605,0.008816124182209359,-0.09540042057296552,0.9523275625646036,0.23514370063200188,0.7301918215604539,0.3074742532336968,0.08821727412602433,-0.15350796639861652,0.21394071671012366,0.8789174983236919,-0.40602812430191026,-0.23522191140978432,-0.48794008572664455
187.0,9.912953853607178,0.454973742979334,0.25370431957840756,1.0214133175371773,0.004875678550044396,0.011026086737834923,1.2083654104406159,0.02792314194489308,-0.20138010839780518,0.08447788510492155,0.6846215951328848,-0.48310727661380637,0.11028823096644313,-0.6119315007424246,0.11163604141881844,-0.003014541605669204,0.7373947808933012,-0.11130953393317317,-0.14499374912021135,-0.030820410350153444,0.07665263301382799,-0.06476040782466706,-0.284412099239513,0.00530054545813248,-0.09280015039459433,0.9573978970897458,0.23255178717258695,0.7341039846820936,0.311189596550114,0.08924673372629197,-0.15432057872698618,0.21242178415998553,0.8801793152134371,-0.40422369508535294,-0.23314793197838485,-0.4855851118142512
188.0,9.93985366821289,0.4575144920983764,0.25928742045395653,1.0213455871441754,0.00472422683866324,0.009979444331749472,1.2110553658573888,0.031280849322371435,-0.19853051248183792,0.08433201198915988,0.690389718282543,-0.47784780148561834,0.11060234421917639,-0.609643271819501,0.11249154100166527,-0.004029834974024475,0.7439136462819862,-0.10082996530154181,-0.14541976984506658,-0.030095738824381903,0.07884654195864083,-0.06496427703235644,-0.27639449251970993,0.001324426649074454,-0.0901608977309429,0.9635959618949136,0.229910484677118,0.7394643940464223,0.3152909936835492,0.09037391771852762,-0.1552812761289093,0.21073192634174082,0.8815789637846468,-0.4022471554949053,-0.2301702868862649,-0.48277719100950806
189.0,9.992310047149658,0.46230857338179954,0.2697469859625873,1.0213911188655596,0.004429983553879382,0.007720998159293495,1.2160300543479825,0.037197371183605756,-0.19218761233143125,0.08496905630872027,0.7015908869058654,-0.46621945659402897,0.11114058246835662,-0.6047556078877216,0.11604274116806468,-0.003597982442672146,0.7556776268082579,-0.08166535116496747,-0.14538738403173557,-0.028769948355943837,0.082835119819159,-0.06555428213163764,-0.26162563937514566,-0.006065158793650668,-0.08597911796347503,0.9763804896290145,0.2251648238965122,0.7517899179106864,0.32194444881000506,0.0927420592375686,-0.15735313838518122,0.20790151213227148,0.8837443843594796,-0.3988684542434184,-0.22443993242251667,-0.47719128355625995
190.0,10.018104553222656,0.46458413474701055,0.2746258159059447,1.0214981804485586,0.00428927754480142,0.006628812008572603,1.2184276287878806,0.0395799622957531,-0.18895122739101677,0.08531055055133241,0.7072787067291245,-0.45994635764939673,0.11132457394810893,-0.6020733396301818,0.1186813396833934,-0.002108287568369983,0.7608474269660159,-0.07343370738702568,-0.14496751059359447,-0.028196923010445723,0.08462123882551231,-0.06598059996831505,-0.25483703147831077,-0.009264680011882381,-0.08459546062639835,0.9826663060758856,0.22315663279260378,0.7581209317596118,0.32423908412628505,0.09389969411813424,-0.1585069432572726,0.20698080229490065,0.8844006572020444,-0.39764547078557233,-0.22248065162411035,-0.474501080257673
191.0,10.044243335723877,0.46723493359341617,0.2802002617649095,1.021679281335707,0.004199168420005547,0.00559420612389817,1.2213474723533277,0.041875680553127737,-0.1853179132287792,0.08556324702021108,0.7142474631362118,-0.45188167335153784,0.11142303504325522,-0.5986376322809025,0.12239473580891896,0.0008818698908997669,0.7665389710557873,-0.06555807838204523,-0.1442247162570512,-0.02758887175740577,0.08647833359257769,-0.06652321917117729,-0.24711575174145162,-0.012462783886954881,-0.08359009544666635,0.9895580695130014,0.22136205684445004,0.764903207157756,0.3263664776271625,0.0949581521793382,-0.15986578570911752,0.2064019642958574,0.8849484504956582,-0.396672168931236,-0.22117498580995382,-0.47152694467227585
192.0,10.075584173202515,0.47026465648174776,0.2864720556042949,1.021934381115694,0.004253685280371598,0.004651713486413661,1.2249193533414031,0.0440400684917991,-0.18110408064667027,0.08606759659357999,0.7226926430925024,-0.4416466332251793,0.11145184795324929,-0.5943013556698594,0.12716796588584048,0.0054428696482056995,0.7727435880800465,-0.058715589140707736,-0.14331211505525812,-0.027066981416211906,0.08842669458211441,-0.06705748071736603,-0.2385877971684573,-0.015651184612967196,-0.08294853906973516,0.9969390451361084,0.21993092187731625,0.7720680143966308,0.32885045184158324,0.09569631763482742,-0.16135217127978876,0.20614745044217234,0.8854975982975613,-0.39597726814420303,-0.22016755294926538,-0.46831612268404477
193.0,10.127272844314575,0.4756885207372402,0.2976214090159849,1.0224824456831803,0.00478855716039754,0.0029388548472291474,1.231995450038443,0.04713387771915695,-0.17233317474171786,0.08846537711501495,0.7394143630754804,-0.4207240597574541,0.11135199477294556,-0.5853683999145697,0.13698078706342415,0.015617549576676578,0.7832880508231532,-0.05038041541346844,-0.1410859483952463,-0.0267709323756046,0.09202287644410931,-0.0675670779489129,-0.22404240112864335,-0.020889866747665846,-0.0826053809253976,1.0098903775394363,0.2182015740505354,0.7854268756935368,0.33418085615817295,0.09627385950809356,-0.16393482023130113,0.20618747640637192,0.8864873904934212,-0.39529060215690787,-0.21820130057464232,-0.4626517272706559
194.0,10.149108409881592,0.47805931013289227,0.30246638697274325,1.0228053555406456,0.005241352035227957,0.0022118697756009762,1.235680221369644,0.047972325820840156,-0.16752543228148217,0.09073118252483182,0.7476585825651588,-0.4099316215852298,0.11131831473074016,-0.5807379216122848,0.14172194127452742,0.02091694225543564,0.7874329764664881,-0.04905710955645573,-0.13997545739241213,-0.02710657620706492,0.09368956631705025,-0.06729824955270466,-0.218059160193192,-0.022823419651332347,-0.08305643136000965,1.0155552429043972,0.21798124451895193,0.7920380838702609,0.336649274051405,0.09633833857053621,-0.16486689953844447,0.20638355493560226,0.8869002449005416,-0.39525189989832177,-0.21712482511430686,-0.4605586799227304
