ccrpRepo/mocap_retarget/src/mocap/src/data/output.csv
frame,timestamp,posX,posY,posZ,roll,pitch,yaw,left_hip_pitch_joint,left_hip_roll_joint,left_hip_yaw_joint,left_knee_joint,left_ankle_pitch_joint,left_ankle_roll_joint,right_hip_pitch_joint,right_hip_roll_joint,right_hip_yaw_joint,right_knee_joint,right_ankle_pitch_joint,right_ankle_roll_joint,waist_yaw_joint,waist_roll_joint,waist_pitch_joint,left_shoulder_pitch_joint,left_shoulder_roll_joint,left_shoulder_yaw_joint,left_elbow_joint,left_wrist_roll_joint,left_wrist_pitch_joint,left_wrist_yaw_joint,right_shoulder_pitch_joint,right_shoulder_roll_joint,right_shoulder_yaw_joint,right_elbow_joint,right_wrist_roll_joint,right_wrist_pitch_joint,right_wrist_yaw_joint
8.0,2.484574556350708,-0.17131135575946255,0.7001322003318704,1.0061574673837483,0.01783056444817375,-0.05842932496131728,-1.5709324259316095,-0.42846336870493984,-0.1353032860574541,0.02596585833797284,0.9645490345163117,-0.5339912287326058,0.150678585782897,-0.38316061713762145,0.28435956625692194,0.18640348756837355,0.9625772957926508,-0.22719381206967298,-0.0225705884135695,-0.038861560927393,0.02499042811148372,-0.007604004772488784,-0.10859404037086308,0.017832801744170363,-0.04198172618667677,0.9107285003590704,0.19378376938163921,0.734523679336679,0.3210306864411133,-0.02465141594150911,-0.13439167970124155,0.13943049293373308,0.8484106514688856,-0.4155440905648866,-0.4158605637673072,-0.6362645303985136
17.0,2.5747387409210205,-0.1751067664694675,0.6983657030304407,1.0052374288510466,0.018639177588457144,-0.060541711356386016,-1.5689979658439324,-0.4322279063691382,-0.13373412528683282,0.027909342354925655,0.9734840129116096,-0.5338241856030888,0.15031091297350568,-0.3834481373752592,0.2862946635050868,0.18508648332104252,0.9654061718305258,-0.2277579027234864,-0.020855553387176963,-0.03976044212942054,0.027613088085432946,-0.009379105372869975,-0.10413933185642452,0.013728673831278697,-0.042191252805561213,0.9110370637230591,0.19310639021401288,0.7358193920321034,0.3238605903685754,-0.021568074280082845,-0.11762940178423344,0.14425734050996858,0.8561921681315849,-0.41469129531920046,-0.412604213661235,-0.642516084479134
26.0,2.650656223297119,-0.18233901036153394,0.6929040642345246,1.0033628361966864,0.018246873954532623,-0.06503466521043062,-1.5647659954536972,-0.45051469836707303,-0.12152838970853264,0.05311700682868121,1.0123618299201076,-0.5338985528842958,0.15846321440038574,-0.3784809988921657,0.28996890004506065,0.18409308273467717,0.9697367937965041,-0.23220827748934325,-0.0163043394887858,-0.04168213298458157,0.03460190241906041,-0.010448995127775744,-0.10156620278907698,-0.010505820473351909,-0.043755256072853514,0.9164649097045947,0.1937818071320292,0.7425179511974407,0.3444007202984906,-0.013847826912838812,-0.10388037202392533,0.15237645605676628,0.8705873791615679,-0.417346157266832,-0.41209274345309754,-0.6486131496215366
36.0,2.730496406555176,-0.19122066549070316,0.6828369069214945,1.0015453462443134,0.01807772429106755,-0.06892687352943647,-1.5698790391342605,-0.488810141609841,-0.11270504972726238,0.08616341063835214,1.05752906063384,-0.5139048229863027,0.16284387571818076,-0.3691621224398074,0.29610892473224987,0.18377932054127666,0.9715468727892933,-0.2287511398432418,-0.011836732684784707,-0.03441124792758666,0.044869235121043814,-0.013720422799375243,-0.10127465799347671,-0.03975596036160106,-0.045310777420740814,0.9210495817567139,0.19184813063271997,0.7469550037157717,0.3614904530393902,-0.009241260134466286,-0.10725885257140769,0.1701012173431992,0.8857927165453359,-0.43134701532149844,-0.4117470359768749,-0.6404017340653348
47.0,2.8100297451019287,-0.201234662471316,0.6668942347153066,1.000337942587314,0.019048031297718974,-0.07044993068117336,-1.585855055885144,-0.5451759891449329,-0.11966413624407901,0.11235720637029227,1.0730470472521614,-0.49295960106361464,0.1619613185993968,-0.35183154533179933,0.30891304123851515,0.18859177912019592,0.9653764980174167,-0.22707278361983765,-0.010711008368175524,-0.023640412760910237,0.05240193430706389,-0.017006640201387146,-0.10145747409613112,-0.0648904381487467,-0.052522367028516564,0.9253149504636375,0.1910956066708143,0.7465006168184078,0.36571133326365446,-0.01839814030390474,-0.13259016078112018,0.1940608598302393,0.896209962341364,-0.4527234326818169,-0.4093352487773529,-0.6072258775580883
60.0,2.9033303260803223,-0.21130659013957925,0.6436719906482805,1.0000825147724806,0.02086021264732537,-0.0663027324188054,-1.6113027777567968,-0.6100387700502572,-0.13720033967965584,0.1320837598588337,1.0413575797338974,-0.4748125240053317,0.1578541754558431,-0.32352046353118885,0.3247019760801696,0.195393302183616,0.947656142949957,-0.21651070770372455,-0.00976706754219062,-0.015018790864800884,0.05799572772527167,-0.020023006169498925,-0.10506243624631195,-0.07797271938450603,-0.06525900014789818,0.931820496365043,0.19253656107459471,0.7485590527091328,0.35216651413887373,-0.03996252362109244,-0.171211949246796,0.2056375352884749,0.8936955762470475,-0.46863000079693284,-0.4020790635323236,-0.5752517766496182
73.0,3.005863666534424,-0.2227746023241064,0.6100356406496829,0.9992083254904265,0.021487908094569234,-0.055694934692757984,-1.64862857269886,-0.670907281045357,-0.15922600482932645,0.14236810049551626,0.9777673268513548,-0.4469093432029696,0.14320465001444477,-0.277946733205067,0.3454995354842112,0.20680573031956645,0.9187706428521447,-0.19742928449928626,-0.008226651726235249,-0.00550733212603258,0.06285234960576436,-0.025874708138306245,-0.10340507730698523,-0.073458382746464,-0.07311207710016876,0.9302220051924528,0.19400756595261126,0.7462907133315508,0.3361676568616179,-0.05760421080695915,-0.20673357702636205,0.20278151661352994,0.8774388880495245,-0.47491286072915895,-0.3938172383459507,-0.560314536909156
84.0,3.121143341064453,-0.23549251292691992,0.5638838028857034,0.9950980057321134,0.022704678411771664,-0.042579360675864,-1.6955709863588433,-0.7029988711133515,-0.16294683233814644,0.15622927894228836,0.9152802249120418,-0.4458581249068117,0.14166609693756513,-0.2193041864557686,0.3647174979143609,0.2197581704950869,0.8919400930481136,-0.16755931171556657,-0.002982309204428665,0.0025574895273500924,0.06377315789522174,-0.03384429523691215,-0.1058976856855223,-0.05124029318556286,-0.06739625027913083,0.9250737635713169,0.1921341417073602,0.7466140720125596,0.32565762458595526,-0.06469975926455517,-0.23213259742660516,0.2000730817083327,0.85556371852338,-0.4804493736223078,-0.3885647876517728,-0.554992872573959
97.0,3.2086215019226074,-0.24979735856309754,0.5083327865444662,0.9915207063151725,0.02797201482998736,-0.034760854359168605,-1.7368274641005512,-0.7022970939540019,-0.13186211715123786,0.20035586288625482,0.8902735877024837,-0.42471258757438113,0.14924440706997272,-0.16028959929383765,0.37156819127291996,0.226478916010755,0.8760960053322089,-0.13331269619645322,-0.0009366025030504809,0.001516222926383059,0.04778617859333603,-0.04614522687414682,-0.11391438985512885,-0.014796920676781273,-0.053898391529158075,0.9275088918937737,0.1894201909192227,0.7523153845756436,0.31812142692485235,-0.04735246234094021,-0.22931539046927374,0.1996293003832169,0.8406765663831801,-0.4798592579311215,-0.38028632818368124,-0.562469671090175
113.0,3.3202574253082275,-0.26601419536850324,0.4406489439490451,0.9934428455873788,0.027059991660365795,-0.029208878632856077,-1.7714148487303563,-0.6599728288181378,-0.10530102886270495,0.22829189454977578,0.8921489753170211,-0.418253740703174,0.1535429731413255,-0.1111225390827604,0.3521372306468956,0.20656545076884542,0.8890805590638067,-0.055508706819488024,-0.004317744847512593,-0.0004250802217521867,0.019583942832850025,-0.06045554760959207,-0.11888745864294695,0.025690838933064855,-0.045265732002284384,0.9331450953571618,0.19256803156620952,0.7551330464496617,0.3143050677046463,0.015645197175819085,-0.1982482077751509,0.20363955688543733,0.8463530710041525,-0.4678573818644248,-0.36705636287442167,-0.5681176177493035
129.0,3.45501971244812,-0.2815898879717938,0.3641087275355961,0.9985266888492845,0.0244683350793131,-0.017923444902808484,-1.826305469564471,-0.5833827442406023,-0.07583804089344542,0.24730177327245045,0.9062594297360421,-0.4532306692466025,0.16059726260590673,-0.13459927258441534,0.26192593557976707,0.11383451910340249,0.9897341774745396,0.03740409909454308,-0.022594589592782748,0.007288049998766085,0.011432821640608746,-0.0701107191557154,-0.14326103752420893,0.05387675949302597,-0.041604245643094534,0.9246305756576265,0.19549963284079896,0.7407290926533312,0.30812388591869544,0.06496998081862569,-0.17531621253158097,0.23290770051433624,0.8666396118137916,-0.47060582836133086,-0.3457622714764933,-0.5268059558509519
145.0,3.5851027965545654,-0.2951940574475786,0.2860487632103432,1.002227058601485,0.019219055995565733,-2.3631722986111603e-07,-1.8713865831733958,-0.4928203845983537,-0.06922521835839668,0.23897431618238263,0.921003232084262,-0.5173563228271427,0.16671634021716858,-0.27290661619944484,0.17830230350010218,0.027304821739432876,1.1117476864979747,0.04170673473964502,-0.04231602834574992,-0.013376181905816987,0.03242840732521465,-0.05710649972014221,-0.2124386041645413,0.08312636491485693,-0.06445405822529204,0.9120426159764812,0.22115626641812985,0.7068301002898782,0.3024229196811017,0.07619663325737956,-0.14770527316002746,0.2323690581789451,0.8647324520755778,-0.46069560548372546,-0.3485747807170242,-0.5419327049200422
162.0,3.717914581298828,-0.3090632354375519,0.20860030302380053,1.0050846626222796,0.012011714660389984,0.008894267733692358,-1.8834337504073404,-0.39510831310145106,-0.08757752910050923,0.2162220367414719,0.9102501563883088,-0.5751387422957259,0.1635282462670325,-0.43000840705512977,0.13039116583227373,0.001164052219307707,1.1227950159213493,-0.029894791944213864,-0.0660172317133012,-0.04089741734653618,0.06145491901110882,-0.044213256180488915,-0.27612667418526915,0.09797561584318842,-0.0817889909436103,0.8858255587789788,0.23744587541965276,0.6730626965998259,0.29324339707747427,0.0949523661068353,-0.13269424241089028,0.2299278889961747,0.8618279715865723,-0.45184532302462277,-0.3535605798387399,-0.5534383877023419
178.0,3.8584794998168945,-0.3265828288154835,0.12592403179764075,1.0043659902108697,0.006358790503765495,0.004435228386483338,-1.8375000343523022,-0.29374031735618233,-0.12170412884912041,0.17565814970681437,0.8839800144427596,-0.6100198952772842,0.14728877870784474,-0.5744189041267573,0.1782350728127341,0.13067780054525518,1.0424003282874188,-0.13499676417846035,-0.08882283150181891,-0.0764650992266698,0.0843356557735251,-0.03256362585371918,-0.329214621886115,0.09700152660405571,-0.09713107726811446,0.8510360972028618,0.24752006829101092,0.6375915431588858,0.28463341506102824,0.12333692303834677,-0.12958958197671083,0.21829395004223895,0.8658138349608124,-0.4347185343803293,-0.33210270755861093,-0.546422952447779
188.0,3.9939961433410645,-0.3513133968495792,0.03670389758880407,0.9990431169545575,0.005756112682693647,-0.005965529969851967,-1.77766674552743,-0.19306497147034613,-0.15587514074433434,0.12260806644261413,0.8628799343687078,-0.6339645397422768,0.13502094694410835,-0.6613572588910067,0.17743064316563326,0.15782470007865676,0.9698476815243039,-0.1397707268210331,-0.1180450995841642,-0.08747540975838017,0.09883976064480557,-0.03212350415751099,-0.3127327125690859,0.07855529982571241,-0.10490972816355071,0.8460542905929281,0.24683445099227302,0.6315780483217239,0.2811003553226793,0.15601890757220876,-0.1423397764660398,0.1968862398791738,0.8725314669341445,-0.4124222830085381,-0.3024300921612474,-0.5327527109735022
202.0,4.075427293777466,-0.3766625903523456,-0.044361944340413635,0.996963247342155,0.009133465078426935,-0.018963407057117493,-1.717810011142794,-0.1286707268270914,-0.16620298272696638,0.09163653787243531,0.8812837567777021,-0.5928236825281924,0.12730677175413907,-0.6816761877657007,0.17073324933037798,0.16525927072175267,0.9408542516193605,-0.08777243277612196,-0.1265421753667553,-0.07969598228601564,0.10791369219115067,-0.03335438286757696,-0.24853767453596542,0.05775038961726589,-0.09311855863893359,0.8739101551155196,0.23219685498262738,0.6548985153339711,0.2843717386587801,0.15642594683711258,-0.16637294576670716,0.17261302433839218,0.8740713220178986,-0.3942219351444673,-0.27149694490621795,-0.5176885850499997
215.0,4.194452524185181,-0.4017933152589128,-0.1214761811931456,1.0003208616814185,0.01778357773406408,-0.029652245759018186,-1.6293002234499319,-0.13138665138518013,-0.11509984700289765,0.11673361873254508,0.9787889771157945,-0.4912851338452936,0.14040562526743477,-0.6462351412988521,0.16454997251256015,0.1636982249211455,0.9472988831988054,-0.05445317634373109,-0.11806685622297652,-0.07114622826799129,0.11862729069286738,-0.03257346319569733,-0.15935031035272762,0.044102888789318534,-0.08382864035101709,0.924165183137776,0.2218300368481974,0.6990017866432049,0.2894780402883049,0.14776211641295617,-0.20595816491033409,0.1517466563548231,0.8626864977450133,-0.38854909946070765,-0.26709246892162214,-0.5145014631226934
228.0,4.302858829498291,-0.42086551743664746,-0.19095326133366805,1.0040995734778853,0.029297730319877806,-0.03960468424021643,-1.5211839765207515,-0.2303428971747344,-0.06452228907093036,0.17401098934438403,1.0907535724715933,-0.4499858775611224,0.16180358214216622,-0.5789243800861043,0.1716365504442776,0.17045551946558393,0.9721025198855389,-0.05029306931197289,-0.09070931565548306,-0.0378928785608173,0.14010244057119786,-0.019520229352546235,-0.11959966697688054,0.04265977911231197,-0.07363346519046092,0.9541474967597685,0.21428840048639788,0.7260279185508987,0.29371268959454,0.0668236579217585,-0.27151732980434967,0.14740355995308133,0.8511612095885943,-0.4120261318074149,-0.24744866075711566,-0.4960638944772232
238.0,4.4082958698272705,-0.43074469437161783,-0.25517386283298793,1.0057939187115248,0.03537940270443131,-0.04089881204082135,-1.396133115981438,-0.3669012915238752,-0.04623670000714086,0.2244114257795738,1.107783446629365,-0.44772434725314775,0.16580172193686357,-0.492341413717647,0.20495902761876225,0.19497262252863024,0.9832367779116726,-0.07863380711883716,-0.05542146386206349,-0.01083144554742636,0.16369530944074956,-0.009460552323018978,-0.10522128588950719,0.03218230007439175,-0.06743824754278044,0.9543719380120428,0.20674375268292455,0.7254320829138965,0.29748758784529505,-0.020948129504920403,-0.33358641950093626,0.13208870161596906,0.8256166339181447,-0.4301698305918118,-0.23714769643238007,-0.49660273155769086
250.0,4.492801189422607,-0.43161429833982445,-0.3140886556886799,1.0065924808573579,0.035762798823987474,-0.031074844041428233,-1.284820346480345,-0.5029435716505055,-0.03748486690967881,0.26977269926210035,1.033966068927823,-0.4575433199055683,0.14956320404494272,-0.4021611756253859,0.2477234581032029,0.21424887376316265,0.9689453992522893,-0.12011763307703377,-0.0258804011489916,0.019619525800719715,0.18247547436095254,-0.006884033887565452,-0.1082120345864166,0.011455405182210054,-0.06453765204604067,0.9403551391527779,0.1988883407389706,0.7174292864144014,0.30121892550024704,-0.10459098680597723,-0.3858338421368554,0.11594607527624662,0.7868242939948581,-0.44823278626296814,-0.2477313957415385,-0.512068893995096
260.0,4.588239669799805,-0.4222118267607454,-0.3728512950433262,1.0057340784559785,0.028328271549611067,-0.01709270637647151,-1.2096859762612637,-0.6027366194540349,-0.041649483023692244,0.27308062011175177,0.9246896103501696,-0.5476400474291836,0.14952225016448095,-0.30721078186110945,0.280562885881859,0.21798226474024934,0.9331785923290365,-0.14606482120419806,-0.008568637919491673,0.051931462016044386,0.1840303832015609,-0.008706489483949833,-0.10032845014081715,-0.0019500305353999173,-0.06973209825634336,0.9251351849989448,0.1989851561112862,0.7056546866438751,0.30452374137611754,-0.1685607418512072,-0.40902856505366697,0.11330303493491373,0.7391052012259374,-0.46663458491880366,-0.2729288458692586,-0.5278644437690382
273.0,4.676525115966797,-0.40374355678638185,-0.4312162354103589,1.000580900361884,0.016404893620459195,0.0022341529699278625,-1.1610881177929768,-0.6435816644451746,-0.009378055450046007,0.31127905898085684,0.8444338966354733,-0.6137142463286043,0.1555965396949085,-0.2189890798210205,0.3069166637325883,0.20912148253341434,0.901158106822523,-0.14980858829573324,0.003047055954271915,0.07456878966492944,0.17187739436077917,-0.010179256367155564,-0.08908812601733535,-0.00147811966279718,-0.0683903759047396,0.9215644798346645,0.1992269676049877,0.7058868724203649,0.31000803181332853,-0.20056754782132463,-0.3978377660224873,0.13107966241970315,0.6947614184425196,-0.48619588611618136,-0.3120891404479994,-0.5424618613641028
287.0,4.787022113800049,-0.3711967426739408,-0.4985669134680871,0.9960873483053835,0.00266359405707924,0.014287517824372277,-1.1194473640169613,-0.635732082840143,0.04278374812202865,0.372778073306958,0.8457711658554556,-0.5706273063451599,0.15718794511843695,-0.13313614387824332,0.294938178825046,0.1655226028097555,0.8923871829858994,-0.1338897957853855,-0.00027897718048179457,0.09143734010911223,0.13930442930823503,-0.014952416370266836,-0.07587807451781735,0.016294721775359667,-0.06223106353983493,0.9253370741960107,0.19989078799216417,0.7110082870510019,0.31261194162598016,-0.1650498839179242,-0.34491297460110254,0.17020053547921687,0.6798817895476297,-0.5013495788881178,-0.3408535230389689,-0.5555205549605916
299.0,4.8994598388671875,-0.3243113551933749,-0.5700546036937384,0.9971667318988041,-0.011762679917605975,0.01957091618608494,-1.0914483661219823,-0.5833469017605972,0.05485976247113919,0.3928812396596428,0.8687302663246048,-0.5575708377331525,0.1609927757202852,-0.0805781577001334,0.17961907681474226,0.03482412568609283,0.9430899675276398,-0.08811654399268959,-0.03619052062094237,0.12090447866334912,0.11345461452174324,-0.027708181423283143,-0.05845168366456909,0.0364068409400649,-0.06232616939406377,0.9154087584511502,0.20414152720005163,0.695529942589562,0.3109364306522828,-0.05724495910673189,-0.2715793778807632,0.21261604994737798,0.723181929866456,-0.495004230043685,-0.33389256024466124,-0.5358798152938821
321.0,5.002445220947266,-0.27464013099384593,-0.6335021571281467,0.9999226818133811,-0.026392300781959515,0.021593493187777334,-1.0552308173232083,-0.5152410562015186,0.03678908165055039,0.3839002313956018,0.8913124575059126,-0.5462145822072302,0.1593087709032375,-0.10992122404408736,0.064344558108103,-0.06467828474305054,1.06074018713336,-0.03613579050646931,-0.07514277953536157,0.1398391777609937,0.11207139596979525,-0.02447549053617771,-0.06851616177533565,0.0521526134955001,-0.05402484896955476,0.8861252131660755,0.20144969113333405,0.672109663909281,0.30949143546975466,0.05149701374890045,-0.20812593065722207,0.2511682925353422,0.801041173522463,-0.48046715429669984,-0.2833902742832806,-0.46744052263480174
334.0,5.1820924282073975,-0.21136594681039675,-0.7028367456357775,1.0014299544014305,-0.04255985360373134,0.013182041044894805,-0.9497673393788058,-0.4234428095093423,-0.029726505864175648,0.31783555780407535,0.9012133728598098,-0.5400149731754604,0.1510952999148995,-0.22092158197652015,0.10070990404462767,0.029497102602126596,1.103188668515931,-0.04763464156489137,-0.06882378715611168,0.10660431803330199,0.12827641037679144,-0.02249039557143432,-0.09936527321268379,0.057261269684691044,-0.05267735463291555,0.8357169870575891,0.20039638003716503,0.6379963598980026,0.3051702630413622,0.15551729578426252,-0.16117373489740622,0.2558792487019109,0.8463311782866776,-0.45616753676963906,-0.26319537135432036,-0.46590398083403944
347.0,5.289550065994263,-0.14930987804836277,-0.7612135023792435,1.0005991886704235,-0.047951072119896423,0.001664295641859475,-0.8291938702981678,-0.3361748356067221,-0.11218638689228974,0.2301707319768912,0.8960791298844641,-0.5467553460719554,0.1356304466094027,-0.3885536866868442,0.1675744271469189,0.15869025161770145,1.0479069045467435,-0.027237398466259555,-0.08938609001963059,0.08048116240625769,0.15311385711543118,-0.004246174821614676,-0.15531209183004605,0.06660271969863686,-0.05241544753505942,0.8055874491921493,0.20026182845980617,0.6248994207113001,0.29154763927007477,0.18834995136970017,-0.1324120295135656,0.24938372812813958,0.861370248177187,-0.43661057417189764,-0.24981713467595526,-0.4703688648045624
359.0,5.398801326751709,-0.08991857857946353,-0.8119589916970843,0.9979691140980311,-0.04300186752195024,-0.013862232225634766,-0.7043533082758676,-0.248416038604585,-0.18958440130733883,0.1391427404235539,0.8782763667656948,-0.5422518113679113,0.11407816052904202,-0.5322101106550655,0.24357091107220763,0.26304119919515534,0.9671600116042798,-0.021041287837298264,-0.10237386916700637,0.06910781343297266,0.16074726235273218,0.014236188842583992,-0.17813154384335303,0.07812329383126748,-0.07539018559500608,0.8024773576339985,0.21731677733839846,0.6293470248278921,0.2720745779200498,0.19914942250093887,-0.12675874963286818,0.23162603063442438,0.846505680638856,-0.4243924393457801,-0.24908486199897079,-0.4965454445437027
370.0,5.503089666366577,-0.03152920830668364,-0.8586507080770911,0.9929626918045861,-0.026043867973036174,-0.029423029797489862,-0.5835427723483958,-0.1670989767335764,-0.25232105655644277,0.059293050466327664,0.8653470146868588,-0.5271463983547506,0.09095499034475518,-0.6211153880092084,0.2625778513544887,0.2819708315310582,0.8986968405699087,-0.013333362530364712,-0.12840543905545632,0.06982661826016398,0.15612265900395778,0.026564800720587825,-0.1632531366093528,0.09140808291135223,-0.09111122924601246,0.8279609935880416,0.23359343158614687,0.6550376720420255,0.26667794919826104,0.20579482894856474,-0.1370524107971769,0.20550274214747055,0.815371892133278,-0.41853854145687297,-0.2589159879593147,-0.5428619403948416
383.0,5.590943813323975,0.02439175459600911,-0.9009294764999505,0.9891642787838488,-0.01078248602205833,-0.031074559311385586,-0.46695305716550517,-0.10999782039894411,-0.2828455346742589,-0.013298986566214074,0.8798788896370853,-0.4908172304233246,0.07447648772630566,-0.6509126324783399,0.2353897364309135,0.23740207201737612,0.8813459541475812,-0.02956849801874404,-0.15824478866994945,0.08542322791216247,0.163766881331545,0.024276687030228172,-0.12842519436146235,0.09216365609619719,-0.08281155322190623,0.8638410461411343,0.23073191692995687,0.6863541114855537,0.27339745776197266,0.21070641918861333,-0.16178742702539556,0.17472456542234824,0.8014060299200383,-0.4078326965356277,-0.25871573401400666,-0.5671165058694632
395.0,5.697422504425049,0.08300273431337818,-0.9421884604404639,0.9921638255590847,0.003672192534897223,-0.027330314255858298,-0.31570364663242223,-0.10078837415957723,-0.23820977558883868,-0.003753380425018122,0.9573556169520783,-0.3817597279955423,0.07915445573842878,-0.6244821680910627,0.16725616037033691,0.15692690183366886,0.9012367051203465,-0.020302020883380314,-0.17024725969885782,0.09885599892676283,0.18927105918607662,0.01865187543690129,-0.087565412381075,0.09194961475236132,-0.07908274393428366,0.8884029157912261,0.22773185026090575,0.6962387026603456,0.274716068001186,0.2229840849120513,-0.18570066641695568,0.15337225795557857,0.8097391500678077,-0.3933061462670967,-0.2407233667573863,-0.5545307243193566
412.0,5.798653841018677,0.13732116674461758,-0.9780002875203141,0.9997137812709408,0.02621561971470768,-0.016096233877552112,-0.12982865783411074,-0.14741534413969595,-0.11292833678913541,0.12364646472964813,1.0727540384266323,-0.3740605451862019,0.1389238658838372,-0.5672272161705615,0.10070216944457178,0.09842191020230291,0.9212025051352067,0.006421809264902231,-0.16383135909666297,0.10597990772880254,0.21673648107731017,0.019429879035647347,-0.07624020075722035,0.0914151161526629,-0.08532190138274742,0.8864018838229082,0.22808890043766006,0.6799466289764045,0.2645993544262572,0.20968714973784996,-0.21763402992009961,0.1488099991755135,0.8175040551813917,-0.3995346541541915,-0.21179617309661047,-0.5342868380532394
427.0,5.9406726360321045,0.19440454568953802,-1.0075969885770721,1.0027181527801043,0.04133360282160593,-8.731102204549267e-05,0.08936694063558653,-0.2682519221316857,-0.05144283919604319,0.23395039649482488,1.099745448366469,-0.41141967655262035,0.16075597969624364,-0.4923982802902369,0.0822544753462097,0.07050793872244433,0.9451363194875355,0.08814277729306608,-0.13917282675707862,0.12432339247075797,0.24294242292084028,0.01745139989796693,-0.09147422293337146,0.07060575651095183,-0.08746126016449449,0.8646028449304475,0.22791609579390198,0.6637852447887824,0.27794952388654226,0.13214323410082227,-0.2819180271035351,0.13201080339667495,0.7953844269778348,-0.41599180853786555,-0.19116315148135604,-0.5229552858753058
439.0,6.0690741539001465,0.2498489715660121,-1.02419693158082,1.0036840546806403,0.04014752148625454,0.008917287835096816,0.28664534991628027,-0.4100290255652791,-0.029951363827649697,0.30740673170186783,1.0292163873265188,-0.4479054598194879,0.1529686917516105,-0.4107278770644349,0.09780079425410027,0.04576442598302563,0.9412583259477658,0.1691339974900438,-0.11047444902147946,0.15370449281962842,0.2656779513375857,0.01516802948233192,-0.09753030946045599,0.051707427075172986,-0.10346766913913887,0.8541895951797593,0.23699632065194637,0.6649250249974796,0.28302003478636223,0.013092101182302016,-0.34907142291931903,0.10663834218162843,0.7470645338512243,-0.4358125047251551,-0.1864721645381644,-0.5301234030240313
452.0,6.164924621582031,0.2997305623654254,-1.027580045521753,1.0022090609707603,0.02756213076732315,0.009447964888892497,0.4262521011491946,-0.5167541346079709,-0.00606069869905532,0.37080319950044915,0.9381380199555391,-0.5181598236543747,0.14884368346346466,-0.3336224268025701,0.1290450527871388,0.021593556895579638,0.915420875889724,0.2303870820796827,-0.08690660207142906,0.19056203958765197,0.27633887988195827,0.013910062095715065,-0.09120866164639665,0.046231258686239604,-0.11711449421825497,0.8605699631477883,0.2468795377935879,0.6795235513537551,0.2831967159938079,-0.10783766028545091,-0.3881976825334197,0.09913203078582968,0.6920936474763986,-0.46030668365017763,-0.2034785579534777,-0.5387653683797764
467.0,6.276118516921997,0.348807137215725,-1.017696399474542,0.9964330301652302,0.008808589934364723,0.0018818812195702242,0.5142666847006612,-0.5683616738125732,0.030709244822750576,0.4263396378762975,0.885936897723318,-0.5555533309446357,0.1470469543710678,-0.2595240663951328,0.16026592485483118,-0.007532321810376177,0.8859627917844595,0.28542887205131684,-0.07148929385170184,0.2309198663075231,0.2673795513431954,0.012439549037763911,-0.06984981173708465,0.0544025119409852,-0.12428819361811572,0.8821094322485692,0.2546495100096256,0.7030010750357243,0.2811123621504399,-0.19529057713887152,-0.39066706086816544,0.13762812724522053,0.6407790720364694,-0.5023381783858265,-0.2455264752861068,-0.5289011424721874
480.0,6.4016358852386475,0.40107406383994093,-0.9909588910196061,0.9929213469271592,-0.0010151336226463283,-0.010392762560560802,0.5771632961010105,-0.5641669493245607,0.060290508491144146,0.45913470279350166,0.8896745147774279,-0.5528019267013278,0.1515569329622034,-0.17577412453498217,0.17397811393717982,-0.03584485826290747,0.8588777233257121,0.3119558425369014,-0.06392832076676831,0.25446765036700064,0.23959536620569444,0.011557722822527094,-0.034167324046328586,0.07194367536221088,-0.12493181973897916,0.9044637400438091,0.2578135026380991,0.713075033113405,0.27667544580569836,-0.1928976083431905,-0.3500227227205114,0.21001561839352997,0.606186964065434,-0.5496816542220827,-0.29320677870742995,-0.5281656392439492
490.0,6.5116589069366455,0.45368195479249107,-0.9514596346768684,0.9940537648710988,-0.009927670799427253,-0.024448995004299513,0.6330365983987831,-0.5244002032383643,0.061211753643232836,0.45025055704920763,0.9076953075777625,-0.5563594318910694,0.15296533409243912,-0.11454370112195791,0.14500108491452313,-0.09863556254679226,0.8807541290822182,0.25980134757203316,-0.06546507829627282,0.2723545660975369,0.20942108705976523,0.005120847179767711,-0.029126507406185498,0.08310023376213227,-0.11980067756460008,0.9109977794682911,0.25966823095795677,0.7105861137550875,0.28585881153876325,-0.11554631522857498,-0.2852424385495161,0.2979324264463953,0.6379613485141271,-0.5817921616109555,-0.31049533579731936,-0.4996309760464789
498.0,6.593204736709595,0.4992269226671102,-0.9102761451424064,0.9965834564285149,-0.01923684768830743,-0.03927555611410061,0.6888845215663288,-0.477777267247491,0.04263632811672585,0.41159230726746415,0.9247404547243874,-0.5600174888107566,0.14802742972493332,-0.1298741556447801,0.09777101123628344,-0.14924975326685305,0.9951210187839038,0.15000476333742996,-0.07994659340394664,0.2709941005201394,0.1914396996779458,0.0006923045956774858,-0.06686550106529873,0.08124476805410089,-0.11692013486568853,0.9021036600233769,0.2589918097496302,0.6963458663787192,0.2897469829346304,-0.016982872319697064,-0.22636521756558636,0.3528493946965108,0.7152422949566151,-0.5806486759002458,-0.2943052407340427,-0.45132844079173945
509.0,6.6578898429870605,0.533899610720357,-0.8748144471528128,0.9984565511182568,-0.021825666585345953,-0.05270634630060816,0.7458619162091057,-0.43422767516566363,0.00875374225553144,0.35942594981137393,0.9344297417516236,-0.5715450288924868,0.14435469588324723,-0.19768052776161193,0.058075858371338336,-0.1678338111561565,1.1206169394196643,0.08367771388832873,-0.10168833786994788,0.24744802123462933,0.18478341055390052,0.0035348559965256185,-0.11968482883527654,0.07597395648972548,-0.11470413646163743,0.8856242625529416,0.25605412023879875,0.677475922755056,0.28677560579348926,0.07065030268264848,-0.18364820167201013,0.3678705819498371,0.7919042323089744,-0.5545552478726257,-0.26428628912491325,-0.4139464624973971
523.0,6.753123998641968,0.5634455826171632,-0.8405522709428733,0.9987813294589654,-0.018112226730212188,-0.06158550269808094,0.8148535737872913,-0.389752701932044,-0.03786385757779362,0.29817985408086417,0.9352366450840477,-0.5880608527906928,0.14294574045185882,-0.3049768089401126,0.04246008295045157,-0.1423239340803046,1.19744095273935,0.0964505661147613,-0.1308133952430757,0.1996965223221323,0.1818170148085983,0.008443258541123357,-0.1827508955747783,0.07587473138153543,-0.1161032773627728,0.8704145384028031,0.25492808477988166,0.6692401604219091,0.27226598144687963,0.13937021065191874,-0.15421431681074896,0.3529446524054021,0.8481448220645293,-0.5154708727549838,-0.22904847026935,-0.39739479696527125
536.0,6.863332509994507,0.592252712326894,-0.801685326316045,0.998501078864321,-0.012588060844987028,-0.06414318254058154,0.8956805403167298,-0.34020141147437527,-0.08806217148221851,0.23387784586910215,0.9285283350522852,-0.6006716181536796,0.13888013983355424,-0.44034100452843883,0.06616968528714565,-0.07809955393981921,1.1563947269621673,0.09299384820193168,-0.1617108529580099,0.14156500292318636,0.17918189194241113,0.015281307172238388,-0.2519909269789035,0.07829564566399914,-0.1188459571977744,0.8586267263113558,0.2560738765842628,0.666423781698879,0.25678898925940064,0.17230066829036184,-0.1417369260296548,0.3281093674527899,0.862930327170888,-0.4846693395606967,-0.21838435571896053,-0.4089461275363708
547.0,6.975542068481445,0.6221160191343658,-0.7540456013435597,0.9984726259494965,-0.004881747542539135,-0.05856496758781086,0.9699265090832555,-0.27584697035441363,-0.14108139620651727,0.1720471763457949,0.9045100015895079,-0.6061303765346676,0.12738960125785462,-0.5630622016991036,0.10356294666019877,-0.0350756725264454,1.0337841267556955,0.012485333732436009,-0.1665811152142449,0.09938948000774664,0.17072788247466175,0.014295714550408564,-0.290646307080594,0.07444397110571212,-0.12191306210947622,0.848156175729464,0.2556986519322553,0.6590872388119997,0.2464543537611253,0.1788678679998284,-0.1473481892546599,0.3056268510401105,0.8496105830562662,-0.469177946220504,-0.2272174034486948,-0.433432492941388
559.0,7.071033477783203,0.6519852389835621,-0.7025573223075023,0.9967237022910062,-0.0006336566678160613,-0.0455898752154624,1.039124960898509,-0.2111456654658328,-0.18709182288273674,0.11779970499565372,0.880098561212564,-0.6043691339698511,0.11284650445785108,-0.6523392236576979,0.15153744625086302,0.006797502588170724,0.9174337430084254,-0.08115975636887075,-0.1613640009801352,0.07232010602728695,0.15596742103144712,0.010462876416587101,-0.29773558417828894,0.06214247328174703,-0.12304319754214457,0.85264629802637,0.2575283596607374,0.657297189178274,0.25825126947363203,0.16095251039615976,-0.16262466500931871,0.2811796746042053,0.8254443196906647,-0.45985390481292737,-0.23683429047538193,-0.45766626980902714
572.0,7.16618275642395,0.6835318393240031,-0.6449602943960692,0.9946049936481288,-0.002300352079267802,-0.03157738686166224,1.11245996541872,-0.1503892844459181,-0.22168685706499486,0.0606962453505808,0.8693555543824005,-0.5816406112885882,0.09660808648918158,-0.6836321646939603,0.22644054369332894,0.09146039427625656,0.8589796939818619,-0.15453546376595545,-0.1394044907772951,0.05073692276966173,0.14557164895193447,-0.0036216598035848768,-0.26194525187257645,0.04181361659209285,-0.12411676482111209,0.8808433464761163,0.2569467867784979,0.6772605666583842,0.273049627734948,0.1459941781840179,-0.18369832170490724,0.25524252291238536,0.7989301407050102,-0.4532607170935786,-0.2523078936744928,-0.485517326266228
585.0,7.272283315658569,0.7170207524126511,-0.5797074853718929,0.9958193452139819,-0.0009364328029606863,-0.01909033711291807,1.1825139367037811,-0.09593141175986758,-0.2320394312740998,0.025956799826791496,0.8849942306215162,-0.5006674310166699,0.0840568313629097,-0.6666467450665183,0.2536950785171875,0.12477713073589447,0.862369891734626,-0.1957784681924057,-0.1246553191680084,0.03937109387730557,0.14134964645805212,-0.017238257760934714,-0.1846705766611525,0.014178401226733021,-0.12775772196774476,0.9243996876000834,0.2537314363549277,0.7033994629434152,0.285241520874239,0.14424465961838598,-0.21405820096956846,0.23008433708448303,0.7857857364966492,-0.444987620805126,-0.26426845976134394,-0.49747792481783526
595.0,7.381983518600464,0.7500517770089153,-0.5122520640019059,1.0002936151296375,-0.0009518537846057861,-0.006365245426142177,1.264152108568584,-0.10105717161579589,-0.17315551246860833,0.06430353333194258,0.9845842631951756,-0.3386953401258307,0.08899214555416239,-0.6177972992667793,0.2315140484305106,0.1078895452769888,0.8915417421575214,-0.2168857004379082,-0.1255462329009578,0.03393628222457262,0.14270073222858198,-0.02942056224678434,-0.11890770721429007,-0.0035801821770375256,-0.14289665529422052,0.9542084588462486,0.2565993781943074,0.7131762669701717,0.2813822671226459,0.13146790227220595,-0.25070929761998406,0.21326925610292685,0.787498444610443,-0.44011603091295887,-0.2635353322403397,-0.48237166863531566
611.0,7.47255277633667,0.7784798823224435,-0.44982399631130054,1.0060342774551878,-4.961216249011022e-05,0.01076244797879115,1.345742407696442,-0.16169100374423603,-0.06228377822017457,0.17053123738998116,1.1065572292327128,-0.31473982176838045,0.13532374069558056,-0.555915123847585,0.17413117160377742,0.05803315883006158,0.9194328873069596,-0.23455537576587532,-0.13457341719032717,0.040458084751332835,0.13588801182807875,-0.02449603459746874,-0.09967092017289524,-0.015419295824096483,-0.1418277631574719,0.9536860322154281,0.2509283641848843,0.7001864358514662,0.28324037177539924,0.08827253701560914,-0.2859358159508566,0.19849030516389105,0.7967083240558726,-0.44053538141149096,-0.24397588310054868,-0.4642856933507358
623.0,7.602985382080078,0.8022239802215577,-0.3842333641810707,1.00768148275455,-0.0023179186698523637,0.01983656377604446,1.4191021716854826,-0.29751377943741997,-0.0022123972459532106,0.24092495566467131,1.1325243201961304,-0.3767243371396004,0.15735948202411432,-0.48577338606864295,0.1035888887234214,-0.026445256801892143,0.9411259254628809,-0.2594065293054175,-0.15600133013063777,0.0611444102671337,0.12937835484685117,-0.01569503553268834,-0.12413199012546638,-0.03139227164880928,-0.1258643057136752,0.9294270646433236,0.23681250725382458,0.6727596978337882,0.2960543341352281,-0.004888988784961502,-0.3194215293156166,0.18805139823803246,0.7889922904950779,-0.44979039281637045,-0.24241707014321678,-0.4534634633637273
636.0,7.697850465774536,0.8187965130514153,-0.3204876943998653,1.0083606461521823,-0.004218551828306673,0.017612557633113667,1.4710916169420938,-0.44190634874389584,0.022343148056787637,0.2682942264059181,1.073185417169691,-0.4371551712820157,0.1587649052343429,-0.4074051693694019,0.06138860177365627,-0.09444443814324223,0.9374615483710751,-0.2932744577682722,-0.16895853610775147,0.08047948543622065,0.12166703302655898,-0.009577789072652892,-0.14427652508122335,-0.04441603389336096,-0.11062535477265698,0.9060329167225883,0.22559519980518106,0.6551360635065622,0.31182360992357305,-0.09274551283905978,-0.33862316843919105,0.1879195943216614,0.759107618503436,-0.4673689589184371,-0.26959002369142343,-0.4594327549985173
650.0,7.812514305114746,0.8287399258154147,-0.2524533760390998,1.0077898262681841,-0.0018120971075165386,0.009561903648712034,1.4821642107045494,-0.5657336132917992,-0.010082680224904206,0.2063410961604269,0.9737842165578117,-0.5380405507226178,0.1624070226251231,-0.3163450764723379,0.04632453081670135,-0.12970325000841632,0.9127009649226157,-0.3344310842561472,-0.1710694313564789,0.10591772042121293,0.11189635702838144,-0.006546107138472616,-0.1385945881570507,-0.04982494559517525,-0.09544662800069381,0.8967560045627964,0.21665243100948134,0.6586613476570244,0.32677979084155606,-0.15695554638792386,-0.33532469786801783,0.20563998101533013,0.7224520042199636,-0.4886851517226144,-0.3060759191862441,-0.46017828741795386
665.0,7.925945281982422,0.8315194933265692,-0.17240368355495428,1.0017832047519262,-0.0018940392177488523,-0.007215197776896906,1.4715329486507045,-0.6420692233333845,-0.013933344973359369,0.17441357499429994,0.9109496346916688,-0.5288415553096524,0.1645619325383632,-0.22205881360110843,0.0457940405273113,-0.14403709541111898,0.8970617469687697,-0.3723761999331404,-0.16760977869318772,0.12626419574501868,0.10728419357449508,-0.011338207525472307,-0.1264144256694802,-0.04057181225384447,-0.07783301452131444,0.9100152397351837,0.20750277243385234,0.6851769149805704,0.33211484191129137,-0.18356362781676044,-0.3076014976562937,0.24313183028165067,0.7073130682426587,-0.516362798211195,-0.3368255106069257,-0.46233749636955107
677.0,8.0545973777771,0.8275578401171692,-0.08145503674365995,1.0000836485348301,0.0027815208499649673,-0.013275425977932725,1.4588624164126447,-0.643495229327646,-0.006058702228885547,0.18566001864485118,0.903767123791157,-0.47638496134450004,0.16595080071746734,-0.1311574996068603,0.05727941385665037,-0.11145512945888104,0.8957289353364959,-0.35727154985978715,-0.15421388688396964,0.13202774472332543,0.08627178940897594,-0.023297869112810635,-0.08489368197998336,-0.02243635118300965,-0.06411098289795401,0.9263185113650751,0.20193842772584497,0.7037105064662108,0.3350415955842645,-0.11078332175787832,-0.25861618327974056,0.27494572486981134,0.7241658039829681,-0.5228297649631249,-0.34279759067327126,-0.47471200169046257
689.0,8.148432970046997,0.8194945707856798,0.005161467450648469,1.0018298842057598,0.004000713504092158,-0.0105843830954887,1.4345142430148878,-0.6015935340842777,-0.011921803318690844,0.20164266960431124,0.9116630934868315,-0.4590039532267167,0.1657167456249754,-0.10895474111088257,0.0766916894803278,-0.050408622881493725,0.9739408753952516,-0.2667021403691496,-0.12947879368948567,0.13424355246493042,0.06460263452451383,-0.04143870132451927,-0.06871416578049629,0.004353710011895724,-0.053010716232160075,0.926537662981861,0.1977596411265847,0.7017237721821353,0.3281616967366463,-0.014988904423828546,-0.2084346930325489,0.30130562509099224,0.7832506864238069,-0.5140772728210327,-0.3051094446473284,-0.44990926487552785
705.0,8.251993656158447,0.8086143551373335,0.08221534030539392,1.0058284463422809,0.007021294093628184,-0.013469976447978926,1.4046132723201037,-0.5321227887258014,-0.018421065062930852,0.2211119843911724,0.9198438275172119,-0.46889172448434613,0.16262191196161366,-0.17462384298426795,0.032364836163935234,-0.06860411157535916,1.0939794098721962,-0.13606721506550165,-0.1457868817969582,0.11342865014761044,0.06096092235405,-0.04514663869452769,-0.09835524794447417,0.03566727951474792,-0.05194261514096961,0.9175952070140723,0.2034218558973909,0.6976883347244549,0.31933636265981974,0.06465511475526661,-0.18418780566546283,0.30579636871234245,0.8343561892285432,-0.4964559088269822,-0.26621573245942726,-0.42890660828305255
720.0,8.38367247581482,0.7969061981670233,0.15745080741963008,1.006874312591138,0.012881631823275563,-0.013683119820894919,1.3801023869825904,-0.44960892758930227,-0.04712533041463256,0.22692084374335092,0.9204374321370992,-0.5125889321013809,0.157770016176272,-0.3046034760745189,-0.022340106642913866,-0.12114232620715541,1.1394398872971354,-0.048357226792757876,-0.17468802512755927,0.07289183701101545,0.06879527014667855,-0.04260356671743089,-0.16088435953891922,0.07249528132573144,-0.05918594694192863,0.9025558467334729,0.21763940744877813,0.6972099070344846,0.30691280976232727,0.12811446609992488,-0.17559374300111497,0.28549491857847076,0.853094876733067,-0.47186623551902057,-0.2513643298818757,-0.44563180377034506
735.0,8.512902021408081,0.786766532495115,0.2320062191666217,1.0077400151402005,0.01967831054639895,-0.007601295921534812,1.3774731126137407,-0.35764346649942386,-0.09066969235541153,0.22234295196135012,0.893575760952802,-0.5495641693331995,0.14490931929422995,-0.4741505699235733,-0.0016566956972496397,-0.11991562946194606,1.0633461511966664,-0.056838956453546634,-0.18093540328606256,0.028581318589424053,0.08104460136283584,-0.03632834985523736,-0.23977186750112686,0.09706185609567894,-0.060300957666506935,0.8662782606294077,0.22345898748223503,0.6762053189785482,0.29456829991511085,0.1472638469622389,-0.1657213107518888,0.25375859571901793,0.8509985784955397,-0.4434544566604951,-0.24598294232161488,-0.4721316681802362
746.0,8.631899118423462,0.779778454312642,0.30930669580129694,1.0057598781684287,0.029381532185071873,0.004490434298217376,1.3996864271334195,-0.257384891209412,-0.14030638593827727,0.2078140078282517,0.8546502451067417,-0.5724526967100236,0.1277193398618569,-0.6095735295022178,0.04144251620033597,-0.10160277241984432,0.961740205947144,-0.10011045354882078,-0.17899484107576646,-0.006511835935308037,0.08882937181424294,-0.035826688619430044,-0.2833623038354307,0.09133972156811851,-0.07330221909164635,0.8267871199805553,0.22864258898357614,0.6527976950109546,0.2836667690242627,0.15540359878424792,-0.16414148257488656,0.22990396284868275,0.8340239541628112,-0.4278957509781285,-0.2493395747951425,-0.5002588781707806
759.0,8.726783514022827,0.7772783171249331,0.3844073663326275,1.0000166537983604,0.029491577905274496,0.022410430246693334,1.4453721467147802,-0.1758365685706454,-0.1921890728559907,0.175233891732192,0.8312746343468836,-0.5790849376714777,0.10842718772781795,-0.6781494374151422,0.11397587393335003,-0.030783994091672092,0.8848517716191822,-0.1418404570158271,-0.16143154387158756,-0.030066196865049986,0.08980589317348928,-0.037664446260937644,-0.2878950015272885,0.06551105102542848,-0.0983072445644878,0.8233888122358861,0.2373989002782475,0.6449938757488423,0.2746064064985744,0.14792733972061925,-0.1652367498698607,0.21560527982998393,0.8257725620333574,-0.41774920552316885,-0.24421979394703758,-0.5057616057239789
772.0,8.836750268936157,0.7787825068217977,0.46364595302688166,0.9978401273820763,0.02421769742095871,0.033336762357704317,1.5013130524897025,-0.10420395219142733,-0.220806963618359,0.13774560040004974,0.8298094677940897,-0.5503272228530647,0.09785683908672987,-0.68919448354649,0.16297499156291712,0.025195282209015686,0.8684390971931519,-0.13075769354687578,-0.1452038432953546,-0.03310066795498382,0.09794797411950547,-0.046563715777606124,-0.23074767654767048,0.021008961350472234,-0.12101708206309919,0.8574953500314173,0.24287437575739304,0.664542606864625,0.2804929234060076,0.1561035638517318,-0.17531643729459967,0.20280172155057047,0.827603616640458,-0.40626429010726317,-0.2361686721580285,-0.4956193489965889
786.0,8.943376302719116,0.7836850141927436,0.5453138412443808,1.0011470077571305,0.018992038341554697,0.037033602452455544,1.5643822664876206,-0.0776109177388743,-0.18782494310608347,0.14144942236505997,0.9029362820927673,-0.4108784842642066,0.09450937745328082,-0.6451062403501929,0.16720110175428876,0.03136758125090673,0.8853478776059901,-0.14426773509422475,-0.13654155661710943,-0.014857922885582934,0.10741728070812123,-0.05947873686657658,-0.14222722068319157,-0.0061920140474969465,-0.14763155668824487,0.9102773311651017,0.2525379621594333,0.6952915121711389,0.27750374459484684,0.16119097345782546,-0.18894381695005022,0.19149349443821562,0.8373810381125488,-0.39313715917774805,-0.22156909263392577,-0.47035819101301324
802.0,9.054126501083374,0.7898897889216623,0.624641958743021,1.0069193076385197,0.013632682143988849,0.04105529639562982,1.6315238718232723,-0.12515059101806353,-0.07773753506618417,0.21250534766721998,1.0465862947635878,-0.33756043084980325,0.1348109597533545,-0.5747329793072298,0.14103269180105693,0.003676690611470669,0.9047661597180767,-0.18771564638255905,-0.1327776441015437,0.024687769045406833,0.10614657106816427,-0.059351474205419016,-0.08214849244874052,-0.012203423551836142,-0.15141040845702466,0.940688543660575,0.2541103746836015,0.7053200807229529,0.2858168883620409,0.13246630772952128,-0.22219720030550955,0.18380608123459274,0.8371122005200691,-0.3968991384987064,-0.22007120649794804,-0.45638402386283605
817.0,9.196816444396973,0.7933992027521177,0.7054500937918656,1.0089944022189492,0.006638010955216992,0.03679071327618341,1.67533019947569,-0.260332668562136,-0.0117819091660846,0.2533372350723887,1.0999060909493086,-0.3767060595831323,0.16253115539489754,-0.4991884418895255,0.11271438580982557,-0.04519447893460156,0.9216826305925729,-0.25602529942258456,-0.13257038393550263,0.09005506987140154,0.10838193550822334,-0.05144560833965061,-0.0676986204776987,-0.017577837340436525,-0.1288229091375625,0.9387445654110989,0.23729356856717893,0.7024399560527854,0.2959684030776543,0.04001352305836295,-0.2714216248233994,0.1806442503294845,0.8204334918304195,-0.41943576177271585,-0.2270604311398426,-0.4483572349810887
830.0,9.321683406829834,0.7917300534456573,0.7802847859975304,1.0105564345059868,0.0029172333981919646,0.022830846427245734,1.6917663026608116,-0.4073591413110692,0.016358967119225916,0.2680726234678244,1.0622931381215313,-0.430436807235617,0.16615718390341924,-0.41597750993386706,0.10423280327412823,-0.08356593211741473,0.9106562846247238,-0.3258977042972876,-0.12893793986404653,0.1482291103358953,0.1219694375793158,-0.04612716738132777,-0.061662652534327775,-0.02253430263261698,-0.11790584867330203,0.9129413030026785,0.22798098687786178,0.6852134970587642,0.3014807734989136,-0.06636586347040727,-0.3033204059570671,0.18895853175845242,0.7819116002001574,-0.45229974986275695,-0.25406108721014276,-0.452010891762906
842.0,9.428246259689331,0.7841851201707328,0.8512342611171853,1.0095414170772252,0.003690539214359312,0.0004262025652055062,1.6909606376981552,-0.5387612788845482,0.022514558611112196,0.2788609005109527,0.9689035273735528,-0.4963310048534013,0.1614355302244277,-0.3288286420264387,0.11214902820806597,-0.1089762065085229,0.8841242649300134,-0.3841015791399238,-0.12195689266891338,0.19094271805970764,0.14082056138472848,-0.04310433974980181,-0.07395378860543209,-0.02741741152433251,-0.1214716187617658,0.8819400443401553,0.2294910269437313,0.6764777235296997,0.30116817149878283,-0.17630457894524879,-0.30333208451337823,0.21588869719515597,0.71874991193751,-0.49256624668817384,-0.30652329230168585,-0.46131931939942394
855.0,9.523827075958252,0.7711901766523197,0.9203098335311054,1.0039302986899505,0.00961226774549926,-0.026403678511332455,1.6859362283628325,-0.6052478384757813,0.031564877392140867,0.31025920130285906,0.8868859554337898,-0.5429125504296903,0.1525109117081263,-0.24091351489641227,0.12934360817729337,-0.12385154466076737,0.858810995000159,-0.42385770417929103,-0.11546056290051719,0.21408110661016405,0.15860095816415737,-0.04673799122359496,-0.07741701634285467,-0.022059890732574094,-0.12269225191758806,0.862796985356812,0.23257020845530593,0.6799924194383915,0.2999020713509079,-0.23711944742562246,-0.2712120321100615,0.2641335301153634,0.649350680226498,-0.5323303424652023,-0.3671977546263874,-0.4670931932443215
868.0,9.635523319244385,0.7512895778665021,0.9948641632160965,0.9981389819295321,0.013388633961830973,-0.0486383765885741,1.6867744361917465,-0.6183482138563072,0.05566915323925704,0.35341399013690256,0.8813142234554963,-0.5207473753754731,0.1506305389999636,-0.15855618120380827,0.14801891404894565,-0.11244207189610951,0.850970475513428,-0.4271157368976902,-0.10352648665686581,0.22419678684244143,0.1592682978277082,-0.048151197402127144,-0.06900012893787001,0.0009185404247609961,-0.1138951134184964,0.8650318788932705,0.23411926084949786,0.6965000898397025,0.30091161193804483,-0.22955375292728541,-0.2148230455738216,0.3320844825706273,0.5957964858940652,-0.5764860650419783,-0.41748938641439065,-0.4847653161199368
878.0,9.74239444732666,0.7224175539545332,1.075269647095456,0.9952877170360164,0.014074211682636499,-0.06140215843280514,1.696754658992032,-0.5882528270870996,0.04318529250858944,0.3648718259434408,0.9019850415357252,-0.5293476677818175,0.1556877031594882,-0.11527773857717112,0.17217830644913779,-0.05805035707790592,0.9050865660043717,-0.3313096652248573,-0.07038785897357662,0.22703225999117715,0.15112969663229722,-0.04527831848771495,-0.0549644003978341,0.0311847411535117,-0.10465546693825545,0.8768035948146284,0.23336194004352567,0.7107572130562676,0.29140359935869026,-0.15921087427155778,-0.1633346367849101,0.40124152364665944,0.5848899563074872,-0.6128136245503242,-0.45344377478775033,-0.5089271227473812
889.0,9.829955101013184,0.6895308173778785,1.1487330930332977,0.9936053081623545,0.012866571774527664,-0.07025472398769081,1.7101966436675835,-0.5382134594523544,0.013021245950996227,0.35676882326911563,0.9275202678755605,-0.5490912335401038,0.15486420669334744,-0.15614444482097256,0.17709039595017093,-0.014380353818468947,1.0438946610730209,-0.17957676451077845,-0.04287266014053418,0.22633902803730555,0.14931224040439023,-0.034736314146202076,-0.06183161729595113,0.056654153622690565,-0.1019016424747298,0.8758230828524984,0.2346904276136388,0.7035099198455643,0.27796947389897975,-0.0713325809042648,-0.13944580457248584,0.4336873209164672,0.604175203400815,-0.628361537706391,-0.47039518185178153,-0.5432059983134497
903.0,9.919219493865967,0.6516947684732497,1.2155620966210097,0.9929202154005538,0.018186399788277102,-0.07806411459361007,1.7427180487068519,-0.4721371823855818,-0.03818834330562113,0.3246567078119204,0.9323815732970087,-0.5682080300752053,0.1468715422631274,-0.2556749156683482,0.11421148099781067,-0.026533527101205243,1.1861958341821026,-0.07179170411138072,-0.07681599844776286,0.21147108974857162,0.1596261030693581,-0.02345072021402795,-0.07588231676348518,0.06473760010478462,-0.1054637574810359,0.8424247176505371,0.23923677484053912,0.6684950487888839,0.27759281901134614,0.03143436304698976,-0.15377196817128638,0.42356672781852533,0.6208662000839034,-0.6185395810255434,-0.4832492492068874,-0.5787759319924675
920.0,10.034258842468262,0.6054587518334532,1.2829908145030884,0.9908887870371588,0.025080790391465227,-0.08144202592844534,1.8180378790362988,-0.3871750156564862,-0.11251698236721053,0.26798379345321194,0.9090556615395997,-0.5811407386500202,0.1357659045556266,-0.39469088592848345,0.07967865350441232,-0.022794426095330007,1.242305898518718,-0.06020120186948269,-0.12465341571200937,0.17728152133795444,0.17185207881804077,-0.03074749935684106,-0.10311249509915837,0.06586486254980711,-0.11380010308074537,0.7573613514974613,0.24080661721237068,0.6038139552350025,0.2672184399948948,0.1463238998278694,-0.18779191454346256,0.3742181702107832,0.6234557383003285,-0.5865648554630509,-0.4940907313013317,-0.6234635143585086
935.0,10.174211025238037,0.5377638475283294,1.3623468942401689,0.9916456492695853,0.02475042321030967,-0.07711294105622912,1.960109621870981,-0.27146626029262355,-0.2010249426366844,0.18329774365020474,0.862779605760768,-0.5266006875447394,0.1048204216253507,-0.547450723985323,0.16764291437729906,0.08974598377525225,1.1053257874976896,-0.058859094326979236,-0.13065812540484437,0.12501668870605864,0.16239260910151496,-0.04318947646394789,-0.17512238766850258,0.07464742195653451,-0.11140478846943033,0.6090193900105123,0.2450866432933657,0.5244268581496181,0.265625512566862,0.2598941066115624,-0.2063572828529016,0.29995105451939374,0.5841612321741606,-0.5379865381434894,-0.478366349609617,-0.663751259379775
948.0,10.298559665679932,0.45060753386332086,1.4479088829761415,0.9885101181392147,0.021543394662717416,-0.07533359441937312,2.1216502662376886,-0.14634089571134554,-0.26547537050039305,0.10279171320258296,0.8303319504210489,-0.4201402953387669,0.08247209579854153,-0.6485253710839847,0.2537558679954422,0.19099567862419925,0.9707552273808177,-0.03890611976695808,-0.13716285794747607,0.07835606088924647,0.16106916117376063,-0.05977438736191778,-0.17589317817624728,0.06711444975579628,-0.13492398161967845,0.4450976557559584,0.25974412277294706,0.4724231504292894,0.2603274876438788,0.3708094839471485,-0.22043926914421352,0.23922381487347028,0.5139256259658296,-0.5047854162150531,-0.47739023345141024,-0.6955294873757261
961.0,10.411290407180786,0.3551908242685971,1.5288921909023738,0.9717627172334089,0.016754028216269666,-0.08608346444384812,2.2866033468853706,-0.08772656046718487,-0.25061895964710246,0.10788914696873712,0.9160679534652999,-0.28391479301170286,0.08582119255649494,-0.7128710221029405,0.28883055765351406,0.21918998732760275,0.9605983884295657,0.00561593647376063,-0.12195714885935946,0.04984548586657055,0.18418855947798832,-0.06508823614982892,-0.13137050468621356,0.037132237831058644,-0.17204752122362926,0.31303129687947834,0.264621126549605,0.44134611002924407,0.25062549324084976,0.3785475667990651,-0.23948920629793716,0.19241895095566203,0.4642165047603286,-0.49216118820077426,-0.48164046538238614,-0.7080112828003304
970.0,10.51908016204834,0.2574294546525293,1.598184763321965,0.9456192597066706,0.009825181119716647,-0.11184425021489489,2.4730797888485156,-0.2006425772615436,-0.14800321052811186,0.20072464023507963,1.1616755561523564,-0.22848640722094204,0.11412471307525585,-0.7221046862849374,0.329000185643359,0.2537294506954177,1.0601579836851527,0.038989798006109716,-0.05379478958123382,0.08672542295958663,0.23202135737973542,-0.039139824027950035,-0.07720668550330631,0.006018681156848331,-0.20929148817200055,0.242313642007707,0.2521439203282336,0.4064658603822432,0.2216135293768382,0.22066024980440763,-0.2707731584996492,0.16241999851714223,0.4480017804057459,-0.5046620634367586,-0.49681114581525054,-0.701650098626751
977.0,10.591105699539185,0.17130328982181023,1.6450467610842003,0.9257597994489495,0.0131007129898049,-0.14103957517761223,2.6529176898520266,-0.40742831552230285,-0.04561988128648935,0.30172367491545393,1.3528009944285975,-0.250614806655982,0.1342514400297901,-0.6700091175296734,0.35464247251567405,0.2740468712487071,1.16098316363821,0.039027849582221844,0.027533982018441726,0.15612774185273803,0.272803302247874,-0.021392018779689055,-0.000496265316711892,-0.01238160951088333,-0.2278862678204147,0.18761834370268132,0.2334831348902999,0.39325515911903564,0.19353131261716444,3.734159927165637e-05,-0.3342725725969994,0.1407557288460119,0.4332904035795275,-0.5305840205849671,-0.5351629339018383,-0.6711630118463534
985.0,10.64997673034668,0.09547650985470064,1.6709777090684008,0.9230631389086341,0.03344189730316968,-0.15962508355793126,2.811135357215486,-0.6087906461525963,0.008745984563030412,0.35951866672591415,1.4119748708889137,-0.3001381138392749,0.13228094153970682,-0.5739076695308634,0.3665298019393858,0.28055923276256345,1.1827694149545054,0.014356882512892525,0.08284596391473126,0.21903487605840316,0.3003776693435385,-0.021959816789730722,0.07302754699661293,-0.011259834962421849,-0.22926709067579215,0.1312642011576555,0.212916539733185,0.39965698835244207,0.16104139129390266,-0.19254022790255146,-0.3862980215063712,0.12154635178421991,0.4140632401409201,-0.5479154387933454,-0.5742415468527039,-0.6416161938083179
997.0,10.71960735321045,0.015588043354525096,1.6807891086312825,0.9389448528675566,0.07326117119742001,-0.15744240205561025,2.951438905274058,-0.7304011109016596,0.018585162555375297,0.3768752093381345,1.3102306015809866,-0.3430880854063278,0.11486785912716901,-0.44138577199614754,0.3285555608456667,0.22508407432844363,1.1207895728939097,-0.013554879734650568,0.08007210527436938,0.26213802181914053,0.31587556848315124,-0.038129187127404957,0.1695053946198379,0.0021148246300477496,-0.23192782054618066,0.06350211275320097,0.19789693312419865,0.41366669888746366,0.13066311920390958,-0.28907222974420843,-0.4096867912233251,0.1134590016863267,0.3757938685157035,-0.5633334721030049,-0.6110689420563722,-0.6250856334347958
1014.0,10.81929636001587,-0.08949354645476064,1.6761044393798241,0.9554744058196776,0.13761077516814615,-0.14762874155891836,3.0920093310359142,-0.7591039469811912,0.04836281445730187,0.44997131762805664,1.1146931967354075,-0.3886889838717541,0.10151164213775479,-0.30976563196408047,0.20589116948440084,0.06955176508548389,1.0647679646124826,0.03344750573828657,0.014742003009422917,0.29393519066711865,0.3085686549351459,-0.0961237670650037,0.2794548961746171,0.026024173201051156,-0.2389585654536862,-0.04230710761457368,0.17899959712140995,0.4482146865418597,0.08779109659191886,-0.2999825350339189,-0.3788731213976871,0.13282045359994607,0.3239062921264637,-0.5761086843831802,-0.630345867393426,-0.6171610247359998
1028.0,10.958770513534546,-0.22401832550928158,1.653194625025811,0.9385335060361882,0.20029700072835305,-0.12041395133810681,3.2331099986915857,-0.721574983588118,0.009819925412128266,0.44165651778865944,1.0507061941447997,-0.5078310053887798,0.10653634600805031,-0.35610413422922044,0.0559015650275386,-0.010205536643859713,1.2409763878573752,0.043940781947259235,-0.08198722100822013,0.2974686614872143,0.27238009689081977,-0.10638334288657081,0.2465765188141834,-0.005704973020972972,-0.2529573565414408,-0.1022491766971787,0.15288928470961063,0.44219768239767987,0.061019326874684046,-0.27292265086087764,-0.2891312089784004,0.18092055259734657,0.3204031162101325,-0.5627112685897013,-0.6899460234731696,-0.6347364162816537
1044.0,11.07308578491211,-0.3589199066305824,1.6040805559254205,0.9317666389305279,0.2500473015807152,-0.0792657143674442,3.4020565881121803,-0.5960794435027893,-0.07112075672129854,0.37169276568398635,0.9856429747667583,-0.5786114188570486,0.10226062042733734,-0.5350028287626163,0.06800493369469349,-0.015445874325173733,1.3684651071682432,0.027968176956970795,-0.1352755961147299,0.23721429394220306,0.2576550772235743,-0.10681914842014825,0.13560519851002034,-0.046443877950936505,-0.27551292827853757,-0.17309140334498124,0.12850593557243026,0.37624314949666976,0.028492466472469946,-0.1452036956484218,-0.19613569545905013,0.2236217953039408,0.3158982078734276,-0.526246775007509,-0.7477934911412358,-0.6617441490957198
1056.0,11.210740089416504,-0.49446722973135593,1.5039103115256698,0.9510789544948868,0.2708680668231461,-0.03553329152884756,3.6192078830815713,-0.40959916431121185,-0.12625444165796473,0.30122369763535306,0.9339680866258846,-0.4450287323997291,0.10832820527518901,-0.706243716959343,0.16374529741447974,0.05960266948470089,1.2335877668389874,0.02144784486169752,-0.15511621447843588,0.13744243845009638,0.2563929798800549,-0.1145896240717039,0.016105513840125367,-0.07754579027664762,-0.28455970171285433,-0.2595795036013335,0.09202556301447674,0.3386897217500414,-0.013755648880569987,0.0012316014552880422,-0.14234929509271935,0.23343025275804064,0.28435893543552293,-0.5037761091639278,-0.7565021631864048,-0.6776845031594899
1074.0,11.309610843658447,-0.6098242834746141,1.3869888991548156,0.9525958501523821,0.2626478706782768,-0.010926890891066417,3.8350699675134186,-0.28824610074719526,-0.13391546597508355,0.28394754760264385,1.0069957745725713,-0.3218445898026123,0.1370286675717024,-0.8011534555641587,0.24921222094519796,0.14360535993102103,1.1428600115794438,-0.00628712858597247,-0.13628029629489619,0.07824111913130816,0.2542884411878464,-0.11688774897231592,-0.03877243738628522,-0.0962555415566887,-0.2858409122081357,-0.30927127680587396,0.06358518217032232,0.32022682588145146,-0.036853849993960075,0.07499204137196604,-0.15925713716024073,0.2030727914007858,0.2716202223755456,-0.49005245364444305,-0.7489780847565333,-0.6618793347462486
1091.0,11.455090522766113,-0.7135084527000781,1.2370666258367224,0.9353357082060312,0.26675999016292556,0.014357909884544964,4.033835827259917,-0.42415980985589274,-0.04664896567028745,0.3169748455841962,1.2564275995097833,-0.2867451180740437,0.1738310257456268,-0.7539975684320062,0.3516336176835051,0.22786269332587195,1.1144620241520267,-0.07968264757623689,-0.04200385037905295,0.12615386529425557,0.27248413054222986,-0.11046714807168534,0.05508395563491401,-0.08443895999358456,-0.2608476227635626,-0.27140934222531615,0.06364281079111642,0.323686385758386,-0.012826850055730622,-0.06857479786534108,-0.2233000072253507,0.15622153697642616,0.25495695064880686,-0.49841459629936946,-0.7849991228430295,-0.6323900489469182
1111.0,11.603683233261108,-0.786300237731278,1.0327896163957782,0.9631537415859734,0.24686542302670053,0.05759316719389282,4.207493724910547,-0.6209408535044566,0.014157670942379016,0.3095478989106092,1.203026933469479,-0.31220664978208357,0.17908461079783317,-0.536820435279753,0.24768257908473776,0.14776570451375584,1.0176356229494883,-0.059185273965400756,-0.053797390154672366,0.22813855588409532,0.2468554469018071,-0.11466037826627767,0.19422894080658806,-0.04564197004250099,-0.23767774081034293,-0.26985360895444954,0.06282487621245436,0.39659310187375907,-0.011175089591315867,-0.23613334368216587,-0.2359847546206592,0.1505601125955663,0.2100097112724714,-0.5144907398848932,-0.8213326931632641,-0.5906915827397712
1129.0,11.76689600944519,-0.8276750378514622,0.7768934092921628,0.9644786652616218,0.19908395353355976,0.11844571480946751,4.371309616653006,-0.6863653993611324,0.07046840390115096,0.36893396956482993,1.132302070599915,-0.43148238884844703,0.17239261413525928,-0.33602421447248504,0.13051561880937065,0.05967276598851652,1.1128483054204088,0.06138021536620643,-0.08686269207071337,0.2719932880939389,0.2177606223782409,-0.1348479948264532,0.27746134746608764,-0.017421709361641672,-0.23318115694231217,-0.2994311589416122,0.06698682228188343,0.43698755590587945,-0.013787188661334188,-0.24584281399303848,-0.1734813134118412,0.1997469362031119,0.1744335424942139,-0.5318671319595237,-0.8296654578337055,-0.5754990666368918
1150.0,11.917722702026367,-0.8314926198022716,0.5082398615137002,0.9624736656415729,0.15371578434081565,0.16421129540482138,4.5257093323378985,-0.6071219547010048,0.017703655858537552,0.3507405330061506,1.0563587403043877,-0.5424296633790169,0.14181571262459933,-0.4458965335183471,0.051249419953051045,-0.03021766640328393,1.2990664383788855,0.08262750340122597,-0.1629143996007087,0.22361385920098426,0.2016609575796228,-0.1206874145559092,0.17416320347789935,-0.02556873466368512,-0.23431756115269936,-0.30242918763587107,0.0768583346173785,0.385759476778602,-0.016805845569877312,-0.10624456867590151,-0.10289641615481802,0.23170946157625938,0.20475478889255377,-0.5102869994546118,-0.834551447870675,-0.5995045827668015
1168.0,12.088958024978638,-0.7810856407089106,0.21038527581176122,0.9861133036729346,0.09073675919504184,0.16100515546145844,4.739932619091118,-0.34074224826329214,-0.014237075411737217,0.3635142480476809,0.9685166078857168,-0.4198333952264266,0.13687144947516722,-0.5905784704915614,0.10908403850425849,0.057688505939412674,1.1250006290292365,0.07630751123922389,-0.1931814520599076,0.09444871067836398,0.18394239717032335,-0.12428503272393014,0.08580654111567172,-0.0307133047882513,-0.25010347387605053,-0.35541615273156035,0.06088022792577718,0.38450209156345144,-0.053364388587508055,0.11506534176313503,-0.05925539360720734,0.244768103096479,0.1566496731873599,-0.5064598369339594,-0.7691276622857348,-0.602643983738032
1186.0,12.24377727508545,-0.709197021002186,-0.0644058072553653,0.9539272833120905,0.036428709200463705,0.14143695661248212,4.955171887056968,-0.2113871563364958,0.060509924271130354,0.39695766050295705,1.1870792288299694,-0.36527237493977516,0.18304815144227926,-0.6735598844325692,0.24512481430726807,0.20276539818309966,1.1478437431800268,0.045348016514603996,-0.13436952452183246,0.06220998846935342,0.19773023584219176,-0.10219813269101294,0.08664670943757283,-0.03280082178783681,-0.2763476847990085,-0.3516144843348978,0.056336010790658586,0.40529749319605823,-0.06687439028864757,0.17261003241851694,-0.10139483530726753,0.24117258080348464,0.16494089841748388,-0.5247450579432636,-0.7320078585155754,-0.5516691693575391
1203.0,12.394199132919312,-0.6011916549966713,-0.29184412349040056,0.9502214888644511,-0.02021483108223878,0.12236119660206699,5.226775035911285,-0.32943634982258974,0.10471800319357032,0.42408898564050723,1.2960975219391906,-0.3893132036660183,0.20699825102874447,-0.5517870254348329,0.3150112115426536,0.28139226992292443,1.0931459021075718,-0.029754693358212063,-0.052334488068790104,0.12020376267313218,0.21537004029563897,-0.08508016068416568,0.1948141615804947,0.002060764678291655,-0.27644916184154855,-0.31634830924879964,0.05001330384699704,0.42529870272546566,-0.08075796908081632,0.07952881016858873,-0.17361370850736685,0.2173235797070968,0.14153190044699684,-0.5582850435731934,-0.7521999436351369,-0.5010778994615188
1216.0,12.532046556472778,-0.44967830872668,-0.472879483509446,0.9695169689920798,-0.10859523642824341,0.10222346283381076,5.483828050327065,-0.4442868618246497,0.12890245328620542,0.4604462282711488,1.162290652722787,-0.42723410261098727,0.18778576104946995,-0.3202542942608458,0.2575483899168619,0.1843810053713218,1.0402401940283474,0.009095610101264761,-0.049761255836866164,0.21385269413177935,0.22214432039477264,-0.10056166116244172,0.34930831971149323,0.04491395784181894,-0.2451698032282918,-0.378030498373068,0.022115664022131516,0.4954528823302268,-0.10052023087453463,0.02625240850300427,-0.20004929325024445,0.21181915346588076,0.08674786913362859,-0.6007623592454219,-0.7296345569859555,-0.4563621109191787
1238.0,12.646103382110596,-0.29506077185154755,-0.5997079743992364,0.9581604195716746,-0.17575122419167705,0.08825858559120868,5.671716469391431,-0.5085593965194035,0.09462826936616373,0.44949988697740284,1.0808890759812442,-0.524300331556421,0.18141088277982026,-0.23955284913538977,0.1507550999577211,0.08125627967747581,1.2166632222165437,-0.0002003780187895491,-0.07733893130847096,0.29292754582875136,0.2085447692879978,-0.08842711360429834,0.3814011703767628,0.03513756075528375,-0.21025262759001734,-0.3945417963760868,-0.03067851967703128,0.5467045253361752,-0.11353636726616999,0.022256987838967107,-0.16155840977539668,0.21325002778224994,0.07549241059791365,-0.5576602128978095,-0.728684630779569,-0.4535829560759391
1259.0,12.826757192611694,-0.09945719036282731,-0.681639601489241,0.964476846073278,-0.2190590681691178,0.06679099608018364,5.9026153421884855,-0.41597809941964825,-0.011289760354433367,0.35820552960642443,0.978758315564956,-0.538137181701042,0.1509969321771931,-0.3867422522789899,0.18488086044803703,0.06422823999642549,1.2015949363713816,-0.0026232022557876288,-0.10863217659379029,0.28136984620931144,0.20244792759057645,-0.06724571863683197,0.258126194390623,0.0026659982537566053,-0.22300601916126095,-0.41529391852300507,-0.06484743425902804,0.5310867301640699,-0.1476383689974091,0.11974116465244206,-0.08419730418207641,0.22243575659725412,0.08209039706871193,-0.4911818897709888,-0.7164179340092018,-0.4821485184365605
1280.0,13.001183032989502,0.12005023674295978,-0.7100220639697749,0.9622901621455652,-0.2047341977877759,0.04729749136425856,6.194406778864916,-0.2532842240093332,-0.03336885925060204,0.330270666404588,1.0075059342018247,-0.4968288759938024,0.1655710867750569,-0.5353082593513352,0.24110120543525082,0.16809228755927935,1.1119973579230402,-0.012065489798889542,-0.13379880883381773,0.21521799038027412,0.1828336332868746,-0.06740031408325473,0.17299937966008885,-0.016485237117216986,-0.2555940107199556,-0.46308178890787344,-0.0770474341518519,0.5349864122103766,-0.16482400032749076,0.21440649362591513,-0.04020358458557548,0.23062827243269013,0.050164082313556964,-0.45358324501950076,-0.6970180262337973,-0.48719243788227806
1298.0,13.175791263580322,0.3290792656758305,-0.6850634038710404,0.9463266377176334,-0.19777586792201002,0.039998871459728996,6.5093110281201,-0.36171317268210706,0.031208015663555376,0.3517640027855441,1.2285837917316593,-0.4779222735722902,0.18960850732163348,-0.5710786300479727,0.2865737540487614,0.2516162001332765,1.090126110623016,-0.12833466718942238,-0.07404187765430334,0.2540784101387454,0.20526104107939874,-0.05763560006366934,0.17661881163168197,-0.015988907471022492,-0.2599318290214073,-0.4051566857953497,-0.06342551374869775,0.5164998403502484,-0.14835315586509035,0.05465374647706919,-0.10395927416086273,0.19823023899462328,0.07791038322663649,-0.44300349333511035,-0.7409475360963242,-0.44431928098788015
1317.0,13.325336456298828,0.5041597430671863,-0.5913582769359581,0.9721130130467828,-0.19930764601124057,0.006242539584111403,6.801896907153092,-0.5002601512268467,0.042273956541314814,0.34526786397761783,1.1667629130178254,-0.49901469031996254,0.166724200756973,-0.4612923892704768,0.2307750221093567,0.20864996993863288,1.0112454268210171,-0.08780960459603712,-0.0786335461335301,0.307967440842134,0.20813058898489842,-0.09269749070311847,0.24574122584640928,-0.0005555210876873069,-0.24993627627909787,-0.3860099690566148,-0.05085210453194376,0.5399288291379625,-0.12405434355164918,-0.06698332657339166,-0.14981222224385143,0.15593535458247415,0.06398014472850909,-0.46435888348913107,-0.7746162760028643,-0.43114030214823684
1333.0,13.485243797302246,0.6401286143933845,-0.4512755056334369,0.9594732102026193,-0.20563125432534146,-0.02862067479808296,7.035853267982499,-0.5914955801091399,0.008655337128486085,0.3292422836149233,1.1511364917132791,-0.5719966833738492,0.15971139366479703,-0.396290671171506,0.15335810824537638,0.14495355482557773,1.1581772434823785,0.03949298584256425,-0.08565402637853142,0.33645721149776975,0.16457650808999294,-0.13329631959272675,0.2431360973794519,-0.011865819087582226,-0.2389356343993959,-0.3767739431570321,-0.04549246362930921,0.5311609780181686,-0.09910548362600653,-0.10062540087520659,-0.12123345174063141,0.13819998778936382,0.07392463093958909,-0.470652367171592,-0.8266260281544557,-0.46815648459872494
1354.0,13.618778467178345,0.7308556263792572,-0.2852260268186466,0.9515722725710978,-0.21979815088867938,-0.06861897869809455,7.2043478859578105,-0.5501977390996284,-0.07253875052018638,0.2693401596594663,1.0749627214914115,-0.6368212428456778,0.12403709569918173,-0.48665224671918306,0.09563832337496952,0.03558108346248867,1.3491928763413077,0.08362455776804897,-0.14028071408417947,0.30562557090972764,0.1454500521415454,-0.1636485057506521,0.18821347473565336,-0.034191198874353006,-0.2746117273479366,-0.3562743993764157,-0.01486938954529794,0.4398983533358534,-0.08560416840901586,0.0029065962125861128,-0.06566630575073484,0.14384825496230597,0.12914970505306994,-0.44956271589483443,-0.9395294160884117,-0.5248312264713779
1375.0,13.788890838623047,0.7868610679608257,-0.061090943256084385,0.9721378826739311,-0.20903343095284954,-0.09476772838512947,7.35917144567446,-0.345374767098062,-0.1150013502449381,0.26212026468814253,0.9649103992485941,-0.4724041232806674,0.11803420623691821,-0.6294066877788658,0.2052265743400953,0.05823104691588171,1.2064918964901832,0.07581345793779812,-0.14162071221029046,0.20256733635316512,0.15215864964499798,-0.1911212067030964,0.11415518147619966,-0.04466012834911423,-0.2939228314703354,-0.40159739277244444,-0.0029679652747495976,0.42366122318618255,-0.08898845158286513,0.15281771138193984,-0.022423586636070702,0.15157197347282908,0.12471315853830374,-0.43782673384887083,-0.945539888288492,-0.5445318870293969
1391.0,13.965802907943726,0.8164093472720528,0.19820269663420825,0.95243400673197,-0.19097163306548204,-0.10339236625529276,7.5158605941061865,-0.3352784560938241,-0.012197789495882516,0.3139971593909484,1.196779219902238,-0.3865073786165796,0.15689843851357843,-0.6907711601573028,0.2784015469886538,0.08114300277584899,1.1869878529092612,-0.08781981206269213,-0.10292855640031846,0.21701754507502402,0.1879335855127208,-0.17762910391901648,0.12423908786713533,-0.040612565997136786,-0.2815994581979953,-0.352655101917386,0.02671731301314606,0.4207709579498319,-0.05235158358684955,0.09707054276602195,-0.04119386301807445,0.12646393168722642,0.1703638767803195,-0.4655305474452709,-0.9523780213215265,-0.5497837342047791
1406.0,14.099201202392578,0.8117390379408734,0.4513138982851992,0.9741003875361183,-0.14141452771763569,-0.11559710438416612,7.714769834153831,-0.4418249394305197,0.03656033021814721,0.33142263775983993,1.211073596352409,-0.3544387713712577,0.1602359545021589,-0.5486788798422991,0.2756446111486384,0.08066582805913558,1.077716367358815,-0.141658980489881,-0.08204951039037975,0.2508565530857986,0.19562371883722046,-0.16872882642014436,0.23257796649847512,-0.015160397851665824,-0.2658161896674832,-0.3307243502230382,0.03133596848541685,0.4336837422947162,-0.04052080632645068,0.058939340494884286,-0.06339722839706302,0.10597090729887332,0.16598612242254113,-0.5005754246527971,-0.964990866718678,-0.5419578674010437
1423.0,14.223089694976807,0.7783082473232077,0.6918024119424315,0.9933509294848339,-0.06719628612682875,-0.13765983173307048,7.91206827006102,-0.5321685433795499,0.0844065875173319,0.40718108165998956,1.1032233865457721,-0.34303938683897994,0.14583354025490042,-0.3368885607816945,0.237289464134053,0.055198654036419235,1.0381198727045746,-0.06453524922525372,-0.07820762430204914,0.2866079513143625,0.18715369385754677,-0.18018483546450312,0.35447854489878394,0.005212144098050127,-0.24572481151092823,-0.39047955987344896,0.008310750701831217,0.505644735099516,-0.040652434582091765,0.06167625879252074,-0.073423192142479,0.1013208524824388,0.13467212965183004,-0.5255767581137565,-0.9317651114407506,-0.5140553882835119
1438.0,14.36396312713623,0.7224975928038833,0.9099304371228896,0.9658178755238983,-0.01624546452387208,-0.14919362466220665,8.071016842032966,-0.5706256426510257,0.029404721097664677,0.4100448579205139,1.082480241784916,-0.4810902773609331,0.13347763906083362,-0.3074665280430309,0.0867610111442827,0.002866263288767743,1.2633573077919618,0.01170646572055025,-0.12277347173296123,0.30471395349125785,0.14569119281448956,-0.18760572578966309,0.356334691027808,-0.005733291600036123,-0.24804802695010358,-0.39034979129225883,0.02048607406865259,0.515091390249554,-0.017683154141089626,0.08841229331927691,-0.07349675968367891,0.08968794213571539,0.16118891968239282,-0.5393877610386687,-0.9129780374469099,-0.5191873456838823
1457.0,14.495765924453735,0.64442299835309,1.0927891467075024,0.9599777723340592,0.019630077511650752,-0.1626452502681734,8.207431625684785,-0.4726109840612035,-0.06864651902865193,0.35478845239127776,1.000200999480298,-0.5546673028174047,0.10802066815005144,-0.4633247959817419,0.09747367365506159,0.021381176305606778,1.3357277509294665,0.015192534365029625,-0.17020363785552256,0.25908326158944234,0.13480320291354303,-0.17756779915595444,0.24197702206036575,-0.02734665859563519,-0.2580496788639267,-0.38399429783264444,0.022755603308827352,0.47100923677579765,-0.02788001992930463,0.15969313706151544,-0.05026376898331268,0.0900462690806365,0.18256094982982843,-0.5319268476422867,-0.9029393392638945,-0.5331394408393555
1466.0,14.649365186691284,0.5227817973665395,1.267455338530063,0.9691414176597308,0.032593134403428696,-0.15189260723259956,8.372159898753162,-0.28745131514061073,-0.11690589177438684,0.32005596284520854,0.968719542327221,-0.4462260701476422,0.11079473269958222,-0.6171250278486559,0.18276285645951243,0.12691527167055244,1.1880788443956702,0.011648669259354129,-0.18235199814850095,0.1741268512315076,0.12161777950310397,-0.18123967791082748,0.1559105621863372,-0.03225376449330702,-0.27915176663294256,-0.40868565553829994,0.02637083555658897,0.47311739904001093,-0.04806634547970731,0.22624391575611785,-0.041583536911155454,0.09188772798619907,0.14371392560560795,-0.5458103886394248,-0.8680505837457753,-0.5226314431546153
1476.0,14.722504615783691,0.41107502749122693,1.3992052686208765,0.9616060455780284,0.02813164681511213,-0.14106005763337476,8.522990672779232,-0.198307922055585,-0.06834489131205981,0.33695626309514265,1.0995688724467487,-0.37101947654701684,0.1598696618218131,-0.7013018387012585,0.2822000766349587,0.2498277039876451,1.1128562282498715,0.029192376793378647,-0.14414126845350175,0.15056857186352482,0.12884942901750146,-0.16220240286704884,0.10586487258885911,-0.0345245359637389,-0.28286576542683955,-0.3809322210498558,0.026535304275496874,0.4676840001411226,-0.05902773529439913,0.1930469277969331,-0.050800528127501465,0.07492778702802384,0.1440020631529458,-0.5570815089305308,-0.8459669642919082,-0.5251882910249751
1487.0,14.805238962173462,0.31113120191002835,1.4951240425036212,0.9475817652524651,0.03001962532330652,-0.13369191531673266,8.666619542759749,-0.23645551672879855,0.024479396495550143,0.36504982578680534,1.2901118319861022,-0.3173840158628999,0.20196168080253268,-0.6886976295026856,0.38128110361691214,0.34907761721643094,1.0996434651276508,0.048166112550609014,-0.06493182906931545,0.1828100389257663,0.1592247593720906,-0.13291850059281402,0.12232329219561938,-0.0390984650682777,-0.25953168648648384,-0.3393968326299519,0.029382244049729576,0.4778330581774364,-0.036282751757296366,0.0909305113859537,-0.08827804911354659,0.06646565800005885,0.15496326233257832,-0.5827725402483125,-0.8361716813562542,-0.5103680365583685
1501.0,14.899311542510986,0.21183488780167026,1.5611055824330167,0.9475960942091395,0.048788392669632474,-0.1250314154657379,8.844539772334153,-0.3910668961546899,0.08488955096716638,0.3938025356829979,1.3665884844156237,-0.34411979792385106,0.2122201519641972,-0.5660610049566366,0.3993842285082241,0.38088864462499916,1.090441480761263,0.049530391054277666,-0.0018346391822028837,0.25596248189397247,0.1875081541167855,-0.12217511834145534,0.1737838932044267,-0.021692198368645613,-0.24304125074671856,-0.31379607696531664,0.020633981770292267,0.506854400326446,-0.04215525665357772,-0.02988038020054857,-0.12165460454174595,0.06009918792660697,0.15382709994844648,-0.5886672788261235,-0.8400491177848082,-0.49079138269746825
1514.0,15.01978349685669,0.08950913258650273,1.6011845188846103,0.969417798867309,0.09670788595122283,-0.09592711318828293,9.032104307350478,-0.5091403856723833,0.08995078020812011,0.4166438781411165,1.226755229487464,-0.4035228881985271,0.16878396170667564,-0.3844666627594483,0.2985724637133673,0.2650825642392068,1.0572751688400186,0.06683274371744924,-0.019804663512551644,0.329264949833591,0.2155353159403604,-0.12855682345406538,0.28484933391377487,2.255345476681603e-06,-0.2356134775682963,-0.3400657863888716,0.005584170220233496,0.5395829488450896,-0.04849984943367258,-0.05653067697300756,-0.1264694816356431,0.06485907036708366,0.1375238159558863,-0.5959847722513404,-0.8443239403998077,-0.48676958325915964
1528.0,15.123232364654541,-0.04958346375047461,1.625697597082473,0.9694756076671867,0.15868336240627204,-0.059425966417926177,9.214620017513255,-0.5441442330733729,0.07182905192670554,0.44003495402324644,1.079618425832716,-0.49420819316700143,0.14642446901201453,-0.2681405904656755,0.1742281777898194,0.13787727812610756,1.126137189377773,0.12461212938935264,-0.06503785522814974,0.3811312179944486,0.2270295621501107,-0.1474925501203731,0.33789647654631016,0.005152415931445887,-0.23936190153475742,-0.3723514266482369,-0.005579730979053682,0.5628389551768844,-0.05187581410208027,-0.04787381026458203,-0.11536209273623134,0.08146496885926378,0.14125976155368422,-0.5908865335237038,-0.8483624555908515,-0.48480111355999933
1544.0,15.238629817962646,-0.18856795458716202,1.6330723138898444,0.9527458481894431,0.19943190671800892,-0.03330327762109359,9.40089045848543,-0.5229273037752122,0.005674053509029442,0.41283023654741974,1.014021461347292,-0.5876237943168863,0.1198342064645797,-0.322074031518097,0.0889758423685582,0.06287510138950642,1.3049302790696118,0.10874002396552215,-0.11737718611993578,0.377651910137304,0.21679435960819346,-0.14786893958976005,0.28509280394672737,0.0075517725869338635,-0.25640675473188057,-0.36740008430954885,0.014552731969794836,0.5319009854315664,-0.05311645494114071,0.023030722523162274,-0.07286310135660024,0.09252865548307354,0.17138386095363584,-0.5713386394329397,-0.8524578272386818,-0.5161567705305369
1556.0,15.373359203338623,-0.3313890444357729,1.6039574171583308,0.9597093317192227,0.22432400754738363,-0.012845044793080298,9.589642570293686,-0.4014983158232346,-0.07153029221750215,0.33396960712682455,0.9410206974379264,-0.5616317842924761,0.10728512383510622,-0.4689909192208055,0.17462702519850118,0.10864360763018494,1.2781939856945004,0.08591668406167159,-0.12803107620218107,0.33169172189688073,0.21897213423216427,-0.15030907618443434,0.202880832019462,-0.00939437271439118,-0.26993240604148266,-0.37842115932965786,0.01235865021101643,0.49285057704823365,-0.06582241920481405,0.13229448439992475,-0.02698649461005554,0.12422091541035477,0.17750225405322984,-0.5441554345040818,-0.8340568490649848,-0.5200964799826434
1571.0,15.472836017608643,-0.45813955056699285,1.547327262233153,0.9677155319209445,0.21925705670277967,-0.0024358398282357425,9.782091907543375,-0.29015166739701437,-0.11088464149388516,0.2836955221727615,0.962430805784279,-0.4186098847812987,0.11341934439675508,-0.6039491548635569,0.2448847539191508,0.1743597951109065,1.1447889129605995,0.08913214587537091,-0.14387740996763565,0.281187106457376,0.21282134433406558,-0.14544662885790655,0.1205012275700749,-0.0102384120634914,-0.2811843177809691,-0.38440051898190253,0.005233106087086248,0.4867430697957128,-0.09486795620809556,0.18465200601823795,-0.014585058914439671,0.13519420820709416,0.17268235066532067,-0.5343177396593154,-0.8018237266255548,-0.50715333265769
1592.0,15.60223126411438,-0.5776495956115857,1.4711972593744487,0.9492193041509667,0.20873283986195762,0.008108531080124099,9.988836834540212,-0.3062767355111363,-0.05959011844672703,0.2754994448759054,1.1893402956999481,-0.3196446451294484,0.15063535704671546,-0.6573449278830743,0.30887152954775043,0.22248579573813285,1.110509748964346,0.18561541119573705,-0.12488321239059935,0.27483352430225866,0.21970836063978688,-0.13324533178887607,0.10985628380320275,-0.01967777456776379,-0.26643252835338044,-0.3680045971815476,0.0017625632722950415,0.4875238747811125,-0.08389002826170873,0.12580075716124853,-0.05421014762449171,0.11633123268712525,0.170085998098912,-0.5196336462960659,-0.7954964227386205,-0.47784287449207724
1609.0,15.773515224456787,-0.6880013618094913,1.3305777937323158,0.9661433822246295,0.2079602007525978,0.02392259664319241,10.22692174805843,-0.49334801390196426,0.015981840498690635,0.28185350714548973,1.2097822436135386,-0.35078438783022864,0.16208306274064488,-0.519852083385714,0.2954274094186778,0.23117827201578028,1.01105431922812,0.16046953331936395,-0.10378048878082777,0.3327000160033391,0.19073055894056268,-0.13714521236658286,0.16776294097375638,-0.02477855550064747,-0.24937116839220846,-0.3382307912212193,-0.0001336740894264366,0.5137410155512001,-0.05999494040155075,-0.045826654875847764,-0.11054253222378521,0.08166872296107269,0.14635715356391404,-0.5139294767761853,-0.8282157063092535,-0.46124589824326034
1623.0,15.919883728027344,-0.7714855568017909,1.1479643097416,0.9730478878401759,0.20203445433397071,0.05184624428776617,10.425080981281937,-0.6214206922875909,0.0713052595124701,0.2976979936373234,1.1625375725480929,-0.4158360669264346,0.15597040932411654,-0.37270860188044297,0.22234143504768653,0.1787759035535608,1.0348134560948066,0.09117323418118736,-0.1181442151545622,0.3675168189797402,0.14128045592962224,-0.1484078093273617,0.20808457355798465,-0.03483242747352183,-0.2587954359614852,-0.31383282784889666,0.011439911332445677,0.5230826836671427,-0.033794954946136053,-0.13255813114312665,-0.11662960158083124,0.08447580013447184,0.1527029239765072,-0.5192449235652462,-0.8590968760266726,-0.4584524421992975
1637.0,16.03115701675415,-0.830057564834348,0.9611089160457609,0.9562914639772194,0.18772327122471955,0.06106639671224454,10.568873488341247,-0.6614626525298558,0.051068152935061756,0.296014346826164,1.1659218070843285,-0.5406653884928991,0.14012418213209138,-0.35586394743894134,0.1496658222675397,0.11961511894636566,1.2129078368045567,0.07045643614701139,-0.1437139111934102,0.36121538741274006,0.0798918469944318,-0.14897071973287057,0.18587932950369385,-0.049785673977849366,-0.27310773348396034,-0.2997059747132539,0.058381080564198704,0.45624353389381855,0.016873153426060904,-0.1083173992914099,-0.07718203792570756,0.10607502739670367,0.19057419357470573,-0.527638192746808,-0.8809126433887702,-0.48953054187762846
1653.0,16.1509690284729,-0.8649523535969241,0.7677832473595315,0.959445625034983,0.1671415028525121,0.06932820082045886,10.64183441558421,-0.5377361007113373,-0.012014110592700689,0.28292288073476,1.0831136285873337,-0.6030291306693107,0.11655258499659638,-0.49892371494852406,0.19191653953731322,0.09885922211158478,1.2649808671846674,0.100067424016773,-0.1450333580907567,0.30500637022423227,0.05708389660656611,-0.14468208469135702,0.08074459642663025,-0.05763425241333963,-0.24299022740027457,-0.29288695618465277,0.08587970738426895,0.3855148403308873,0.05502000427394689,-0.0101558638390771,-0.02766732013005977,0.15011021871110042,0.2169082827088611,-0.5168581210412683,-0.8587734346213163,-0.4893911700472361
1667.0,16.287998914718628,-0.882237258162585,0.5595514115584262,0.9742827566759414,0.13357007284897737,0.07239018455796536,10.69969882541065,-0.3125332157139412,-0.05292046765896791,0.28575468527251835,1.0175599484179583,-0.47427354228654517,0.10916959064357529,-0.6196182621329804,0.2748593874738061,0.17547468914893272,1.11803411312901,0.10909422949784667,-0.15007292815702872,0.22024003228021058,0.05906392608662352,-0.1471851181394333,0.05009427499043294,-0.06239931076034719,-0.23026661995017925,-0.35278647973162214,0.06636783606248763,0.3962845260824539,0.04207443510944937,0.13598982395708262,-0.015111623529189976,0.17178570076011862,0.1956397076461419,-0.5407988603954341,-0.7902181252212755,-0.47399848249313437
1685.0,16.401062965393066,-0.8884164097611252,0.3564179875890672,0.9576347532289387,0.10712431884126092,0.06678082783627365,10.717738682077897,-0.21229026323841788,-0.011066060025508792,0.3489624383025172,1.1698257623377977,-0.3724469687529328,0.14540159798746904,-0.7269899880884049,0.2568404130813635,0.1269011716535273,1.088071023619766,0.1737673223820256,-0.17661972192959843,0.23442354477376925,0.10178064703457414,-0.11174701942646093,0.05442163363103178,-0.067103029089352,-0.20958997419433645,-0.33542951679586036,0.05561271870446485,0.4053869070992725,0.04481645537253888,0.09660486273811826,-0.04920445383926911,0.1413560158107971,0.21863226196818164,-0.5509215359479962,-0.7479272678962721,-0.4740291540272298
1701.0,16.54712224006653,-0.8748659972404402,0.1438168905164987,0.9527672710222416,0.07564418690600969,0.07059367550914364,10.833866301849266,-0.30245741894956557,0.0494383017535603,0.39003611570701613,1.2807151812586304,-0.36792834157828236,0.1649473317916776,-0.6466025009771161,0.20157154166456367,0.1012822939612529,1.0679017607250696,0.28678348302950374,-0.17632548831832873,0.2679839003304751,0.14858179605761296,-0.08933798371653306,0.1756705896642428,-0.060360813882204774,-0.21713717366227825,-0.30450904744721197,0.04294045380662491,0.4277888720788081,0.04189881372099531,0.03819358904714317,-0.08202229685904258,0.10309165877141417,0.19974449616101325,-0.5525447818224927,-0.7647021798234777,-0.49213701580127794
1718.0,16.687737226486206,-0.8268723449084299,-0.07180377945024445,0.9732689937282877,0.054886899756436514,0.10922166171755221,11.010134177663534,-0.4621782710656049,0.11846855497210827,0.47594429202607047,1.142453881236081,-0.4062112847944573,0.13645275585502392,-0.4679179319857294,0.13373871797309664,0.05661621651074724,1.0414402905111744,0.1548058931031684,-0.17373380211773576,0.31175087063700035,0.17570065256559936,-0.13088918772291497,0.32273705150098464,-0.03477816812486685,-0.22995845304895132,-0.32794589356884607,0.03139733124154748,0.4709156033074642,0.027614992494846113,0.03894813094772239,-0.10619474821016797,0.08598163175720297,0.16797388160134735,-0.580706064531347,-0.7734411763828057,-0.5059948748739689
1734.0,16.82467031478882,-0.7541073373115215,-0.2785807199128571,0.9594418303141048,0.011266829971391862,0.1289683532357107,11.186163303499427,-0.5403821184642279,0.12581394498543136,0.5311226840544278,1.0852795848599155,-0.5208973785801126,0.12977912584089774,-0.32427464485119883,0.06678240869494365,0.047232003955795875,1.1656194904280253,0.07173712088190748,-0.1641127438558676,0.3259494805645256,0.1755019456690659,-0.16100959253199149,0.4167778263434714,-0.012349490853142525,-0.22905648086038888,-0.38088172379361324,0.029429046634688684,0.5062248027467601,0.02339043568989287,0.09727451451718902,-0.10848287435543924,0.10135061567218845,0.13248204821061396,-0.6184737978055072,-0.7658025708280036,-0.5101745698715705
1749.0,16.957334756851196,-0.660769312283483,-0.45791427834916204,0.9466352595804748,-0.017850352263313773,0.13626112270191398,11.379598485204156,-0.514742720420604,0.036205563941022985,0.5004770773557459,1.0288900824986675,-0.6199340578505756,0.09906109400685406,-0.3909706172202169,0.055371288961493265,0.0723232479749767,1.3105876942453305,0.1172966745174781,-0.18461500186244698,0.287977643091328,0.16442515326859183,-0.16672140512624245,0.32597062013202516,-0.005915370441058749,-0.27090261545962213,-0.3761813537770755,0.06304680366328236,0.46534191843817274,0.0034104208977008936,0.20478267979163553,-0.11286005898347871,0.09959959577487423,0.17903663481611148,-0.6323800954686336,-0.7538130277404653,-0.5406390340919243
1761.0,17.082045793533325,-0.5375607374015838,-0.6088184499048648,0.9635556720114589,-0.03654344522216452,0.12559406554871377,11.568435867140462,-0.35622957200049143,-0.05007411457967517,0.45391502505735704,0.9535073314868682,-0.5302374201559816,0.08331989850594557,-0.5152083554425562,0.16600181681576298,0.16000433289590194,1.1824136064125979,0.056268072685516396,-0.183128842439239,0.22194488980717286,0.15683632253522636,-0.17220012621489894,0.18602652452379384,-0.014388299236805607,-0.30470843216809784,-0.38799821566437376,0.07523990364834698,0.4293489088008116,-0.03408921549081304,0.3139443085765866,-0.09880086204499866,0.10838617502869671,0.18986868760282943,-0.6325626756191238,-0.7194711758210414,-0.5495205944162619
1778.0,17.186468601226807,-0.41131877984663917,-0.7252815808158664,0.9690341767081464,-0.04166745829158243,0.10108278426081155,11.756574103146711,-0.2062304183523523,-0.07252933027931906,0.432403192145796,1.0021227194581996,-0.39406529670156787,0.10676673479318971,-0.6152219358907809,0.2691501694700865,0.2697360060320124,1.0519640154863144,-0.004558235516449613,-0.16557314745607407,0.1767444046986504,0.14626786335367775,-0.16650446003518748,0.08451150680521344,-0.017227750733295757,-0.33487383837206686,-0.38307049233295354,0.07477130559145762,0.40348912025056094,-0.07708715036909816,0.3497497832378995,-0.08443898969513967,0.1064627736424598,0.18636589431537717,-0.6236197670604117,-0.6975144581506532,-0.5627865010571541
1798.0,17.326772212982178,-0.278450362702596,-0.8218146354672746,0.9526352862101688,-0.04888172785167775,0.08169449951457475,11.944203906910385,-0.19965399255911181,-0.0008555303292914138,0.43112572486705947,1.1911370087219262,-0.3473194072636499,0.14529979554176586,-0.6675064295491069,0.23031692956908978,0.18977642257900262,1.0545561629101725,-0.11518952681468744,-0.20154345882883393,0.22095690883174315,0.17771273781958985,-0.12477888051902437,0.0684132617340564,-0.028000695501370385,-0.3343776040229603,-0.34225575344274406,0.08289564231433416,0.40101030155306316,-0.0638732927816379,0.24965874277975433,-0.12593015295464197,0.09213822696248519,0.2285489578937074,-0.6362078241727057,-0.6751985271600978,-0.5579920204223148
1816.0,17.493547201156616,-0.12552790664867428,-0.8873232081761879,0.9629197716102871,-0.07079681077582002,0.06161812780669439,12.207226645350552,-0.3504820019510066,0.06266518931706294,0.4563539345294399,1.1876355991702776,-0.36208638097017437,0.13569991250398208,-0.5317256931757341,0.15341626418840082,0.07276776583860634,1.0160032609718344,-0.16182264134517763,-0.20790081810256544,0.340523673620313,0.217207690569227,-0.10912465171674932,0.15752214092357358,0.0075450728297793875,-0.29915711230076697,-0.31071006778867205,0.08208734441499002,0.42644530314877943,-0.06064455381391487,0.07138823634168044,-0.18151569463705375,0.06482903349257715,0.21732199673253227,-0.6415947049018593,-0.6894474709162921,-0.5569830127418698
1833.0,17.646763563156128,0.04062431679721501,-0.9163727036158655,0.9701572535733449,-0.11036590921633335,0.017527006893330036,12.507724626213017,-0.4313371516570155,0.1180087937257433,0.5501595453426954,1.082405241745989,-0.45515183714039553,0.12679217840810297,-0.34612855472082493,0.16361019484698336,0.033391969221022416,1.047096461540085,-0.16878766967907036,-0.15689030047684707,0.4306436035554687,0.23826078350987182,-0.1322159955395982,0.27605970442598726,0.04835953712382599,-0.24898078409549695,-0.32483710585387787,0.08017954439486911,0.4670225631788063,-0.05572807209649176,-0.035617150121512876,-0.21190371050924106,0.06478814855887798,0.21700212402581942,-0.6688775356663303,-0.6822561523164428,-0.5535849329004977
1844.0,17.781930685043335,0.19421737851744666,-0.9186896136935824,0.9615549284236697,-0.13271598226633996,-0.014009060086984024,12.795547257678685,-0.4755107872261094,0.09754418102710725,0.5436265498748333,1.0373324286644612,-0.5684284173816734,0.10454806273317893,-0.29706400291617985,0.11247275992819841,-0.008495415909067008,1.2038903424654013,-0.09063573610835747,-0.15710435777273374,0.46303217163168064,0.22867609081894744,-0.1311340895897908,0.3068895527596649,0.04814714152398837,-0.22941722690541846,-0.29039160743022885,0.10259765474752833,0.48629308484427347,-0.01621884634176366,-0.054573203099689896,-0.21760389605884836,0.0879240201232174,0.2757431892779331,-0.6833710171610052,-0.6671021408209479,-0.550701723877515
1866.0,17.87596035003662,0.3105159814096332,-0.902265436653373,0.9625298084073808,-0.14059785559294333,-0.03991626310344826,13.041210774507217,-0.45096448412945167,0.03211708447370484,0.4754672152520989,0.9840414416593155,-0.6294604445814291,0.08724909851509766,-0.3777113893164169,0.09927350403983508,0.01265343983530633,1.2997899584950416,-0.0593165778169453,-0.18994373105976586,0.4381884719552892,0.2228767006606746,-0.12910157524392973,0.2670040259616474,0.011855487686473067,-0.24203371290389558,-0.24787730180631481,0.1111723784116764,0.48530305820468156,0.00658446245791275,0.005424814140274091,-0.1992579144841471,0.10728459965410707,0.34496207200350454,-0.6649587530819181,-0.6521446335849006,-0.5523367051624583
1880.0,18.059402227401733,0.4186180396543844,-0.8551346279761736,0.9727600771617997,-0.12998529687199153,-0.0536609448610616,13.293140487808218,-0.3442978273185957,-0.05336826270615485,0.3292925061471482,0.9463216018590103,-0.6150922441389046,0.07657772184023162,-0.5299181286864472,0.2284689328649167,0.1543541689214543,1.1641396608552963,-0.02378588396062946,-0.17830039274311443,0.35575272559189447,0.1949696147190887,-0.1235040562874383,0.16535082178621713,-0.0074486783575664845,-0.25650684497023873,-0.19772626477048896,0.133780527809875,0.4919786253691669,0.015647619854113344,0.0776254315443814,-0.14658123356392214,0.13942919724894154,0.3919416757206423,-0.6385490767297078,-0.6244712483557471,-0.5516248382303569
1892.0,18.172536373138428,0.5059075037439299,-0.797106822598653,0.9767645911850894,-0.11241953351677691,-0.05396555914481094,13.488495267014578,-0.25693105063019467,-0.11603374241639924,0.1873630781623602,0.9643409964228412,-0.5452151977805061,0.060795093023862976,-0.6481376122860767,0.31487701395492795,0.21801020903602997,1.0409079993583827,0.00453733423908593,-0.163520358348299,0.30393925343903266,0.16370968494168603,-0.11799752489485085,0.05045167622049347,-0.02017623831418988,-0.2673986139370051,-0.12111998974615334,0.17238320137920068,0.5003736839896953,0.04047501600876616,0.07211380936737065,-0.12498295907719661,0.15789427593780203,0.4336124648038431,-0.6123296799354966,-0.6033798123700346,-0.529837732628542
1909.0,18.27738332748413,0.5748432179712328,-0.7399939607929994,0.9829405970247264,-0.10359219040701734,-0.046354424964549015,13.645028477021947,-0.247446750174452,-0.09032895158705712,0.147501275465725,1.0557777691293389,-0.4195923857030097,0.06313883193386788,-0.6913300480857514,0.3832646070479191,0.2622508716401067,0.9570513837318935,-0.001648272477167964,-0.13062657126788646,0.2757274095124711,0.13826703827812056,-0.11052322347364897,-0.05901664723079042,-0.026417541083459006,-0.25918356098214357,-0.025333725333997387,0.20689245367485715,0.5146164181473615,0.07485030578666416,-0.017100213862329607,-0.13582282554509822,0.16324116767539512,0.47167175889502033,-0.5978885466588677,-0.5864848513182348,-0.4978178116161534
1927.0,18.41529130935669,0.6314995913139396,-0.6870911957036772,0.9904577378666344,-0.10451200279733032,-0.03194936103092927,13.776509401058116,-0.32717183028440866,-0.024744153625638796,0.16642688474168332,1.0988564066073974,-0.41586336143456143,0.075194666149968,-0.6743422166977269,0.40865850236106854,0.27817607908562725,0.9174074951778286,-0.03983396019573469,-0.1037900088222152,0.25593849741107033,0.10383724812266344,-0.10577670524275448,-0.1609605323660105,0.017416662612915305,-0.23225556636037978,0.10527229004996748,0.2523053698973242,0.5469107762079412,0.10937934546811726,-0.13927466138822872,-0.16910653676162962,0.14499507340718037,0.47742904082928056,-0.582702880648929,-0.5942642654903476,-0.4871479535120423
1943.0,18.564858198165894,0.6691001496945955,-0.6445740055373416,0.9935530344725697,-0.11059449846148546,-0.022957093867713968,13.849693188764256,-0.45833917966778664,0.038782295832810454,0.1927673816461857,1.0958877252487718,-0.4544961191881034,0.08416749484719097,-0.6397702028370544,0.417787546634535,0.27855324523657665,0.9332198002315479,-0.0853129273476106,-0.08222175097828271,0.2539629348600386,0.08036221875577013,-0.08141713207751344,-0.16867240986574955,0.13272560022275068,-0.12293407407747133,0.2732345360724987,0.28164774146491983,0.6124490517203238,0.1864041925552761,-0.18785940130151535,-0.26825052923360515,0.0819244686883332,0.5101203545871456,-0.5628242719884922,-0.5982845212663265,-0.49522101568464527
