ccrpRepo/mocap_retarget/src/mocap/src/data/output.csv
frame,timestamp,posX,posY,posZ,roll,pitch,yaw,left_hip_pitch_joint,left_hip_roll_joint,left_hip_yaw_joint,left_knee_joint,left_ankle_pitch_joint,left_ankle_roll_joint,right_hip_pitch_joint,right_hip_roll_joint,right_hip_yaw_joint,right_knee_joint,right_ankle_pitch_joint,right_ankle_roll_joint,waist_yaw_joint,waist_roll_joint,waist_pitch_joint,left_shoulder_pitch_joint,left_shoulder_roll_joint,left_shoulder_yaw_joint,left_elbow_joint,left_wrist_roll_joint,left_wrist_pitch_joint,left_wrist_yaw_joint,right_shoulder_pitch_joint,right_shoulder_roll_joint,right_shoulder_yaw_joint,right_elbow_joint,right_wrist_roll_joint,right_wrist_pitch_joint,right_wrist_yaw_joint
1.0,1.557483196258545,1.0497145490012363,0.005067785846727386,1.0356260506977404,-0.09351012561228694,0.007127272749448912,-1.6673507993943817,-0.249801882022873,0.08219726309825187,0.2170043201897568,0.89714003762505,-0.542042793123361,0.046514829253355955,-0.25401231053781337,-0.13541072486894407,-0.26112191950199004,0.9089897861111305,-0.5324998713955136,-0.032526512146027024,0.0031702253023009456,-0.0027203239349195356,0.16130616210985152,-0.038778979804024824,0.20177100472708032,-0.37906053333239664,1.1083432829044102,0.41081792311859655,-0.06357759551275527,0.0200129740362576,-0.07611584279950143,-0.1857069893219222,0.35847156659460033,1.1211545362366508,-0.407273745935147,0.00571893595261796,0.13432491927602466
3.0,1.627938985824585,1.0497122187467074,0.005066631018223555,1.035609410669428,-0.09314944743925008,0.0070009585513170144,-1.6675681341585582,-0.25023124298344757,0.0822440313776924,0.21727814589663336,0.8972781042096392,-0.5421278445528889,0.046514357764432454,-0.25469524031189605,-0.13542023889475674,-0.2608168487550176,0.9093583405746704,-0.5326169337189154,-0.03256350050319934,0.0034387944856564528,-0.00280322012844811,0.1605385108031829,-0.03896096754572591,0.20193214993325478,-0.38023040700403876,1.1089682925247517,0.40971534056869685,-0.06374232622255656,0.02021519123049347,-0.07616261802687029,-0.1856985488853629,0.3588299450991458,1.1217556393052002,-0.4068926351788043,0.005482597540652478,0.13424058870750247
4.0,1.694977045059204,1.0495465165077453,0.005107275578770465,1.0356014995029201,-0.09272929585097248,0.006907871640318126,-1.667722009602804,-0.25071532538947194,0.08249132002629408,0.21746798723368105,0.897342085502482,-0.5422246622444836,0.0465194541419556,-0.25539153925612873,-0.13526501586782302,-0.26072825926643706,0.9095476275920542,-0.5326596878402609,-0.032671303384306405,0.0035415791383763746,-0.002823115702542129,0.1599963732409083,-0.039159066745773644,0.2021554811868897,-0.3813879457322504,1.1093539426729422,0.4086316532688041,-0.06391360033542408,0.02034898237360324,-0.07625176171571561,-0.18565286691693422,0.35916987929849,1.1220644574135112,-0.40651451500024716,0.005306933157975783,0.13433601111072013
5.0,1.7372519969940186,1.0493266404288857,0.005162726885930749,1.035593598661793,-0.09237694100578028,0.006796963031451931,-1.6677963128669835,-0.2511816353426891,0.08273685005945725,0.21753655176738346,0.8974172125039221,-0.5422381921007583,0.046486372101010996,-0.25599699228977524,-0.1351151603964271,-0.26076455475503063,0.9097151767383425,-0.5326946438200348,-0.0328327131432158,0.0036580142978144335,-0.0028648258302233264,0.1595533337025577,-0.03920699443986226,0.20217515058408575,-0.382398834600626,1.1096622508617375,0.4079014116850049,-0.06401989803118438,0.02054135634742967,-0.0763134503739111,-0.1855597418636376,0.35944301869598805,1.122232265307688,-0.40612285479657595,0.005236225033493282,0.13448086954828847
7.0,1.7704381942749023,1.0490887520543497,0.005217687406865311,1.0355881057262932,-0.09208236220533061,0.006693892954038721,-1.6678637159293426,-0.2515870527699948,0.08299435867559571,0.21756657411109553,0.8974897011904864,-0.542281397507963,0.04641686475596318,-0.25649621564951364,-0.1349447063203112,-0.26082589790346283,0.9098346859993155,-0.5327282207060099,-0.03299222370455608,0.0036924219698139583,-0.0028745601821536402,0.15918632172957015,-0.03917532523442538,0.20210861969316282,-0.3832398679498224,1.109942823862309,0.4073257791460375,-0.06410343686578374,0.02070724234858447,-0.07632048794304602,-0.18540224656538404,0.3596612279679027,1.1222854911758189,-0.4057279410250721,0.005233483681338906,0.134651197435119
8.0,1.8293037414550781,1.0487916848870853,0.005276922041925529,1.0355838187046071,-0.09187143813061178,0.006466208419281775,-1.667820198272513,-0.2518958121778752,0.08310833028267006,0.21750203460534723,0.8974737424956597,-0.5422240026338659,0.0463154963942444,-0.2568696089394364,-0.13487010752346795,-0.2609184571539876,0.9099677151336951,-0.5328450429826541,-0.03316248519120942,0.003583629192192331,-0.0029400553153352722,0.15889774672189833,-0.03906318192011978,0.20183411368027226,-0.38400619510871586,1.1102937550284095,0.40692025462559434,-0.06418862312218276,0.020805634124503702,-0.07625618223763726,-0.18527426486587262,0.3598384062389802,1.1221856068989489,-0.40524407786346917,0.005255534427472929,0.13491621714733554
9.0,1.8773934841156006,1.0485314309058937,0.0053345504264929785,1.0355766545168406,-0.09170756979285197,0.006252079068939767,-1.6677724021582598,-0.25217313560044197,0.08318848453623984,0.21744229792808595,0.8974639152929926,-0.5421289685413724,0.046217222143668205,-0.2571725081078326,-0.13482218011898756,-0.2609997505169447,0.9100839462022611,-0.5329776830831909,-0.03331186843674235,0.0034577597083256693,-0.0030306041144660613,0.1586661710968891,-0.03891117543673238,0.20154956222521975,-0.3846738524108613,1.1106292103186015,0.40658717491043606,-0.064249307102204,0.02091345806779389,-0.07621520506354641,-0.18514108825288816,0.3600079130329944,1.1220601849267335,-0.4047626410279808,0.005301313420278014,0.13515119458746422
11.0,1.9137029647827148,1.0482809604399312,0.005375037710268831,1.0355701194515134,-0.0916018928672861,0.006087655416035608,-1.66770841226132,-0.2523644808813693,0.08328624438715916,0.21732165560370767,0.8974732126453324,-0.5420194335110082,0.04611988044711267,-0.25734222240191706,-0.1347438972138453,-0.2611167238611543,0.9101497266063503,-0.5331364696765348,-0.0334535303243668,0.0033111773387123596,-0.0031115335824478405,0.1584859515962932,-0.03875039889557502,0.2013572558354112,-0.3852563465771287,1.1109188960068948,0.40629052613837074,-0.06430478482600899,0.020941196996437893,-0.07617679501622382,-0.18502679734398297,0.36019242229117043,1.1219303873338329,-0.40430552965426525,0.0053339515234672695,0.13537752147282234
12.0,1.9598453044891357,1.047978914900716,0.005435487057574795,1.0355722881031484,-0.0914278690853047,0.005920587161046584,-1.6676514160612532,-0.25264512286712915,0.08343201188246867,0.21715968396272833,0.8974374818832238,-0.5418153435464484,0.04594599085360182,-0.2575991488836867,-0.13448366852001603,-0.26099348804656475,0.910118499558759,-0.5332531579396153,-0.033645341968900004,0.0030903756534195145,-0.0031345901041503837,0.1584316481366127,-0.03871588786447358,0.20134887591473855,-0.3859971161613711,1.1110900177631113,0.40588557724252616,-0.06439239621555404,0.02072790625148163,-0.07619452007017537,-0.18495913804946246,0.36038856257410357,1.1216407549577636,-0.4038123304020707,0.005328905224503874,0.13561817668556578
13.0,1.993701696395874,1.047706361626676,0.005488090369253214,1.03557348575404,-0.09126097392110097,0.0057956950238223694,-1.667622711002032,-0.25290237971916935,0.08366724318282553,0.21710201001566554,0.8974404292007658,-0.541663097603675,0.04571000005543859,-0.257844470249428,-0.1342079669731245,-0.2608766795103418,0.9100919385110227,-0.5333476383341118,-0.033839385779956134,0.002894597609503529,-0.003152398221586118,0.1583731944797051,-0.03867670278471192,0.20140910758111674,-0.3867204365491108,1.1111617783973529,0.4055666793006339,-0.06441758486934362,0.020464232033306502,-0.07626107427258402,-0.18488582206876392,0.36062890035716,1.121413194731932,-0.4033880327013383,0.005328744026196258,0.13580829576494513
14.0,2.0295250415802,1.0474377252090576,0.00552177531412566,1.0355683510783809,-0.09113299621990073,0.005669806670410598,-1.6676038397042143,-0.25311942871563475,0.08381152486619509,0.21690542692882922,0.8974798235547181,-0.5414985789893981,0.04549407701882888,-0.2580284603276113,-0.1339619902649628,-0.2608251780903245,0.9101011895078589,-0.5334492361242044,-0.034027401829021225,0.00273063393943978,-0.0031523191822390695,0.1582589742137599,-0.038625694214893855,0.20146124714102653,-0.387276376017241,1.1112223155458185,0.4054196508618305,-0.06440135694636967,0.02005112261528986,-0.07627542774510317,-0.18477397316065997,0.36088434383249846,1.12124149992183,-0.4029693989644017,0.005348971794837898,0.13594628824183339
15.0,2.0621249675750732,1.047179712341207,0.00555440440873484,1.0355653902227153,-0.09100282361849443,0.00557222573437007,-1.6676371803083068,-0.25334475452659266,0.08398453113447235,0.21671624896708505,0.8975325087856333,-0.5412857056996117,0.045260972355319534,-0.2581842925671636,-0.13380877068383,-0.2610735339683753,0.9101008468081788,-0.5335324482962903,-0.03419936117821247,0.002634001256163197,-0.0031510574528350443,0.15813621411800066,-0.03856245965017211,0.2014726369307065,-0.38769245519827933,1.1112895788991892,0.4053566720731502,-0.06436355972661562,0.019649600093190125,-0.07631767295862665,-0.18468051826128745,0.3611670110022592,1.1211034838088618,-0.40260316098153315,0.005358995941399507,0.1360686376600547
17.0,2.106562614440918,1.0469130701987501,0.005595531662202991,1.0355629157365813,-0.09080461695823785,0.005585401313761619,-1.667690989316141,-0.2536752434470416,0.08431362017880636,0.21646400271633212,0.8976680039537908,-0.5410994545647861,0.04499170916754207,-0.2584128971454378,-0.13342019890290394,-0.2611524364549629,0.9100111492117476,-0.5335835269720535,-0.0344038717601408,0.0025702955463096947,-0.0030876023492568717,0.1579737605767307,-0.03849484106703893,0.201527178554883,-0.38799966040124645,1.1113645983843474,0.40538378518492496,-0.06435033325776923,0.01923814925705326,-0.07643528556780307,-0.1845095552233387,0.3614481594687349,1.1210259493128205,-0.40229852437003205,0.005384489225009129,0.1361622964885585
19.0,2.1559603214263916,1.0465457534782179,0.005647640002359222,1.03556508972148,-0.09044414050473679,0.005585712202616874,-1.6678095971454585,-0.2542091679565809,0.08482850737417447,0.21620377799881918,0.8978539350071446,-0.5408235596906267,0.044514699043041256,-0.2588716153854336,-0.1328746105624709,-0.26120328104011536,0.9099159224429791,-0.5335542870842908,-0.03472892545499974,0.002483752136053607,-0.0029742870896977552,0.1576580561589767,-0.03839274499583816,0.20152710214983488,-0.38831023707370094,1.111525220427796,0.40555719756190795,-0.06437585121902673,0.018591337813959916,-0.07658860861260049,-0.18421223752371352,0.36172359858546177,1.1210036650840058,-0.40196514131596917,0.0053451404042139695,0.13629830912982527
21.0,2.2251100540161133,1.0461274173688428,0.005716859782838554,1.0355810612571639,-0.08994931840594764,0.005541785510889411,-1.667991269125571,-0.2549244924034968,0.0854006378471626,0.21590329092418836,0.8980777190177672,-0.540359981772475,0.04372910350896896,-0.25961413274920886,-0.13232167388063806,-0.26123351828172364,0.9099183249138251,-0.5334362758637801,-0.03508211672139358,0.0023144512598658917,-0.0027810995568494047,0.1572575286196866,-0.0382241717929486,0.20150484058847196,-0.3887213704703042,1.1116985530914365,0.4056601358154112,-0.06446517993930585,0.01773395906402884,-0.07677993077114825,-0.1838446632463974,0.3619742259382629,1.1210145078964997,-0.40162133915416237,0.0052495581850632925,0.1364698590165199
23.0,2.2966244220733643,1.0455913511577535,0.00579661378040663,1.0356054867435724,-0.08925931598146059,0.005679448786352279,-1.6682843972485915,-0.255957790006115,0.08638095052977493,0.21537705922942213,0.8985740979349786,-0.539806901584913,0.042548360514791314,-0.26063102286441575,-0.13140007177761445,-0.2613668240054807,0.9098872685026573,-0.533146620957265,-0.03559468738445416,0.002152108325126951,-0.002423913783005195,0.15665916810156358,-0.0379961247461678,0.2014998317943708,-0.3889702685926958,1.1119972042997244,0.4057975960753476,-0.06456470259949595,0.0167092884326062,-0.07708942289420721,-0.18338777523864802,0.3621467210134609,1.1212423849821125,-0.4014138699795938,0.005079852859580629,0.13669524261453667
25.0,2.376486301422119,1.044978851237207,0.005917340317394628,1.0356595515154274,-0.0880946442833945,0.005971206854140014,-1.6687116751954236,-0.25764954384573957,0.08776264530382466,0.21471902498427342,0.8992714057922953,-0.5389605582724801,0.04098577694645994,-0.2621800075884121,-0.13049730863652192,-0.26203890051206785,0.9098308073176575,-0.5325573983697868,-0.036269293171790895,0.001913185932335454,-0.00191291929172188,0.15563153480852826,-0.037643746818667626,0.2014447862167267,-0.3888437629974012,1.1123192268534097,0.40578098572880505,-0.06458498204694807,0.015849663594175015,-0.07767907254347732,-0.18276499106864225,0.3621958560774255,1.1216683779378942,-0.4013436637600465,0.004978354228365456,0.13697189915601723
28.0,2.449188232421875,1.0442990737598643,0.0060209994797390375,1.0357677115885893,-0.08667754066955877,0.00628072791328031,-1.6690007646526013,-0.25969198146064726,0.08914692254934056,0.21377110560226129,0.8999760560813437,-0.5377345194893371,0.0393008206479743,-0.2641627144286994,-0.12925788981030747,-0.26254406579207856,0.9097368670573611,-0.5314640260486305,-0.037223412036656446,0.0013641456762377708,-0.0014086060037793774,0.1543227378847828,-0.03729993182374372,0.20150307794236888,-0.3884333831653374,1.1127281513168898,0.40542295204120143,-0.06457802318532777,0.015343130981451607,-0.07832302649971354,-0.18213037339233878,0.3619830715858282,1.1221197703062118,-0.4013858371072258,0.004938502767135355,0.13723654760067086
30.0,2.5223147869110107,1.0432793487812384,0.0061674453649303565,1.0359520108939595,-0.08436783794304487,0.006612507018338999,-1.669270543061394,-0.26282711446765283,0.09098735600949964,0.2125289541733438,0.9006927877893967,-0.5358804989692486,0.03731263373856126,-0.26745664642798306,-0.12762463187548886,-0.2633402801618622,0.9096690476955354,-0.5297585587554059,-0.03835040413125773,0.0006171774964094488,-0.0007992016871632009,0.15231723594718424,-0.037338239372783744,0.20217072128344488,-0.3872390222051308,1.1131770557849208,0.4047811833751077,-0.06458271899774592,0.014811824374255902,-0.07920921935538926,-0.1810393374224223,0.3599923272953587,1.1225957464433798,-0.40007805962491594,0.0052210643801252395,0.13694099834018772
31.0,2.593611240386963,1.0420924392439634,0.006317875445976149,1.0361570098932156,-0.08163213113504744,0.00688427370480359,-1.6695591593407155,-0.26636364279784835,0.09298861721638034,0.21133132190656778,0.9012351315206883,-0.5340402693304449,0.035517663527214596,-0.2713074741267335,-0.12579332499587212,-0.2641543773017269,0.9095176541234091,-0.5279219356726115,-0.03948226753804898,-2.8908091499574886e-05,-0.0001260779683577018,0.15002098523419077,-0.03756627595171735,0.20359404817027035,-0.38534605216711304,1.113310321625878,0.4039892703588659,-0.0647585122745461,0.01389900781325219,-0.08014759177468253,-0.17964354513889552,0.3546052889156227,1.1228703100831727,-0.3951386248049499,0.005910509477820221,0.1357112386248255
32.0,2.6303322315216064,1.0410407959487045,0.006485752330398015,1.036337381678249,-0.07888797643728049,0.007053877143436861,-1.66977754035237,-0.2698582720493661,0.09472241522876862,0.21038199616807324,0.9015890360223302,-0.5324776294214673,0.034136690333094105,-0.2751219169305859,-0.12422886897484764,-0.2649958210576013,0.9093404682731964,-0.5261424919771702,-0.040509882903889315,-0.000300063541274876,0.0004544017667378516,0.14789497304517674,-0.03807517199752028,0.20512641083942207,-0.38315469607218133,1.1132423042444097,0.40342327473708883,-0.06491681005162407,0.012901423862988006,-0.0812551675797658,-0.17866347007980332,0.34899354040273384,1.1228644319068106,-0.3900439295323931,0.006752225777202269,0.1347826584981825
33.0,2.6615970134735107,1.0401107650072507,0.006655310366705471,1.0364857828805163,-0.0763658332452404,0.007030324877531424,-1.6698709265050724,-0.27305169548508157,0.09605187712624039,0.20965120767020817,0.9017540779756572,-0.5311630928778567,0.033144615161933164,-0.27857336602608934,-0.12306892768473283,-0.2657179465523269,0.9092293658825981,-0.5247274230146894,-0.04136422935016011,-0.00024441234077187334,0.0008805927672984248,0.1459521384495831,-0.0387571838762207,0.20660199363276782,-0.3805654640063373,1.1131256191346008,0.4030070817439386,-0.06492191149220414,0.011756081461305159,-0.08217747949122808,-0.1784399299686783,0.3437923245396477,1.1227505806931881,-0.3854467771333771,0.0071809423315518026,0.13411194182163538
34.0,2.7102177143096924,1.0392684768496774,0.006865034993287366,1.0366156405365534,-0.07398916528541788,0.006950758681705911,-1.6700246345318952,-0.2760232942212436,0.09719327649070485,0.20910690880294364,0.9017743660708473,-0.5300915554354307,0.032441797008703206,-0.2818462449222948,-0.12206096075279436,-0.26626807005031683,0.9090984534986796,-0.5233844343015246,-0.042085431613672744,0.0001018610344495503,0.0011986406904971594,0.14432959385364147,-0.039524883715627034,0.20805477662852206,-0.3775859431555721,1.1128736011595413,0.4026804386960212,-0.0648191116170268,0.010456058497469667,-0.08335538719186034,-0.17872312700757126,0.33885040441738046,1.1223764304019292,-0.3813045918677252,0.007589788978535122,0.13375167400310203
35.0,2.738568067550659,1.0384061437685854,0.007079932513472314,1.036744776024277,-0.07165135443226299,0.006836933634171052,-1.6701240919655458,-0.278909111969909,0.09832093578505519,0.20858110117782297,0.9016592432198971,-0.5290225318083762,0.03182563792348087,-0.28497583107187824,-0.12102266427093232,-0.26682031251981453,0.9088264179858044,-0.5220865780282403,-0.04276199903529844,0.0006767086572930991,0.0014091686255343907,0.14276748213796664,-0.040133716618531726,0.20909634688587495,-0.37201131177566543,1.1124457793150422,0.3999649730318004,-0.06304565179340194,0.010523468152908041,-0.08462595469316173,-0.1794478450251884,0.33391026716282934,1.1218571599993368,-0.37747593369243926,0.00791789060493351,0.13342211137963103
36.0,2.7669107913970947,1.0375065855765029,0.0072838149203807365,1.0368868128620932,-0.0694827586100739,0.00656556724060591,-1.6701301504398653,-0.28150084243369344,0.09925061280186498,0.20805943554601175,0.9012693372649105,-0.5278997730395697,0.03124909499759694,-0.2878528517421872,-0.12014244268709573,-0.2673675228359952,0.9084900946886287,-0.5208541316561229,-0.043385969493434796,0.0012195633883514026,0.0014646633294606063,0.1413712815874729,-0.040702524140543456,0.21006837251706567,-0.36457564413959925,1.1118113553035935,0.39573321176311066,-0.060399214063659445,0.012142160365707842,-0.08598110803948192,-0.18062465801664196,0.328421308785075,1.1210884915347505,-0.37344839491172965,0.00828616002993521,0.13258756583148928
37.0,2.812309741973877,1.0365261077141752,0.007528413661449769,1.0370394392559799,-0.06730515221683289,0.006270079834696012,-1.6701114484230755,-0.2840880654784804,0.10019376557148521,0.20747105690055812,0.9007045241362928,-0.526744306312236,0.03069108150099746,-0.2906033605005928,-0.11921433945183521,-0.26808230798557514,0.9078880397952651,-0.5196010655829038,-0.04406430938658336,0.00178268568285798,0.0014468084835312037,0.14018885796295721,-0.04147048548713356,0.211498158860731,-0.35649724528607174,1.1108759805852384,0.3912704988246941,-0.05771748894001729,0.013880143369539133,-0.0875274923398707,-0.18205899262236816,0.322314780882816,1.119995720109918,-0.3691874635429262,0.008681629110463373,0.13108886021114366
38.0,2.8403267860412598,1.0355083545767019,0.007792106627228496,1.0372255337057863,-0.0652563010749057,0.005867483573093316,-1.6700108027214542,-0.2864508325709974,0.10094609116854902,0.20674053579723967,0.8998385705389005,-0.5254590572029715,0.03014440247146448,-0.2929645163809334,-0.11865284170671513,-0.26924534221435176,0.9070425321872955,-0.5184622387104552,-0.04458152589170498,0.00238066118499083,0.0013569808137487128,0.13932474555105484,-0.04248239783332504,0.21350374364236074,-0.34730700698552075,1.1094730169814695,0.3861267119759439,-0.05536720215112905,0.015068132500631028,-0.08921044021344311,-0.18408618375757632,0.31571387442823545,1.1185065283068796,-0.36489886798521715,0.009015857578577613,0.12871424872101722
40.0,2.8740406036376953,1.0344182829883393,0.008101787100380344,1.0374182584948755,-0.06327238308036724,0.0052893432804067934,-1.669939883970743,-0.28862184986168016,0.10153188885278294,0.20607262304484508,0.8986440639094897,-0.524081079917057,0.02961776748969774,-0.2952832283624756,-0.11808863963581082,-0.2701785329719792,0.9060961563233032,-0.5172933634474689,-0.04509364880958186,0.002857230210927871,0.001044874293343795,0.1387771356420703,-0.04367852394615386,0.216107488061906,-0.3379911464695198,1.1078318732569112,0.38166041583649557,-0.05318664940615167,0.015695652148263694,-0.09114941524987669,-0.18646670962044049,0.3086846903745436,1.1165937462324842,-0.36061949798022386,0.00933188032366898,0.12547355536088367
42.0,2.9409775733947754,1.0327398019197824,0.008549162211427765,1.0377582241576129,-0.06077750586820199,0.004269890640070807,-1.6695377535892393,-0.29121309777112925,0.10210928780841602,0.20510542257565734,0.8964022657159505,-0.5216759934144316,0.028845755784431798,-0.29784724839595716,-0.11728725476939375,-0.2714061450544817,0.9042231165089143,-0.5157364682566411,-0.04551992528274133,0.0034746960198988653,0.00018123063719103734,0.13851970900210306,-0.045772953155539614,0.22116017245305536,-0.3259112894069963,1.1049951489520373,0.3766058502274826,-0.050546119774334944,0.01559301523992948,-0.09471850608794197,-0.19151106474644952,0.2989679087037713,1.113450387193674,-0.3552746820028173,0.009654479183762749,0.11927418796077847
44.0,3.0041847229003906,1.0305360984130554,0.009080616351393215,1.03825317510453,-0.05767502619058033,0.002498510914862938,-1.6687152381206627,-0.294069060246277,0.10223427882124828,0.2039660092575298,0.8927009583970542,-0.5183763280054479,0.02803613226716655,-0.30069792090599456,-0.11657417094343346,-0.27262063126542957,0.9014824546210863,-0.5139673021714694,-0.04579533418831369,0.00433228926599985,-0.001350331114375862,0.1383248709702955,-0.0489700485649007,0.22951569082056195,-0.31083240003812523,1.100808231577581,0.37136427605004374,-0.0476511647114744,0.014048380337403313,-0.09928647343779132,-0.19921715717548333,0.28621726070806375,1.1087240371051468,-0.3483447418879863,0.010234278948055599,0.10935171584349102
46.0,3.065744638442993,1.0279603683537777,0.009674661460540497,1.0389402816406543,-0.05454999325682213,-0.00027962428693835114,-1.6672350429013014,-0.29677951079758985,0.10135741333818443,0.20273907893410958,0.8875473676420615,-0.5135627183930108,0.02729302994185257,-0.3031392980447151,-0.11648691147479073,-0.27367447608280004,0.8980158953203032,-0.5120585284629946,-0.045916998905406126,0.005142419372547738,-0.0036411663683482524,0.13876797139105068,-0.053211522551184505,0.24155448039095131,-0.2935096910029588,1.0951767745211471,0.36747660813708105,-0.044509230806879393,0.01165969156134261,-0.1045683050288311,-0.20999210137340843,0.2709522058431533,1.1023472080962469,-0.34019347180093973,0.01097587758187775,0.0959815114852819
48.0,3.130117654800415,1.0250851703007586,0.010272432578950764,1.0398245804783313,-0.05111907369463376,-0.004175840213728818,-1.6654124619838626,-0.2995909235823824,0.0993412027143267,0.2016555335332657,0.8809559776408358,-0.5071180906325936,0.026611665776790312,-0.30568614285213364,-0.11693426415015803,-0.2740546760510778,0.8940182120282292,-0.5096688626866278,-0.046166481114039655,0.005987489124827765,-0.006723072805370939,0.1394579900484294,-0.05839435503204082,0.2574230682194812,-0.2741802608457696,1.088340821824161,0.3650247505928399,-0.04123532821463476,0.00861290632763698,-0.10997778898381003,-0.22377004107958975,0.2535114711590575,1.0944672139530953,-0.3300914090846472,0.01135642710297425,0.08257887784600122
49.0,3.195967197418213,1.0221330891761902,0.010819579744277871,1.0408983264272824,-0.04704892980942209,-0.008993058936290875,-1.6634976572194402,-0.30284450850321426,0.09638205890608849,0.2009988062061031,0.8731624285588612,-0.49939979364773135,0.026016700585088405,-0.3087135613872145,-0.1181876424051986,-0.2740685278705264,0.8896364514321102,-0.5069967860324693,-0.04637741478020266,0.0070729254885764144,-0.010302833429936646,0.13967429696492262,-0.06411438266588762,0.2768922057958415,-0.25295234517236304,1.080756053857774,0.3635558074946132,-0.03748804601355379,0.005653900750669133,-0.11524520305634324,-0.24082140465630383,0.23595006903311297,1.0857053453581007,-0.32033335272345737,0.011528055464520093,0.07002345853292381
51.0,3.2466797828674316,1.0197665183890123,0.01129471076907771,1.0419172034878157,-0.04341264576158446,-0.013466719385287049,-1.6616763415541735,-0.3057624091574678,0.09304427736243089,0.200403728028702,0.8658467455391949,-0.49179417342532583,0.025664852680385028,-0.3113723831104866,-0.11989894292843806,-0.27411115362365895,0.885727552198736,-0.5043858268924954,-0.046596195096751024,0.007860581743254965,-0.013592856518589918,0.14000096411772922,-0.06885750849693423,0.2941941070197908,-0.23341231022417602,1.0736259122103518,0.3632804764771415,-0.034215829065113126,0.003940971114291004,-0.11940467875908041,-0.2566021057496161,0.22163759504128125,1.0777689614396548,-0.31285179193067675,0.011624253025827192,0.06050386374176944
52.0,3.303485155105591,1.017368497924345,0.011804585674694402,1.0431898470681473,-0.039058520444590905,-0.01848969261530642,-1.659136971373088,-0.3094461167609106,0.08886268354617835,0.19958149676488557,0.8574939038492166,-0.48243935397123916,0.025198308426339543,-0.3141019594078043,-0.12260921160812775,-0.27509064074335693,0.8809149680729487,-0.5017674723774803,-0.04674469800669993,0.008155986380237488,-0.01688999429879426,0.13968420650199354,-0.07402949832440117,0.3153977169120793,-0.21096730757761967,1.0657625645535451,0.36179304066325557,-0.03123626343865308,0.005015759223155088,-0.12361302497861373,-0.2769913897366396,0.2066577010456932,1.0693485863480534,-0.30570789666774784,0.012292058989508421,0.051612463880326614
53.0,3.3492417335510254,1.0154803047608296,0.01223934396238829,1.044346787724869,-0.03499259096181788,-0.023081716912469623,-1.656581031034261,-0.3129580681883991,0.08454979975515964,0.19872944449727759,0.8497580806953053,-0.4734385036212865,0.02484718109796093,-0.31665752143264697,-0.12535199510473577,-0.27589063994723434,0.8765545287249681,-0.498985930171047,-0.04701711760969139,0.00788615229684105,-0.019647163324594902,0.13911852832292748,-0.07830788617642437,0.33443545221085647,-0.19027413307560775,1.0587087940277766,0.3603897835583889,-0.02895518935488369,0.0073171477744968915,-0.12654823907705004,-0.29573420176450393,0.19399739964242635,1.0616757374028394,-0.30019519397650424,0.012850211609614522,0.04419668377726469
55.0,3.3812947273254395,1.0139481168419016,0.012622424724746131,1.045411189252651,-0.031303316179683356,-0.027074614335766092,-1.6541247589151378,-0.3161392837404585,0.0805226032823004,0.19783394828151796,0.8426472453254296,-0.4649997894894777,0.02446665840710015,-0.3188065288087192,-0.12788978581119106,-0.2767573275258045,0.872388612068256,-0.49645943517250735,-0.04736397915203802,0.007311199622310386,-0.021905187928480764,0.13846407885257295,-0.08192343928346434,0.3520490386685976,-0.1714068845829503,1.052453422576309,0.3589576167482524,-0.02720069288777331,0.010475628147582957,-0.1285847961811284,-0.31321340881803567,0.1826279640615206,1.05489127125861,-0.2956703206148825,0.013484482387268243,0.03770791506998153
56.0,3.4189586639404297,1.012140934206883,0.01303550562366293,1.0468421661854923,-0.026025471696462424,-0.03178484068438467,-1.6505484088884828,-0.32112974007096085,0.07545601095599226,0.19583564274055892,0.8340498276613543,-0.45429156586197705,0.023410095596881002,-0.32144549658733634,-0.1312449570386846,-0.2788058979366371,0.866403766057837,-0.4933903417814266,-0.04767235874990182,0.006062782051518721,-0.024229052062259053,0.13623603217336927,-0.0867702547658814,0.37683767314614036,-0.1496783649740047,1.0460198094913884,0.3557675460505512,-0.02513725491352692,0.01632122040088493,-0.1315733486914712,-0.3379333606619057,0.16763143709181655,1.0474332591290358,-0.28937530661750854,0.014754563346996933,0.029066007133227365
57.0,3.449882745742798,1.01066178528963,0.013372271453432054,1.0481584351890163,-0.021047603467064004,-0.036027092007456143,-1.6470419546929744,-0.3257985481912348,0.07034170993682971,0.1933770657808051,0.8258978561852293,-0.4441972206929986,0.022185755901542703,-0.3238880655883245,-0.13453233041274923,-0.2808300306879648,0.8607460162305667,-0.4904984288199404,-0.04786082402245187,0.0044645987321246475,-0.02619894240180548,0.13399451198980003,-0.09102114386165111,0.3999778587718942,-0.13078874962615447,1.0405073324204426,0.35323242530729826,-0.02338939289957722,0.02179940456894896,-0.13395910200212838,-0.36114585976459607,0.15292775254953042,1.0408682319965485,-0.2822125193735599,0.01564279778490315,0.021740179657679867
58.0,3.4839601516723633,1.009421877374241,0.013638220600887591,1.0493951438255396,-0.01651001931258295,-0.04008325229581858,-1.643246495134127,-0.3300281596386687,0.0648153414225553,0.1903270230990438,0.8180350597116128,-0.4346768863585195,0.020880122323121284,-0.32592932170230027,-0.13792575121720518,-0.28264541253278647,0.8555060168304334,-0.4873154007465972,-0.04800072353569654,0.0025336350224427853,-0.02801753617584863,0.13187739969586287,-0.09493117564171474,0.4220343017433899,-0.1139235409315344,1.0357044740742416,0.35098028833543615,-0.021733531672245305,0.027307825077675204,-0.13578343998069511,-0.3835976179558485,0.13872577836886418,1.0349818044835155,-0.2746954446425316,0.016567727774325677,0.015107295691176735
59.0,3.5306529998779297,1.0083972009966402,0.013842956016013073,1.0505537658703497,-0.012433663769201653,-0.043767935025834745,-1.6395027203535635,-0.33372656611085516,0.059171672127378935,0.18655694432298353,0.8106386128943374,-0.42596410205686164,0.01936870757332306,-0.32751768841569395,-0.1412745736904808,-0.28444819176038816,0.8505794804421101,-0.48419301326264097,-0.04801889025864714,0.000512012960003828,-0.029509409404804482,0.12998238636021628,-0.09849086904228002,0.44304822868439875,-0.09889588540310648,1.031564406421818,0.3487228172956852,-0.020202233223924834,0.03242490704258533,-0.13713628898916452,-0.4051145126232273,0.12508033689741957,1.0298748348980977,-0.26693845539784905,0.017460387527685688,0.00902629653429914
61.0,3.57307505607605,1.0075235714679076,0.013967175995315672,1.051603289921216,-0.00881678051478126,-0.04698580567663112,-1.6357949965044973,-0.33685204392746626,0.053697629359705006,0.18212867642884029,0.8038342651403247,-0.41827877004595704,0.01767336799701049,-0.3285693718677706,-0.14459343915112002,-0.28658426210687066,0.8459503625698893,-0.481674294016056,-0.047860043416117964,-0.0014426297959572142,-0.030631975755471382,0.12818745933182094,-0.10190675513025507,0.46297946867329265,-0.08627114990783646,1.0283853363703879,0.346950965460126,-0.01873212450035148,0.0369087886188568,-0.13767353405104696,-0.4254421696903685,0.11242512549198411,1.0255821568355477,-0.2592409343721102,0.018159476257164808,0.003402147697575776
63.0,3.6255791187286377,1.006502874497044,0.01407612484936143,1.0530453807811984,-0.004544884829414567,-0.05077545841676982,-1.6312641380366704,-0.34041812190665965,0.0470768625207216,0.17504497650285544,0.7954752320304046,-0.40955673893319,0.0150560502650759,-0.32923242713753453,-0.14851735413191866,-0.2893078589585083,0.8396220696114665,-0.4783033029220287,-0.04749418985610704,-0.0036008136288221927,-0.03127101479298864,0.1256754927980365,-0.10697027505808146,0.49240542844638024,-0.07181817834735076,1.025507876807952,0.3445212398969649,-0.01680445336508323,0.04274191542767191,-0.13828046810566771,-0.4551627317167276,0.09472795436308515,1.0215283009953418,-0.24875013317172234,0.01886561363651431,-0.004779011770572174
65.0,3.703101634979248,1.0054630333336863,0.01416491698631036,1.0547287250161475,-0.00014946965896196242,-0.05473258880616326,-1.6265447681144414,-0.3435508453040307,0.04100805672151165,0.1668102143608971,0.7858455943292868,-0.40147767175451776,0.012396851715604104,-0.32933150324978033,-0.15240433666277353,-0.29195824612970267,0.8319620031000696,-0.474103777886058,-0.04700534446282402,-0.005685119740450247,-0.031245150093228827,0.12300613231226123,-0.11287384450698576,0.5296588381698751,-0.056050589677576784,1.0232257140041667,0.3408916950670754,-0.014880175232165548,0.048736491563886285,-0.13860242630892466,-0.4923445727392094,0.07356480353054905,1.0184949073133842,-0.2375300367316878,0.019785867656659836,-0.015421614095120923
66.0,3.7569169998168945,1.0045942694000234,0.014162115822668478,1.0565984313926244,0.004071361131567197,-0.05865317261490108,-1.6221277864152852,-0.3456737403603214,0.03681459489003139,0.15872010110145432,0.7750032677369378,-0.39594278167640573,0.010735222209412837,-0.3287206231306926,-0.15644163590337407,-0.2946638134833935,0.8233249952512751,-0.469125723775078,-0.04617423724107407,-0.0074958331854139155,-0.03057621026999343,0.12031696563749322,-0.11888411428417255,0.5726522145732489,-0.039598754589239095,1.021892924624917,0.3360858783043804,-0.012974835122157833,0.05444615103179909,-0.13829545141276106,-0.5349403047981999,0.04996444738218004,1.016983246371108,-0.22675602909220027,0.02139326192780975,-0.027936459673649355
68.0,3.8110599517822266,1.003990283203101,0.014127435554672024,1.058159947775657,0.007464938938226879,-0.061782067604026894,-1.6185179351157748,-0.3466725251822379,0.034790810712683536,0.15315745208543372,0.7650922160422547,-0.39260710697976203,0.009865103700252415,-0.32787890179359513,-0.15971900340679868,-0.2968092799539822,0.8156816014106893,-0.4645323633201574,-0.04535365330535297,-0.008896222963528159,-0.029785427176836618,0.11837101434806455,-0.12369014680539085,0.6091679545865649,-0.025496749587809966,1.0211688034691377,0.3306145431501053,-0.011185469754075769,0.05948213985741575,-0.137304052658403,-0.5714482460899781,0.02965670491011479,1.0163993140054883,-0.21817115236034612,0.022901310085483607,-0.03858568640746584
69.0,3.8543996810913086,1.0036048165046232,0.013959609529028364,1.0597317199617615,0.010374004829906663,-0.06451921548535394,-1.615697058205452,-0.3461890568723046,0.03635688139653118,0.14982394260802,0.7545155350523942,-0.392195064885303,0.009524314208077197,-0.32640604408617097,-0.1624874829565397,-0.2984838770304057,0.807525687692565,-0.4595533705585537,-0.04443773462400465,-0.009976362749105867,-0.0282927498416556,0.11614900251210254,-0.12764305350658744,0.6484887408711084,-0.010951042315330922,1.0218105907621304,0.32337582076773264,-0.008730492478194166,0.06492121002701867,-0.13525352343784186,-0.6103350577964441,0.007701069935100134,1.0180005567362802,-0.21012643139838416,0.02547306861891501,-0.04942599811453996
71.0,3.9016170501708984,1.0034266642062486,0.013774894001967262,1.061000306635471,0.012513771253341847,-0.06646293410266,-1.6138202468063376,-0.34502310035495565,0.03953817229642745,0.14842416786630833,0.7455562635226577,-0.39245940352893377,0.009236814047825774,-0.32485856176499317,-0.1644418427247014,-0.2995926445197208,0.8005130487437797,-0.45498847570023426,-0.04385007588409423,-0.010672221001109186,-0.026737103749232105,0.11438549064807536,-0.13032107924143485,0.6811148245402294,0.0007344172272125589,1.0228987376165406,0.3160026826042959,-0.006610883422593029,0.06916142293330442,-0.13266660776938458,-0.6419764725841584,-0.01096189743593801,1.0202051670810333,-0.20371061267699125,0.027791564933788936,-0.057919715227848736
72.0,3.9532887935638428,1.0034362371028598,0.013494801196664475,1.0623482485253073,0.014331032871672492,-0.06825966065902495,-1.6127922455568011,-0.3426136161417177,0.04606161576205223,0.1491151318555132,0.7361255633819225,-0.39367770696957316,0.008490797990899652,-0.3229150133120988,-0.16590356541157544,-0.2999394754110013,0.7929111181966396,-0.4496266927361919,-0.0431706945797254,-0.011325872088110974,-0.02458672088853986,0.11186362808912548,-0.13211274068411655,0.718347875934086,0.013023565238018776,1.0255465392888758,0.3074858868764203,-0.003894559709152303,0.072734705858055,-0.12886146924720873,-0.6764791324341634,-0.03271790629079779,1.0244597954388306,-0.19608979033438878,0.030491105574721906,-0.06635190848689576
74.0,4.0134055614471436,1.003526478524868,0.01325523897621382,1.0634736547180135,0.0158151622489523,-0.06953449287438772,-1.6125261521928504,-0.34024940742858373,0.053240124997954816,0.1505010515187913,0.7282727967119371,-0.39452426466230983,0.007624714036477069,-0.32125233478009513,-0.16666604262978751,-0.29995002706328566,0.7860639959122993,-0.4447347765640052,-0.04260360494736552,-0.011620472513162856,-0.022530201534952707,0.10951016893386285,-0.13305532789685054,0.7512471901108309,0.02325128414721838,1.028531920921643,0.29947095407332097,-0.0018098672220860348,0.07566634093652655,-0.12486173228543729,-0.7059203684196511,-0.05284993162950896,1.028970034368917,-0.1887768072195351,0.03278928522977219,-0.07302052684114152
76.0,4.071775913238525,1.0037989627954955,0.012918634127731629,1.064705174761349,0.01716992317934603,-0.07058135081589428,-1.6126731238092034,-0.3372170920071743,0.06349138650940457,0.15325096171117297,0.720592047996427,-0.39374455678803577,0.006814698277549096,-0.31918853080954857,-0.16721138436903937,-0.2999480891774643,0.7784690219098594,-0.4393032958611527,-0.041805314206152064,-0.012226122163386362,-0.020050596152387728,0.1062163466835058,-0.13298503280955448,0.7882450947513677,0.03429986956337147,1.0333157866404106,0.291277597974246,0.0007533819474586289,0.0785871400362915,-0.11983386793083947,-0.7375260463221983,-0.07609140671184661,1.0352854130721312,-0.17973058569759687,0.035861765382998394,-0.07948987256869225
77.0,4.13237190246582,1.0042499715944881,0.01251016301200436,1.0660514922971538,0.018489931238282464,-0.07143272660836808,-1.6128816480511547,-0.3336769773843371,0.07630431345420884,0.15665036846565022,0.7130370988849617,-0.39002083779525665,0.006316738653860166,-0.31669667901665793,-0.1675994834231339,-0.30004983087680653,0.7699074279013993,-0.43330174164862056,-0.04091428476846605,-0.013252785774268347,-0.017344759053779794,0.10200687649498238,-0.13207448327755453,0.8289987943722776,0.046892893241678044,1.0401474144124623,0.2825537614702797,0.00391673244060937,0.08226125621445082,-0.11403702991353637,-0.7716157229291833,-0.10245479325259713,1.043249412667993,-0.168737181831426,0.03983143929204446,-0.08543248651500646
79.0,4.183278322219849,1.0046967615826516,0.012172742052506612,1.067161612838735,0.019497354162102146,-0.07180507667450542,-1.613169815313882,-0.3305561114678329,0.08785595052292171,0.15921866920106942,0.7070905306800679,-0.3845146475370227,0.007238215572560639,-0.31431683059259036,-0.16751879901031408,-0.30028521255605606,0.7621617454176672,-0.4279364437993002,-0.04027778332757967,-0.01404774029191802,-0.014981178522662161,0.09845924867146805,-0.13104444371005056,0.862301375566838,0.05747726151232726,1.0464835666434043,0.27437812601803546,0.006685335893871746,0.08619447869553443,-0.10866177140103742,-0.7987856340846751,-0.12536768061572473,1.0500938091081884,-0.15903143382538476,0.04381316648829724,-0.09028660569622066
81.0,4.241225481033325,1.0053327493429078,0.011791689282387746,1.0684450164515493,0.02057959193518527,-0.07205164920434805,-1.6132305085535934,-0.32722492850340934,0.1015136381680926,0.16169957385099254,0.7013085792986762,-0.37392911704943166,0.009342232378598032,-0.31149591053649645,-0.1674343933243128,-0.30064509688050506,0.7534634439181155,-0.4218996756331217,-0.039874296368900344,-0.015594711226651101,-0.01242821675296834,0.0939739291404591,-0.12953803975905406,0.8983773702183658,0.06925541115885778,1.0550556417423285,0.26585278030128895,0.010285224907244525,0.09120655725155495,-0.10230582961465612,-0.8280548364768916,-0.15086037907757027,1.058425205832099,-0.1474137124817901,0.047212876038580404,-0.0941946277853566
83.0,4.307867050170898,1.006169070985515,0.011350116484114528,1.069838692160971,0.021537328055553775,-0.07217932774779647,-1.612953521156843,-0.32359241308111464,0.11621072891555627,0.1636372777021151,0.6956878271534963,-0.35985118971113106,0.011580754206770374,-0.3080663436637055,-0.16752214411535912,-0.3013768448321107,0.7440952214402508,-0.4153790636164197,-0.039583251628335744,-0.01768171579532292,-0.009939063330526385,0.08932504741232741,-0.1277502898460663,0.9350270146514799,0.08051807710686545,1.0652783401587937,0.2586353202070232,0.014641042363836065,0.09688138473699569,-0.09560374529962587,-0.8572900491392701,-0.17743211932047936,1.0675586651416764,-0.13496205893210297,0.05057499065714026,-0.09713859534615144
85.0,4.376612186431885,1.0072860558371943,0.0109361609815825,1.0713344557882971,0.022420373860245674,-0.07252551689361063,-1.6123372915332577,-0.31967859450055747,0.13156501924082153,0.1660938058893741,0.6896131206521565,-0.34436455220531825,0.013485757883596967,-0.30450007593819367,-0.16818192823575195,-0.3019920979355887,0.7344173816563458,-0.40853707467154277,-0.03945386344806709,-0.020472267698715546,-0.007724821969873218,0.08435895439395052,-0.12575196816122702,0.9716078881541241,0.09059541121988456,1.0770631715087324,0.2536170060227434,0.019694582938850222,0.10301700100913694,-0.0879235165095247,-0.8862139745402957,-0.2044833047526664,1.0770947760536704,-0.1219281695514513,0.053012728034265544,-0.09880108177342788
86.0,4.423583984375,1.008649112423718,0.010514993596394002,1.072958336303625,0.023050278216878675,-0.07282594895744192,-1.6115849949542689,-0.3152686593717683,0.1480009489168706,0.16930581897830072,0.6831803285528433,-0.32819533726839145,0.014410284331290046,-0.30030863574686406,-0.16910182027569598,-0.30284628626170806,0.7241737320960058,-0.40118291120979654,-0.039124816559214605,-0.023760143091670863,-0.005546148861511311,0.07926629353217017,-0.1235718034753154,1.0080570919576723,0.09972205006192622,1.0899152075938228,0.25066204328437,0.025529508112554205,0.10971502836431704,-0.07930245734631816,-0.9148421387567018,-0.23140523868484128,1.0868957523636387,-0.10931901499814445,0.05451232757373406,-0.09922344038855141
88.0,4.474730014801025,1.0098622730206843,0.010124266384134679,1.0742590212842924,0.023629757241578744,-0.07297660810652043,-1.610561716548089,-0.31163250900163525,0.161143513303723,0.17189984679156367,0.6772781662053642,-0.3155371241705114,0.014755103596640463,-0.2964267435325801,-0.17003318913896276,-0.3041482677945889,0.7151590435330015,-0.39496945592804666,-0.03868731193519952,-0.02636378982251074,-0.0039011842807609434,0.07506565635886225,-0.12183929184750508,1.036083866988505,0.10611909963039756,1.1006635962911142,0.2492144983885785,0.030207159953394,0.1154133682700827,-0.07140778119082462,-0.9368375342815307,-0.2525868041986828,1.0944684515253762,-0.10029439092276984,0.05478639589756554,-0.09863792776869706
89.0,4.5399134159088135,1.011359959477251,0.009681109050870409,1.0755903508363978,0.024173228229114087,-0.07316407647693733,-1.6095269653789428,-0.307829589463234,0.17528076992239783,0.17542088771437436,0.6713369278987353,-0.3024406046287524,0.014639162477402188,-0.2923836388143979,-0.1711717239125512,-0.3051034567797985,0.7059720541491621,-0.388671277359618,-0.038190199143398974,-0.02930992139861217,-0.002332798961957391,0.0700029928281488,-0.11990769759978456,1.0634197525246936,0.11281225655826453,1.1124514117439768,0.2481877668617249,0.0355665716679475,0.12055310508071546,-0.06232387767220939,-0.9579686308738468,-0.27254508926954,1.1021590838627222,-0.09271533315051231,0.05474511002271633,-0.09693764708323827
90.0,4.573516368865967,1.0127028912837042,0.009295948989335319,1.07667895911084,0.02459780860380879,-0.07319224132615841,-1.6088203374758978,-0.30449241428256113,0.18723067235071456,0.17868060085029558,0.6660909479179087,-0.29122242487800887,0.014195006219903418,-0.2887635299725534,-0.17196373785793884,-0.305904206206836,0.69782919172544,-0.3832001843713505,-0.037677630431924305,-0.031518990916225606,-0.0009713981041980647,0.06566210296844235,-0.11848943531349623,1.0849252888155925,0.11835018313310139,1.1224077516435154,0.24714618514057135,0.04000754657184625,0.12396336130756105,-0.053955553598078354,-0.9745995583242368,-0.2885013088084037,1.1084288126675397,-0.08804583368043842,0.05433840467488997,-0.09486780065356687
91.0,4.610309362411499,1.0139597216888772,0.008939375015965503,1.0775820442132136,0.02489363529576989,-0.07315096199391513,-1.608325705665996,-0.301417893818854,0.19752811450359758,0.18160246552906426,0.6614541385160445,-0.2812322807751452,0.013836987628002754,-0.2854999456177304,-0.17256664487901552,-0.3064751137931591,0.6906016162291725,-0.3784450351148594,-0.03714307302636588,-0.03314891306046689,0.0002078625342187895,0.06184583358976631,-0.11745931747343401,1.1023299694221858,0.12306438767695121,1.1310115972053056,0.24610944910568838,0.0437684691383253,0.1257613922472733,-0.0463793235277358,-0.9880231833306558,-0.30186163841906744,1.1136241781078304,-0.08515339699756139,0.05392586926615622,-0.0926405926537946
92.0,4.643516540527344,1.0152141510236512,0.008617607420021727,1.0783847789631495,0.025059879829633515,-0.07308895279990169,-1.607987412886286,-0.298492385370273,0.2069359387648213,0.18452675326433055,0.6571956646744173,-0.27183863133789404,0.013236996507983392,-0.2824684503547959,-0.17309323249878267,-0.30678055861233905,0.6839556339207129,-0.3741808987755211,-0.03656064440185222,-0.03432230505780416,0.0013143861562936033,0.058389449556559975,-0.11664103286371669,1.1176281638199688,0.1274955311553623,1.1387586391406999,0.24508099588173587,0.04692724603112472,0.12659295731091963,-0.039578730379666416,-0.9996235929234649,-0.3140200960058841,1.1182986290360526,-0.08315445591621431,0.054112920136780894,-0.09064388648971373
93.0,4.668083190917969,1.016455700300107,0.008331485383502252,1.0790973310306946,0.02508569758681132,-0.07303740133244149,-1.6080204014057595,-0.2956979584894519,0.21537969626482661,0.1872869840870015,0.6533037135243542,-0.26313338421684107,0.012763995774243015,-0.2796405447122933,-0.1736532529354451,-0.3069118486904159,0.6779661701187689,-0.370267944940433,-0.035948541029257125,-0.03520518146371656,0.0022808632614428996,0.05538879351933981,-0.11577390249000749,1.1309165089857212,0.13135163447577283,1.1456536888897566,0.24437702892042626,0.04955321674275639,0.1265882470124055,-0.033505224585450175,-1.0096209857728182,-0.32495657851110055,1.1225034932967162,-0.08207598191163712,0.05432390848602919,-0.08894765557765948
94.0,4.710484743118286,1.0185788617561846,0.007863386819902174,1.0802078357293319,0.024950114733884532,-0.07279786636488204,-1.608332576052251,-0.2908452691898608,0.2290057041443867,0.1920883003425719,0.6468765738903792,-0.24837363779281907,0.012016372909818263,-0.27481650588139467,-0.17437278073506687,-0.30695824544145167,0.6680673989669088,-0.3638501905447338,-0.035022353418818854,-0.036144093191034926,0.0038865514884059774,0.05095638112916279,-0.11434075557432213,1.1511792631026179,0.1374239101373951,1.1563938753787637,0.24387551205290992,0.053521394317276996,0.12588747825762378,-0.024084373953120165,-1.0245300109288533,-0.3434015874816271,1.1292505354823565,-0.08163521231918373,0.05530129318288494,-0.08622536199258006
95.0,4.73236346244812,1.0195746020763374,0.007659039122013914,1.0806862317430945,0.024775394357471676,-0.07267599080755927,-1.6085785620174202,-0.2886154309902698,0.23481349131511298,0.1942121694726879,0.6441601944034117,-0.2416933886561602,0.011522011005693108,-0.2726428211748702,-0.17468217633170974,-0.3068177675114465,0.6638252699138097,-0.3611361894972751,-0.034603717757952956,-0.03641723732400344,0.004509041377271162,0.04910967546370294,-0.11345545784756582,1.1596056288748342,0.13993051073183171,1.1608876624488254,0.2440791151660658,0.05503616858086605,0.12547495111435755,-0.02025086307222066,-1.0306430175551629,-0.35143797021535317,1.1320527008452241,-0.08185797806953565,0.055775577137835375,-0.0850963573918588
96.0,4.763289213180542,1.0207843814120148,0.007431317335585237,1.0811956435444947,0.0244816180660927,-0.07255569831146672,-1.6088576963802277,-0.28616881107873193,0.24118974651649516,0.1964351363211892,0.6415174826275678,-0.23419556665555222,0.010949855238713335,-0.27030734314468535,-0.17515150926500636,-0.30645273609673623,0.6594746502543746,-0.3584676398342146,-0.03403968852754913,-0.03673623012335532,0.005202429118604123,0.046994471038627895,-0.11222758108087377,1.1688276864692426,0.1427897850064276,1.165787044072096,0.244320891995862,0.056842492342909764,0.12502283554082022,-0.016320243710747535,-1.0373214159672308,-0.3601012999306644,1.1353834170398174,-0.08176121306326259,0.05641291936388643,-0.08400702658071671
97.0,4.7896764278411865,1.022245904317276,0.007150617207427739,1.0817117696030416,0.024118448544288358,-0.07256698609425502,-1.6091822168475933,-0.28348379682644653,0.2479249003319614,0.19889517484214936,0.6386822639445876,-0.22655803415556997,0.010245331726435086,-0.2678704431986157,-0.17604894200308185,-0.305971734601448,0.6550362913498364,-0.3557728547332485,-0.03346925713327431,-0.03717132116516293,0.0058643230600710985,0.044408586110874476,-0.11054269257766526,1.178798437796726,0.14593693284674686,1.1710675444790448,0.24466060867640793,0.058826074164280845,0.12462356550581802,-0.012241559565190413,-1.0446407387226677,-0.3694995260722158,1.1392260992533014,-0.08128218905425685,0.05726503194187425,-0.08319411685682616
98.0,4.82017970085144,1.023939924806855,0.006888113596193807,1.0822715004961596,0.023561185897127294,-0.07244705222868933,-1.609956468112271,-0.28057635500227873,0.25561631401028884,0.20201222112448045,0.6362177633429917,-0.2172578069386295,0.009134497202170083,-0.26536155811310724,-0.1769245695246565,-0.30516699332263103,0.6506010994621629,-0.35277550782557227,-0.03278763347434168,-0.03757311552375736,0.006728841654898154,0.04174906183289291,-0.10854249447310269,1.1894326678810376,0.1497423799918906,1.1770548950014266,0.24484791197038522,0.0610777166998671,0.12436738089126692,-0.007829991653334136,-1.0520032553152177,-0.379924318169269,1.1435675637319629,-0.08013418206938187,0.05836546903870518,-0.0827658572002471
99.0,4.858612298965454,1.0257085408387816,0.006589299677597298,1.0828282252543984,0.02297042725165327,-0.07223281066204548,-1.6105525193542678,-0.27753219993491496,0.26298756557333824,0.20508705389376966,0.6336545957646189,-0.20771615748329164,0.00708901044932074,-0.2627578464773045,-0.1777795010949535,-0.3044393672194427,0.6461249785464658,-0.3497492698932433,-0.03211324059448827,-0.03783127888274136,0.007595188806819686,0.039214631909122555,-0.10656727409777073,1.1996975623045343,0.15350908505012892,1.1827939310000941,0.24526129781353892,0.0629245125599944,0.12440134211215827,-0.003647237588881632,-1.058952267974623,-0.3905204555844525,1.1477872953205401,-0.07878369170515277,0.05934185576435472,-0.08287246129953044
101.0,4.911863327026367,1.027516384584461,0.006223715228135206,1.0833779955978984,0.02270820840509365,-0.07208925631529112,-1.611385435727778,-0.274609437620411,0.2700144679530667,0.207710581262813,0.6308435607032219,-0.19794805853115938,0.005134517120218744,-0.2604972685472494,-0.17859197467031648,-0.303300774648602,0.6416046146800989,-0.34668068229216004,-0.03139270834523645,-0.037635330752965074,0.008231817243746518,0.03639040799949976,-0.10455217196659967,1.209589271875138,0.15752755373798932,1.1883959593029152,0.24565809283265974,0.06457384270098249,0.12471292695166483,0.0001954297112136444,-1.0656370592951077,-0.4010512483357149,1.151895956622891,-0.07737938409098445,0.060220249670942944,-0.08326709732725876
102.0,4.957219362258911,1.0302634288582415,0.005723383235451551,1.084025026546151,0.022390298804639164,-0.07205522824925463,-1.612311424618105,-0.2711078415847254,0.27907184025128684,0.21135227096708886,0.6274826962529143,-0.18530019060193845,0.0026828169027237315,-0.25780293351143035,-0.18045590370810724,-0.30181894451815,0.6362072065038209,-0.343066470986065,-0.030236697324714734,-0.03764179888198016,0.008926466973390501,0.03238929637694794,-0.10189877158653647,1.2223925817730272,0.16314586706912504,1.1958444970778144,0.24545872289835835,0.06688384138193543,0.12465310143352232,0.0050434171516134585,-1.0745562781249622,-0.414353088987376,1.1575859891072915,-0.0746625804783674,0.061164009152467835,-0.0841729558580365
103.0,4.987998008728027,1.032918609359334,0.005300471006794868,1.0846215884247934,0.022174788245127516,-0.0718827343452255,-1.6132217949679328,-0.26793867438350527,0.2874522734308002,0.21502444449855762,0.6242947988806995,-0.17288324074888756,0.00044866098763534366,-0.2553779223043212,-0.18213485557079845,-0.30046023878055506,0.6309952512355468,-0.3395112723518098,-0.029078115175304682,-0.03757633857992855,0.009645249599198085,0.02873650336863097,-0.0994179925569307,1.233796337921834,0.16885148044390347,1.2026863678509292,0.24496189537289415,0.06890172737610717,0.12439893569079125,0.009514020645979268,-1.0823380179842124,-0.4274590021613075,1.1629834890963364,-0.0718039520627258,0.061708280344860346,-0.0849038667787147
105.0,5.036760330200195,1.0355138983710157,0.00493339528472319,1.0851091886801685,0.02185502806811365,-0.07168672135309581,-1.6140845187555877,-0.26492463597829824,0.29479619061039347,0.21828920664456997,0.621288734256,-0.16176915512614898,-0.0008264594947183957,-0.2531293952725467,-0.18379127786544752,-0.299162878446228,0.626270028966733,-0.33623203304707694,-0.028037561340736858,-0.03747481140788796,0.01039175036199088,0.025570354754577834,-0.09715543529292059,1.2435594271803287,0.17441674104599675,1.208862740697628,0.24425795599842887,0.0707644057018085,0.12374350248121332,0.013942855032328132,-1.0888790657175245,-0.43954154989820704,1.1678569411713964,-0.06946777437133037,0.06196973268280133,-0.08517317050867716
107.0,5.09991717338562,1.0390178551661906,0.0045320551994286066,1.0856349095081081,0.02123950469899045,-0.0713273684370851,-1.6148927081329743,-0.2616974039337078,0.30281712886637024,0.22110218333669207,0.6185536813867943,-0.14820062301550976,-0.0025700639209221567,-0.25053928062835396,-0.1862657311535244,-0.29766727010124794,0.6213282179406562,-0.33252402102662715,-0.026664397244138216,-0.03748351840754419,0.011423242576567738,0.021989428431985796,-0.0943220441468136,1.2546265880902778,0.18100646975676685,1.216112247745026,0.2428646944624176,0.07276797675776454,0.12238447246342814,0.019247545975124635,-1.0962928101643,-0.4526313574686667,1.1738735943711767,-0.06687332989467112,0.06284387401089332,-0.08497775259440626
108.0,5.163529872894287,1.043283148876001,0.004091234474789973,1.0861757789739843,0.02038074088760476,-0.07063531439870427,-1.6154831136158077,-0.2584552609093337,0.31108264908469574,0.22366395753186186,0.6162178232023486,-0.13216994335009355,-0.004425347435991314,-0.24757476846020385,-0.18929797778275964,-0.29600880047372624,0.6162656972185377,-0.3282804887620381,-0.025230037497286396,-0.03755135503579838,0.012721643470518629,0.018506314613911706,-0.09122102862267881,1.2661533649851344,0.18765083193493998,1.2237819118747992,0.2414316164371202,0.07487166231046813,0.1203327562885593,0.025278401927482163,-1.1039094022959046,-0.4657795278002236,1.1805884557232198,-0.06455395948446438,0.06373339260660521,-0.08420259262091163
110.0,5.2047059535980225,1.047215420757147,0.0036889446291705095,1.086589215444349,0.01957307167552611,-0.07000611179692459,-1.6159490897731956,-0.25545011363269343,0.3176723390369548,0.22555502644130132,0.6137358701738359,-0.11858404469125805,-0.005988655937191823,-0.24486480719187798,-0.19216859002427278,-0.29455441712946717,0.6117039501687104,-0.3244978828908922,-0.023892948296465714,-0.037540601123084154,0.013884762576925561,0.01577032228135664,-0.08856758220321881,1.275806586483653,0.1933403088539058,1.2302565524686933,0.2404617136920026,0.07664122474009422,0.11804013434203213,0.030893436893632872,-1.1102059622828322,-0.4768509363561159,1.1863371456953766,-0.06371533289150949,0.06469023930873022,-0.08340359934256672
111.0,5.252496957778931,1.0519751918742581,0.003255545796404004,1.0869418265682789,0.0185399538982221,-0.06911543109560357,-1.6164174195147272,-0.25246187001397713,0.3240239588052116,0.22700455553502402,0.611484096151259,-0.1034533084201479,-0.007154675743180069,-0.24195297901724966,-0.1956687609963959,-0.29283655965517785,0.6071089972825495,-0.320586957267886,-0.02206231911198428,-0.03749197750622739,0.015243186119577437,0.01325599791889892,-0.08532556913892562,1.2859044271013302,0.19809267667244526,1.2369750351966757,0.24027017615028895,0.07809959472276926,0.11467631311354148,0.036975514181398536,-1.1167610856894374,-0.4869299156610968,1.1925472771404289,-0.06406449250825941,0.06669224875615606,-0.08217125468722136
113.0,5.300030946731567,1.0560663608050793,0.0028518058446480145,1.0871681879617021,0.017600713729030517,-0.06817066086763557,-1.616852383706633,-0.249783157637898,0.32859014132170905,0.22750752862930454,0.6093073933655934,-0.09071537598598198,-0.007406675319214328,-0.23931212368584903,-0.19840123692378464,-0.29119893192991725,0.6030963411044938,-0.3173036842695852,-0.020449701913220784,-0.037345076451238156,0.016440835077718097,0.011620946687314759,-0.082528755196912,1.293704075529583,0.2011793747878532,1.2422521136556717,0.24109172408046425,0.07910189155941781,0.11137244479194716,0.04217590016198697,-1.1218122819975078,-0.4943214719768265,1.1973304309255863,-0.0661499619391745,0.0684170761301544,-0.08049365277810867
114.0,5.355938196182251,1.0610727290022748,0.0024126904339915,1.0872595931037632,0.016394903982287073,-0.06682469094743025,-1.6172760039826177,-0.2472397383119744,0.3326820566987315,0.22705138020482718,0.6077314545938416,-0.07701997246395563,-0.007404846864219683,-0.23644694498728716,-0.20163696352625554,-0.28921417156091384,0.5990916518991751,-0.31415808113079735,-0.01835068618265724,-0.03696785679279195,0.017978949865572403,0.01022784204752866,-0.07900772581028218,1.3020062426062338,0.2029419682671591,1.2479685051596698,0.24305444738671933,0.07961665520091224,0.10721858396749163,0.04763329962891151,-1.1272072626653664,-0.5005892618304153,1.2028283839931677,-0.0695783689378502,0.07120331671559531,-0.07832514169728932
116.0,5.407914638519287,1.0656527081379463,0.002036573455105496,1.0872718188402437,0.01527626451949093,-0.06546072113903342,-1.6174889586984722,-0.24512042887787716,0.3358442742819411,0.22676813365245807,0.6065564025878094,-0.06415738108854359,-0.006958112751578705,-0.2339003492659741,-0.2045625264509297,-0.2875848174926326,0.595676815473222,-0.3114218380236451,-0.01635907734394857,-0.036661834911539515,0.01948500927491209,0.009290191805081718,-0.07583850691742594,1.3089228575271132,0.20381365849759597,1.2530172443317853,0.2454959044774821,0.08006399521415505,0.10334034639078182,0.05235349361165402,-1.1317222141257721,-0.5054752991501708,1.207645851078762,-0.07382255626133624,0.07348101539067206,-0.07608865205860946
117.0,5.45879054069519,1.071266392009624,0.0015755907470032474,1.087147202384366,0.013890250292767454,-0.06362652283627479,-1.6176926617191865,-0.2432361582651904,0.3382224292930296,0.2246960559206299,0.6062374469073857,-0.04880493994735777,-0.006524070891081018,-0.23108300982105856,-0.2081609632794123,-0.2857128731402332,0.5923164611307538,-0.30867511122109687,-0.013917722713323944,-0.03615635071040147,0.02137369923183269,0.008559028163294345,-0.07212954535040665,1.3162500671799866,0.20383259261570003,1.2586678903951742,0.248536751896179,0.08057930679292771,0.09851924841867535,0.05738825372485937,-1.1367188937198274,-0.5092085668015588,1.2133583113918625,-0.07920926297143574,0.07587794905742448,-0.07308398018673398
118.0,5.495532989501953,1.0763782857610729,0.0011539128278868264,1.0869490116757128,0.012612634588655879,-0.06189924270640258,-1.6177445284640122,-0.2416398810233391,0.3396506183220741,0.22268974782584283,0.6058918186966364,-0.03550125929469911,-0.0068428827248658165,-0.22847080908627876,-0.2114886177614295,-0.28425171671781024,0.5893444017386009,-0.30633151340254317,-0.011585014882598456,-0.0358835549691254,0.023081483407751596,0.007937409832613256,-0.06875216489995398,1.322361564814695,0.20340028310506483,1.2637541921272173,0.251647762443241,0.08125526120877116,0.09405784320205021,0.061408628603698,-1.1409287661707999,-0.5123248535585805,1.2183855197433622,-0.08449829024932129,0.07800565400358961,-0.06987815115871941
120.0,5.537161350250244,1.0809538759688908,0.0007868725522467779,1.0867091958578166,0.011481332821849537,-0.06019479152439892,-1.6177463489371267,-0.24032790209242352,0.34059600794609757,0.22085411519345238,0.6058221923004662,-0.02226147614233804,-0.006321593171724482,-0.22609713616585816,-0.21438435324256652,-0.28322637015293184,0.5867297587438528,-0.3042229746062657,-0.009333102081084158,-0.03567599264515841,0.024677556612211212,0.007386196246597136,-0.06585732908377476,1.3274148903066632,0.2029310365757934,1.2681519756984074,0.25435706378331957,0.08187707369292098,0.08976033890662324,0.06477609908645889,-1.1444736924467684,-0.5146792460302466,1.2228183034172475,-0.08977565964873585,0.07999495587424016,-0.06627054868548712
122.0,5.594984531402588,1.0870247769063321,0.00029913048733651185,1.086256332212765,0.010036414286860928,-0.057712699766449466,-1.6179084722562491,-0.23913393934317737,0.3409255867885407,0.2178316722853282,0.6065508276562525,-0.0060079769873055975,-0.005559214828070292,-0.2234275458619835,-0.21798119682853354,-0.28154987230920275,0.5839778083385019,-0.30194940862727737,-0.006416836169502387,-0.03541148315787088,0.026972215459101008,0.006711740209914349,-0.06175181346544308,1.333489995434168,0.20202420759441586,1.273615523546494,0.25714876669974457,0.08322241782585826,0.08377196104348317,0.06816705466066318,-1.148321945191591,-0.5172866312421409,1.2288257025242397,-0.09447062182415775,0.08307607661301403,-0.060887404713941114
123.0,5.651327133178711,1.0942986193668665,-0.00028873907061695303,1.0856551051111065,0.008601048667810102,-0.05469872273506438,-1.6178817161734091,-0.2378267273101024,0.3406862991695564,0.21580976938751917,0.6072189108753001,0.009256303192208153,-0.010129547743988903,-0.22066749730148763,-0.2223377473654946,-0.27957180828027106,0.5809873551822557,-0.29948161579776783,-0.0028333463957401026,-0.03506629133120167,0.029718628928431114,0.005765908254410415,-0.056663835208610736,1.3400135676304532,0.20085252238848827,1.2795973164025916,0.2598504347270152,0.0846464746417943,0.07634660428023063,0.07053900256766076,-1.1521341654656128,-0.5214637541054683,1.2354832459507004,-0.0970943011616204,0.08730929918681618,-0.054790428910721334
124.0,5.695575714111328,1.1009230423681906,-0.0007967292804344526,1.0850753618341056,0.0073656731500320516,-0.05193764966152528,-1.6177025578346842,-0.2362468893002284,0.3399544447752307,0.21501971628688157,0.6067308422063223,0.01916333437556231,-0.016955998746648698,-0.21818479369244048,-0.2263216333747286,-0.2778095575243802,0.5781221415763472,-0.2971211145082269,0.0005056378846609361,-0.03483442866096549,0.032179954034311356,0.004828930643002924,-0.05193980486162857,1.3456467241112549,0.1997826006954874,1.2848497606396698,0.262188915330357,0.08583898821784976,0.06959609590280705,0.07254030454656231,-1.1556624119157264,-0.5253059446781987,1.2413238309657606,-0.09944435120109973,0.09116093643032126,-0.04865174425753154
126.0,5.738537788391113,1.1068853785589203,-0.00126491641397159,1.084488398595893,0.006400844583066278,-0.049509275575723,-1.617526698104589,-0.23441622040317278,0.3385152673970093,0.21450422585583398,0.6052434354923726,0.02342994453847573,-0.025366392193331158,-0.21612763029734658,-0.2299587532129234,-0.27607483382227904,0.5755021425310904,-0.2951453503239117,0.0036305530232118664,-0.03461185530658609,0.03437600852370712,0.0038523859794682954,-0.047625149180187516,1.350263717056838,0.1991789815261974,1.2893163286509308,0.26388796866695485,0.08707131755002111,0.06392122389988811,0.07361989043639855,-1.158466715230961,-0.5296206415499173,1.2461369353146265,-0.10076922219178255,0.09450819110409767,-0.04335144075947827
128.0,5.798460483551025,1.1142220666345688,-0.0017795658071676033,1.0835753735265532,0.005327509236731506,-0.046774793481496796,-1.6173146405608056,-0.23174458752063176,0.33629531606705143,0.2156456933629161,0.6029585280146318,0.02174949730710678,-0.037060525165969346,-0.21427783071525175,-0.2347437866548044,-0.2736380384210156,0.5730804338134515,-0.2933604547970774,0.007463539517377079,-0.034358389333204176,0.03705248738747764,0.00222069337517936,-0.04244683869491387,1.3546906482484444,0.19907621200441133,1.294136119348087,0.2649702939530147,0.0884889985304776,0.05900018934039431,0.07513823772658612,-1.161591145926913,-0.5347081720755655,1.2512933970208404,-0.10106369435179258,0.09799264534927757,-0.03790684862583661
129.0,5.862142562866211,1.1229279228272968,-0.0023550576278016187,1.0823818781816426,0.004282388288334416,-0.043540480401876296,-1.6171021520459363,-0.2278266233450894,0.3341061976258721,0.22001119869107089,0.5998613865079826,0.013478167636129053,-0.05074273249852346,-0.21262661472654176,-0.24048597501218957,-0.27055386816128685,0.5707472648953251,-0.29153512354932776,0.012121650691955192,-0.03398804257052932,0.04026776739936716,-0.0001914817841624308,-0.036553961106656194,1.3588535474990364,0.2000039638792587,1.2990852058875364,0.26492631673833367,0.0897364166302467,0.05532791427663854,0.07708996208951224,-1.1649884384827716,-0.5403431163984257,1.256786118417073,-0.10056519075417059,0.10128131173287336,-0.032794295765281097
131.0,5.912222385406494,1.1308346793155928,-0.002866660229331925,1.081230605646297,0.003322542695076378,-0.040661115832730056,-1.616991655968743,-0.22356008815966816,0.33190093780048435,0.22473727347655306,0.5968906891503485,0.002392243099858981,-0.06192451557761746,-0.21123944852268509,-0.24582289053746728,-0.26758223005356396,0.5688119890247337,-0.29007953802060654,0.016460563217536184,-0.033583453967320126,0.0432184503188595,-0.0024158191003351764,-0.0310919046908836,1.3621250485212273,0.2015299553121634,1.3033060931220772,0.26412060918065877,0.0907548908991137,0.0528616803354067,0.07881422351965477,-1.1677901161699742,-0.545674216075809,1.2614207034396028,-0.09990777248505608,0.10397311361049427,-0.028853174185735575
133.0,5.963267087936401,1.1400348446562918,-0.003497892264166651,1.0798173648143923,0.002333423388684728,-0.03710789558065956,-1.6173704924478134,-0.2174675086366975,0.3283516917246881,0.22963255628011103,0.5929057676448682,-0.01706120849010711,-0.07034323545401173,-0.20973186182321107,-0.2515309782749321,-0.26392781070822796,0.5664217697918492,-0.2884716866400796,0.021336496926431907,-0.03260033389172235,0.046567763793376,-0.005115242035682417,-0.024667960804003623,1.365387496739614,0.20396038216392923,1.3077046210211791,0.26229695931993424,0.09156835914337776,0.05129590775449252,0.08062302880184355,-1.1708238945315954,-0.5505916046923695,1.266272266972116,-0.09938775245018774,0.10660988463840249,-0.025907546435790393
134.0,6.02991795539856,1.1499442598530587,-0.004177828029802322,1.0782945603316498,0.0010711698790979959,-0.032905352523502324,-1.6178926835947665,-0.21004509999659532,0.3245107355498874,0.23597381881437685,0.5888218073994422,-0.04292846596108065,-0.07493865851754802,-0.20771935515324855,-0.2571674399357577,-0.26023159583534994,0.5636973899445156,-0.28654404276338646,0.026430176793770972,-0.03129061487297,0.0500556955707509,-0.007373670043759247,-0.017568985188576122,1.3683701144068523,0.2068325306052062,1.3116802777189875,0.25988909660460263,0.09246625063294449,0.050498262806357934,0.08184175634070653,-1.1734430905372009,-0.5549465509866153,1.2707122777678308,-0.09901857908503198,0.10895599329914363,-0.024586368084047912
136.0,6.083136558532715,1.1582814910709889,-0.004750728202637418,1.0770071193828936,-0.00019662133345024453,-0.029240603279338924,-1.6184570108139287,-0.20357749100413008,0.32127344302733596,0.2420638246541166,0.5858725118992131,-0.06777520816663657,-0.07639103245408654,-0.20567305860206053,-0.26180128679054615,-0.2573274505439587,0.5611702633672639,-0.28464380977534587,0.030694404887756106,-0.030022866531474457,0.052887461272695155,-0.008641552548125604,-0.011001844613908584,1.3705826729164725,0.209292848706005,1.3144850531709082,0.2577232793773324,0.09327548961975629,0.0502471892571803,0.08238619341609577,-1.1754029741812313,-0.558459941737379,1.27406460442229,-0.09895265005478657,0.11066755042197479,-0.024369402963201954
138.0,6.134451866149902,1.1675801322847432,-0.005417128944024515,1.0757468381223825,-0.001441365855687838,-0.024585844555102293,-1.6187334502607134,-0.19747861744399087,0.3187224610357621,0.25019249409583266,0.5839441718172822,-0.09373033825519475,-0.07543979448469679,-0.2032849949634264,-0.26632408782012873,-0.25470196779419335,0.5584390277704241,-0.2812850748236816,0.0350649167012048,-0.02864459881123888,0.05595720449015236,-0.009392266617829758,-0.0039253000768043785,1.3724081233053051,0.21128015859937627,1.3172830430383184,0.25581718279344146,0.09414992590251389,0.050515332547010634,0.08168307154848237,-1.176634169920155,-0.56205499167201,1.277143110645632,-0.09808669784793039,0.11189932226903146,-0.025292928533091907
139.0,6.191734790802002,1.177256632941093,-0.0061083885544249514,1.074561357025463,-0.0024798745727584014,-0.01940051372809796,-1.618714597068284,-0.19206525899888882,0.3166619311367648,0.259655183721687,0.582768561318603,-0.12143523590717192,-0.07214328454352391,-0.20092793438760098,-0.27079224570474786,-0.25289961403812555,0.5557830736439214,-0.2764245271878604,0.03928131088291634,-0.027157253752756398,0.058878936844867474,-0.009670043979862387,0.0031591911458326294,1.373652789179396,0.21266246232612612,1.3197860117358255,0.2542499386077255,0.09427844638677094,0.05096645859193083,0.0797130200296837,-1.176754160106622,-0.565979766067568,1.2800621779352608,-0.09613941411038174,0.11295889481205695,-0.027375693402575146
141.0,6.239362955093384,1.1852095649471628,-0.006675552433503235,1.0736547573873902,-0.0031853518198826855,-0.01499501191754207,-1.6187529697040448,-0.18833126656626764,0.3152001101142754,0.2674181635976734,0.5827960263192418,-0.1448378160920827,-0.06845342522587101,-0.19906426358776086,-0.2743687429980711,-0.2517029769491519,0.5534813235977838,-0.2712023632909406,0.04225351726111486,-0.025791224734645513,0.06109712008976887,-0.009618240707589437,0.009096402838727778,1.3743484873579002,0.21387473842352323,1.321637297180477,0.2526235782967407,0.09412875993846641,0.05118178969798412,0.07734428050251169,-1.176171435049288,-0.569209733300146,1.2824460417902996,-0.09409032709530021,0.11373216214071977,-0.029419148524366584
142.0,6.291579246520996,1.1939278850018678,-0.007235289931148208,1.0728012190914449,-0.0034015702365282263,-0.009774137422174138,-1.618327777696431,-0.1861960343077554,0.31365880046187555,0.2739868804366599,0.5840426303529418,-0.16897502154839372,-0.06432730259826643,-0.1974267633484717,-0.27795094120732616,-0.2512665673992084,0.5509355717790647,-0.2642742848479015,0.04553790829653498,-0.02428835059879384,0.06322012795279044,-0.009467701752003666,0.01429418241797976,1.37475487060328,0.21534292753662754,1.3233957051419838,0.2504065836291939,0.09391105593416253,0.05060044940217997,0.07383588443842166,-1.1740921013307808,-0.5725623431478953,1.2851715223793199,-0.09096154111907734,0.11451413294051178,-0.031733594733203106
144.0,6.348363637924194,1.2009412798571633,-0.007612815472172111,1.072187362515471,-0.0033797869705398404,-0.005248027502502926,-1.6181108232382952,-0.18567106302351954,0.31275526012576577,0.2781188451439774,0.5866328413776517,-0.1874980467572696,-0.061060745564018894,-0.1963184566747927,-0.2804060661896781,-0.2510807474553123,0.5487246703378461,-0.25754844407202315,0.04822358395217502,-0.022879559127144775,0.06496375605920944,-0.008929680169493939,0.018273737999380733,1.3748447079998767,0.21678837885119584,1.3245112032962458,0.2480160075616255,0.09373605234887836,0.04951905854043432,0.07034529477901542,-1.171611864768139,-0.5749537435038431,1.2876935027913843,-0.08813001881028219,0.11517648644110116,-0.03370527644996055
146.0,6.415164470672607,1.2087204889676024,-0.007899000126362118,1.071450318648359,-0.0027427451302978116,-0.00016458764258081788,-1.6175131034292103,-0.18724692796856326,0.3111509554314102,0.27970961197219063,0.5905111131199632,-0.20723440502452672,-0.05762636293541762,-0.195920795973627,-0.283286219278166,-0.2513437551315146,0.5465266797167114,-0.24961483719410052,0.05227517595936071,-0.021582178174058622,0.06662903270158738,-0.008247437067730222,0.02140090853844049,1.3748514365342346,0.2178635751394417,1.3254136620306638,0.2457061606073654,0.09403531215050942,0.04736961571134774,0.06606267828889732,-1.1676726998824754,-0.5773561959395934,1.2907962171871126,-0.08435880710444038,0.11661824102364823,-0.03497720179776029
148.0,6.471394062042236,1.2172523001771958,-0.008045374496292623,1.0705678838982917,-0.0013738040830823196,0.005621458644092084,-1.6163563282985585,-0.1914443670940778,0.30911395320817103,0.2787039400134677,0.5961173243402361,-0.22715965066237864,-0.05434259106087341,-0.1962532250858478,-0.28626569870022156,-0.2516297744424295,0.543992438032572,-0.2401498087826717,0.05686603408608583,-0.02041758324814011,0.0682818707355384,-0.0072807109621078085,0.023370318224251306,1.375100784295634,0.21830043923874942,1.3257068121414064,0.2439240613911041,0.09409885645681264,0.04436879017039495,0.061097047051823936,-1.1630423696458105,-0.5793024534547473,1.294062807136866,-0.08020826386532338,0.11931373997640385,-0.034773239081231894
149.0,6.5216569900512695,1.2260131020648362,-0.008019382580399644,1.069559964470773,0.0005237910757272988,0.011899440185449386,-1.6149307564797324,-0.19775426733516344,0.30720847517789185,0.27549423574249704,0.6032957652924198,-0.24647228099616214,-0.0513441646711519,-0.19717499686039686,-0.288917610803757,-0.2522407291242367,0.5411651344156654,-0.22932656751617186,0.061681617583328005,-0.019497644081859083,0.06998588714180895,-0.0061494134715916905,0.024112595052031047,1.3758184740243322,0.21828234015499468,1.325283998149569,0.24268811952146324,0.09358398582037027,0.041209875833656026,0.05535868799268801,-1.1580317266643672,-0.5808136255395181,1.296940851649551,-0.07589830238240684,0.12304253404298449,-0.0327363032359978
150.0,6.562259197235107,1.2333198443869502,-0.007943539342034898,1.0686976965888808,0.0024281482358870414,0.017635092299618765,-1.6133766194423216,-0.20447147342010036,0.3059520257930233,0.27153702176603767,0.6107572931336815,-0.26301887285557235,-0.04887965295707724,-0.1979245877651164,-0.2906617929629337,-0.25308671663163756,0.5381703631228857,-0.21930047901645594,0.06554342320959027,-0.019015641468514616,0.07173501541160575,-0.00506194753641108,0.023817537851228303,1.376630736312697,0.218256403185154,1.3243813199276069,0.2416681944952003,0.09287394545803523,0.038633442546255836,0.04983354881532595,-1.154067287494664,-0.5820219496351667,1.298860610079494,-0.07189717754423577,0.12621893549710828,-0.030379003120215943
151.0,6.5970985889434814,1.2391230760816878,-0.007828541978137855,1.0680648048793158,0.0042243498961743045,0.022891714648623825,-1.6119855347297927,-0.21098982016857706,0.30569842775051137,0.26741471935862493,0.6180005102550986,-0.2754981849667595,-0.0469936668840312,-0.19830761851800985,-0.29114722606957616,-0.2541841530421323,0.5348280955604938,-0.21007328878435677,0.06824694366643029,-0.018617854797455233,0.07351668620666693,-0.0038685023707959653,0.022659610797493963,1.3776043698108646,0.21847591827139634,1.3230068579518854,0.240697444955979,0.09184600111836122,0.036748612087820626,0.04429991730403906,-1.1512457335125321,-0.5829479511107987,1.2995823056158384,-0.06836721315277398,0.12837074850079458,-0.02824562792232242
153.0,6.6459128856658936,1.2439526499882456,-0.0076972680332246315,1.0676135454791331,0.005865846659266049,0.027726684024083237,-1.610712913148274,-0.21691232454560833,0.305937592609243,0.2635188889093937,0.6244957320479815,-0.2856040017228962,-0.04531028911212545,-0.19837709873767026,-0.29101445149233274,-0.25572178930489264,0.5312761549588869,-0.20127331702027434,0.07014398225400424,-0.018294229574053685,0.07532175964111823,-0.0026575252905803558,0.020927272075221326,1.3786108751764927,0.2189555499216059,1.3212658615938184,0.23975998589744713,0.090424382794242,0.03533436787765154,0.038664327629577215,-1.1491987344836168,-0.5838944397950441,1.2993949644254654,-0.06513849098726987,0.12939749424165098,-0.026906042657982184
155.0,6.70412015914917,1.2500623362425611,-0.007532397292751319,1.0671872903955695,0.007907213124961067,0.03338712525271606,-1.6090758828325822,-0.2230121594461798,0.3054497905257453,0.2596405059462066,0.630115487954543,-0.2981935586478706,-0.04283593948399604,-0.1985165943206947,-0.2912822730047449,-0.257600532959779,0.5267713564616048,-0.18968061155734162,0.0719178698995154,-0.017920227275004554,0.07715164121392026,-0.0007692013450868373,0.01729086179815029,1.380154796142842,0.2203873169997216,1.3181916623779797,0.23839156130404293,0.08812960837044174,0.03376714031251224,0.030669182326385054,-1.1468548688476639,-0.5859880433683944,1.2976539606245332,-0.06112194344736766,0.12920270970476858,-0.026586435487413452
157.0,6.771600961685181,1.2574547670925735,-0.007341596390478033,1.0668821399126789,0.010352502304982681,0.03967932441496673,-1.6074449862966678,-0.22876569035672356,0.3038259457675473,0.25549836254560576,0.6344132233025244,-0.3123534203711366,-0.039708770770002275,-0.19930944788445687,-0.29207853532433703,-0.25933992417935914,0.5217442222867397,-0.17505797123345912,0.07373223475461742,-0.017368819479403032,0.0790864983663201,0.0015233803759959754,0.011785805687550655,1.382249451033926,0.22294314644324426,1.3138725416945787,0.23657189339784918,0.0844111876789948,0.03236765134194251,0.01988434811816604,-1.1437534223790522,-0.590634026500114,1.2943060509755375,-0.055033790005257946,0.12715950232893275,-0.02758988900763167
158.0,6.830023765563965,1.2658116489174183,-0.0071244355702168366,1.0668246281818812,0.012820684546082962,0.04604056751340319,-1.6060073847665446,-0.23309657462689076,0.30051212348641987,0.25166922258054314,0.6367041269481715,-0.3275141971019816,-0.03546553038807671,-0.20091394425052964,-0.29382245119260786,-0.26059164691176523,0.5171251487096493,-0.15584973319676917,0.07555347910491539,-0.017051836217008606,0.08111802664855015,0.004395787190983204,0.0038620770311653253,1.3845560826496337,0.2277530622556731,1.308704393866857,0.2333570277315352,0.08038013194151393,0.032106108187184956,0.006633769433053383,-1.1399784636279402,-0.5983405017729575,1.2889281411538387,-0.046488519840201206,0.12297683418207436,-0.029990522071057728
160.0,6.877416372299194,1.2729180854806637,-0.006891766926078152,1.066942406716733,0.014965361727408097,0.051369764162475365,-1.6050099797448576,-0.23630541130101085,0.2973495358630267,0.2489097527312938,0.6377998605360176,-0.339415977357983,-0.03129090384412109,-0.20253468163001503,-0.29531759981467054,-0.26151821136298853,0.5127045003439297,-0.1381460991302433,0.07696474690047861,-0.016926810010526767,0.08312532994437402,0.007064959133513054,-0.004242022016101569,1.386432738011198,0.23351906934010147,1.3040261690644042,0.22975998760284297,0.07736436149625844,0.03280232207342866,-0.005489343341748868,-1.1366998660304635,-0.6062394229305594,1.2833103954518816,-0.03825486571405701,0.11859819090590273,-0.03239249754674647
161.0,6.926289796829224,1.2807344608140148,-0.006570344828030782,1.0675109744508045,0.01698286234948674,0.0563321492174329,-1.6045071875809271,-0.23801922887342747,0.29293441688309485,0.24795076986365375,0.6366628539713168,-0.3490233595997526,-0.026246821521880216,-0.20527873492601217,-0.2978655883312026,-0.2614457326284623,0.508959397482357,-0.11542159982042083,0.0782925809673817,-0.016832052821288232,0.08529404115572731,0.010434487456544853,-0.015350853801016287,1.3881092225704366,0.24227403993695096,1.2973582224000784,0.22410584215807122,0.0746755154694605,0.035030188163064725,-0.020278325172757645,-1.1336278738272925,-0.61522452937341,1.2747975973086216,-0.02931913946675966,0.11127268421768202,-0.03641144204617908
162.0,6.962932586669922,1.2873383591458585,-0.006240817248067833,1.0682805010163527,0.01843868518447297,0.05993054805063055,-1.604367821046291,-0.23846424434264654,0.2885641714013812,0.24836832896035038,0.6343332789410163,-0.35492606940061344,-0.021702149245881604,-0.20775193017401372,-0.30054485717229307,-0.26098615133615055,0.5056759557639551,-0.0933851469459139,0.07934002070881793,-0.016797753478410442,0.08703619851064912,0.013850859212231826,-0.025999947769173692,1.389045542225398,0.25124928248317324,1.2907377362079955,0.2187098284389657,0.07262894080519644,0.03782365289231755,-0.0335729175144843,-1.1314397442363253,-0.6226908815403458,1.266264984331603,-0.022018841846253263,0.1039004763044694,-0.04034263827312962
164.0,7.000447750091553,1.2930822012599843,-0.005892827907231287,1.0691719778794688,0.019592429352789244,0.06273095247027895,-1.6045980648863978,-0.2383098896996927,0.2845572032439272,0.24959480311898663,0.6312947008428329,-0.35802881697863104,-0.01776072212392865,-0.21009387478148744,-0.30296112263880454,-0.26002657695441966,0.5022356855872591,-0.07356639524244471,0.07988136992667372,-0.016684448752802714,0.0885860125741977,0.017238975664633154,-0.03632049299669944,1.3895251109609,0.260319539698029,1.2838331507339933,0.21365753989505887,0.07037015743664893,0.040964632305719936,-0.04583486013472463,-1.1296342879139847,-0.6281141562907562,1.257730683005322,-0.016686877691242778,0.09649054332073628,-0.044651695457851054
166.0,7.065244436264038,1.3003118645490912,-0.00541552082727895,1.0707480167084498,0.020472326453870808,0.06579263173568975,-1.6047411850682884,-0.23689820433152964,0.2791046350876458,0.2520154778797962,0.6260813831338747,-0.35829272257600775,-0.01339561516238471,-0.2133087314081375,-0.3063674676825032,-0.2583333554545906,0.499340500330106,-0.045894941296555025,0.07995775296288807,-0.016722250451414122,0.09018915948726736,0.022323264182525657,-0.051269946026699605,1.3900857222208165,0.27200932618809365,1.2734509880605351,0.2066274410649227,0.0654097801073003,0.04660687343221381,-0.06269999945580296,-1.1276647934902027,-0.6312339467291335,1.2451160355802835,-0.012523415175360573,0.08511468196931656,-0.05209726035322135
167.0,7.123436450958252,1.308463092927938,-0.004883601289387745,1.0729600403796309,0.021988845608583732,0.06859929290466756,-1.6055793942985108,-0.23437219803922674,0.2723240131353976,0.2561432245136221,0.617678833394783,-0.3553758839400585,-0.009177670763151177,-0.2182255065343636,-0.310801682405279,-0.2564102855517737,0.49609883045597286,-0.012851865346447257,0.07934197935427242,-0.016156892909718137,0.09151789810624156,0.027688153943858936,-0.07119132745403009,1.3904667664598174,0.2859182922289807,1.2593760560740286,0.1975757750017566,0.0573324197004568,0.055718400529559425,-0.08379865231175172,-1.1256429072043603,-0.6305442238387626,1.228724759323775,-0.010080691306670789,0.06946443678684823,-0.062327198153304175
168.0,7.1614837646484375,1.315635320724731,-0.0044053504768545035,1.0751451096374813,0.02355322186220211,0.07041568054230019,-1.6065637309337142,-0.23101110406511993,0.26541394105648664,0.26068948010042325,0.6076228864713182,-0.3508347107691858,-0.0055986298920487065,-0.22270557940010974,-0.3155824608705241,-0.2555499673547432,0.49222782893976946,0.01830419261727144,0.07847205755553324,-0.015437846369275096,0.09221902416557284,0.03218887453158211,-0.09047806212569583,1.3902218267719995,0.2989345184046328,1.245514721149704,0.18904717330481247,0.04896518261579809,0.065107538481251,-0.10388588859465586,-1.1239813285295617,-0.6277780680403834,1.2133282115162962,-0.008483035698579491,0.05387925963765633,-0.07188829778072015
169.0,7.194895029067993,1.321785150161,-0.003996712890327145,1.0771428457871015,0.025269651352361967,0.07117956700428482,-1.607788859297624,-0.22695207761251124,0.2584344747065886,0.2657127600370514,0.596141871199928,-0.34550011531438424,-0.0025022296198126113,-0.2268740175779531,-0.3210127700051046,-0.256394072060662,0.487938315194667,0.045401181032685256,0.07739575738279045,-0.014519087152842431,0.09256288351028483,0.03550257199839712,-0.10872386435985061,1.3892490289716202,0.3105607735487307,1.232263077953569,0.1811172976471132,0.040580346807495934,0.07416472971872559,-0.1231862881298101,-1.1220975799627024,-0.6248501466237145,1.1991015026898482,-0.00595729863101949,0.03717832576419299,-0.0822049520177131
170.0,7.232831239700317,1.3270926304493589,-0.003573001203296809,1.0790232759891027,0.026563621766957552,0.07125802355664736,-1.6090705050340421,-0.22192723848025478,0.251860917491816,0.271337418654984,0.5838599677977566,-0.33940227312728066,-0.00022072476482402773,-0.22997270856217955,-0.32644876545973944,-0.25843984077243226,0.48324091440307965,0.06981534455244764,0.07613459683637863,-0.013925943321156393,0.0924605744647258,0.03797644477172134,-0.12525262377461288,1.3879749950659246,0.3202037459073682,1.219783556541162,0.1739610551353692,0.03256608261283683,0.08218733103733247,-0.13949943638141077,-1.120843663463254,-0.6195203836634867,1.186910084149245,-0.00468694879161442,0.024290701789631886,-0.08986194406630482
171.0,7.268906116485596,1.3318962670941987,-0.0032344857883301473,1.080833863182108,0.02754728408191693,0.07067361325963357,-1.6102133547288546,-0.21583403806872575,0.24480427001488209,0.2769050916929264,0.5701899191722426,-0.3329902415393602,0.0013691125037228284,-0.23215999910187757,-0.33239437693905416,-0.2617108994294908,0.4784495469743204,0.09258749810510161,0.07455869532516166,-0.01346967702414513,0.09195355118577107,0.03976754955383306,-0.14131736005840723,1.3863640230231344,0.3281595744751311,1.2071744679237524,0.16694728157454541,0.024168865352890978,0.08944575777701651,-0.15557613342063525,-1.1198652049462703,-0.6130837406043594,1.1750152332919823,-0.002627755941062974,0.012860658592655614,-0.09585405525378174
174.0,7.317480802536011,1.3366682040779458,-0.0029564924970487587,1.082662414015056,0.02852091038916846,0.06974167890999303,-1.611223613408158,-0.20906826652239238,0.2371064995260464,0.2825470554333244,0.5551039824828092,-0.3258839410601978,0.0029006844427747697,-0.23384493112957266,-0.3387292697719172,-0.26594526996322,0.4732481488560971,0.11426888467288349,0.0727475465579379,-0.01310105646272847,0.09122329189108136,0.04102616354952865,-0.1582171508030511,1.3846580370517718,0.33494386728962255,1.1936561051341494,0.1592597778513209,0.014898536913227418,0.09625047358408771,-0.17261932519733056,-1.1192006976722255,-0.6055789864052548,1.162550850984383,0.00015317921718693644,0.001906871814515652,-0.10161091415939635
176.0,7.3959479331970215,1.3448059205999598,-0.002575412882355651,1.0856742205567655,0.029443164993231248,0.06863598944546144,-1.6124752760405499,-0.1973184492837764,0.22437041955505593,0.2909303076812676,0.5307817651140755,-0.31516011394755944,0.005594233255605748,-0.23470752154892122,-0.3487201669422378,-0.27623927160555295,0.4654105946286351,0.1418895111201999,0.06442132143699279,-0.012644057019945174,0.09040970605057323,0.04219134921819394,-0.1908297454839409,1.3812609978598744,0.34122532800626887,1.1651884973732853,0.14344576771986675,-0.003426272326244875,0.10946677053579734,-0.20597377447065152,-1.1175022696794685,-0.5911967750482656,1.1372087290133999,0.0067648971141098645,-0.018068519396492268,-0.11249707971346536
177.0,7.457448482513428,1.3534559056302333,-0.0020518772394871867,1.0888722181016406,0.03005522519883321,0.06744075870651325,-1.6135402946411062,-0.1836588402819076,0.21014277849200053,0.29937368561887634,0.5022997545627815,-0.30252458053801723,0.00859658177564976,-0.23225972995065455,-0.3580751198513282,-0.28988829795196547,0.4529454336393349,0.163119390939992,0.049287129932492985,-0.012344053646752628,0.08925580679794184,0.04244898294837618,-0.22939894962641785,1.3762955736862272,0.344356814195784,1.1299531369276683,0.12352128921490874,-0.02494962269049156,0.12773485920897723,-0.2461353647087155,-1.1144257980685799,-0.5726349957095717,1.106258833413421,0.017113222732176827,-0.04107136255842122,-0.12633122921247486
178.0,7.495510816574097,1.360605092470966,-0.0014572837032767938,1.0915941630692012,0.030270658199754337,0.06609459459032563,-1.6139781858538682,-0.17055227162094622,0.19715270329402018,0.30645787557028825,0.4744363457610527,-0.2892420702033605,0.011413625673026968,-0.22751463674895636,-0.3648209481922698,-0.30192759671542546,0.4385046278043596,0.17700746141988064,0.03249728242448778,-0.012453453449188488,0.08785841126158717,0.04229677603328917,-0.26393942404890525,1.3707653052099968,0.34422932292906705,1.097748382575353,0.10389418949436166,-0.043787379678442075,0.14655404459032245,-0.2814541693379858,-1.1113779676402278,-0.5535011007779393,1.0790324120865111,0.02762217308100653,-0.06064838233184355,-0.13989548830068316
181.0,7.546410083770752,1.366260818454705,-0.0008072874894587311,1.093836666127938,0.030240451663734777,0.06479174098255928,-1.6137936132697894,-0.15843660523292885,0.1857021445175076,0.31192524551615436,0.44794469304046347,-0.2760998918733766,0.013871705107925967,-0.22098485212875496,-0.36831338278259207,-0.311384632561846,0.4226197854654259,0.18325821274067727,0.016718564650913675,-0.012959928905714551,0.08641794923194324,0.04179023130929119,-0.2936533919010833,1.3650375867512419,0.3410030365900826,1.0691133424380257,0.08532541857508248,-0.05942189897852375,0.16527978541445784,-0.3111625087365244,-1.1083863324072105,-0.5343781947957471,1.0555664722785787,0.03779381265149773,-0.07658760308792928,-0.15241690752006637
183.0,7.626051425933838,1.3731135620870556,0.0002996671677174892,1.0965705285245386,0.03047701076044125,0.06459658189411419,-1.612269263974754,-0.14626326402674206,0.17329552767143286,0.31612318754978946,0.41847733610820126,-0.2604410902519414,0.01666772957266313,-0.20932307152445012,-0.36374534813410586,-0.3205135192049713,0.3981473165815854,0.17233949092952963,0.001799659766572508,-0.014321098221665288,0.08527920081608889,0.03881051608594771,-0.33626052815118496,1.3537794404892116,0.33255307637538856,1.0242102253320609,0.056647633416306645,-0.07968283068011733,0.1905011360027622,-0.35163877895615053,-1.1022313375865722,-0.5047709820243114,1.0190804078335929,0.04641595253358037,-0.09543722651607155,-0.16862769099854868
187.0,7.704227685928345,1.3798119505519404,0.0015968067075607896,1.0992263482213462,0.03064252175009452,0.06515222151073788,-1.6098648554338395,-0.13489228190021382,0.16162405288280676,0.3188566451876296,0.3896971831556869,-0.24432796036719023,0.019358006360336202,-0.1953454058321219,-0.35349444341605024,-0.3286710420546203,0.37080396416656025,0.15188579416111742,-0.007970141878895219,-0.016311512820258448,0.0846216465827829,0.03465353878417965,-0.3817005067843439,1.338852054602596,0.320512458557502,0.9738518399398473,0.02269503710392898,-0.10060202641568286,0.21599754829170628,-0.39338419971396343,-1.093320693183803,-0.4722189809887368,0.9785861536682329,0.05336150487323467,-0.11366257465556011,-0.1863769642365159
189.0,7.823103666305542,1.3884571598167565,0.0034575288658574488,1.1022743821668115,0.030354728416423612,0.06739514897402923,-1.606107521552214,-0.12396296163098891,0.14940528538322947,0.32053991478838995,0.3615053360017828,-0.22637791799691853,0.02235184765705907,-0.17769139012324653,-0.33148106494541557,-0.3394786794767036,0.34090322911585486,0.1181540156830917,-0.010148625709807537,-0.0204676707057313,0.08574140617477508,0.027011662552305186,-0.445113774564025,1.308758615753927,0.3042913560576727,0.900383633021798,-0.030241900929404677,-0.12898551569500968,0.24756169494389207,-0.44562591939847324,-1.0715006385425196,-0.434595885374697,0.9156675750932712,0.061622664887355426,-0.13702687357992852,-0.2106774563290937
192.0,7.907761812210083,1.3959207272792082,0.005163757378208606,1.1047378555565353,0.029656436624431536,0.06987186354246491,-1.6027133401426548,-0.11427545714963741,0.13936401505325743,0.3212687892009609,0.337640895134663,-0.21043827526021375,0.024494082677972692,-0.16233803259872442,-0.30739011920301357,-0.34756390817926464,0.3174773027238191,0.09050649121858446,-0.007697944133426407,-0.02542030289564144,0.08796725656368934,0.01969592278442327,-0.5004364023988292,1.276663013639618,0.2885587922245754,0.8314894808311951,-0.08416696309169971,-0.1544525641170572,0.2758252398869372,-0.48528164330752027,-1.0460566730873448,-0.4052335339664082,0.8538476577675567,0.07043415580307116,-0.15727234465093992,-0.2327025690137135
195.0,8.004824876785278,1.402619557728943,0.00672018882366871,1.1065639982675681,0.028416446426537588,0.07286332279490038,-1.59951808887326,-0.10655072131533705,0.13170162854868,0.32078254600983613,0.32002231146287574,-0.19715184883406645,0.02560494965428045,-0.14957740715284543,-0.2773097075043197,-0.34810825190663863,0.30181397557677714,0.0664999185574095,-0.003986070332430877,-0.03204235495778167,0.09180981303572916,0.012766026862625983,-0.5490761634699214,1.2382014368986543,0.27486574111190765,0.7604544490285693,-0.14247530184099896,-0.1804393608358465,0.29934250088519554,-0.5117114636684608,-1.0113242746657432,-0.3900360809704976,0.7876049996191692,0.08148761190547163,-0.17819793417545,-0.25178202546827955
198.0,8.097379446029663,1.40856802634657,0.008018104902362917,1.1078029205601583,0.027274149527805748,0.07600892844398824,-1.5976358016465197,-0.1011731916909985,0.1264190553190408,0.32054194215157916,0.3087260087183687,-0.18642489683037916,0.025958399922787125,-0.1410934053451597,-0.2439933362189416,-0.3446058098238424,0.29514661523889557,0.046912030365605185,-0.0009783600527242882,-0.03885705650325909,0.09648655260128539,0.007036569075569997,-0.5890598765450704,1.193952023913113,0.26577227015945404,0.6861879207610642,-0.19909580830344115,-0.209708438748843,0.32111455976029235,-0.5263139647314725,-0.9672346820057615,-0.39136381109798507,0.7171038271150191,0.09847967188512616,-0.20078440338732115,-0.26505738442828064
202.0,8.192519187927246,1.4134127173395714,0.00911752785263543,1.1083298511731796,0.02678629172930936,0.07889748045057801,-1.5976060466008926,-0.09877253377912228,0.12366339316281831,0.32125346218888445,0.30326246343286506,-0.17944347224305127,0.025741707102906075,-0.13757562385275818,-0.2110182922577986,-0.3425921130051115,0.2969021592653832,0.032215564589403,0.0031934896158875843,-0.04479198129445647,0.10115582080612602,0.003077377275221345,-0.6191113091512008,1.1468044661007948,0.26156239654815217,0.6109488124829954,-0.24879907559674808,-0.24022176383702132,0.3409856535528166,-0.529077213820533,-0.9170080726195422,-0.40583681118730375,0.6445409057876914,0.11998728664319658,-0.22400958370872548,-0.2703165139065419
205.0,8.318894863128662,1.417487006652372,0.010167515957095578,1.1083273043235804,0.027365401859945463,0.08109048956465467,-1.5986055547099103,-0.09983873642223136,0.12202052033810604,0.3219134155766649,0.3025468495878357,-0.17509895966674488,0.02532321673581428,-0.1378212171088754,-0.1780174755757613,-0.3399798791556078,0.30270899390160194,0.0191493189610931,0.009309552677899775,-0.04968997779961426,0.10456003088295598,0.00019609401361717158,-0.6440560862123861,1.0946442965236054,0.25979275470545876,0.5305914791180266,-0.2931070743844906,-0.27031540866500575,0.3590579176213865,-0.5284178482446901,-0.8616301061075173,-0.42567216633783944,0.5664078008619122,0.14678109623003838,-0.2492208398378499,-0.2661146828875933
208.0,8.429996490478516,1.420804050099317,0.011171076007288684,1.1074463280088267,0.030248602163441926,0.08153051018169147,-1.6005960955069012,-0.10658123896520025,0.12049489407175504,0.32251164220577744,0.30766477036757056,-0.1741296269547317,0.02486965963835627,-0.14306891279325434,-0.1439191488421283,-0.3324709521489019,0.31025037647272125,0.004626610420064786,0.017216660187303577,-0.05255442179858218,0.10516608460104437,-0.002659579076366258,-0.6640440741568255,1.030297807660986,0.26006701512411884,0.4350132045481917,-0.33594300152428935,-0.3042297709590481,0.3762540756495396,-0.5287072261740444,-0.7975543770314606,-0.4462135104427514,0.4754553312049612,0.1763561086061738,-0.28326139679093904,-0.2532953478267602
210.0,8.541693925857544,1.423112625939182,0.012003658108949485,1.1059334304950574,0.03496073444147449,0.080291942548772,-1.6043252350902906,-0.1172558637337141,0.11935431726440052,0.3240215223507488,0.3169227681702515,-0.17645579897993321,0.02451014072438841,-0.1520312506635542,-0.11505752600029963,-0.32455637202535464,0.31758043934361446,-0.008945507678729498,0.024669685725004758,-0.052362006201946615,0.10323456491532798,-0.004780358691852473,-0.675933730827972,0.9656206827690026,0.2618832125141903,0.3376436688982201,-0.3719338316137061,-0.33643983495733976,0.3893470467158815,-0.5282842194497142,-0.7339940394837523,-0.4641582303973627,0.3826478135577711,0.20218983210704372,-0.3163742344872401,-0.23805813085104977
212.0,8.611557006835938,1.4245418812745378,0.012630811259615474,1.1042274310523106,0.04076087482284586,0.0779994784200557,-1.6089642330689502,-0.12993895899494248,0.11867156028994541,0.32620642749218276,0.32821525633436266,-0.18086097898368902,0.02443050626158224,-0.16319533706541664,-0.09442229539474933,-0.3175169629779806,0.32470313082350694,-0.019315466219260287,0.02927088084291357,-0.049839821319006106,0.10007771619546194,-0.005988129712433338,-0.6798928409962472,0.9090717159053063,0.26527425782778463,0.250197065731268,-0.3985534804640676,-0.3615551752188615,0.39806912370396075,-0.5263927576201975,-0.6786416371268746,-0.4792105547763293,0.298584790376023,0.22209608332462755,-0.34205499509691506,-0.2256171882856131
214.0,8.660125017166138,1.425365257608497,0.013151461209265934,1.102332883095438,0.04720011256238027,0.07484258527644781,-1.614306553020561,-0.14440410384869196,0.1184389636163169,0.3291313675509776,0.34183375778362285,-0.1867759814919729,0.02486693388999956,-0.17606080055980816,-0.0814576450659547,-0.3115544952257381,0.3325565086043504,-0.029184898337452293,0.02728475611767918,-0.045596099454519375,0.09644442650757243,-0.006266232654249025,-0.6769562605508554,0.8587695587703346,0.27003884255818117,0.17098220082021592,-0.4181032549096916,-0.38042443113602764,0.4039272322959129,-0.5229409518157366,-0.6297423203847548,-0.49111491315870326,0.22218032986922434,0.23856482927856898,-0.36292558786866413,-0.2162043668854159
217.0,8.734874725341797,1.425781669639351,0.013614250256198454,1.1001402253842563,0.05417684272372504,0.0708453576945027,-1.620165923358866,-0.16081199729674672,0.1184117102375073,0.3326557492508883,0.3578411359569098,-0.1948900496071376,0.02579939177877853,-0.1907009533503621,-0.07676441202285447,-0.30958517459534723,0.3432904980395787,-0.038562396951149734,0.018973419857631346,-0.04041133810047619,0.092631744189381,-0.005798545082583125,-0.6686586123663137,0.8134997885457018,0.2754903036180554,0.09889432514981264,-0.4299249582520625,-0.39481411913803477,0.40965565097375434,-0.518012854870603,-0.5865079417671215,-0.49908790869733033,0.15279638963122943,0.2554303288599056,-0.3808829606674299,-0.20707401490652472
219.0,8.824965953826904,1.4260227012058073,0.014413571367242646,1.0968353156598132,0.06321538519662787,0.06550109145979169,-1.6267682167987902,-0.1843856128154563,0.11913320447094816,0.33731277833149104,0.3815932359268297,-0.2055194086485622,0.02847296213896413,-0.21048532136641346,-0.08035757226425888,-0.31552193685292473,0.3602230039809046,-0.054074807435162076,0.006863295983160344,-0.034210039819096566,0.08801606082662161,-0.004381694032944359,-0.655608889339168,0.760434966496587,0.28083153204523537,0.019785689076449356,-0.43726082038034225,-0.41072340639308447,0.41721842739932247,-0.5122385858578108,-0.5392341319397106,-0.5013468497040683,0.07595679094800645,0.27738640876594167,-0.40350994954230146,-0.1951097697520548
