ccrpRepo/mocap_retarget/src/mocap/src/data/output.csv
frame,timestamp,posX,posY,posZ,roll,pitch,yaw,left_hip_pitch_joint,left_hip_roll_joint,left_hip_yaw_joint,left_knee_joint,left_ankle_pitch_joint,left_ankle_roll_joint,right_hip_pitch_joint,right_hip_roll_joint,right_hip_yaw_joint,right_knee_joint,right_ankle_pitch_joint,right_ankle_roll_joint,waist_yaw_joint,waist_roll_joint,waist_pitch_joint,left_shoulder_pitch_joint,left_shoulder_roll_joint,left_shoulder_yaw_joint,left_elbow_joint,left_wrist_roll_joint,left_wrist_pitch_joint,left_wrist_yaw_joint,right_shoulder_pitch_joint,right_shoulder_roll_joint,right_shoulder_yaw_joint,right_elbow_joint,right_wrist_roll_joint,right_wrist_pitch_joint,right_wrist_yaw_joint
2.0,2.6617166996002197,-0.22350308182924267,0.4182933188488293,1.0023725597860635,0.05085548171412883,-0.02389997357046987,-1.7594456816665938,-0.4575793997968919,0.06823194586519701,0.08760913986949517,1.0716634625293002,-0.5900354904561795,0.1680383892403189,-0.3389196195499058,0.27400116615648995,0.28170991248320476,0.8230017421456379,0.04462882032442032,0.03418410255414065,0.005926545388561582,0.10358265530508887,-0.05783019095256806,-0.169245944443928,0.12269081829930636,-0.4015450093142381,0.8099052801868839,-0.06329778831830983,0.35881296569650356,0.0,-0.26880326164207624,0.002074305576179228,-0.33656982053286516,1.0468958997311786,-0.1079684434968605,0.49572532443612227,0.0
4.0,2.73587965965271,-0.22413074282393158,0.41787109665206956,1.0026131267278242,0.05173227305983981,-0.024286214764678602,-1.7564217151686505,-0.4622244494377767,0.06796430816264057,0.0879943873530959,1.0743186153334952,-0.5850742137477674,0.16682052597982655,-0.33679527561047873,0.2744459320633893,0.2839292321303709,0.8206148525846242,0.0418479932188338,0.03533529089820043,0.005802666010836045,0.10285915607955838,-0.05763499767617396,-0.17115174536640299,0.12186774078634577,-0.40509847286871836,0.8114032334909651,-0.06491966977276727,0.363479782271114,0.0,-0.26705360682715973,0.006181571547517745,-0.3369298047577258,1.0493434203162058,-0.1099615112617311,0.49851870065169446,0.0
6.0,2.801638126373291,-0.22570048140352333,0.41663238833588334,1.0031579153441554,0.05270309837243181,-0.025300018030600023,-1.747922142422762,-0.4784801218525707,0.07280997490636817,0.08170939086634887,1.0867323210908517,-0.5717748116786052,0.1545408542951903,-0.3337541375564087,0.2824983834585455,0.28240658833799326,0.8193176290741221,0.034096073812429926,0.030495302100934908,0.006648094037474156,0.10192635054454507,-0.055284846415997034,-0.17462395359474095,0.12085906478249342,-0.41682870496062574,0.8127419030856655,-0.06814312315939343,0.3700405988685537,0.0,-0.2629476882889158,0.01631365119116964,-0.3372270566695329,1.0580361584006976,-0.11251124397188697,0.5001391723143614,0.0
8.0,2.880333423614502,-0.2281053559627636,0.41491207140714853,1.0036092345129857,0.054374118511415145,-0.02544156620445582,-1.734774562526828,-0.5009703216292479,0.07144460445723042,0.07719173026726621,1.1000563593883481,-0.5523507907556582,0.14487820041384833,-0.3255428380331681,0.2883635494954285,0.28644577826960405,0.813848093798802,0.021042470669878174,0.030461481009225883,0.007069911512973799,0.10238682722416081,-0.052696142066182436,-0.1784298306516406,0.12033100268027978,-0.4365483977818221,0.8128488638478484,-0.07300780399880127,0.3783706964408297,0.0,-0.2583895287164926,0.02806036935459422,-0.33481300290594973,1.0727547962048987,-0.11437605949247917,0.5011699843714631,0.0
10.0,2.94389271736145,-0.23090967451194938,0.41271452591816316,1.0039545954490063,0.0544972340471536,-0.027543910637705896,-1.7193400875817488,-0.5329814433266331,0.07309866143810399,0.06580335019350213,1.119027512643731,-0.5298214769488656,0.12520113149707277,-0.3224732055795408,0.3008523622702607,0.2825552172723835,0.815560124507047,0.00819651815742089,0.022862345056138947,0.007110080493960178,0.10062401574188216,-0.048075094521381825,-0.18274228732296383,0.12062147859133902,-0.4608544571374119,0.8125752328119538,-0.07896697434450435,0.38798682070938706,0.0,-0.2549585912973481,0.03907979611454039,-0.3288308464372866,1.0905538027874953,-0.11482355538656444,0.5007880842449458,0.0
12.0,3.0095150470733643,-0.23400588546781081,0.4104349985584535,1.0039064604897567,0.05522715057738686,-0.028059752298353034,-1.7027261309282662,-0.5613396669431714,0.06410251307951072,0.06318425665601418,1.1284599834026139,-0.5076800465268281,0.1173369809851486,-0.31218967978268597,0.3047890835449341,0.28547173917230506,0.8113290616253354,-0.007010897652082491,0.02363704572057445,0.00711158721895509,0.10064504759473801,-0.04523941419702152,-0.18595400543550772,0.12195138837763975,-0.4866534551254184,0.8105667926363407,-0.0853886079255502,0.39806659061180794,0.0,-0.2535950214417079,0.046678293564138565,-0.3192077024655801,1.1096459455726886,-0.11356793420656244,0.500166811994375,0.0
15.0,3.0869414806365967,-0.23689177017090968,0.4079255298840326,1.0036745208886049,0.05392180176927612,-0.0296141142361879,-1.6868646136032965,-0.5924009134033096,0.057103154563268706,0.06094217388114596,1.1349845524199211,-0.4852434296792534,0.1077767743533277,-0.3074838194512001,0.3115056371075945,0.2814260101381436,0.8130743344317812,-0.01790110942695559,0.020310829248943223,0.007580296274345865,0.09960751555575711,-0.0414002719823948,-0.18679485398996432,0.12497203678558938,-0.5120658889256302,0.8059411766825595,-0.09174569707748662,0.40710721342339573,0.0,-0.25366686778066516,0.05011268872931783,-0.30718290815850474,1.1270539582942705,-0.11090059911343379,0.4986442661221034,0.0
17.0,3.1655611991882324,-0.2399824109997199,0.40460241973916533,1.0035361383081127,0.05173508723955643,-0.030258359567378615,-1.6691482210697848,-0.6219626803051237,0.04557015392080618,0.06695672040197553,1.129065115570957,-0.4651376680914175,0.10531055324616465,-0.29941649860441605,0.317466048114439,0.2769860103093904,0.8123208517949294,-0.02865011090720216,0.01782348258677407,0.006986686669539479,0.09993814550183434,-0.03799303385704341,-0.18719850401791327,0.12671416254123127,-0.53585502473094,0.8038904491445769,-0.09803323908269002,0.41723266631320666,0.0,-0.2518843674628677,0.05034979424405238,-0.2974545077607938,1.1344910066731804,-0.10916042826631908,0.49351151212772637,0.0
19.0,3.2394585609436035,-0.2430037785888604,0.4010862651140112,1.0037075910549014,0.050039447660031725,-0.030954946589952653,-1.6523435939645803,-0.6456025766775838,0.03325404482140216,0.07824201735301473,1.1134279528269815,-0.4487979141157511,0.10808008270405506,-0.2930891751347652,0.32236607044909393,0.2718711582102736,0.8107504174776605,-0.03750730409014219,0.015595482554734991,0.005002988962395449,0.10041095316530357,-0.03635263356986274,-0.18639706176207524,0.12841938962254387,-0.5571708394898842,0.803021841617948,-0.10394618496937036,0.42685169416086705,0.0,-0.2491759552130607,0.0467436425349371,-0.2886989008658277,1.134777481114506,-0.10725665401988672,0.48655547738385463,0.0
20.0,3.3095192909240723,-0.24600299434659617,0.3973725279429574,1.0040750821934201,0.050054616295320806,-0.031434871412280976,-1.6363289581829972,-0.6622343903578927,0.020973007358484334,0.09413934455835599,1.0897253457699452,-0.43735642328142255,0.11525988145150656,-0.2875163679885524,0.3269751044075119,0.26681981089924794,0.8075468685349411,-0.04641115736201823,0.013134506949845574,0.0016441862284199806,0.100178508051562,-0.03800848278871653,-0.1848109659942176,0.12919096529425977,-0.5760907247151095,0.8040622549110942,-0.109553790317315,0.43651053433620723,0.0,-0.24484127563906563,0.040361647468744995,-0.28230804990743047,1.1269262340519919,-0.10572370331204298,0.4775224833656687,0.0
21.0,3.3441243171691895,-0.24850870104947315,0.3943601065521516,1.0042963929662416,0.051478328218932425,-0.03233738972151795,-1.6234272014629045,-0.6714593088284835,0.009472675044011575,0.10969432601960122,1.0661841413232422,-0.4303429810674273,0.12394730028804589,-0.28372383522256994,0.32922886039917965,0.2636901040754487,0.8046865022893572,-0.05487644387055027,0.011815381195315505,-0.0011919525013495283,0.0988442981635119,-0.041533661827768784,-0.18187499083932007,0.13165044877223803,-0.5924872318237276,0.8013492590142224,-0.11448257147102393,0.4435271402471548,0.0,-0.24208342136651412,0.03224669968476555,-0.27416991402471824,1.1205516583740474,-0.10274202787181452,0.4698947212917059,0.0
22.0,3.3691911697387695,-0.2505300427375619,0.3919369361935183,1.0043733223276843,0.05339849168906207,-0.03374232373842477,-1.613382612430263,-0.676388953492912,-0.00019869486849763678,0.12287214202849081,1.0451113757200727,-0.42592773179929605,0.13134815369349057,-0.2827894683319846,0.3308964650017171,0.26098247003340536,0.8036338783171915,-0.06207248422615376,0.01052099605503084,-0.003331191132743487,0.09646032777687927,-0.045517242315039806,-0.17776445935911223,0.13529579792637045,-0.6065580277619301,0.7959392076745113,-0.11870291252125836,0.44809592913476776,0.0,-0.2403397608979253,0.023651925720151026,-0.2646172903823995,1.1156543568684165,-0.09861704212723608,0.4636259491444016,0.0
24.0,3.410154342651367,-0.25220365042137705,0.3898462941290146,1.0043742370588018,0.05541567043401575,-0.03514694287658242,-1.605219475226086,-0.6774796980921778,-0.010105069260604897,0.1340301135801893,1.02573644019037,-0.42464528779433663,0.13788924151855314,-0.28116877432908327,0.3315241736339441,0.25967569083649245,0.8023029064989508,-0.06900639634975726,0.009804676812899234,-0.005005869608432557,0.09399345364887063,-0.0492344684446534,-0.1729348741069539,0.13920554296062224,-0.6187756693242479,0.789823529305509,-0.12231103156143222,0.4510206985988108,0.0,-0.23861967121022298,0.015516320793312903,-0.25470909702903555,1.1108412178969163,-0.09407478358516601,0.4581426290931307,0.0
26.0,3.4642908573150635,-0.25395721131169413,0.3869362899588797,1.0046274641587405,0.05670841058002085,-0.03528418790874494,-1.5968820205161023,-0.6759029550823272,-0.023316654790227577,0.14318521508306165,1.0021084536646778,-0.42758149401506534,0.1433714635979641,-0.27831149694724094,0.33375630573789156,0.2584232676411644,0.7989798406356,-0.07516345707318645,0.009217348644718489,-0.007860552073529814,0.09291628878565497,-0.05186242732341813,-0.16825716418509595,0.14041413629578317,-0.62997328070865,0.7899227994300763,-0.1258240700404211,0.45551978800576637,0.0,-0.23412878429161108,0.007929072890066006,-0.25046013983136917,1.0968858935487793,-0.0916443015090598,0.45009158767443425,0.0
28.0,3.531708002090454,-0.25584272078342585,0.3831371923722049,1.0051661416415536,0.05783936608799625,-0.034425536111647746,-1.5883385040116669,-0.6707149162084487,-0.04005851217322576,0.1504582703541799,0.9750790442642876,-0.43671423102199003,0.14829209379110936,-0.2723873652185017,0.33617120802527756,0.2575319257103803,0.7924579521166328,-0.08130099605914418,0.008748366631762514,-0.012665376276970702,0.09265695548156105,-0.05410247959064343,-0.164688144931726,0.13838598091780843,-0.6409054917798273,0.7970271770814675,-0.12963740729442197,0.4624242147602834,0.0,-0.22715275465191248,0.0005016822610657734,-0.253402258926978,1.072484214452592,-0.09121901054822312,0.4386060325570185,0.0
30.0,3.5995962619781494,-0.2577267489511196,0.3787254923607418,1.0057696483169103,0.05919588796558389,-0.03309830017945975,-1.5802246806030096,-0.6642883057190585,-0.05756298479860251,0.1564880089415755,0.9472905762315993,-0.4494400917261139,0.1522100511962987,-0.266757998996554,0.3379822354978881,0.2550275775474327,0.7849472254195728,-0.0853316933393194,0.008241584861818934,-0.017824207640797313,0.09229769458709486,-0.055910866858197183,-0.16142249450558,0.13506239449795723,-0.6520155690977714,0.8077094798046078,-0.133918304524666,0.4708149992390005,0.0,-0.21882421155418652,-0.006668887493934878,-0.2626101976672228,1.040996282852472,-0.09193366626241012,0.42439637985963297,0.0
32.0,3.664303779602051,-0.25949861612935404,0.3738457119915981,1.0062099033358722,0.06040451826289055,-0.03136794322294005,-1.572399450542896,-0.6621370507682278,-0.07289402796534968,0.16062061410024397,0.9207740981511376,-0.4585664330275056,0.15409674668888856,-0.26061466453263804,0.33941484636547126,0.25169913756822937,0.7771049113270307,-0.08842963164356696,0.007881182975821206,-0.020648821400265263,0.0921535506013337,-0.05731741671525914,-0.15824350240846097,0.13279893859163897,-0.6602306064786037,0.8194364532016294,-0.137928169000334,0.4793850124097397,0.0,-0.21109818058385627,-0.011862826023459068,-0.2773353921503707,1.0074647819568063,-0.09335906067277996,0.40914449643248796,0.0
34.0,3.7425451278686523,-0.26122930473923744,0.3686207073099901,1.0064613937281508,0.06101003324897814,-0.029482585366520264,-1.5652837863556166,-0.6654538577484755,-0.08516322037104271,0.16248916519420797,0.8962273761275859,-0.4608444014233386,0.15380192915967827,-0.25277766075699726,0.34100381239402,0.248910116823439,0.7691074634795871,-0.09214795309988301,0.00763080298515874,-0.02177547149922489,0.09196835800111186,-0.05781852032687844,-0.15576631158819632,0.1315933413202095,-0.6655987072124925,0.8318358216079145,-0.14170596071525546,0.4879959090235294,0.0,-0.20482733975605366,-0.015090677988834579,-0.29660205842357734,0.9738836788321057,-0.09492408561401292,0.3933160073730136,0.0
36.0,3.808863639831543,-0.2629871395754437,0.36311825495212613,1.0065355429317817,0.061270300404746784,-0.027851064904490713,-1.5597982592552029,-0.67272455397269,-0.09521088401152292,0.16306702712992927,0.8728286099984355,-0.45797031376180364,0.1520686050378344,-0.2442109666989537,0.34210260766210243,0.2459409339028789,0.7612681079656486,-0.09518143176223612,0.007233595198973765,-0.02263003349975622,0.0913128907502829,-0.05736851262306223,-0.15349208760136085,0.13051588242716228,-0.6710025974458793,0.8448638452016868,-0.14601936585456898,0.4970480807376553,0.0,-0.19944103868902735,-0.017581073622462348,-0.31918497645299415,0.940035578506154,-0.0962506801030397,0.3765147242613509,0.0
37.0,3.8658804893493652,-0.26477160454842524,0.3574006991890729,1.006450178542206,0.061645767658776204,-0.026736928501932232,-1.5561107836242898,-0.6821365639465139,-0.10417397054149931,0.16311489593769554,0.8500205940273615,-0.4525278262260468,0.1498733098780594,-0.23555900790862933,0.3420111794792067,0.24234808653963144,0.753619644672048,-0.09621395705907781,0.0066174854178930285,-0.02362873139304727,0.09025378004278309,-0.05639617008811977,-0.1511614436049094,0.12928530135729202,-0.6774925783430837,0.8581952253590084,-0.15117467867819323,0.5065267855433124,0.0,-0.19493778973613535,-0.019631814763423294,-0.34435776603914825,0.9064564402287602,-0.09721872503236284,0.35876597660372933,0.0
39.0,3.916314125061035,-0.2662546703938799,0.35271359863071555,1.006323063404761,0.06217222079732761,-0.026376032480973102,-1.5538341092324797,-0.6898793857303334,-0.11174549140354159,0.1625604868924595,0.8314333791519601,-0.44743629904847343,0.14805137338421667,-0.22891034218617962,0.3410773692492932,0.23900328495083661,0.7476565415521532,-0.0959006966395387,0.005916155955267163,-0.023968562463640417,0.08865336175886966,-0.05525161579543637,-0.14796034763567895,0.13158657411290506,-0.6879917364227877,0.8626409931746162,-0.1571891661650947,0.5123847471025925,0.0,-0.192461579401209,-0.02338037259499043,-0.3631563362444814,0.8826331499239221,-0.09666858060719258,0.343550895920919,0.0
41.0,3.979832887649536,-0.2678190433957558,0.34750085917153417,1.006224734851933,0.06286844390362248,-0.025854306299405577,-1.5531008234819654,-0.6976914498545053,-0.11951158309352192,0.16096295984939613,0.8128483427610715,-0.4429642457743098,0.14620277339284446,-0.22176277564938363,0.34057436418828785,0.23647423875007487,0.7411825839059674,-0.09461152151614009,0.005095807102858547,-0.02348558935449347,0.08746417883413082,-0.05425907064280376,-0.14478388636642375,0.13268406773373248,-0.696555733954489,0.8698659786722488,-0.16300723372799286,0.5187175141108554,0.0,-0.19077924296459586,-0.025134681704575397,-0.3855348269483264,0.8585615924579785,-0.09622267388127623,0.32751980683298043,0.0
42.0,4.034372568130493,-0.26946054461783514,0.34175708945724936,1.0060509550387398,0.06320021082110752,-0.02503185517077472,-1.5533531616808638,-0.7052829162745825,-0.1270591423936868,0.1590962869429991,0.7950922067647104,-0.4389322830000436,0.1441275958864666,-0.21328447337601858,0.34120345098147353,0.23540390187340804,0.7342795822364081,-0.09375776418816706,0.004294394969295425,-0.02196940963707178,0.08613442773909266,-0.053095454769431255,-0.14072388164837335,0.13368935926974485,-0.7026204906656262,0.8781918862434606,-0.1683403273647548,0.5248454302214169,0.0,-0.19000929048804738,-0.02514265403641401,-0.41021120489629515,0.836087245617085,-0.095728079135208,0.3113997190113382,0.0
43.0,4.082621335983276,-0.270851027863731,0.3368641113558556,1.0058188273619513,0.06325486509938932,-0.02443430858236082,-1.5537637398061162,-0.7111376379390661,-0.13309555414794974,0.15783685069685827,0.78106321398645,-0.435453470628547,0.14226200306117492,-0.20571586008310633,0.34201934912802234,0.2350175182006626,0.7285369998600584,-0.0932269011869704,0.0036363632329832066,-0.020270238210538402,0.08418663963287744,-0.051727107458081956,-0.1356100628682394,0.13749961987594517,-0.7107893789430461,0.8791717254650517,-0.17378755375566288,0.5275977526551312,0.0,-0.19070124883734874,-0.02691433756472244,-0.42899437385057965,0.8221589690934159,-0.09433819870559385,0.2979226950194234,0.0
44.0,4.116166591644287,-0.2720690275424017,0.33253781124506543,1.005536616412678,0.06316486443870434,-0.02401674248719305,-1.5543005195921675,-0.7158799932109572,-0.13782463041312648,0.15743892644319607,0.7697382340105904,-0.43226278416663877,0.14056845178582428,-0.1988826128395247,0.3428122533258108,0.23484877171719037,0.7236923443885865,-0.09261440179683961,0.003096683262014302,-0.01915655189218062,0.08183626951077992,-0.050325865677940354,-0.13015167694455515,0.1421712380144151,-0.7200945288266027,0.8766894320375924,-0.1790487629304554,0.5282604133402435,0.0,-0.19210606630399138,-0.029573179319389263,-0.44402785742548556,0.8131306105684952,-0.09245623354282381,0.2860958962086783,0.0
46.0,4.14824914932251,-0.2730992899237181,0.32878206783321084,1.0052269143092933,0.06300964727331373,-0.02372282662226345,-1.5548413872105673,-0.7195823795661069,-0.14133489621273676,0.15775931983991076,0.7609145567782122,-0.42926158059862385,0.13910729933292595,-0.1929785736778089,0.3434960449439334,0.2346698587472098,0.7197604236378998,-0.09173434258937357,0.002686016022573728,-0.018629623783890586,0.07929520849757356,-0.049040546249371014,-0.12472137994377007,0.1473099948956125,-0.7304370501824595,0.8715877054136746,-0.183997106561836,0.5270503930564652,0.0,-0.19391393234859122,-0.032930243608689756,-0.45541429433117353,0.8081366455189454,-0.09015023211037673,0.27583617144240563,0.0
47.0,4.190891265869141,-0.27429857143291164,0.32379438093613255,1.0048284541635453,0.06307579291250606,-0.022755176704605348,-1.5560184197168865,-0.7240803062477742,-0.1445698597551337,0.15858606819250168,0.7512287448124827,-0.4258413985413656,0.13752489983208713,-0.18576613263179753,0.3449477422194781,0.2345956589426294,0.7148688251643054,-0.0900021922475319,0.0023514251144279184,-0.018853181394794874,0.07706238591639873,-0.047920938725512646,-0.12005119794054195,0.14823888159956675,-0.7374837295594694,0.8748166683560937,-0.18824038142440677,0.5287444208417289,0.0,-0.19489747868230817,-0.03340278774829794,-0.4720555665222075,0.7976263073216242,-0.08837114164609347,0.26394813828004604,0.0
48.0,4.229044675827026,-0.2753563859805569,0.3190927525233229,1.0043935547524618,0.06312363784631517,-0.021611541101108724,-1.55731785708769,-0.7279562478299454,-0.147209060579432,0.15930449813902658,0.7427108723639555,-0.4231115178319323,0.13627866996513044,-0.17917025518384055,0.34649127445731237,0.23454022920301287,0.7104213711498767,-0.08822942431503891,0.002074749920460437,-0.01831194275414018,0.07521321129968997,-0.04723022983843887,-0.11498251070484145,0.150433869899491,-0.7444516136061641,0.8749497752167038,-0.19198924435993092,0.5287112988328693,0.0,-0.19622729899985922,-0.03429994606471437,-0.4867564533069465,0.7898464343238073,-0.0864407493438759,0.2532386270678802,0.0
49.0,4.266137361526489,-0.2763108350882646,0.31466701501578737,1.0038919770102153,0.06320470413747556,-0.020501069104945147,-1.55885807511007,-0.7312101552884187,-0.14924253516920316,0.1601344407693533,0.7352503352455297,-0.4211733846065542,0.13537309277595447,-0.17322741898257105,0.3479180339871656,0.23445093273250867,0.7065101366102591,-0.08636766957539208,0.001787803320101651,-0.017129385514537875,0.07372066533673126,-0.04700008400341193,-0.10955438656593111,0.15393225430535967,-0.7510278280932305,0.87202364825621,-0.19510855143958744,0.5269790897283578,0.0,-0.19820293037921044,-0.03584348368026226,-0.4988832254314073,0.7851340973514681,-0.08433093515723067,0.24392642311852547,0.0
51.0,4.3157970905303955,-0.2771874018763909,0.3104968698696924,1.0033058931100738,0.06332096555837136,-0.019544618498799078,-1.5607271390479756,-0.7338357520551462,-0.15060093684838802,0.16126227634629298,0.7288520390480389,-0.4199021077547761,0.1347775693559031,-0.16795851138663026,0.34903764869041864,0.23413879050639347,0.703192955431098,-0.0841572773201125,0.0014622238054417494,-0.01557754642579097,0.07255221296872733,-0.047206118290711405,-0.10401520299374406,0.15835777144791024,-0.7568673633338663,0.866897278005919,-0.19749379053914629,0.5238179718267942,0.0,-0.20089920164494354,-0.038012046475288386,-0.5080678667243028,0.7833418628267392,-0.08204157945253873,0.23607327824180574,0.0
53.0,4.376414775848389,-0.27840617459246925,0.3048687941164075,1.0024160607145636,0.06387749288516607,-0.018698715505485172,-1.5639877369735578,-0.7365366361868069,-0.15160060993276234,0.16292778871913904,0.7214989538256762,-0.4193921193456067,0.13428973609528164,-0.16181289734754928,0.34995231510324554,0.23319183992624753,0.6996693642031808,-0.08000886291239616,0.0009381184369057551,-0.013588291640508178,0.07146524108014357,-0.047979428596501006,-0.0997786644316036,0.15989341985198774,-0.7579434125487381,0.8690795455434911,-0.19877283021506859,0.5235399378569013,0.0,-0.205364670617581,-0.041207622852642685,-0.514892824670656,0.7828913967124473,-0.07965259911816717,0.22950432120288533,0.0
55.0,4.427608966827393,-0.27984865773731793,0.2978554777363675,1.0013527726290858,0.06437879554905782,-0.017293188171764434,-1.5685719075176983,-0.7386690325048112,-0.15252523701949355,0.16363922639274991,0.7133427689993073,-0.42005846762340987,0.1340891407226795,-0.15422290915192188,0.35155116443925905,0.23240191167686422,0.6961890737542313,-0.07425684351506663,0.0005563011963930671,-0.010217516642742324,0.07056798389703145,-0.04935168332070604,-0.09582259739031479,0.15884236029029916,-0.7540469972308581,0.8765071882699599,-0.1988734122820696,0.525033322118267,0.0,-0.21012593700668852,-0.04471317882048186,-0.5216478028316928,0.7822522792325916,-0.07740542128476163,0.22365420033320516,0.0
56.0,4.494830131530762,-0.2813361632981755,0.2898218473513636,1.0002326346167336,0.06439239993138873,-0.01569879734682774,-1.5747965078587387,-0.7391795269017231,-0.15319132974787075,0.16376463131735675,0.7049014798140856,-0.4216485710243315,0.13432636483817845,-0.14511802443237282,0.35342562670366806,0.23258584626579015,0.693337636719848,-0.0671376990623567,0.00037267869882436457,-0.005157782554310935,0.0696498669028774,-0.05109499412160963,-0.09104450716767114,0.15724496023079998,-0.7462146862352927,0.8842991389142196,-0.19794265455613858,0.5264477450998345,0.0,-0.21437112397454516,-0.04751941529740189,-0.5286752387569172,0.7814769242995928,-0.0753332842739132,0.21844398625839567,0.0
58.0,4.5436952114105225,-0.28240881242973626,0.2829434776867777,0.999257583803687,0.06386029500485609,-0.013946893236021631,-1.5809119506627376,-0.7384703170454394,-0.15318435238452593,0.1634432181108332,0.6985942181302682,-0.42347779383388184,0.1349098290748288,-0.13673499673126074,0.3551529233880478,0.23323702815633557,0.6911458958082595,-0.06019816448329818,0.00040404074737017615,8.28392671124549e-06,0.06880670519420866,-0.05225725309971443,-0.08502835188315598,0.15868350313762017,-0.7405552771186485,0.8836830151110455,-0.19722294797891612,0.5243541954987372,0.0,-0.21766531404057596,-0.05008430077514434,-0.5342044369587324,0.7816927707734838,-0.0732747223286883,0.21390145633068508,0.0
60.0,4.603000640869141,-0.283584592877103,0.2752540430894036,0.9981463562842215,0.06328507153753811,-0.012797571430891434,-1.5888669051632083,-0.736268875657835,-0.1523561840908826,0.16342640036654515,0.6932103735895557,-0.4257456205944148,0.13563175870978594,-0.12780062828701155,0.355625932086961,0.23357813506369823,0.6897276482320573,-0.051106221620003944,0.00021911681717224436,0.005671663992429108,0.06708717781129062,-0.05302642856725712,-0.08076438518113092,0.15854372823658835,-0.7315847620249988,0.8867055404498261,-0.195713370223558,0.523533762422561,0.0,-0.2209463778236026,-0.050752415760364225,-0.5386720949652729,0.7804790385203362,-0.0712542342981924,0.20955047918231107,0.0
61.0,4.667424917221069,-0.28482710396227595,0.26673414287789915,0.9968224592010497,0.06268482406658778,-0.011632485387969606,-1.59833317499155,-0.7327193236478287,-0.15002314170918674,0.16429977435062335,0.6893976376992935,-0.4273736623029504,0.13649982702099586,-0.11885350673666317,0.3545692724973181,0.23174303403581856,0.6891907245031356,-0.038590327155044395,-6.006165740803798e-05,0.012456464718145209,0.06496705339690925,-0.05433645844681843,-0.07713206892764152,0.15708049940202073,-0.718937168547747,0.8920346585794388,-0.19323761168484754,0.5235358793132754,0.0,-0.22342016783001498,-0.049645155773950456,-0.5420750514393102,0.778012909079123,-0.06925894632644601,0.20535701004533696,0.0
63.0,4.717331886291504,-0.28572379115352986,0.25943663414277407,0.9956225550634543,0.06201391281600936,-0.009966628309550309,-1.6067256873759732,-0.7290443081538822,-0.14700416902906543,0.16522320023393416,0.6876134048006974,-0.42840160609506606,0.13748429043373858,-0.11129020928640432,0.3535489352237361,0.22933680456625805,0.6888287476600048,-0.026322124271968367,-0.00012570083213608006,0.018606823276631407,0.06338528037779094,-0.05555420770032458,-0.0723228617882627,0.15810568071743641,-0.709593874486486,0.8906585009806206,-0.19137429536383926,0.5209933285993752,0.0,-0.22487147210770347,-0.048689631630140014,-0.5438424740660749,0.7761033961903685,-0.0672400452168973,0.2015670641482737,0.0
64.0,4.770680665969849,-0.28681474031905446,0.2507846894733739,0.9941864272251671,0.06162972591335424,-0.00843386608313675,-1.6160514055298412,-0.723659002223455,-0.14367534980773589,0.1659904126623628,0.6864582216566621,-0.42933215126972535,0.13865134902835574,-0.10323118056018382,0.35203467905674357,0.22633700344558544,0.6894451056038445,-0.01207181622373332,-0.0001664972310996598,0.024165779348168034,0.06196529560365144,-0.057430637796642384,-0.0687701185910243,0.1563831790390235,-0.6958469670547118,0.8952743026740215,-0.1884240479175027,0.5205775336354879,0.0,-0.22566410427882228,-0.04492793218012468,-0.5451001058737652,0.7719837474935749,-0.06527954936396282,0.19768295573637149,0.0
65.0,4.808102130889893,-0.2875724949904297,0.24345019502327064,0.9929323986158352,0.06115406879289612,-0.006360341349821229,-1.623774026577811,-0.7183732286984573,-0.1404089573229148,0.1659635127611067,0.6867470883998732,-0.43047875587528317,0.13992049179663707,-0.09623489207516059,0.3512938500823114,0.22382700428979793,0.6899075854939525,8.435895423981963e-05,-5.9351336449853175e-05,0.028405567440243588,0.061385955162352825,-0.05876495230555458,-0.06412514705010941,0.1572351448915382,-0.6863090244674273,0.8928276922341102,-0.18634370759057728,0.5175876897779571,0.0,-0.2259326078171158,-0.041895978532860464,-0.5452160816054354,0.7688311699038886,-0.06332808959167989,0.1942317394982731,0.0
66.0,4.834225177764893,-0.2881634345647002,0.23696588593056753,0.9918359067628102,0.06071158458016485,-0.0040662396310749945,-1.6303409877132091,-0.713210299030171,-0.1372704171056347,0.16537700287299364,0.6880054286142899,-0.4320191783050126,0.14113213446587256,-0.08997994449692806,0.3508803454509434,0.22146779063763827,0.6901776761318998,0.01042749043882538,-2.204284335621216e-05,0.0314271610978221,0.061389081076485316,-0.059682281140258954,-0.05937644126363512,0.15929231663526577,-0.6798178183499035,0.887213476419952,-0.18476716328012896,0.5132504878603453,0.0,-0.22587715672238526,-0.03909468243720067,-0.5445251112608951,0.7661185309443158,-0.061414129781069055,0.19110569164769556,0.0
67.0,4.863805532455444,-0.28871358504006517,0.2308456691771193,0.9908184996394136,0.06035804054077241,-0.001705045712135193,-1.6362635657352989,-0.708086277030125,-0.1340797995972052,0.1646602903618487,0.6900405016186086,-0.4338843843549035,0.14221347937442658,-0.08418071737410796,0.35028008132140764,0.21852323081638245,0.6903261839674983,0.019800056688498394,-0.0001599259685361337,0.03370828132578418,0.061616578904130956,-0.060608488092673954,-0.055118899092422964,0.1614570068761227,-0.6749181173272223,0.8813338225751488,-0.18332692900495562,0.5086033073603984,0.0,-0.2254373426707244,-0.036232071789936225,-0.5432351953396886,0.7634270690640539,-0.059551728601812556,0.18821338616428818,0.0
68.0,4.895723581314087,-0.2892263706816621,0.22510071445095917,0.9898848011918306,0.06003505137452547,0.0007060249257258661,-1.6415309962392683,-0.703043428947699,-0.13064301243904353,0.16429589689336188,0.6928530118922329,-0.43582711176111955,0.14321539042174283,-0.07877401048006678,0.3494240476663492,0.21486439955911296,0.6902430385193246,0.02824235847119162,-0.0004539674300004622,0.035406283830928115,0.06186719868846465,-0.06175517833964859,-0.05128085831211107,0.16379623510865485,-0.6716912553020264,0.8751891189332471,-0.1820498736425641,0.5036589423710963,0.0,-0.22443764454450305,-0.03356215384362789,-0.5413129241463146,0.7608335373168731,-0.057734327289408416,0.18554406899681514,0.0
69.0,4.93067479133606,-0.2898024428142514,0.2192062408881731,0.9890289644457004,0.05974462062383788,0.0030043430996394916,-1.6465885561200748,-0.6976779868666669,-0.1267151946421276,0.16481992710226476,0.696107754175984,-0.43756413558929536,0.14429960759174895,-0.07323593861471352,0.3481749416205314,0.21066812123553885,0.689941253542999,0.036134015897441474,-0.0009699069111732469,0.036681722777186745,0.06202074861932154,-0.0633366360530345,-0.04824992765746245,0.16538727476461343,-0.668500508945171,0.8713439723022901,-0.1805886657505736,0.49928702288273674,0.0,-0.22275806887824623,-0.030470856518645933,-0.5389718027205704,0.7577942367505157,-0.05597463172834832,0.18298419595737037,0.0
71.0,4.97270655632019,-0.2904068095539202,0.2131755286202069,0.9883933888703519,0.05938913573027099,0.005188811451565343,-1.6514055614171328,-0.6920042083018325,-0.12204105553577567,0.1666841625744465,0.6995762207504225,-0.43880212582853073,0.14567675844834763,-0.06732342984191343,0.346666258257188,0.2065677818478059,0.6892234850615555,0.04298250113920506,-0.0017909817638145436,0.03770738878657956,0.062208438222759926,-0.06525031220644627,-0.045691703509667225,0.16657676399442023,-0.6651195456034585,0.8690230941934316,-0.1789334607186779,0.49511213835530815,0.0,-0.22037960692538572,-0.026988200329174226,-0.5364987263251468,0.7544896558396998,-0.05429030578064267,0.18055925549334578,0.0
72.0,5.037348985671997,-0.29139442335057375,0.20449388091996173,0.9883811018393052,0.059374980198567955,0.006337348156083314,-1.6572045834182245,-0.6842979384902403,-0.11365922608074652,0.17499410892176534,0.7031535964571372,-0.4379698937729182,0.14855756067691592,-0.05894481252190195,0.34304152135308563,0.20253637676823696,0.6878314670258204,0.04868329136241066,-0.003997263356656316,0.03859188344518365,0.06194142873189834,-0.06930814413011091,-0.045588227119182624,0.16356775906375348,-0.6527378083674933,0.8773059838706306,-0.17518548701663025,0.49370882090428325,0.0,-0.21600564432962494,-0.018939194721689798,-0.5354871598477874,0.7486691811032258,-0.052786273597941816,0.17786395097725288,0.0
74.0,5.082340717315674,-0.2922314086156341,0.1963010642013673,0.9886335070726124,0.059695359926881714,0.006769781517867163,-1.6621468852369463,-0.6780691878228762,-0.10384672155591726,0.18697501151564977,0.7071301523076736,-0.4359619091769234,0.15203497877663147,-0.05109982747971245,0.3390772204149898,0.1995724130121972,0.6863318690336302,0.05238513964278976,-0.006547156304746881,0.039663544369710715,0.060469517696382355,-0.07382305728287304,-0.04464661541708076,0.16258810644213295,-0.6401606415527419,0.8814373810907323,-0.17138087075739683,0.49083440596887745,0.0,-0.21194910603561418,-0.011499109269391293,-0.5343335743786994,0.7448373804600681,-0.05136288282076736,0.17588464195119824,0.0
76.0,5.1456618309021,-0.293392864189628,0.18601473801366242,0.988888102024951,0.061189161675323886,0.004543786398791524,-1.6667383019131103,-0.6723996193619599,-0.08877506591936815,0.2110061545507439,0.7133959507978949,-0.42738600124289916,0.15639875130818423,-0.04283978090849043,0.3321978660378133,0.19612967547778037,0.6856883592914076,0.054628498085745575,-0.010233683058631775,0.04011231955152428,0.05514421258813826,-0.08164124938364362,-0.04567482099391006,0.15928729768441535,-0.6159941608312338,0.8913494023169526,-0.1646522944785713,0.4893167471370268,0.0,-0.20671916104478347,0.0013069481490799407,-0.5357449247883307,0.7395352010405817,-0.05020182424066484,0.17382138045016182,0.0
78.0,5.199611663818359,-0.29487934452281883,0.17432260163150967,0.9888347121628477,0.06272687534353394,0.0009217596879037338,-1.6700800897777404,-0.6668488902664877,-0.06989653098621917,0.24288775963745426,0.7235946937796776,-0.4073059047569112,0.15947371026631668,-0.0343191228798645,0.32328984160346513,0.19026901773100974,0.686501232318493,0.0561171260172626,-0.014774216067773094,0.039615497043687484,0.045846301642317386,-0.0902327660597285,-0.046369831748841274,0.1552227833380812,-0.5836036595573577,0.9009099843957876,-0.15574691264595458,0.4875126863845657,0.0,-0.20005914575335487,0.014640161996902136,-0.5369702425029363,0.7370763799711448,-0.049135270687003844,0.1729291929725134,0.0
80.0,5.263940095901489,-0.2965938191950798,0.16198269573123358,0.9886581774955823,0.06328664007051873,-0.0024315288591764267,-1.671589653297247,-0.6613220076393043,-0.0518227332002591,0.27281931848366786,0.7368726888319841,-0.3782453268352737,0.15983911316436053,-0.02545852455880696,0.31309721814499825,0.18030388539994138,0.6884728757462737,0.05796905948236304,-0.019924588259039373,0.038569124858526274,0.03468534971824262,-0.09710632002314684,-0.0456201773018502,0.15201461359978158,-0.5465769937347636,0.9064543503565266,-0.1455874221397066,0.4841522878628602,0.0,-0.19188564741233077,0.02515763820921744,-0.5358543270655814,0.7412319591303911,-0.04806397913838839,0.17442812443724645,0.0
81.0,5.3270018100738525,-0.29843584660888467,0.1490418012458679,0.9887984531166886,0.06310379488963487,-0.0050426856394829075,-1.6717751950997668,-0.6551425318555384,-0.03833175770423231,0.29451845758862694,0.7505273498450794,-0.34820415993529474,0.15777447065867212,-0.016245254810506045,0.30181102687513034,0.16700487635853684,0.6914018218628089,0.06057631590660523,-0.02561465394372924,0.037734378187366434,0.023616218830729292,-0.10245710457614104,-0.04432330462078017,0.14952519737615225,-0.5038602566841713,0.909409121880192,-0.13391937143270646,0.4789813996100796,0.0,-0.1826965511164215,0.03327960104542582,-0.5320067367458379,0.75346915778131,-0.04701989759308432,0.1790083904777961,0.0
82.0,5.36167311668396,-0.29985107007650974,0.13863911446071764,0.9892232320649917,0.06285357083175105,-0.0067387622720761,-1.6714659343035183,-0.6495739643018754,-0.03115046701257729,0.30602142225622697,0.7602304190852565,-0.32655498107984865,0.1551616576129301,-0.009113983356962181,0.2920476178057202,0.1550507834897782,0.6941201282140024,0.06305142174249308,-0.030587778436833236,0.0373177385795611,0.013979986916871445,-0.10518500037196012,-0.04125623951555618,0.15102319160564243,-0.4705843015291508,0.904339315499288,-0.12496874079096024,0.4717403081401411,0.0,-0.1775207618444667,0.03104419743743403,-0.517787239838935,0.7773078491399574,-0.045366011894242775,0.18786426629383868,0.0
84.0,5.413694620132446,-0.30090216117416874,0.13012831529054922,0.9898651027752959,0.06259907078551928,-0.008016490957079687,-1.6711195371076666,-0.6441987743890469,-0.02894936951239823,0.31011926069514445,0.7663043718266664,-0.31433457114512386,0.15294978572992693,-0.0038138030454168887,0.2832081417084611,0.14442990354119006,0.697112327794831,0.0652550981074715,-0.034994082987110486,0.036909802836724626,0.005861879664480861,-0.10704343878606444,-0.03796665396863666,0.15384152503022186,-0.4440112295688642,0.8963145335456362,-0.11779683021380254,0.463537815331873,0.0,-0.1746352686238482,0.023231705408374062,-0.496270678478664,0.8058315020282509,-0.043228722551656766,0.1990276163699703,0.0
85.0,5.4626264572143555,-0.30187005984512283,0.1201246680232914,0.9910015322199899,0.062381206059736655,-0.009472703896095287,-1.6715087443165864,-0.636300154905938,-0.03110151611621868,0.3084835696794737,0.770356191640944,-0.3118014967430357,0.15136308846094948,0.0007184041287238625,0.2711364922635777,0.13062316590176756,0.7023777670007503,0.06871683564382106,-0.040286530814670735,0.03720651635423209,-0.0022917101020751844,-0.1112946073961681,-0.037447587603990626,0.15217529896414034,-0.40860844780734495,0.8928123293885236,-0.10832644246818796,0.45548147646298665,0.0,-0.1688707047642111,0.019656801500145586,-0.48002749605143663,0.8323989701621046,-0.04188537859909221,0.2103920600283214,0.0
87.0,5.51200532913208,-0.30256769451152826,0.11134608349731179,0.9921202240275943,0.06215300249288144,-0.011024620401660306,-1.6723033357095671,-0.6286446729192415,-0.0348881272837248,0.3051226185006156,0.772678044183644,-0.31415494875152195,0.15053510128548367,0.003597135352974381,0.2586942196475452,0.11669034253213294,0.7082533825014119,0.0724846435653953,-0.04537490298947246,0.037735115250479505,-0.009475935548341394,-0.11554047097657624,-0.03720828038491969,0.15124307617214877,-0.37809555124741984,0.8884526083903541,-0.10020481683701465,0.4473241328396608,0.0,-0.16478500253999384,0.013356332038499136,-0.45876622176394116,0.8596912006504647,-0.040128856576499394,0.22285594112558973,0.0
88.0,5.572221755981445,-0.30322155181277727,0.1005631949487309,0.9935696424068512,0.0618016728009679,-0.0131186805407979,-1.6747267266078754,-0.6186801777111646,-0.04007995617318649,0.3005748135981438,0.7747445757387642,-0.32017997869637593,0.1498183557720934,0.005953215338525216,0.2401394855070869,0.09664144890965759,0.7166900912190683,0.07976993870632601,-0.052237845694896534,0.04023136912512243,-0.017187240808043295,-0.1214927463604881,-0.03871636907080503,0.1464611761892727,-0.3351976152376513,0.8861095894371035,-0.08908526226387245,0.4385044734584712,0.0,-0.15779917072293415,0.01290426295893777,-0.44515744623680786,0.8849854542475739,-0.03955224669016396,0.23543114345618477,0.0
90.0,5.621043920516968,-0.30369990166125577,0.09115531975125053,0.9947060714012037,0.061255338023012224,-0.01546016521624173,-1.677446492212564,-0.6097236659893223,-0.04491402348974848,0.29717939803270127,0.7764752182985142,-0.32653300467731905,0.14921743167651325,0.0074256291696212316,0.22097700816803623,0.07636056234538452,0.7254131393112473,0.08744936374783392,-0.059156532224583766,0.04263927105126693,-0.02433166236036959,-0.12600577940453128,-0.039978777051169645,0.14387419925727055,-0.29898170641839295,0.8824974905765766,-0.07979403041418126,0.42974814471825584,0.0,-0.1531586191860529,0.008594142756981896,-0.424617611134953,0.912095582085318,-0.038072815543239956,0.24938210476833955,0.0
91.0,5.669643878936768,-0.30405491233557314,0.08056236775402723,0.9957210647461666,0.06036626107256473,-0.017952616348173044,-1.6818056085906379,-0.5994486125426992,-0.04948765469330859,0.2945036039220705,0.778792744099676,-0.3349527060894828,0.14861300537595415,0.00829773605922413,0.1947922611169211,0.048485844112382326,0.7370747279068881,0.09867150653656896,-0.06806044929482359,0.047334291047250926,-0.03160486157941637,-0.1299296061555278,-0.04186610001825327,0.1388823419149518,-0.25482183389510144,0.8777152976616005,-0.0689259908670744,0.41987155670738274,0.0,-0.14695387937327994,0.006444267750140937,-0.4081648147338237,0.9400941289885179,-0.03748056292231802,0.2642563711411624,0.0
93.0,5.71859884262085,-0.3043163214127611,0.0713992976091058,0.9964102797933294,0.05936132365933745,-0.020343916630765325,-1.6858855447710455,-0.5905008928813803,-0.05361708100591636,0.29247233635031405,0.7811987918535873,-0.3433987132566748,0.14829227962993746,0.007958410776413984,0.16888596383045262,0.020606157696199733,0.7497152587851158,0.10881827845139642,-0.07694041114260823,0.051388949186720746,-0.03740144882421119,-0.13266632848948307,-0.04420252061473222,0.13617484567033103,-0.21821522996446358,0.873260936978598,-0.05999913336122766,0.4103677037985335,0.0,-0.14301715386428776,0.001086643160310788,-0.3843714606137306,0.9682272465815047,-0.03546147705930002,0.2799329263168578,0.0
94.0,5.769143342971802,-0.3044275281018333,0.06113386300599119,0.9971046251621849,0.0587403946148691,-0.021777387393185257,-1.6912791449738078,-0.5808898601706398,-0.05739343986250693,0.2894444054331394,0.7843285971934035,-0.35466987509846815,0.14839586014058842,0.004696036356106786,0.13686685492672376,-0.015133934744231914,0.768002214445074,0.1212642149355633,-0.08766360421496647,0.05701028786544354,-0.040984791573396157,-0.1355388300993149,-0.0483585961119727,0.12989977026484328,-0.17266783768650976,0.8670485153020806,-0.04951405340356782,0.39936467395810127,0.0,-0.13878189920258902,-0.002014782710646158,-0.3653244287236369,0.9952318848682917,-0.03456647254889092,0.29585649214559406,0.0
96.0,5.81742525100708,-0.30450088874801357,0.05232961471501703,0.9975853985122023,0.058219839333797624,-0.02300897446263673,-1.6961939353660007,-0.5727687555741503,-0.06060136706983846,0.2869444729136878,0.7873746320010064,-0.36515906532820197,0.14869895034902567,-0.00018330514871920615,0.10660664629240961,-0.04886197235575307,0.7879212612223329,0.1323917581508058,-0.09809808684109295,0.06068709160379902,-0.042914394160429664,-0.13794947958062126,-0.053526423279183145,0.12567118701167784,-0.13525331151145434,0.8627180360983778,-0.0409697348302773,0.3891934957790482,0.0,-0.13696743463594174,-0.007645704177473027,-0.340071572533172,1.0196324533863264,-0.03190078102514324,0.31151006639275164,0.0
99.0,5.88592791557312,-0.3044008004962683,0.04260239807927041,0.9980931504293549,0.058347082067436815,-0.023385128807775667,-1.7024994160845945,-0.5641915292547378,-0.06278939839477152,0.2846807644178985,0.7906974038203098,-0.37673414177051456,0.1493331945128551,-0.008923600141907873,0.07112380037997795,-0.08766757148623305,0.8153189860349377,0.14741107076223903,-0.11043760963836327,0.0646624849819698,-0.04358575208422176,-0.1407348269101936,-0.060146381397859716,0.11713666384751194,-0.09105528565675469,0.8562702892066789,-0.03148081741744026,0.3778345851788155,0.0,-0.13533483322305756,-0.011881523263812373,-0.3198995321889273,1.0412493346616378,-0.030535470485520855,0.32649242461137595,0.0
101.0,5.965863466262817,-0.30364979916151114,0.029652079701844757,0.998869011182178,0.059883744799357555,-0.0209428529304391,-1.7120038572284435,-0.5536188807011683,-0.06311295186569961,0.2815564058455055,0.7955343238590414,-0.3923650197147234,0.1505694920170629,-0.02550486664696068,0.026742272548783225,-0.13428333048919197,0.8574623056058076,0.16885634718285203,-0.1273416994052089,0.07042716394417095,-0.041596508155305634,-0.14349223640028277,-0.07051000517667042,0.10484204455645585,-0.038552975855413056,0.8450830970640917,-0.02101592915667252,0.3650268573380493,0.0,-0.1330778950134377,-0.011828152192732724,-0.31263676282544484,1.0602505701998053,-0.03314244869862534,0.3403251829244016,0.0
103.0,6.0505149364471436,-0.3027884883222092,0.017173246476336213,0.9995142315220279,0.06157912460969331,-0.018121059304144517,-1.7218113986231254,-0.54359237078164,-0.06237802541915646,0.27978437929883176,0.8008953100709613,-0.4079747439234851,0.15219574282277265,-0.046309298588764564,-0.01520985583035719,-0.1751892092276856,0.9050680691931074,0.186645603304527,-0.14568953164466858,0.07448754400974636,-0.03759598658962488,-0.14516013431415803,-0.08337386806583355,0.09574330865112882,0.006474220203142183,0.83556479080628,-0.012363985717681221,0.3531894322556608,0.0,-0.1339142994665764,-0.01304945940903135,-0.3040129409838609,1.0763420531458952,-0.0353340991137431,0.3533032505401126,0.0
106.0,6.120643377304077,-0.3019615149270223,0.005282500346720334,1.000026739477951,0.06257922429772933,-0.015883551763432067,-1.7314514834534278,-0.5332756095612177,-0.061603597756217356,0.27948958484271585,0.8060906929082464,-0.42334745404307317,0.15408334361364945,-0.07114165323348352,-0.051689141168077546,-0.20626710079576255,0.9565192998332396,0.1968986227704687,-0.16315596656986464,0.07621507854968283,-0.03312858884369994,-0.14536168931675228,-0.09760259972669308,0.08919183306654965,0.04467528314843365,0.8279046098949328,-0.005218924011441666,0.34222408257247494,0.0,-0.1363886495270026,-0.015258250267357772,-0.2938030846884641,1.0878787112855342,-0.03663179208468013,0.3647996319914068,0.0
108.0,6.203066825866699,-0.3007653283073559,-0.007398505024110465,1.0005195455200357,0.06286374537306431,-0.012755337043191718,-1.7407688024278547,-0.5211189604474329,-0.0613075208612415,0.27874965051726364,0.8112932830908758,-0.44048060491534924,0.15640911912913436,-0.1055655069935886,-0.07656321056262497,-0.22144051655684227,1.0150735739475474,0.19221797570805385,-0.17577897095409112,0.07412267825856816,-0.02533062646167896,-0.14255967911191156,-0.11486576555092276,0.0869671943413132,0.07416689910184471,0.8209018699870363,0.0001108672617325362,0.33226590216176144,0.0,-0.14077083742511512,-0.016156389992917828,-0.2864666217628934,1.0935035825199457,-0.03887426994233251,0.3745520796760192,0.0
110.0,6.268444299697876,-0.2997688942285558,-0.018374006772408823,1.0007188114521197,0.06175210021350634,-0.010898056533408123,-1.7481941840750514,-0.5095738267534551,-0.062489533618407644,0.27802562763006144,0.8156246218175373,-0.45575094703463676,0.15782786738686183,-0.14176177180463226,-0.08989956352781382,-0.223214579398048,1.069157809318603,0.17575734082741007,-0.18235469020107042,0.06910308613336558,-0.017082052631771264,-0.1382160128540023,-0.13183806995978947,0.08946980742460214,0.09320539784992322,0.817042889314005,0.003547800695236968,0.32350813088248126,0.0,-0.14677170621351848,-0.018022055181338602,-0.2738660628937424,1.0955400669992574,-0.03878271330674216,0.3837036611681326,0.0
112.0,6.340778589248657,-0.29881346703015066,-0.028397708502526715,1.000716975704167,0.059200466990946166,-0.009381721920148411,-1.7538968909284567,-0.4977099740400436,-0.06462563772205368,0.27701375666756445,0.819057745033607,-0.4690244343643255,0.15854261157132543,-0.17851583789697878,-0.09405360112862005,-0.2162335601768855,1.1174506908419148,0.15291510023458924,-0.183098355707267,0.06235757651463893,-0.009372645801540852,-0.13249353590251983,-0.14804853822090075,0.09419770500124745,0.1049528151979506,0.8148990043814732,0.0057218279382919065,0.31558304380548435,0.0,-0.15245865170038642,-0.020225709941282526,-0.25803792225828626,1.0944090839627134,-0.036951974999534225,0.3924470864486712,0.0
114.0,6.405897855758667,-0.29783274538002646,-0.037637798734829406,1.0006035338037003,0.055538088427392995,-0.00768299535168724,-1.7572971304682028,-0.48557809783437084,-0.06791286045605761,0.2747787572643487,0.8215847707452633,-0.4805196614349784,0.15894243030950778,-0.21442985024189215,-0.09035536785494427,-0.20377220257193474,1.157958955490952,0.12816993965085086,-0.17845344373950078,0.054269521674536136,-0.0023216324570356738,-0.12562654117338445,-0.16363427150089974,0.09992825374293426,0.11036189570730155,0.8137277737829127,0.0068533873747202234,0.30837950397393754,0.0,-0.15754717056842243,-0.02291697775333988,-0.23986581040520857,1.0899461652318796,-0.03377348819922536,0.40081623756420637,0.0
116.0,6.480891704559326,-0.2967708997087819,-0.046334602996555535,1.000350902821477,0.05139581789000747,-0.005257506258123128,-1.7583100115033843,-0.4735947112293535,-0.07236872457566985,0.270436233413512,0.8238025852765899,-0.49123625284426176,0.15943261724515698,-0.24867936616974723,-0.07941634299943856,-0.1876052324753722,1.1895150699765544,0.10364387067521741,-0.1689560586133704,0.04455197388245215,0.005422492960211488,-0.11855082066643415,-0.17935564165029427,0.10644688844693781,0.11051332382431164,0.8124486967900908,0.007154067007308683,0.3016739924709086,0.0,-0.1629844435556353,-0.025477507828632423,-0.22160081216315458,1.0814756800862553,-0.030254106594685626,0.40872453493116656,0.0
119.0,6.551699161529541,-0.2955719700750083,-0.0551586876056982,1.0000316694413711,0.04711201091789301,-0.0017971170672182687,-1.7578233160071526,-0.4611758689643788,-0.07752457009100217,0.2641978344148898,0.8260474985120125,-0.5021699874701031,0.16037308462521027,-0.28204541521386206,-0.062241589303007744,-0.16832392246125072,1.2132274949918567,0.07920703962706466,-0.15568476380858037,0.03358463164004683,0.014383261686799495,-0.11206951680219188,-0.19544213510911623,0.11363316883486435,0.10719947766825672,0.8103889617558877,0.006921310732292523,0.2953107313715948,0.0,-0.168179010811325,-0.02694224776549862,-0.2053111525201975,1.0692473984293525,-0.027238226006029466,0.4162542401975008,0.0
121.0,6.625170469284058,-0.29432878223070497,-0.06554315175469372,0.9999600956622248,0.04096941007135308,0.002350150034637584,-1.7560063406902593,-0.44478069379317065,-0.08362578777048113,0.25617538576075627,0.8254869644922722,-0.512142189864627,0.1613042469556517,-0.30557126322487566,-0.04066794298884481,-0.14324518440459622,1.230218758874647,0.04706320253516701,-0.13655616064635542,0.022180164435423654,0.02362474080834762,-0.107835182618954,-0.20478731029923627,0.11881409650694241,0.10080799247025704,0.805759498225066,0.006265591317257617,0.2890256350455334,0.0,-0.16534067264544058,-0.029368685704901983,-0.18758169978025327,1.0526165536500192,-0.023425508655265173,0.42363272371700034,0.0
123.0,6.711350679397583,-0.29305753217739594,-0.07603222690614954,0.9997592273825262,0.036632346239814984,0.008541627227322587,-1.7528523854767557,-0.43108443255226103,-0.08765074162965336,0.24431640644166042,0.8224798766846131,-0.5177484065580051,0.16076489963345703,-0.3284875861246428,-0.011530996147383768,-0.10484698900426487,1.2514224957646114,-0.009100323619746772,-0.10654074236794284,0.01006282123949146,0.03548043928467494,-0.10216313371116603,-0.21956896185239827,0.12689843538196208,0.0906435920728462,0.7986114400383151,0.005098140045721935,0.28246088403282554,0.0,-0.1651855423424811,-0.029233057819257877,-0.17399102529534283,1.0325905678375473,-0.02097620971095008,0.43096221963479675,0.0
126.0,6.781747341156006,-0.2919567734665832,-0.08604816797848278,0.9992059442706116,0.03201059235877831,0.014040925782683485,-1.749330579031147,-0.41805303562686685,-0.08971218111491133,0.23206958064097427,0.8153620911358932,-0.5180337221770549,0.15774839309007052,-0.34927403002854307,0.016408567231650323,-0.06286206565660625,1.273492080465223,-0.07090832302062769,-0.07425804059418312,-0.000442888280994278,0.04765548889878195,-0.09668686443295232,-0.23191616097656248,0.13693526701530812,0.07765816697203969,0.7897939502143475,0.003582056009512992,0.275833053911521,0.0,-0.1628175558613349,-0.028935485386110908,-0.15773973691617071,1.0104255304800056,-0.017458983308991483,0.43902923868958177,0.0
128.0,6.863268852233887,-0.2906108727054889,-0.09743209189003793,0.9984114352858398,0.026797157878606932,0.02099048147452349,-1.7441146606987665,-0.4016795768335216,-0.08677242917705383,0.21665932879954664,0.8025980748690932,-0.5120049790008747,0.14984861131214133,-0.3789526737983473,0.04394105759283593,-0.011495936835503488,1.2995200255968853,-0.13917412186519157,-0.035435334480163366,-0.009968099916361876,0.06178260340942071,-0.09020708455787167,-0.24382755910861778,0.14668517435620174,0.06226683312303974,0.7759108228635907,0.0018539578659710419,0.26854520501981094,0.0,-0.15924525441042905,-0.027089742086833353,-0.14696337734856674,0.9871323095159155,-0.015599558659383186,0.44868736690405886,0.0
130.0,6.934356689453125,-0.2895101281910895,-0.10790407181276548,0.997523601611776,0.02132541260936838,0.026127281332938332,-1.7386138672917357,-0.38309562594671276,-0.08293392070334579,0.2013640727713476,0.7909671653760515,-0.5075531052904609,0.13904793436519508,-0.4166126578640171,0.06521385798780312,0.042002951858049184,1.3255841376949773,-0.19739345831803795,0.004079860068740518,-0.017827537948327178,0.07379492161851797,-0.08325302954051883,-0.2540324713065203,0.15694860912619246,0.04658615049928228,0.7612800626822795,0.00015176066484069912,0.2612630046639264,0.0,-0.15515601280449268,-0.026592958231595923,-0.1325312646628875,0.9643159268015213,-0.012448641231150694,0.4589753912903385,0.0
132.0,6.9997782707214355,-0.28854110000022953,-0.11788100395797611,0.996669176461014,0.015498166861831147,0.029561444480608386,-1.7327192340866269,-0.36176893341216854,-0.08229917581347777,0.18887409049889015,0.7879243125451336,-0.5127804081445299,0.1299158017535882,-0.465733851401422,0.07954898097969774,0.0990210641689579,1.3476292081865449,-0.23826621201079037,0.04679098428792186,-0.023948370168822022,0.08344619222352824,-0.07642347509620195,-0.2615119554302996,0.16619432962055838,0.03197408353181143,0.7455028677633917,-0.0013525054086749688,0.2539038822849352,0.0,-0.1500120573670865,-0.02743958402112614,-0.11617640041985326,0.9438175542489557,-0.008555403774716716,0.4699295840037987,0.0
134.0,7.063387393951416,-0.2876508961978055,-0.12755330159530254,0.9960388138701944,0.009330228646564971,0.03160047297337783,-1.726035034634549,-0.3417123037312414,-0.09003806494210558,0.18357293941614322,0.7976159194270339,-0.5282283102326691,0.12976236529585555,-0.5283328368438093,0.09042509546798609,0.15893429710274595,1.3540717803766031,-0.25164651472276617,0.09271074535917628,-0.028920825847681457,0.0900667529252848,-0.06915928174097685,-0.2685842317024851,0.17349422529877795,0.01960592378905021,0.7284197652637507,-0.002540984010851874,0.2464520621498697,0.0,-0.14640982767434318,-0.028873889200938543,-0.10152991111916926,0.9272491188516894,-0.0050891024948983956,0.48115195256835375,0.0
137.0,7.149137258529663,-0.2867434790533517,-0.13687554961640097,0.9956190043865223,0.002892306727558758,0.03019064479492077,-1.7191714656330475,-0.3259610509765377,-0.10615474301893435,0.18587871145846124,0.810938546412266,-0.5441809970840977,0.13737713308149485,-0.5923890903603468,0.10164454038488872,0.20734709075763996,1.3244349152522537,-0.226461751062218,0.12591471659120962,-0.03235800695342655,0.09153632072231943,-0.062263815491623485,-0.27580149048328795,0.17958288452932186,0.009708294781654461,0.7114355269379471,-0.003426808993687332,0.23935626686976072,0.0,-0.14479468506929444,-0.029852788527446168,-0.08941448589616732,0.916048538912263,-0.0023071080762040097,0.4929891594255524,0.0
140.0,7.244884490966797,-0.2850099471973403,-0.14809513690795262,0.9953446296942634,-0.00177368786513096,0.024544183821224287,-1.7111745964815879,-0.306756890556635,-0.12686195903078187,0.18514205055903105,0.8145065553490285,-0.5593362177187784,0.1411257583763852,-0.6377676540562893,0.11933574783992373,0.22496455358999168,1.2382198529938968,-0.1711422981851215,0.11915202425182972,-0.03317653961374148,0.08814651705778831,-0.05870300078481484,-0.28469539601374927,0.18394701460893398,0.0015563385203158182,0.6917560859313026,-0.004084490620339057,0.23233270942390075,0.0,-0.14566967123193944,-0.025250900074649616,-0.09379640728069422,0.9141417413399948,-0.00495137494508802,0.5077729184934805,0.0
142.0,7.343539714813232,-0.2828892217547605,-0.1606569498611299,0.9953151537466778,-0.004269583989785901,0.01860854768453451,-1.7015917876306217,-0.29079245555075117,-0.150827177760833,0.18040947649272332,0.8105439059123332,-0.5698568535876288,0.14376829120215168,-0.655778894288009,0.1418877173507054,0.22398999864389973,1.1294696022944035,-0.11960913383323868,0.08369272140094944,-0.032707892061319556,0.08506456351470684,-0.057578424493152106,-0.2935604332964469,0.1860339175557003,-0.0050074911034407015,0.6714395313151615,-0.00454866297378341,0.2255954908479086,0.0,-0.14663534012526216,-0.018275046713500893,-0.10903078266859903,0.9171594449822762,-0.011460512166548436,0.5231242506765651,0.0
145.0,7.415096759796143,-0.2813066467934574,-0.17210143749812262,0.9956722779731086,-0.005267519728098092,0.013452626422012117,-1.6921537610745756,-0.2763316622463416,-0.1689774996239638,0.17398758138310472,0.8014559357331288,-0.5739513882015344,0.14256765404108626,-0.6525104827091093,0.1648750150231099,0.21618593365673666,1.0346573844903633,-0.08967994524072276,0.037857408033989105,-0.03189505948300923,0.08291298616817011,-0.05664694854446545,-0.2999872705732177,0.18699963086048363,-0.010910822452234716,0.6547341255744288,-0.004929503329890568,0.21973458886149008,0.0,-0.14577466031433928,-0.01573942344226752,-0.11686512759580737,0.9223310585121933,-0.01526603163069736,0.5375903281127643,0.0
146.0,7.490543365478516,-0.2799920461126564,-0.18423339011205048,0.9965780727787287,-0.007585858867480889,0.01050579197057034,-1.6811288792515715,-0.25860808600640584,-0.18214233644802924,0.16603977776049944,0.788574578323834,-0.5730332030839353,0.13930228363329525,-0.6346397492968691,0.18545802708075212,0.20853398908334797,0.9641629437911863,-0.0859669332713873,-0.007523677373989988,-0.032311957651524906,0.08362278900849872,-0.05596215571523888,-0.2987819424519998,0.1842599968373141,-0.016338965540473288,0.6393967456145245,-0.005227434869001038,0.2143099771982918,0.0,-0.13774668467787263,-0.018025110086185216,-0.11723375788864557,0.9271188856880491,-0.01617134000331373,0.5509995786083106,0.0
148.0,7.5516979694366455,-0.2791795865303937,-0.1936346479081224,0.9973620563925885,-0.008346026777912243,0.009621872052313027,-1.6717682574775279,-0.24667682078848147,-0.18944356553889746,0.16074793626766556,0.7787807108889715,-0.5682988635261202,0.13566669885488797,-0.6197161364256584,0.20460217313367068,0.20626077917954028,0.9181324029519886,-0.09764121676424249,-0.04463704210087,-0.03133202683671214,0.08689565186716894,-0.05179788398683799,-0.30181766740414306,0.18352110694026336,-0.021279910677387926,0.629751565317721,-0.0054951715812433626,0.21001232772578154,0.0,-0.1348322385703077,-0.02304368508114852,-0.10936872016440469,0.9334416556495115,-0.013882918280416125,0.5626268109667873,0.0
150.0,7.602098703384399,-0.2782558488122334,-0.2027968323151776,0.9981526070445895,-0.010146839545932646,0.009646126548032001,-1.6618487588220776,-0.23240124827243752,-0.19495632510222122,0.15415287122815174,0.769053779992884,-0.5627927397559906,0.13121348285334145,-0.6147763797828514,0.2182878101965687,0.20972539742156188,0.8815710712633811,-0.10661922208652856,-0.06874201789419929,-0.030332557687855987,0.09099722809389263,-0.04621918082785195,-0.3043043900658182,0.18178055339853327,-0.025527639623253703,0.6229315279072474,-0.00570009674773158,0.2064667586809204,0.0,-0.1324776960347429,-0.028733064421920196,-0.10018856782720666,0.9428514020196055,-0.01097325165016172,0.5738995553263891,0.0
151.0,7.671854734420776,-0.27704795817581707,-0.21212533170873074,0.9987951176708533,-0.012542841994497879,0.00994995468607627,-1.6514308038838366,-0.2167858826476487,-0.20058371082941018,0.14646026967704603,0.7594366909143004,-0.5572745680037516,0.12654358243254604,-0.6182536820567319,0.2276433877115849,0.21431161104520693,0.8488002183945073,-0.10958829749571844,-0.08350711659355782,-0.029444588557354427,0.09536932574560526,-0.04018376633334887,-0.3061257018369328,0.17889078725661817,-0.029136099909395703,0.6184197068902714,-0.00584957386046649,0.20362708137852897,0.0,-0.13104419170332032,-0.033555656710860526,-0.09399465134263232,0.9552684943107768,-0.00922000837532194,0.5848441066931436,0.0
153.0,7.717331886291504,-0.27626727021352604,-0.21946039419410665,0.9991182041462722,-0.015196093299427168,0.008917174777437774,-1.6429883598441954,-0.20337503774700869,-0.20587611196810288,0.14032459357963198,0.7514833067249475,-0.5524657163480178,0.12226249644074108,-0.6249045643718746,0.23260076380090527,0.21820880311047977,0.8246988066167733,-0.1081518090274581,-0.09140762559556753,-0.029668474182618275,0.09856551578473852,-0.0344638625065681,-0.3067115802805939,0.17874422842840437,-0.03303866043066264,0.6171253755362289,-0.006040306459932431,0.20148130318078428,0.0,-0.12824707098461324,-0.040001962390955006,-0.07836264632042061,0.9617897721718367,-0.003104059320450695,0.5933146408302546,0.0
155.0,7.7737085819244385,-0.2751268376368472,-0.22771793399163562,0.9993364382326232,-0.01779347814128989,0.0079594594128766,-1.6329530348968277,-0.18853568551491595,-0.21151584220467368,0.1333828200247589,0.742721053592208,-0.5472669552188648,0.11800825236324342,-0.6343564344875852,0.2358055124669512,0.22050341394296985,0.801836802018732,-0.10335694863124108,-0.09482070496060063,-0.03016710018961801,0.10126479582740261,-0.029317235509730147,-0.30494444308598606,0.1757113801313811,-0.036482073953730404,0.6170790639450657,-0.006184054530047315,0.1998996612337588,0.0,-0.1247814253376504,-0.04497826569780558,-0.06950028651413138,0.9727675332419695,0.00013042208640228771,0.6022838389869246,0.0
157.0,7.838655233383179,-0.2737615636685865,-0.23654534500095062,0.9992321962996771,-0.01972420201963091,0.007219244741697705,-1.621210598495063,-0.17386516862242712,-0.2173579664953244,0.12539378999400025,0.7342542570815869,-0.5423109219450066,0.1140073517410563,-0.6447959138275126,0.24021660248730992,0.22350163037335924,0.7818920133964773,-0.09821255928777212,-0.0961823973965259,-0.030960452106988133,0.10444455154151001,-0.02523420868916527,-0.30258276148346475,0.17087963938124184,-0.03879864079007754,0.6189741933125491,-0.006244347198899447,0.19898875876308736,0.0,-0.12146104408511114,-0.04845460168601605,-0.06716100539912577,0.9854771716266718,0.0001334465328860576,0.6107517539885976,0.0
159.0,7.895301818847656,-0.2721574213414799,-0.2460107270712498,0.9989000151846181,-0.020689157015774805,0.006940323841064706,-1.6076474676703434,-0.15988173398644484,-0.22326815357383256,0.1159585590008653,0.7268709551704118,-0.538419003335027,0.11054948810018196,-0.6550105245295819,0.2476792257265127,0.23113970974007683,0.7647595723985385,-0.09548983837414059,-0.09672754932440153,-0.03203699361530859,0.10914645238734456,-0.022859228475958684,-0.3005721376324989,0.16500717000348025,-0.04016408105442315,0.6234825023462751,-0.0062414871681784135,0.19889921736477978,0.0,-0.11930315574881614,-0.05005974607834613,-0.07187492453655392,0.9998956527054261,-0.0037404653218344667,0.6182698599309704,0.0
161.0,7.968189239501953,-0.2703763818585289,-0.25611678138173544,0.9984058938020764,-0.020490511760641407,0.0072745723253026615,-1.5924162096630772,-0.14697318770619783,-0.22865027457751363,0.10561060480216164,0.721085058709034,-0.5360273013807137,0.10796928408755818,-0.6639573710397875,0.25931340056838803,0.24580447588250232,0.7503178644686199,-0.09495544283006645,-0.0972030971978895,-0.033847628088843736,0.11499280876687278,-0.022334064915596374,-0.2999310123954692,0.1575454677973258,-0.03998967787539304,0.6313396308483923,-0.006131292851754147,0.19979378429054837,0.0,-0.11874824658303232,-0.05034238096242107,-0.08394538697838375,1.0149519384854964,-0.011881612608489026,0.6239422197159603,0.0
162.0,8.024635791778564,-0.2687776546531935,-0.26622632447935135,0.9976629826643921,-0.019967354784333972,0.007041942667208506,-1.576530658280649,-0.13498891974567018,-0.23371909244045858,0.09579780008404895,0.7169271969105102,-0.5348122934593704,0.1062101477488251,-0.6701800188191884,0.27397690408748454,0.2672652657475316,0.7403164433139048,-0.0921262406746548,-0.09772003252071057,-0.03682696621342188,0.11977879752775356,-0.02218695859210304,-0.2992198594392689,0.1491078227245792,-0.03895590709664704,0.6428632831129839,-0.005966280594134208,0.20168300006915635,0.0,-0.1171430558857188,-0.05091149688968671,-0.09816450041965605,1.0261823556340504,-0.0214608926776523,0.6268119713677351,0.0
164.0,8.068507671356201,-0.26794064608284934,-0.27424455324431607,0.996876075096079,-0.019939501074815437,0.0046199327373756096,-1.5638742157123788,-0.12516570732106413,-0.23908386178063112,0.08862365876964316,0.7136499746807083,-0.5337279908618734,0.1046186525828167,-0.6738612137295676,0.28569453082220775,0.2871694946863311,0.7358698520777314,-0.08754597408865805,-0.09852944299053454,-0.04025091417640916,0.12197225569775139,-0.021718094550649266,-0.29765094644436774,0.1448852534078847,-0.03921646860724311,0.6554522586603633,-0.005941807913292299,0.20367837809679457,0.0,-0.1140315070530663,-0.053195043126329035,-0.10252591518185583,1.0312994288386232,-0.024875242120902235,0.6274066250245651,0.0
166.0,8.12822151184082,-0.26693411282744633,-0.28284868248082795,0.9959048588901884,-0.019903047995917814,0.0017880702409123809,-1.5511980061904114,-0.11488730935855737,-0.24505546415300827,0.08153464205173763,0.7107075898053015,-0.5325104113043295,0.10327099192780573,-0.6765486825028628,0.2934252663459383,0.3015646375505838,0.7333175001291048,-0.07806435393111673,-0.09992690075280436,-0.04230428210099284,0.12289760775607263,-0.020659621851095367,-0.2942912381655687,0.139053199369598,-0.03906830861460933,0.6707403457137187,-0.0058927886865503265,0.2065164343202507,0.0,-0.11011724441249779,-0.05484737850435174,-0.10962089749455042,1.0377101029938764,-0.030087741612560476,0.6278648888867698,0.0
167.0,8.19567322731018,-0.265750009997347,-0.29207459787013057,0.9947632593992942,-0.019976247795896043,-0.00101039920740519,-1.5390863864619932,-0.10407243210154013,-0.25143330250841334,0.07416565577572234,0.7082577421421878,-0.5315262508116109,0.10212421509017557,-0.678865553578935,0.29378773828469273,0.30371437525247763,0.7315239244857183,-0.06371762274123895,-0.1026768853408006,-0.04235820861933798,0.12376812999025863,-0.01935403218573807,-0.28893643630566057,0.13247913913090886,-0.03773248345463115,0.6888008703059454,-0.0057567282919753614,0.21020111137636913,0.0,-0.10527048455215743,-0.055840955793679405,-0.11831872552522502,1.045007087969666,-0.03652172197207226,0.6283062693051502,0.0
170.0,8.254223108291626,-0.26503369924254955,-0.2998079397913807,0.9937005004429769,-0.02034146853783647,-0.004662958021078589,-1.5294021684818995,-0.09476514247432424,-0.25787344478857754,0.06783956783935144,0.7063470290771341,-0.530427366245698,0.10078715368244406,-0.6806202389276708,0.2894344567259492,0.29906237581868533,0.7314369332519173,-0.049304778857527765,-0.1061230337243757,-0.04230810683434856,0.12401715039497635,-0.01826396221056216,-0.28351904338173145,0.12942182705899663,-0.037151636784310695,0.7063534577020298,-0.005724755876447491,0.2136204663767221,0.0,-0.1001510520358754,-0.057879239288668186,-0.11911854237207668,1.049318331198616,-0.03766258802856763,0.6280547382347073,0.0
172.0,8.332193851470947,-0.26356627026864543,-0.31088916260347205,0.9923102478848878,-0.020478517981480333,-0.00682876840999801,-1.5149821425627445,-0.08296286163807468,-0.2651325315472641,0.0570165907115329,0.7066072830672918,-0.5275781471502873,0.09874136996197252,-0.679318672144579,0.27935670202487695,0.28431033277666806,0.7295877557657688,-0.024712932461446714,-0.11115047571097426,-0.040288875408658595,0.12467156010541171,-0.017351135686930773,-0.27345099122578137,0.11822229802545035,-0.03235861384614536,0.7302336745436362,-0.005259246208835166,0.21915288349970724,0.0,-0.09112592163293826,-0.05827054959195768,-0.13303235387521245,1.0543288855856907,-0.04752601889471436,0.6274773145563406,0.0
174.0,8.404011249542236,-0.2624300765250376,-0.3221883795994738,0.9908387512934544,-0.02084794837049369,-0.00962852857604761,-1.49919967118089,-0.07116765647764105,-0.27277053563553266,0.044734423067516925,0.7082678907708448,-0.5233826736789251,0.09572722519924161,-0.6751987513683857,0.2674357091168169,0.26771188840367854,0.7290655053508185,0.0016418588909878178,-0.11672507134918148,-0.039542267462199986,0.12426081439095632,-0.01738902176477368,-0.2609001222838084,0.10587108651459468,-0.025887233934995937,0.7561126747886445,-0.004607959255514607,0.2252614691451834,0.0,-0.07924233879838335,-0.05989670383057899,-0.14629513347640272,1.0544009119130342,-0.05640532175930012,0.6251277929349928,0.0
175.0,8.469404220581055,-0.26142087772438755,-0.33394503652476676,0.9893575800322957,-0.020992477235530976,-0.01258900720824351,-1.4821605362464216,-0.059382602907294565,-0.2801697655652231,0.03154953828333337,0.7109637684495738,-0.5178799747403808,0.09223323850714324,-0.6685442482072816,0.25532840733834933,0.25137737650468506,0.7301591550247337,0.02846208166509776,-0.12220674626545175,-0.040167342311737776,0.12384777081258362,-0.018458115354871168,-0.2467736877604069,0.09395602974586814,-0.0183475631256393,0.7825221593965841,-0.003825015107146522,0.23162079799244395,0.0,-0.06703885122971219,-0.06141056258006319,-0.15994676281894019,1.0514302559482178,-0.06502026758156643,0.621917391144721,0.0
177.0,8.50747561454773,-0.26098907198120946,-0.3437026049143441,0.9881480546573818,-0.021307376160201102,-0.01660574539697145,-1.4672263352845447,-0.04929353261236652,-0.28711462251571096,0.02000699098854664,0.7133594753155974,-0.5123165468662204,0.08883789333594919,-0.6621636215857408,0.24461182865606998,0.23867947418639746,0.733199940925608,0.04971462042489106,-0.12723696409971924,-0.04247461967174919,0.12357030638267599,-0.01950424931431534,-0.23451999366164755,0.08785469005780083,-0.01332363569304251,0.8058612657250639,-0.003364891836800802,0.2369215067361018,0.0,-0.056431552572788535,-0.0641062732355091,-0.16265703939576068,1.046863448395298,-0.06654114235587667,0.6187228892775487,0.0
178.0,8.558464288711548,-0.26039590508377614,-0.35395501406918106,0.9874025613174346,-0.02105862357224656,-0.02030665912477761,-1.451432403231728,-0.03887785203669534,-0.29329518174971697,0.0076092872899312484,0.7150978702969479,-0.5045847004765349,0.08575599880140955,-0.6549248912235606,0.23349029750668826,0.22628804375265504,0.7371983341115484,0.0682271105788424,-0.13314786872716092,-0.04461286952302962,0.12455523199259194,-0.020500684072362843,-0.22101369170874888,0.08339466396584932,-0.008140554080754463,0.8282322986854999,-0.0028672176274007286,0.24213351431424052,0.0,-0.04806525937414022,-0.06538553704566841,-0.16481889383496434,1.0457233417280358,-0.06766583208183596,0.6171972596376535,0.0
180.0,8.61101222038269,-0.2600773104582944,-0.3626166439528219,0.9870632925076833,-0.020800864175990523,-0.024529815193271184,-1.4377892827659737,-0.02972053341828313,-0.29895059757255926,-0.00323938225836444,0.7158828589236275,-0.4965925246197599,0.08316152063976444,-0.6497084067609586,0.2225566122836498,0.2153986840566408,0.7421319171261256,0.08127838193494755,-0.1395601180236578,-0.04708162521584992,0.12538085165254237,-0.021452511360100332,-0.2098853087183509,0.08253272968762379,-0.004924981090083079,0.8479128187512055,-0.002630878587169928,0.2464028599731796,0.0,-0.04157616778676895,-0.06763552663910287,-0.15811376144352426,1.0450384936169002,-0.06330022583589416,0.6163057276911472,0.0
182.0,8.670186042785645,-0.2592222294638974,-0.37276307568345757,0.9874548600038207,-0.01955761867907955,-0.026548030021454234,-1.422463318069755,-0.019966420568937736,-0.3025769835974713,-0.015765268401726526,0.7161110496366117,-0.48540423732512344,0.0812430135016638,-0.6452968387856512,0.209980796842827,0.2009703226492357,0.7457696427398357,0.09097268237255778,-0.14769635169851492,-0.04735518330894771,0.12806684548800645,-0.02325145121287153,-0.19623843461406476,0.07839211818935773,0.0005347266691534069,0.8673262643560775,-0.002035805177440326,0.25095607914232476,0.0,-0.03738241968537595,-0.0691116900942653,-0.1561689708972836,1.0516787512848773,-0.062199013920706314,0.6175850530984492,0.0
185.0,8.746703147888184,-0.2579164424189989,-0.38422132854264235,0.9880991552088654,-0.017941020130266466,-0.02562716701762885,-1.406589161544392,-0.010157306054939894,-0.3040258221892006,-0.0300022511706223,0.717928830620565,-0.47237066995258437,0.07980527502572352,-0.6410336716779851,0.19632157272751627,0.18123859805910403,0.748322204082447,0.09594136840002428,-0.15608307685052453,-0.04586729512054118,0.134047843686101,-0.02637758066318554,-0.17917064618941267,0.06964184656402987,0.009321943787010194,0.8870422585730213,-0.0008750663842902496,0.2559262432936914,0.0,-0.03260715580119007,-0.07135599268462109,-0.15908292891867376,1.0591356554463094,-0.06445981903432614,0.6191635223286901,0.0
187.0,8.825554370880127,-0.2557233061530445,-0.39908314332999617,0.9888455180275714,-0.01601699367446248,-0.020643788182284573,-1.390032279027447,-0.00023746196079415475,-0.30108239423959393,-0.043616796501725404,0.7244680151929912,-0.4555201414747338,0.07942164558668571,-0.6340550684237869,0.18189175024191617,0.15494304972315734,0.7503559037548866,0.09520618765591805,-0.1630251333170311,-0.04032382173386466,0.1433838956077868,-0.03237285370118763,-0.1563700167706326,0.05219313333088587,0.026834894827637634,0.9083360937669736,0.0018580403797547101,0.2621272325007386,0.0,-0.025909651192257424,-0.07286052991422763,-0.17869809988163388,1.0611432298902963,-0.07730870863355567,0.61766128611852,0.0
188.0,8.8950936794281,-0.2535506910719527,-0.4141808211584208,0.9898081765066886,-0.01433655553853818,-0.015094976760551482,-1.3747733882702537,0.007950373780234164,-0.2949037651588692,-0.052655214354455776,0.7337346878635369,-0.43713924303753277,0.07984419288716793,-0.6257917917980639,0.17040622025430519,0.13159803657766617,0.753329523560405,0.09561626458460398,-0.16718231118787513,-0.03491291081362466,0.15285826255599022,-0.0390348083801985,-0.13673119192397182,0.03836033017341877,0.03885843158702232,0.9351054659317297,0.0038670343307050073,0.27100763674575934,0.0,-0.018761367619083095,-0.0756205274203925,-0.19946039839586338,1.0581690945631186,-0.08979317111802881,0.6130657838265999,0.0
190.0,8.955002069473267,-0.2519461561289992,-0.4261058690697999,0.9906258265506835,-0.01354620898288723,-0.010831037925191002,-1.3634037086277606,0.013361453263383546,-0.2887894767565034,-0.057751510978820905,0.7434514150879976,-0.42142860604543,0.08033650218963079,-0.6185960845776698,0.16261832548836191,0.11439763960221266,0.757001935660677,0.09799497019157115,-0.1692976814989276,-0.032921147271480496,0.1614918431248093,-0.044426044005335216,-0.12616058882088488,0.03623913768028994,0.03200751256757972,0.9669960779838654,0.0021121279487646897,0.28274750295222073,0.0,-0.012004384958221108,-0.08242308667576062,-0.20552381035794848,1.0518411806995684,-0.0925673857204912,0.6061048963576009,0.0
192.0,9.016221046447754,-0.25003363514650206,-0.43807775301805724,0.991879500695093,-0.013483171427222353,-0.006278873515828499,-1.3534070042024506,0.017434817326187735,-0.2811501972569043,-0.05995574389649411,0.7553898946539546,-0.4020350922982627,0.08104695586509364,-0.6092211025291919,0.15836259582143075,0.10217523971093684,0.7600731903230176,0.1077519034250762,-0.16896261835061524,-0.029045956759325208,0.171234046717624,-0.049131691191340504,-0.11563377536825264,0.03710677191727932,0.018050255458426253,0.9977314642835575,-0.0013941464987835797,0.29575699376635955,0.0,-0.00588280872801385,-0.08879802363393924,-0.21182488718635306,1.046319558703324,-0.09497593455734812,0.5976341999425585,0.0
193.0,9.07574987411499,-0.24785678961158267,-0.4499385192324247,0.9933157435306805,-0.014789050892345907,-0.001864923944123403,-1.3442296054477358,0.020357582846986456,-0.2718014897909206,-0.05850392754258596,0.7698837529209708,-0.37818021530487145,0.08193159267286815,-0.5974503346204285,0.15771410204512554,0.09573533012142296,0.7624198702720877,0.12337527070296003,-0.16679295901701263,-0.024149610095882235,0.18211778918823976,-0.052106332131751025,-0.10435267033858447,0.040766230438353625,-0.0038998642776349284,1.0250092813125553,-0.007214800888740925,0.3095498117632769,0.0,-0.0002926881251926125,-0.09442077977877109,-0.21843424659792304,1.0404894215536735,-0.09685743407917595,0.587739462067511,0.0
195.0,9.11955189704895,-0.24596730662257085,-0.45969071391975114,0.9944146271242702,-0.0170375901232376,0.001967204308216897,-1.3367633031442467,0.0221095916867771,-0.2625864441201303,-0.05519135748974037,0.7843343364225341,-0.3561405961984848,0.08278877656866374,-0.5863654648296693,0.15865969396378576,0.09215748635830315,0.7639621790644426,0.1384091508803238,-0.16438102737343388,-0.020472971869322225,0.19174127734321422,-0.05351414930334766,-0.09522038556239037,0.0477028091500613,-0.035996400393491834,1.0457420440413518,-0.0165969811847272,0.3231236434798809,0.0,0.004749432457983019,-0.1011581647570666,-0.218221421915915,1.0339725817336372,-0.09484073882442672,0.5764456146228956,0.0
198.0,9.181227207183838,-0.2437105446850999,-0.470690010233798,0.9958201155286059,-0.01954975843383806,0.006245815059813969,-1.327214744643704,0.02239004920583488,-0.24969720531648004,-0.04822210315060775,0.8020188079217356,-0.32705068495572914,0.08425320380902457,-0.572868107825933,0.16008442003834444,0.0897580490458054,0.7644779103908352,0.15593860433906534,-0.16074723934300972,-0.01490659295445863,0.20069786537419426,-0.054002502510731146,-0.08358817396461458,0.05209605252296878,-0.06792865805502996,1.059985253991762,-0.026713237544676662,0.3366314229212385,0.0,0.007145417765906192,-0.1048819903240471,-0.22852223174824982,1.029126356343333,-0.09798199851800884,0.5641515757271118,0.0
200.0,9.263968229293823,-0.24074040500862035,-0.4845516323714326,0.9979820281766512,-0.021758533717594092,0.011691747968075088,-1.3116246503635698,0.017221334422361453,-0.22774401669083388,-0.033052464477030856,0.8290538216360845,-0.28100512124931265,0.08739918001459974,-0.5550430920008796,0.16207563630084443,0.08850383958102442,0.7633986679190505,0.17591515582010755,-0.1546777910979628,-0.008944597935794083,0.21100556827701492,-0.054029971020548156,-0.06749218499696011,0.053905980393218186,-0.0981036725485489,1.0696651146692404,-0.036873068261342776,0.35082734930725806,0.0,0.00828205700102657,-0.10285777503461506,-0.25971854033327574,1.0196782788852703,-0.10943579237933,0.5487547919781953,0.0
202.0,9.326512336730957,-0.2382055566441375,-0.497625284668178,0.9998442250717194,-0.024728046976075023,0.016815317862247173,-1.2951410787727422,0.013657402588456085,-0.20574149784709495,-0.020183176777021042,0.8534144376244635,-0.23993205336216802,0.09055124833370645,-0.5374626380004499,0.1635407566715295,0.08526625692729335,0.7621741893411703,0.1892853104831324,-0.14961299091661875,-0.009007949506279141,0.2203514615929289,-0.054638405921168955,-0.04487049878152232,0.06267799620461464,-0.14282083124491926,1.0657609230507832,-0.05153404051058647,0.36346861115746065,0.0,0.014569907814605413,-0.10280246297543602,-0.2813843818811235,1.0107547515799369,-0.11578449832866927,0.53307015005087,0.0
204.0,9.395785093307495,-0.23544981949610436,-0.5108674931192296,1.0018871606342648,-0.025624238502388284,0.022152996470218185,-1.2744687777366754,-0.0031105387646293142,-0.17267554408883493,0.007080637233606486,0.8942906489090511,-0.18410371430048234,0.09681363343444903,-0.5198930226032342,0.16619157992556582,0.08523214554466695,0.7594909380898125,0.20419108538777764,-0.1417793009464092,-0.007167092826569273,0.22918680030303246,-0.051631312291198564,-0.027354031157608507,0.07080696970449812,-0.18895931228300988,1.0589321915419496,-0.06702641080331999,0.3770567325764359,0.0,0.011627664984022675,-0.09919805242009574,-0.3203758204192122,0.996187717435288,-0.1272613070522347,0.514423518906691,0.0
206.0,9.472474098205566,-0.23314046940338926,-0.5229746010463043,1.0035306044427723,-0.025816523904305465,0.02684773808473239,-1.2521917981128183,-0.025422378971543442,-0.13676101349119013,0.03693864188386477,0.9407554446303161,-0.1313867805990847,0.10475723047638763,-0.5040914732928634,0.17020213051968108,0.08719079603550738,0.7572246154999559,0.2136918999606073,-0.13391119564446924,-0.008109366504428681,0.23615930340005636,-0.047661449059055866,-0.010655312085721971,0.08423497698677214,-0.24455469241830158,1.0414657097229754,-0.0843833351233646,0.38886134975382997,0.0,0.0073820518295485615,-0.0953065624663259,-0.3584167800005482,0.9791328782193043,-0.136412843353025,0.4948840157520924,0.0
208.0,9.54168963432312,-0.2312437746003237,-0.5339645827233357,1.0046269719314453,-0.025019962717745814,0.030949356902255257,-1.228503936522956,-0.05261072716701935,-0.09847423497633917,0.06864972651322196,0.9911731508088719,-0.08477707398280022,0.11518189447815268,-0.4905584834248461,0.1761853957873956,0.09199100555837049,0.7562175650864804,0.21684651187772908,-0.12625325573451235,-0.01060698497073119,0.24117323028809784,-0.04418913012430199,0.002426784066412153,0.10130927166952224,-0.30490661710022715,1.015724375136858,-0.10153189912080804,0.39831173269392867,0.0,0.0008370716471191252,-0.09052403850748181,-0.3959227620653456,0.9598186018693027,-0.14343900738112939,0.47479256904358735,0.0
209.0,9.602018594741821,-0.22959180845931682,-0.5444666985145368,1.00539389625132,-0.023416298401669654,0.03434942662918085,-1.2027985463287645,-0.08359751837253972,-0.05688319409026332,0.1028733377404678,1.044363860868303,-0.046118772911609554,0.12910043670910562,-0.478375868206709,0.18348457837388238,0.09901954271100877,0.7566066939873659,0.21469168511784303,-0.11860295710664992,-0.013153540254896996,0.24502605321732696,-0.04179435637335546,0.011771739509640309,0.12030211484466494,-0.36340487388523424,0.9856167873553388,-0.11638161530063537,0.4051301036782706,0.0,-0.007668737492009976,-0.0835056291468383,-0.43485470250755137,0.9386758847928491,-0.1494807063228452,0.4542025392652065,0.0
211.0,9.635875463485718,-0.2287591083294775,-0.5524772542854741,1.00559835897464,-0.022291061568314334,0.03610307553530617,-1.1813592292574349,-0.10916531562043559,-0.021497864470733083,0.13102028475541988,1.0881538415568472,-0.024870745244366266,0.14293146610497368,-0.4700026285007521,0.1897184119653045,0.10479125634505504,0.7594530632346158,0.209212949838229,-0.11289674656682638,-0.01524128492814162,0.24692017174061115,-0.04079014316296767,0.020351324915800863,0.14276932033707676,-0.4206641252490082,0.9497771927975879,-0.1286837831607156,0.40710287753155916,0.0,-0.015529663094714995,-0.08014804874433044,-0.4594822394966527,0.9270621558407358,-0.15105079019691128,0.43750647471796983,0.0
213.0,9.698201179504395,-0.22789271134648165,-0.5607274330283131,1.0059772149542068,-0.02085914081619473,0.0366135756258372,-1.1571549951958677,-0.13513466255296827,0.018902682575108243,0.16413038147754994,1.1317341320690617,-0.02411834618744523,0.1621542413929597,-0.46119202629854383,0.19505544312980988,0.1109703751404759,0.763060367385531,0.20126232878286432,-0.1069381735671717,-0.017507291677084088,0.24743699072645337,-0.03885966414095675,0.023517592982205147,0.16185571165571871,-0.46737032476359264,0.9201586309886411,-0.1374036673105199,0.40805261075019733,0.0,-0.023485152022253854,-0.07420732363041202,-0.48570471541444493,0.9117818905873432,-0.1521346365512994,0.4201953904858844,0.0
214.0,9.764291286468506,-0.22695571563674982,-0.5691880795829636,1.006534241370531,-0.019083533874289856,0.03560272121074252,-1.1306376540997058,-0.16097917508123993,0.0608973866471097,0.20010154484528708,1.1733726661057284,-0.05028714665927306,0.18530990115090057,-0.45190528499672056,0.19897163817531155,0.11721322146912283,0.7675962922261512,0.19226292073790063,-0.10064849466231021,-0.019657444610257455,0.24598448975134174,-0.035737366878077464,0.021331033821414477,0.17695099935483338,-0.5031785896884028,0.8967699240692395,-0.14293054176543513,0.4082783707011172,0.0,-0.03174747458499852,-0.06654100654248551,-0.513279518450285,0.8927519875879375,-0.15260530832160377,0.4020105461048622,0.0
216.0,9.82377815246582,-0.2264049283054754,-0.576046959475027,1.0068490726528805,-0.01759367897735781,0.033455441418088774,-1.1081412677971785,-0.18224445696482033,0.09461687267941922,0.22992332999716028,1.2068872919838576,-0.0863859180443943,0.2056352608164589,-0.4448308827432106,0.20130418929272131,0.1218982330446148,0.773359740936695,0.18420984088146328,-0.09549437549158384,-0.02001654546983926,0.24273080168214556,-0.03310573855631213,0.018460826411823353,0.18965911703702337,-0.530353864703154,0.8754742608708004,-0.14582870487723074,0.4062563642056474,0.0,-0.039575583222924184,-0.06330984176308749,-0.5321764449701804,0.8816282029348387,-0.15110512475310217,0.38716462106768296,0.0
218.0,9.878943920135498,-0.2254624207629327,-0.5835227639825475,1.007307335950872,-0.01554473837202332,0.03030235110198866,-1.0830301830120648,-0.20521805524296227,0.12492974953850464,0.2600245128156558,1.2365594160730375,-0.13885528580819465,0.22616738568519468,-0.4365805883793684,0.20233055440174244,0.12643629555330607,0.779207751030381,0.1764835661030924,-0.08973408844304936,-0.019826212744862487,0.23656567893830666,-0.029646159542259035,0.013417176238302693,0.19740420690938384,-0.5508814286635086,0.8585033390482963,-0.14705189478193212,0.40453232063723443,0.0,-0.04547517432044071,-0.05954051642410449,-0.5545790888189013,0.8646136634201862,-0.14967138118967846,0.3703583489461664,0.0
221.0,9.951788425445557,-0.2241984503628127,-0.5913101721651454,1.0076620389090105,-0.013612733180784903,0.026738160858470618,-1.0579131937751705,-0.2285166312436369,0.14731650948000652,0.2864270411285304,1.2588502232877756,-0.19919868456718975,0.24227163588944917,-0.42764422102638083,0.2035171202815909,0.13115102856934,0.7854227066509449,0.16936581331349068,-0.08384288117664435,-0.017751569760015726,0.2288848380307238,-0.026357786128660934,0.007007388136996657,0.2018915776667718,-0.5668357016946048,0.8438059771377465,-0.14717632915115003,0.40302066498021905,0.0,-0.050448042839877014,-0.056190386388801736,-0.5777004519591983,0.8452688029268838,-0.1477396293574479,0.35252973030427837,0.0
223.0,10.039335489273071,-0.22214836310874225,-0.6012610159664312,1.0077939626813897,-0.011137876548580946,0.023458996198110274,-1.0282632679731347,-0.258571550750474,0.16045230576683484,0.309142603596113,1.271150884643448,-0.2653460363179061,0.2513032387633516,-0.4160771574041602,0.20854689219360628,0.13963427415324411,0.79253447132336,0.16033858157364975,-0.07630978670462857,-0.013378259533275096,0.22169269695071397,-0.023149809807611405,-0.005176489273129754,0.20278829968264606,-0.5756304132399365,0.8354686926913815,-0.1461727939027962,0.4043743351199755,0.0,-0.05866581615743906,-0.052978398933707614,-0.6007664498050074,0.8233679845271882,-0.14526584053397357,0.33358906722026893,0.0
226.0,10.119516372680664,-0.21978552551580743,-0.6110687260636103,1.0074519379429956,-0.008519842218229526,0.019969381632049595,-0.9996028991282118,-0.2874327626021573,0.16601512555490042,0.3208836473126744,1.280638381438236,-0.3283386599914132,0.25249055702916573,-0.4049692619795101,0.21432754583596558,0.15023599500068907,0.8001245776163863,0.15151891396243025,-0.06777533448255259,-0.00727800251031442,0.2144682353635371,-0.020474932676053235,-0.018298070577934696,0.20220277671924716,-0.5791382783400221,0.8270812853542306,-0.14423539392786747,0.40580693478818947,0.0,-0.06997268168251239,-0.053736895725543826,-0.6192762132138323,0.8075980278055432,-0.14200280100233004,0.3167316747239734,0.0
227.0,10.188796281814575,-0.21672623471543367,-0.6219241308673937,1.0065124428694814,-0.006420858742305261,0.015727501222377427,-0.970758199222771,-0.31362897656160027,0.16491689950156802,0.31317535151510817,1.2930930960127942,-0.38962416078346973,0.23633494106102404,-0.39212004002706347,0.21716849830836338,0.15879917466672394,0.8061176702717856,0.1443343375537634,-0.05890121384352511,-0.002071056977216103,0.2063984831623173,-0.02102633209356983,-0.028385551271472464,0.20152636163557852,-0.5783570295319829,0.8182905404076679,-0.14162616905929692,0.4078685994486777,0.0,-0.07962633751421974,-0.05632057440787395,-0.6312630613764985,0.7961212703768392,-0.1377735529548949,0.30206958778819293,0.0
229.0,10.25157117843628,-0.2140345316654818,-0.6307143280274319,1.0051398309766357,-0.002935090384421043,0.012237689912364876,-0.9476914480746444,-0.34610625063129186,0.16051639022414657,0.29627614130875785,1.3089125853490255,-0.44599892104660344,0.20862412723352589,-0.38195508047029797,0.21883667158920972,0.17305359242537027,0.8077670136059304,0.1425995017643332,-0.046066826718099654,0.00792085838991757,0.19817884142793435,-0.02172265617855757,-0.04622752163773214,0.19618618816336222,-0.5750651615684089,0.8148289725145268,-0.13884462015826085,0.4111957542749846,0.0,-0.09781577945251349,-0.06680604858408001,-0.6372959699142839,0.793053060515305,-0.13294018887176656,0.2901549893650158,0.0
231.0,10.317969560623169,-0.21126260388383614,-0.6391224548205654,1.0035372157871483,0.00044408144962371676,0.008965168248924404,-0.9258877567225581,-0.38592847206302905,0.15600937381917873,0.27389369449723133,1.3270209483484638,-0.49415002993218426,0.17471718904623162,-0.3682915885130428,0.21973437551944078,0.19295105554436826,0.8029153800887858,0.14152232841866896,-0.029001230240932936,0.017030830536061158,0.1894988470265952,-0.022650767019372776,-0.06452912060971794,0.1884293530895762,-0.5713649598504258,0.8169892765155983,-0.13640371635455656,0.4167489051507343,0.0,-0.11588968471116569,-0.08086608475361212,-0.6374393561321023,0.7932657670920877,-0.12759386606653533,0.2799912500839295,0.0
233.0,10.367729425430298,-0.20825780304972707,-0.6474243260869681,1.0019350130815667,0.0034268077787040223,0.005975787081820525,-0.9041476645869373,-0.43797635933417645,0.15390600490959183,0.2522173003995738,1.3442207110646045,-0.5296084210876582,0.13982925456558393,-0.3487418729954215,0.22127499828878566,0.21725456493063355,0.7938873042920895,0.13730070142760242,-0.00970406497363523,0.024018279795385383,0.18242859605208028,-0.023023143008375005,-0.08199457948018359,0.17970995796281922,-0.5630932450579282,0.8261218457248605,-0.13350164545311313,0.42421844468885517,0.0,-0.1338265526673158,-0.093295007059931,-0.6351205519456709,0.7928087726740517,-0.12222343024711382,0.2706482210845723,0.0
235.0,10.43088412284851,-0.20495084302528263,-0.6555839373092549,1.000647937303605,0.005430580640746702,0.003615872426337907,-0.8827833843750759,-0.5040864547899953,0.15465539872920503,0.2328423727333671,1.3548884251116,-0.5468732673129364,0.10831079535138557,-0.3269860219252593,0.22742854605121715,0.23761848017958234,0.7905038324689473,0.125947875705446,0.004947829553574831,0.028482426905175242,0.178037159723399,-0.02208906353764343,-0.09846141143750434,0.1692213899306571,-0.549597022356951,0.842176895030834,-0.12994210147400267,0.4329882138527609,0.0,-0.15175874500562808,-0.10385968211382347,-0.6316028618729373,0.7904309343341854,-0.11697582653851005,0.26177845141172207,0.0
237.0,10.50666856765747,-0.20122359760885672,-0.6640718573174194,0.9998831969611124,0.005487474944806654,0.002120879810572032,-0.8610737804691593,-0.5788221501960267,0.1574791308173682,0.2206340710210055,1.3473039524991324,-0.5392303033021798,0.08644801856795273,-0.3110716335427701,0.24213599075141007,0.24409553720775407,0.8004231297629611,0.10883179832110396,0.008867063162524362,0.030205815766591697,0.175755458098585,-0.019462338043209532,-0.11430414105357065,0.15559988257349677,-0.5328932822068319,0.8642019655041646,-0.12615268376690464,0.4431146453359061,0.0,-0.168861429659298,-0.11458054555472727,-0.6270475793221842,0.785489185965116,-0.11183130129457056,0.25317002743324135,0.0
240.0,10.58596158027649,-0.1973479167820864,-0.67257007368028,0.9995220681073833,0.003393807367344748,0.003841098739445996,-0.8397785582009916,-0.6422047720407427,0.15399810272758868,0.22597013187481568,1.3029580833553756,-0.509918558057944,0.08321428089513967,-0.30293038763165764,0.26221023414209993,0.23895883390130665,0.8139545539519262,0.09335288340492645,0.006069063561113575,0.030792421562332077,0.1766605687915238,-0.0175731579173311,-0.1301115259078836,0.13904748615979798,-0.5148539619552073,0.889074129322915,-0.12256006759267682,0.45431596278159414,0.0,-0.186623261851847,-0.12746104028692692,-0.6211948715623723,0.7792439085269128,-0.10676427587618914,0.24508732220461812,0.0
243.0,10.669214487075806,-0.19268522456129034,-0.682913000414578,0.9991700590369266,-0.0002025614833151689,0.012151861008820859,-0.8149563381246396,-0.6662275059053,0.13318215642596892,0.2600527174112488,1.2019065020295785,-0.47831030232750177,0.10172361993986156,-0.2908078084508481,0.28424456415806043,0.23094575362150158,0.8160413337775704,0.07774226974363459,0.002617678141745344,0.03062590449215008,0.18231283389922703,-0.02233753659692614,-0.14596511949523833,0.11778482773820902,-0.4908549304222378,0.920923424408447,-0.11773317508046367,0.4683053570454068,0.0,-0.20735626598657336,-0.14240975053901156,-0.6123685221814026,0.7702270568974214,-0.10160213164903201,0.23728756402869147,0.0
245.0,10.767255067825317,-0.18678315633629577,-0.6942796958533041,0.9991591469758652,-0.0032260482787464873,0.022376960086033616,-0.7879174512019875,-0.6561416318499944,0.10311330070689938,0.3048726738944416,1.0810093529279912,-0.46079743117880917,0.12080583025528427,-0.2806811450886805,0.3042552090633511,0.22168305595640983,0.8113596336018178,0.06539820656528196,0.0004449341955330789,0.030467830447505534,0.18809273414241517,-0.03162610252234983,-0.15937536600345914,0.09535118834057663,-0.46289721777419335,0.9530831318630673,-0.11183019364789806,0.48175115986239314,0.0,-0.22957958162072478,-0.1580365631275042,-0.6010414485764364,0.7590621858789074,-0.09640004008759824,0.2296348934870201,0.0
247.0,10.842164754867554,-0.18061415419434915,-0.7041430103622188,0.9996012244744199,-0.004617562347663268,0.03099361172924073,-0.7636564928807827,-0.6295882853556112,0.07170835232037226,0.3413333512428617,0.976387065335322,-0.4598404055787169,0.1300477253311768,-0.2703245359002907,0.3152624596416074,0.21365556926398488,0.8011030975366319,0.056958510499668075,0.0008512793946556539,0.02985294345569814,0.191224460805541,-0.04027583203957791,-0.16848067010458562,0.07758053185798876,-0.44136422370056105,0.9760486364564922,-0.1085233499649246,0.4928559515258346,0.0,-0.24848848710770866,-0.17225382478423318,-0.5871692308682265,0.7480602990020389,-0.09116928157836293,0.22230381750536193,0.0
249.0,10.892403841018677,-0.17424107599419025,-0.7126644816162391,1.000470518895072,-0.005194226350591968,0.03639753575704345,-0.7424471049391883,-0.6033814931672445,0.04455418686341521,0.3641365348549743,0.8960131792445101,-0.46886157538062245,0.12839011830813604,-0.25882120975923445,0.3194444517552092,0.20664280823303577,0.7888351502732214,0.0506281671150938,0.002510653102397217,0.028337724101920488,0.19146401323201678,-0.045713321247774955,-0.17359280590804962,0.06502129556069675,-0.42655082207071404,0.9909422246703439,-0.10791529536188851,0.5017194198649896,0.0,-0.26384597594619497,-0.1835097178962905,-0.57092520946479,0.7366863206282361,-0.08594804968557396,0.2150940642940071,0.0
250.0,10.964336156845093,-0.1678405073376671,-0.7201550421052583,1.0014461097527492,-0.006371480597262185,0.038520376641533904,-0.7238918025531518,-0.5908991900715269,0.026128145487585026,0.37529901830742785,0.8366960017341832,-0.4740188959120984,0.12065182281857678,-0.24470709844103192,0.32101825128395467,0.20159755605207827,0.7765527044982755,0.04355480409746893,0.004325063761914346,0.02544660934755553,0.18967734871880873,-0.047139005905294275,-0.17569899045662196,0.05791575896310641,-0.41690612025142404,0.9999382576507794,-0.10936811961821338,0.5089150397093629,0.0,-0.276060051500062,-0.19128755110654685,-0.55375382072411,0.7251547999917137,-0.0808787039825482,0.20809770573835223,0.0
252.0,11.017258644104004,-0.16257572273456128,-0.7255602482376609,1.002198448217203,-0.008279468699558305,0.039551241895304054,-0.7093711195210041,-0.5866052636866541,0.014977746815026149,0.3805728017107531,0.7950334624473456,-0.47449274923504714,0.11406642989869942,-0.2310686167329212,0.32171373913587525,0.19852636311475158,0.7652035121486838,0.036894648753440486,0.0063044872275306064,0.021681743609878873,0.1878982639488036,-0.045551214763717165,-0.17489760242106017,0.05745625202300704,-0.4176321763848662,0.9994397859101045,-0.11459287736121716,0.5146316436447684,0.0,-0.2836718981092189,-0.19740103602882728,-0.5373416929257036,0.7161887315936682,-0.07609505644050409,0.2019252954814016,0.0
253.0,11.067291498184204,-0.1570498284670137,-0.7312166247959632,1.002705032862385,-0.011963556356995194,0.04021619454926595,-0.6938847833611652,-0.5879036742826399,0.009267910624503984,0.3863658143371672,0.757727177945068,-0.47471724503738244,0.10978235429489855,-0.21511436758616542,0.32411420548692105,0.1952810635436018,0.7531562883676379,0.028513586039402943,0.008189554258560156,0.018999949337245643,0.1879840921887446,-0.04408592718306025,-0.1714363826708972,0.06045781651514888,-0.419294629893021,0.9959559779065299,-0.11973918088950483,0.5189368688603724,0.0,-0.2894480175277129,-0.19880899104308009,-0.5234167685933577,0.7063314669352432,-0.07173784241054769,0.19596183827580682,0.0
255.0,11.109160900115967,-0.15242513379902162,-0.7356916660859154,1.003084415748349,-0.016085261902283047,0.041099422072416195,-0.6805405046534918,-0.589765448713732,0.006701966241013588,0.39101849971558034,0.7287297961219288,-0.47702883462618034,0.10863504149747777,-0.20110843651518764,0.32683327193113637,0.19208727141415288,0.7420579022973466,0.021562007255704292,0.009859224763500036,0.01676885314030549,0.18894313277925018,-0.04231585498043955,-0.16602258472475695,0.0672336761912,-0.4271971625921313,0.9864853737589947,-0.12640638045054922,0.5215436945256106,0.0,-0.2924547855693591,-0.1986452012041989,-0.5118404278731046,0.69815704631026,-0.06777059238082325,0.1906996648654312,0.0
257.0,11.187397480010986,-0.14736091100938498,-0.7408797274385281,1.0033663719674843,-0.021206680611295027,0.04211489574493101,-0.6655886301330114,-0.5911899465154207,0.006166349278506592,0.396146897176632,0.701132870936183,-0.4913110483209713,0.11125251818829451,-0.18569926234792256,0.3311904328855432,0.18838642423808494,0.7299602592854534,0.01368153752104119,0.011229607587148322,0.015277033406961349,0.1912990959001148,-0.041056539369826145,-0.1596581502835426,0.07432440269863419,-0.4336085414425598,0.9778779520879766,-0.13188486871506533,0.5234335763687967,0.0,-0.2941473285907098,-0.19454934968512896,-0.5021553279488464,0.688075376190525,-0.06414235503093596,0.1853768538846431,0.0
259.0,11.248480319976807,-0.14169664164931062,-0.7468341562547121,1.0032066505764212,-0.02699735330258164,0.043277036872187744,-0.6497112384135151,-0.5914497624934484,0.006654892670784374,0.40190854782993035,0.6743990790230978,-0.518440638919883,0.11751670198989414,-0.16908986684054167,0.33722167213366533,0.1850705190944043,0.7173390573659519,0.005505120818198626,0.012541060967984142,0.014171976918038528,0.19590716101238004,-0.03954432534224548,-0.15319565929752188,0.08051468593902525,-0.4375087343210621,0.9708000273334413,-0.13585841525138476,0.525039903058565,0.0,-0.29485588429709286,-0.18684231566501697,-0.493467749281165,0.6752816583067083,-0.06076308659320011,0.17979163175930313,0.0
260.0,11.299184322357178,-0.13550313666709474,-0.7531000645602518,1.0023497751086738,-0.03341584427010159,0.044440528983895944,-0.6345912798243948,-0.589896782513982,0.008535314305433922,0.4088145984913082,0.6507789053544888,-0.5541493297453554,0.12631068945053525,-0.1525861799101906,0.34294215977125964,0.17981514519234726,0.7055350748404838,0.001167389030773183,0.013963582307464051,0.014245427286194694,0.2028897301127053,-0.03744864511169002,-0.14613529452684496,0.08664151218025021,-0.4378183294295048,0.9635749810254441,-0.13796298734435786,0.5257514165691122,0.0,-0.2942559263777389,-0.1749607363159743,-0.48565232561637284,0.6608584276870616,-0.057609382970928415,0.17416827737652996,0.0
