ccrpRepo/mocap_retarget/src/mocap/src/data/output.csv
frame,timestamp,posX,posY,posZ,roll,pitch,yaw,left_hip_pitch_joint,left_hip_roll_joint,left_hip_yaw_joint,left_knee_joint,left_ankle_pitch_joint,left_ankle_roll_joint,right_hip_pitch_joint,right_hip_roll_joint,right_hip_yaw_joint,right_knee_joint,right_ankle_pitch_joint,right_ankle_roll_joint,waist_yaw_joint,waist_roll_joint,waist_pitch_joint,left_shoulder_pitch_joint,left_shoulder_roll_joint,left_shoulder_yaw_joint,left_elbow_joint,left_wrist_roll_joint,left_wrist_pitch_joint,left_wrist_yaw_joint,right_shoulder_pitch_joint,right_shoulder_roll_joint,right_shoulder_yaw_joint,right_elbow_joint,right_wrist_roll_joint,right_wrist_pitch_joint,right_wrist_yaw_joint
8.0,1.0259034633636475,-0.15966053119064127,0.5089061401912818,1.0077981376811604,0.014993242228504509,-0.09540273180558267,-1.4478697279616406,-0.30550516774823777,-0.2833169887077838,-0.041707496508418596,0.6620388321548395,-0.3641677792103527,0.09608846484207371,-0.24862768885766903,0.1855982216374999,0.12116297903688665,0.7526870145687239,0.02747201500356151,-0.0021131533867772495,-0.13338012002855013,0.01694973199174063,-0.0066910777454665974,0.06122600431336415,0.12997247510872628,0.1360356500066406,0.6056212976802933,0.10649798468872727,0.6625168895810649,0.2668131320261352,0.15927994861499437,-0.3036847876088015,0.05352979163316434,0.49903984116760086,-0.4022811404541374,-0.1289576861928486,-0.364197528377006
10.0,1.21163010597229,-0.15447620934598416,0.5009274163279449,1.0033485774939324,0.003218925834129011,-0.07236837256145656,-1.5581264836218631,-0.34135465982091356,-0.21267366175834063,0.05807418408287308,0.7705090623118259,-0.4517556742346355,0.13494641530314525,-0.2708379421027597,0.25892312612755175,0.19797151772932955,0.8217334657759346,0.05003558815197575,0.0007156367481731894,-0.047115100705027266,-0.004003281405857563,-0.07526030587333032,0.028082223167858085,0.08168098169803706,0.11963095554180513,0.7328656036096209,0.11444689453330084,0.7480457300889078,0.29797126843643557,0.1127118072395901,-0.2753355752030131,0.07780634204116184,0.6745728873057952,-0.4220554750555396,-0.1823174590462089,-0.43600686635005204
12.0,1.2695326805114746,-0.15279572478940204,0.4979700822970349,1.0024003168540845,0.00012254044423292825,-0.05745609647211676,-1.5897171797708707,-0.3501288019180339,-0.18280013145286658,0.08163745241144817,0.8066126922993222,-0.4797309238436163,0.1376394281630502,-0.26625924025786873,0.2923859299646166,0.22755882050277856,0.8253262386759573,0.05594883369585022,0.004122694972194416,-0.014324275967376045,-0.009486049292227985,-0.09605848227578818,0.00996448727076475,0.06688398163383964,0.10984977931789901,0.7793533728017825,0.11803098587070658,0.7629447891751552,0.3101294454524523,0.09016827438968338,-0.2650136098218933,0.08123409750333578,0.7595889502523606,-0.4112592053211909,-0.21638275774502444,-0.45901375215672474
15.0,1.3467466831207275,-0.15317570506338862,0.4981604207931717,1.0029143663316074,0.0007295811689647363,-0.06043424441500134,-1.5741204452462694,-0.34275545712283273,-0.193374617996524,0.067139732862071,0.7904192489331535,-0.4671596772482908,0.1330068609002301,-0.2610748206324188,0.28183931100798204,0.21681160257354115,0.8156087800217018,0.052874430857894915,0.0037763928364016124,-0.028734515430059726,-0.008295948369953116,-0.08535604032577902,0.015561621032685035,0.07004126224928514,0.11159525901702941,0.7636478409744043,0.11588791005791477,0.7508973559784289,0.3065061399758312,0.09813513296162879,-0.26765785549208826,0.07877194101464799,0.7336880000146908,-0.4083461758931667,-0.21091419581088133,-0.4514734764617472
16.0,1.429119348526001,-0.15093347422660658,0.4932077333002767,1.001647804108623,-0.004861418895523099,-0.05056817171225425,-1.595392705278266,-0.34254914855470886,-0.17640355702241461,0.08241103080856396,0.8138027499720955,-0.485159478215187,0.13715888265527326,-0.253835251663757,0.3029327706780416,0.23589986304129934,0.8227716168151707,0.055411996315080064,0.005994309971556817,-0.013833566515191475,-0.018194054093777567,-0.09627945133379935,0.00919473708526979,0.04933336325452314,0.10358505413990793,0.7960460206017381,0.11643591197802908,0.7638599953574039,0.31484132192250325,0.093280959815037,-0.25354167214366136,0.08216651443347034,0.7752155716867342,-0.40385607387207695,-0.2279529432017066,-0.4720942043644032
18.0,1.470391035079956,-0.14945449042889913,0.48965463471674775,1.0009623054550127,-0.009354997229281941,-0.04376439880046953,-1.6040828353194425,-0.33833897888131137,-0.16764445341670436,0.0868263393567025,0.8243514585984378,-0.49318481583942975,0.1371634474170107,-0.2448406605617807,0.31464626624191594,0.24531221174166146,0.8226985709924537,0.056276683757981144,0.007964749089275703,-0.00837140199526196,-0.02474418379182777,-0.09871522859893508,0.0055599051716989,0.036040187386830125,0.09875194021674277,0.8136534814480413,0.115716041205363,0.7668151482748062,0.3202591025222443,0.09301732805402826,-0.24351558606977136,0.0832922728403801,0.7971062579856814,-0.3976879061474693,-0.23800329898026315,-0.4840802308361916
20.0,1.539848804473877,-0.1479625985584221,0.48609111522612014,1.000236148001057,-0.014010049086119865,-0.037951358642252714,-1.610257831820322,-0.332602796072551,-0.1618812803228647,0.08869254456254752,0.832065505183831,-0.4997650955946025,0.13726306046197545,-0.23636360037696652,0.3223608032310253,0.2501249576997506,0.823177396689621,0.05785786486674857,0.009725457575552269,-0.0060310177958382075,-0.031373487150644024,-0.09918946496915425,0.001884693901234418,0.023698468660329562,0.09592002121698584,0.8268052701905242,0.11368287751923117,0.7672895248592864,0.32514951133068437,0.09474902155851597,-0.23316889223104822,0.08477302355552313,0.810888932332384,-0.39235229545702127,-0.24364798360747342,-0.49321329789030266
22.0,1.6028401851654053,-0.14638224579781806,0.48253365764306033,0.9993868401799226,-0.01800777908963796,-0.03253314323900878,-1.6166927960798412,-0.3271156276396206,-0.1576661030985774,0.08953586172346045,0.8393430540617753,-0.5075999227410619,0.13800328154952848,-0.2302973751504525,0.3273322374925792,0.2511253100704958,0.8254833113095665,0.06146380425849743,0.01140038606994306,-0.003879411474213339,-0.037844373745875876,-0.10031571883160138,-0.003461435552304005,0.011707597978936382,0.0947241265689669,0.8379601541697768,0.1103100821447405,0.7660342121645596,0.3294423813298466,0.09583363235952091,-0.22345441044264058,0.08734594816208427,0.8218221775078709,-0.387820090500368,-0.248407835831005,-0.49878365445852735
23.0,1.662187099456787,-0.14471274363681072,0.4790276266980993,0.9984433956755165,-0.02115757230353793,-0.027159471824110187,-1.6241674802455166,-0.32225153072638657,-0.15399651936594191,0.09010369223725491,0.8465989508496163,-0.5168612003891611,0.13928398099103442,-0.2270511584739612,0.32983277016662005,0.24813427561208543,0.8296108220043811,0.06834900332260246,0.013266537108809278,-0.0011389745946724817,-0.044098050335647704,-0.1020404641855172,-0.010704315592008153,-0.0006027902329652007,0.09455954228630059,0.848366539800566,0.10613572955840665,0.7636237750843837,0.33437413303986363,0.09520120358842177,-0.21497770255238868,0.091247211411406,0.8328122400529718,-0.38382553744453407,-0.2526210915713755,-0.5004606579648688
25.0,1.7147283554077148,-0.14328832568003277,0.4761179865405243,0.9976187759051242,-0.023565445526981622,-0.022757543443371275,-1.6305345702051868,-0.3182559306135101,-0.1511334041875509,0.09056506123630069,0.8524916985301023,-0.5248050332491675,0.14043320815422264,-0.2256252306360883,0.3303926924172885,0.24318049125057753,0.8341152862962335,0.07575798639742032,0.014889982997054812,0.0008519691058745915,-0.04928604247803372,-0.10332743434250688,-0.01775425832016595,-0.011227827900705341,0.09470173538563902,0.8570657827335613,0.10229038999269058,0.76064336968537,0.339366203697416,0.09399039731245609,-0.2086799575962301,0.09533005577382708,0.8412012876392252,-0.3809024898397324,-0.25503776194502387,-0.5001527998442197
27.0,1.7698659896850586,-0.1417821997459043,0.4731821901151058,0.9967069296349536,-0.02563010583711133,-0.018578862337558788,-1.6374324237476654,-0.3144852496376286,-0.14809108442389732,0.09197316765242022,0.8583008120249456,-0.5326710908337832,0.14134702064968083,-0.22712860741571939,0.32838367571083615,0.23405512426771594,0.8417980559264966,0.08605899853711746,0.016881077220874452,0.0023522350652597306,-0.05452388362275634,-0.10418362318273694,-0.026625646185924952,-0.02257825724992564,0.09495752868487822,0.864793893655524,0.09880715803538179,0.7570280809605434,0.3462795104909852,0.09182943807911684,-0.2032977222594112,0.10090816112757611,0.8479490162573275,-0.38003376952781803,-0.25619972570208666,-0.49881721121541145
28.0,1.825629472732544,-0.14021887012869255,0.4703120741671484,0.9956939599073201,-0.02763026526155041,-0.014599191155198747,-1.6446551977980322,-0.310922598811855,-0.1451985507772657,0.0938021577010548,0.8640572516006205,-0.5406233825064066,0.1418665365561576,-0.2317958373130543,0.32414735003905026,0.22122822336281178,0.8534237828930178,0.09830448894835397,0.019100598437439165,0.003491391725635023,-0.05937058616136558,-0.10370714730161615,-0.03744172184729841,-0.0339350447446492,0.09488731961542224,0.8717919380953412,0.09612130412811576,0.7530811287813075,0.3547761989088509,0.08893525244090256,-0.19828233679723634,0.10799928479073387,0.8531834133008391,-0.38116198002304524,-0.2572696419692808,-0.4975229646950978
29.0,1.8749375343322754,-0.13893231473524317,0.46809263190473516,0.9947627036156219,-0.02944647507444005,-0.011456915421153256,-1.6505890840303707,-0.30815915794839693,-0.14301386998691829,0.09538184933750898,0.8690170690875085,-0.5473784749886383,0.1421005573007237,-0.23722440669915318,0.3196137075393911,0.20888590242373914,0.8653769066722301,0.1087640442222514,0.02080754179897218,0.004327601105313422,-0.0631206477484179,-0.10241737202397364,-0.047826995893198214,-0.04288632182915092,0.09439251853696884,0.8781103624093627,0.09425191467067603,0.7491525841979574,0.3624588093132553,0.0857876556703645,-0.1944044920578364,0.1147393997222159,0.8573084247137306,-0.38255250355246917,-0.2581443466583622,-0.4960597789421684
31.0,1.905801773071289,-0.13783232494122072,0.46631164379785783,0.9938376947877443,-0.03120406961731689,-0.0089909939504485,-1.6555591138395704,-0.30586644971408344,-0.14158384741222824,0.09661594905879896,0.8733575430990235,-0.5532173444234189,0.1421607824883799,-0.24301457021652445,0.31490848682343175,0.19712519535106626,0.8777322281406925,0.11742167808806098,0.022057618339854895,0.004901592751565952,-0.06633142429184682,-0.10054788450809324,-0.0579035708609848,-0.050132697663852144,0.09324805739333789,0.8839230744408832,0.09307369388240003,0.7452755552455648,0.36901618659407975,0.08247982262661979,-0.1911870782371889,0.12105815097393308,0.8606481102196182,-0.3837973052729739,-0.25861560298768793,-0.49396969090318316
33.0,1.9583346843719482,-0.13664157443037342,0.4643984735110507,0.99274665515113,-0.03334782277748686,-0.006647024026534526,-1.6607089002122448,-0.30303087493650405,-0.1406033509602106,0.09786855121676613,0.8776816161601823,-0.5591123473219365,0.14195718464435794,-0.2514850616072277,0.30810683751867096,0.1821008335049658,0.8951347205888409,0.1258159636288897,0.02283391683325373,0.004729182591121943,-0.07016182639185842,-0.09745003330523365,-0.07128204691849072,-0.057756570341567004,0.090022492667782,0.8897760965535164,0.09338981355706852,0.7415004189440909,0.3754184770138005,0.07771943845995238,-0.18775823109580847,0.1279077820431581,0.8634974905726752,-0.38544202870837185,-0.2584174699980668,-0.49076826275897534
35.0,2.0245184898376465,-0.13538678399788687,0.4622376200611321,0.9918339687274652,-0.03560202552733781,-0.004021000312933145,-1.6656061579425199,-0.29947714703476314,-0.13943185686580511,0.09903091225377504,0.8817143487318856,-0.5650006449804208,0.1416984411865021,-0.26376136203350353,0.2988625568585267,0.16298192174594814,0.9179907573570065,0.13320574558844447,0.022409438862140647,0.002889765981028327,-0.07401688241770861,-0.09358473324845382,-0.08862940120096874,-0.06603489997765118,0.08458532126597094,0.8958666716776287,0.09546236966559679,0.737744432758909,0.38227512076317083,0.07105905574392454,-0.18441662470542647,0.13424927285159188,0.8656392904328092,-0.38737649532783036,-0.2582010672435298,-0.48896104808381624
37.0,2.1065115928649902,-0.13403259989563485,0.4597869389569083,0.9910465794054156,-0.03792427006473413,-0.0009842916889166078,-1.6701309386298888,-0.2953370680721186,-0.13794375252482827,0.10006534488924859,0.8855483445193927,-0.5709474794758319,0.1416291435402014,-0.2798358840135094,0.28803792166615794,0.14092922404892927,0.9462206753842911,0.13836047422113096,0.021077930791642666,-0.0005175242070364146,-0.07732563772513854,-0.08883726432126869,-0.10897820069707383,-0.07472518125831702,0.07613248261334489,0.9019268512648806,0.09975018185245768,0.7328980649885326,0.3887286411955154,0.06304678572296332,-0.18112439996238971,0.14002357390580447,0.8671145905954717,-0.38960037766840583,-0.25878984833162993,-0.4891409412739298
38.0,2.1541619300842285,-0.13258595102398613,0.45719210480146055,0.9902649642177135,-0.040061470910957256,0.0020309781564758628,-1.6739733988809924,-0.2911751898730036,-0.1365728763425068,0.10105257199202282,0.8890087848173617,-0.5765839704621538,0.14173642435272982,-0.29863129651660525,0.2768210126748471,0.11855641243179493,0.977824689946237,0.13921480998422567,0.01934891243965166,-0.005148217356185439,-0.0795991946787547,-0.08361240756860815,-0.13107267616979698,-0.08269769136868978,0.0642529729452125,0.9080749192491021,0.10616615493873077,0.7276583453498695,0.3922915596337623,0.054672235149300634,-0.17778149593250908,0.14518236663054906,0.868261881160252,-0.3918205364737493,-0.25974119730632117,-0.49077115380893377
41.0,2.212655544281006,-0.13139256728006807,0.4551452154753252,0.9896684352862899,-0.041551085693218,0.0040688790070953695,-1.6763471332847448,-0.28813287519622854,-0.13594134503814123,0.101769842197596,0.8915240410115821,-0.5808941564493086,0.14189276973795145,-0.315470627761134,0.26711864916547384,0.1005324772213371,1.0049234235609932,0.13610727415236207,0.017331147168156383,-0.009583665691977775,-0.08091515630922973,-0.07959463204902589,-0.1502640531048453,-0.08829141798264253,0.052870061465106144,0.9142501482793048,0.11223578604203202,0.7232089717151469,0.393224713550995,0.04758446085828505,-0.17527014372334618,0.14894602983798308,0.8693935454057811,-0.39318067595444717,-0.26020031694388873,-0.49272958697778513
42.0,2.28714656829834,-0.1297948020400376,0.4521795624807614,0.9894958494197628,-0.042484537632135465,0.006737120822125116,-1.6790811085454889,-0.28345676913462203,-0.13489845626276098,0.10269090615302334,0.892016547341905,-0.585016842068295,0.14210061227623372,-0.3388459699238362,0.2565397222212002,0.08183863246967923,1.0376369547622863,0.12115384142289151,0.014961590967127274,-0.01614484874127603,-0.07973946002210036,-0.07538876110217868,-0.1745130830049197,-0.09335695138824512,0.032944102077666425,0.9200916894455984,0.12387130198036864,0.7178506888183872,0.38908122747263707,0.03909045786934174,-0.1715454628450502,0.15309081038788025,0.8709641363949532,-0.3948822718274301,-0.2588906599800789,-0.49464651794805914
43.0,2.3472652435302734,-0.12845709205595762,0.44975585850800753,0.9895670672359167,-0.043211626928236865,0.008724815121068805,-1.6808006292890196,-0.2793346707420579,-0.1342770114519663,0.10344837642682725,0.8915086039658506,-0.5878496874508072,0.14255648247738237,-0.3587464958130424,0.24820039932751164,0.06820220922650792,1.0643406643446407,0.10311638785862443,0.012765308455158391,-0.021255536962588827,-0.07759851811853011,-0.07186098662413737,-0.1946417054130684,-0.09589472012056038,0.014218418702933399,0.925593237507172,0.1350083151842864,0.7131838573243277,0.3832687404437132,0.0327072184084347,-0.16788889327688472,0.15645532855954325,0.8724475331724431,-0.3958486161330905,-0.25679323775218404,-0.49643890330003704
44.0,2.959861993789673,-0.1255992721667775,0.44448871783806926,0.9901348262081356,-0.04596594164544597,0.009411086634278866,-1.6813870031047726,-0.26826804375630975,-0.13842773497206717,0.10389686766022212,0.8859556116594742,-0.5931636415409476,0.14561697249176844,-0.40488093718688845,0.22561867604280983,0.043686987363765195,1.1261164828341823,0.03705396902788047,0.003814529439888056,-0.029144278550814244,-0.07138304624757606,-0.06555347885598053,-0.2470203602028574,-0.09467878088413363,-0.03788293655864618,0.9525726423650603,0.16368813143974859,0.6973698567842535,0.35938127068313225,0.021444871319147872,-0.1592662809961789,0.1660672308173914,0.8736627932250078,-0.39168773692847725,-0.2464754162848111,-0.5032726477310772
46.0,3.0318503379821777,-0.12559542647027255,0.44449486191213194,0.9901364884091053,-0.04600314128359287,0.009280282820353626,-1.681349454409562,-0.26820853254665555,-0.1385891330045444,0.10391198806910562,0.8858166790552366,-0.59306347402449,0.1456356756929479,-0.40490997043130894,0.2254602907635117,0.04370632008373648,1.1262549035582388,0.036933542208034804,0.0038045106849459174,-0.02911336361338904,-0.0714604506786187,-0.06560289933273539,-0.24744094588961135,-0.09458246246686,-0.03800659428613476,0.953518832756868,0.16335486740464827,0.6968856008144879,0.3594279241069409,0.02149085147498582,-0.15942700988433073,0.16652306524511717,0.8735073138706346,-0.3912776390712736,-0.24620831877582539,-0.5034384441040369
48.0,3.1140785217285156,-0.1251145045400626,0.44293256134508285,0.9904031740503854,-0.04600290082838961,0.010933672888319637,-1.6820548525599046,-0.2655225774725323,-0.13845688522252658,0.10257398298091974,0.884604318822869,-0.5954201885156089,0.14591130185241716,-0.4121516763600829,0.22240067672265212,0.04017760964069334,1.1313359855610394,0.026107441064312724,0.0012900271246061312,-0.03161378347532719,-0.06880749304453443,-0.06539041013039844,-0.25668616365965247,-0.0958078827729778,-0.04824273894773181,0.9545444561510141,0.16960802017274285,0.695304733282865,0.35485028610063174,0.01875768032730471,-0.1591851592746314,0.16727376958761653,0.8737573466329746,-0.39111159669686824,-0.24666133026368425,-0.5033765499713381
50.0,3.1804473400115967,-0.12427665093409834,0.44020694731486376,0.9907526240600466,-0.04613505888875331,0.013382050673571825,-1.6826132065058206,-0.26095664380454026,-0.13875616989534134,0.10005653533891704,0.8827639027177085,-0.5993040583507359,0.14601257445655821,-0.42484270751874187,0.21568535701186362,0.03320070988303743,1.1382891661849284,0.006895548338202237,-0.0037435872893728317,-0.0364395079427631,-0.06509585166564472,-0.06450493178087184,-0.27249487776708936,-0.09753748117352083,-0.06663419950404706,0.955639083675093,0.18113687488847166,0.6915182425207762,0.3455508926112044,0.01436877931604022,-0.15924255676024046,0.16830614469989963,0.874132842965246,-0.39148231031956143,-0.24791153324184914,-0.5034431020507607
52.0,3.2324676513671875,-0.1231592674554583,0.436675151943787,0.9911296720698839,-0.04645219757222971,0.01593909898523667,-1.6826338513441177,-0.25510454868362087,-0.13967389542441627,0.09709524260388849,0.8803790460499056,-0.6036080122206369,0.1462754865823328,-0.44099031999241933,0.20598196313669004,0.02463529514386624,1.1442010581807807,-0.016607436383312933,-0.01070997318718472,-0.04255557985093747,-0.06033014707215238,-0.06282500390678189,-0.2918297333869436,-0.09824799152522191,-0.09125413215946619,0.955530298217494,0.1969976405816689,0.6827951365929708,0.3323548219373167,0.0090839677865795,-0.15884310445257255,0.1694336691455155,0.8747674798765965,-0.3919704416633626,-0.248473227805799,-0.5034881566601843
54.0,3.2975661754608154,-0.12191927592006238,0.4326603028497056,0.9915518274009092,-0.046904071096189534,0.018090642544892593,-1.68186347804993,-0.2485103829289708,-0.14103400479777736,0.09434712118328045,0.8774070489762806,-0.6073514134515863,0.14657333445875553,-0.45842145400755574,0.195554635301661,0.017549155784293745,1.146623115074087,-0.03911908317726194,-0.018258497431987444,-0.049044766001209925,-0.054606238029429724,-0.06106802712029959,-0.31185765951086997,-0.09795205222732882,-0.1178479952070488,0.9532563729325503,0.21430777156185454,0.6683219501665374,0.31732786108706945,0.004107489866289126,-0.15770540356876817,0.17032407414454548,0.8756696909285691,-0.3921561820400987,-0.2478459521017333,-0.503704119533759
56.0,3.369194984436035,-0.12073861266759929,0.4284561419527043,0.9920277816667362,-0.04715356286782745,0.019529012851725862,-1.6800110773073333,-0.24186140730227437,-0.14283564959049563,0.09171534321395078,0.873709055324345,-0.610044872910933,0.14675375849870062,-0.47540557391189986,0.18646249761736738,0.01410031189737946,1.1436181886086363,-0.055440095952747126,-0.025145829172428677,-0.05526936361706693,-0.04858548551893842,-0.059867361076737215,-0.33046283006687116,-0.0972203194869036,-0.14160329312656827,0.9490104947521611,0.22967757342801826,0.6506609344432257,0.3025553103816347,0.0007970740801296849,-0.15631092274747777,0.17073986152979992,0.8762235970927544,-0.39230966745032114,-0.24716384705051142,-0.5056798070442743
58.0,3.4381632804870605,-0.11962298920586464,0.4240507550000925,0.9926439622537927,-0.04685288149739682,0.020475967566467412,-1.6773068818885049,-0.23513470060305308,-0.1451776905152766,0.08859885683913557,0.868739442122404,-0.6123179379021273,0.1467159135398755,-0.49206402983280606,0.17887583599324577,0.014230078708879934,1.1347506692918967,-0.06416307369471363,-0.03156902724281157,-0.06130061106267515,-0.042311462851811726,-0.05912051353100721,-0.34780514527181483,-0.09645504099010367,-0.16150560600845265,0.9439826746386412,0.24240868196920484,0.6341525081132713,0.2883655717882036,-0.0003338903670853443,-0.15484450445897346,0.17081385663437193,0.8762073142303999,-0.39248024713193386,-0.24683721603739253,-0.5091760667007962
60.0,3.5083703994750977,-0.11854656260776768,0.4194974608219018,0.9933718945521672,-0.04608891670232805,0.02103093722548225,-1.674144638621442,-0.22828406061264733,-0.14795665740083563,0.08515431615595612,0.8624713605515363,-0.6143777321072229,0.14616557390893908,-0.5079197659065466,0.17355871799265873,0.018561195079408448,1.120038013447664,-0.06731910267199082,-0.03725329937060198,-0.06711203354733498,-0.0360477737736368,-0.05839986091162298,-0.3639657771336199,-0.09592416191293057,-0.17729574587641506,0.9389106681036397,0.2523186224925159,0.6212597861724108,0.2749323256856477,0.0005886687797427578,-0.15340310296847065,0.17067872372141651,0.8759545501637597,-0.3923464621505497,-0.2462587321934619,-0.512540088332849
61.0,3.5614306926727295,-0.11748848064053327,0.4147710219565823,0.9940841076507327,-0.04504119982564005,0.02142694718490147,-1.6710007235354913,-0.22132354926264083,-0.15095107567644017,0.08157641236228277,0.8554424869926103,-0.6159869778321864,0.1450799262661438,-0.5225813014950453,0.1714983750486383,0.027646750164899495,1.1000833395918255,-0.06728841255053278,-0.04170047145353241,-0.0720808035141583,-0.02975060062607633,-0.05752994849844349,-0.37901611930772117,-0.09542548719168487,-0.1896657485851318,0.9340231634389475,0.260010686940927,0.612423099490188,0.2623362441064776,0.003032536670423906,-0.15171645078071105,0.17011927351952877,0.8755648088117634,-0.3915165360016379,-0.24562630980364303,-0.5155153358746314
63.0,3.616135358810425,-0.11665873737685964,0.4108968261815813,0.9946573246288419,-0.04396761822486686,0.021686233316522426,-1.668568517288934,-0.2156238562378517,-0.15351912708256063,0.0784737607159863,0.8491418354920494,-0.6168425756300582,0.1439936637597338,-0.5335248891071042,0.17141241307802882,0.03720290930853769,1.0810976059309059,-0.06560887650245581,-0.04476965044785053,-0.07533310462183149,-0.02460535126382355,-0.05669001053130686,-0.39052654353640837,-0.09495347658936548,-0.198310534525186,0.9305436576738375,0.26550133460017994,0.607365943454006,0.25220594762238696,0.00588960367910678,-0.1502247113088418,0.169433929213797,0.8750664173735845,-0.390400891809785,-0.24522504255971395,-0.5177743795353071
65.0,3.6703169345855713,-0.11582738199764142,0.40660089627238205,0.9951784327897437,-0.04282391097366038,0.021999420944014796,-1.6663276895460313,-0.20948507887688664,-0.15624557758518723,0.07507812546580409,0.842750128996177,-0.6175857257539434,0.14277116689900574,-0.5437908921203729,0.1726493492425566,0.04926318803573612,1.057712487575386,-0.06384646766437246,-0.04779077786848092,-0.07795120030099545,-0.019108554196946917,-0.05564392144546554,-0.40186937695211056,-0.09432366833070521,-0.20588869329804374,0.9272729487102755,0.27032779442985855,0.60539900783642,0.24187319146881622,0.009767654078943366,-0.14861258627700846,0.1686757756241642,0.8745400251932745,-0.38876634074246497,-0.2455996857200663,-0.5191345794682205
67.0,3.7293128967285156,-0.11507296618522239,0.40187705622605396,0.9956516004527012,-0.04164891476481637,0.022349226127651813,-1.6640962464089104,-0.2029340155785614,-0.15857062257104365,0.07198916333494278,0.8364776085752424,-0.6180287550284149,0.14166975448498004,-0.5531553895094766,0.1750444812602049,0.0633067006133472,1.0304430495669976,-0.06552644553784084,-0.05077600269992173,-0.08079410014823063,-0.013196985117555259,-0.054476200049522375,-0.41300043732819225,-0.09371071047124417,-0.2115804220719209,0.923886855136608,0.2738194224042071,0.6053700541994045,0.23184427028475213,0.0140805217621748,-0.14726964838641168,0.1679649065805593,0.8738979380291244,-0.3871851900967208,-0.24678950017524345,-0.5203230891969788
69.0,3.7580416202545166,-0.11444189111210058,0.396672924256639,0.9961257023726534,-0.04033056842191771,0.02249119524019829,-1.6619444746719374,-0.19588741511005972,-0.16029594140589665,0.06984842836543687,0.8298916633740693,-0.6178775217057977,0.1406670828004405,-0.5620167220789971,0.17839378639999934,0.0791506997508066,1.0002806620421065,-0.07086865523422112,-0.05382488475424058,-0.0840615297555793,-0.0073320695611606935,-0.05367651981553736,-0.42364349216573427,-0.0937408858966973,-0.21366543484006573,0.9194450576629785,0.27520617050847784,0.6054794328620658,0.22526063785206824,0.01754331644608998,-0.14644170107558202,0.16693950137536379,0.8735122759004494,-0.3858096978753758,-0.24708746145022042,-0.5217584256504294
73.0,3.8005247116088867,-0.11390380682518494,0.3909983287344887,0.9967213813864181,-0.03885081733086881,0.0221796627924649,-1.66021783027667,-0.188004043847943,-0.1621715975271248,0.06818012304767551,0.8221768533853787,-0.6175790527831322,0.13953094860770332,-0.5710326222199746,0.181546892224568,0.09595655642341372,0.9683336007404701,-0.07830511536101067,-0.057610540114802246,-0.08674567283887907,-0.002053982219227705,-0.052973639383238874,-0.4332834458661263,-0.09426827767423938,-0.212677171174661,0.9138815592441879,0.2752672394002375,0.6054186025034554,0.22330226443923756,0.020281195719274503,-0.14589360298564572,0.16566379088056699,0.8734544379232505,-0.38451444888062003,-0.24639767467624665,-0.523208553863886
77.0,3.8638381958007812,-0.1133880187652101,0.38264219325418236,0.9975104187451027,-0.03705470205660801,0.02151893287395138,-1.6581916154300653,-0.17621843061165554,-0.1644139976681553,0.06650431177364757,0.8115085405009329,-0.6189378487269724,0.13880111967177988,-0.5833031036414325,0.18585928452655764,0.11895086507330653,0.9267735835222428,-0.09226037301905018,-0.06344633246131068,-0.08979034564180997,0.004100326165538997,-0.05166123552525882,-0.44217956580329565,-0.09406609591141223,-0.20790211382836554,0.9072699093949044,0.27369437921167483,0.6065192007866923,0.2253574620887271,0.024829695042862327,-0.14510162133605975,0.16404423479039903,0.8737399501201891,-0.3824433432646664,-0.2461912837239622,-0.524096447800513
81.0,3.9367001056671143,-0.11302585432618062,0.37199630547646456,0.9982467766957037,-0.034044162681988066,0.020355367738927682,-1.65632033332373,-0.16244829389411514,-0.16581259764411968,0.06674706182596521,0.7987111586315938,-0.6199281650080519,0.13796429557678716,-0.5991237049404171,0.19001383796551452,0.14293436421047448,0.8823410671622471,-0.110780672206897,-0.07036245556998061,-0.09257044656236518,0.010912143034647265,-0.05066758822562149,-0.4476693389709142,-0.09244015325010238,-0.1982544959175134,0.899949078172146,0.26928282648347945,0.6058682816414409,0.23091731865611173,0.02952319124240282,-0.14327488291491244,0.16140446084081678,0.8755352768639144,-0.37858092026236956,-0.2425382876056383,-0.5228129607086407
85.0,4.006480932235718,-0.11295334295954591,0.35945597614666924,0.9986597203450214,-0.02976023907620257,0.018534276961724667,-1.6556602767322843,-0.14746744735643877,-0.1670620099537915,0.06836612489938389,0.7848466585343923,-0.6212671197732489,0.13695245186305824,-0.6180785014489876,0.19428263439904092,0.16446209615939864,0.8420289220335784,-0.12283235283837578,-0.07646000030599634,-0.09456470653772159,0.01822888295887478,-0.050581571592059636,-0.4484393836349925,-0.08954585328101097,-0.1838024302104502,0.8950165047913239,0.2613041998883847,0.607431587188175,0.23729105839131828,0.03480965439852474,-0.14129129188306006,0.15898578001989155,0.8773947395778032,-0.37459131857115097,-0.2398228512147077,-0.5210232145935779
89.0,4.071580171585083,-0.1133634063051622,0.345706061334816,0.9983752768049421,-0.02517345050418863,0.015806998768940365,-1.6564043677780247,-0.13202883551441344,-0.16955861073599937,0.06957277516571075,0.7720136599610916,-0.6226492326960885,0.13495411438956678,-0.6375308178745536,0.19666097395532092,0.17830337067436958,0.8103405825476016,-0.12552360131902904,-0.08167065869794637,-0.09494491655064861,0.024067729965104718,-0.049317035803342665,-0.4426171427007373,-0.08610260194875109,-0.16777983880807004,0.893804828798207,0.25241309989859717,0.6102998173295701,0.24585287979075932,0.04098745908757513,-0.13919516330010576,0.15522404236393553,0.8787195710000707,-0.36963303470746867,-0.23850017410496355,-0.5208916831911388
93.0,4.124281406402588,-0.11440158556320931,0.331432199797956,0.9973463583737845,-0.020228312365811817,0.01222454390000147,-1.6590077759160549,-0.11709169853933485,-0.17213779630422593,0.07223703734699213,0.7610077361445384,-0.6244717860976232,0.13360237543123615,-0.6545280509962283,0.19640697006912064,0.1820817032179327,0.7888580387656409,-0.12489566755082612,-0.0860766888078924,-0.0940785590448819,0.029057935125312136,-0.04631454161269925,-0.42937647383010097,-0.08125658404183096,-0.1512643619525308,0.8978735839049271,0.24390754600905973,0.6170693968883275,0.2568553492004946,0.04748411220819081,-0.13675050089835208,0.15023943020226566,0.8793271979460138,-0.36404050938842714,-0.2383703695207509,-0.5229623130944698
97.0,4.195846319198608,-0.11629527047625399,0.31634380204827073,0.9954997167678304,-0.015213054391492337,0.00796068064152331,-1.662188541713145,-0.1028355616603933,-0.17471000651729277,0.07535938691428537,0.7531568623886258,-0.6257349809680677,0.13262403258590927,-0.6673569735459126,0.19320637191921614,0.17623932211787763,0.7769435202089019,-0.1204754417294503,-0.08991693664247874,-0.0938469023924747,0.03195413015389679,-0.04217520203187726,-0.411086665180843,-0.07511847768451882,-0.1356121127514053,0.9096131851369924,0.23711922591402973,0.6309195032422474,0.2704893697412967,0.05330174746364243,-0.13573421663624696,0.1449554095926741,0.8786252633393412,-0.3591936565885602,-0.23938471272079545,-0.526229181993403
99.0,4.268742084503174,-0.11918434574472546,0.30020348894920135,0.9929966685104263,-0.010272572127921435,0.0033748636806019135,-1.665253684646164,-0.08924014147621456,-0.17884663548999197,0.0747955256917532,0.7497813152344066,-0.6259809044239318,0.1302434193039149,-0.6743957551128528,0.1876592932095163,0.1618762108151458,0.7722660996927609,-0.11321889072185032,-0.09371386899360387,-0.09406220915756147,0.03308230974677304,-0.03800403587319147,-0.389277838908094,-0.06861794910006047,-0.12043803153367208,0.9280570174491302,0.23129463090743047,0.6516928672298506,0.28629966343622865,0.058164647350333845,-0.13595818778198998,0.139378056921124,0.8771358139256686,-0.35489522309845806,-0.24016513255928967,-0.5298172989181393
101.0,4.313295602798462,-0.1220605724132385,0.2865525020287197,0.9907614529172626,-0.006548692501895235,-0.0006171988973463348,-1.6671164141062695,-0.07817127562207599,-0.18316101439481705,0.07199275485352734,0.7489694018409441,-0.6249209892844723,0.12757600905271096,-0.6766279982531269,0.18189548780566256,0.1462746301747107,0.7722216344541293,-0.10433517730195405,-0.0968842636955903,-0.09540677572141562,0.03220326356835673,-0.034997799209880484,-0.3702520187779932,-0.06340547750596823,-0.10854366438069435,0.9470681914799874,0.22664160175770448,0.6734539615637113,0.29903754832476354,0.06210062624581267,-0.1372309849512053,0.13499622377666548,0.8754382396768139,-0.3518126429581795,-0.2411807764272179,-0.5317821352885039
105.0,4.349780082702637,-0.12582402030306555,0.27144864963541104,0.9890557167619354,-0.005826016120314588,-0.0032700926031086087,-1.667009240289623,-0.061485565346685145,-0.18643254710387447,0.06584276198828258,0.7450871311506868,-0.6228265230138618,0.12411691078428161,-0.6709991697928661,0.17699193522704526,0.12988394624363164,0.7767898397891869,-0.09568544516839779,-0.10083804480158616,-0.0974120434674288,0.029873737190162078,-0.03699161607494296,-0.3415308623744375,-0.06035669239972183,-0.10256849345438274,0.9622859186016817,0.224364592170131,0.6933105432646081,0.3080607701615308,0.07768387591423932,-0.13880994058724688,0.13240008132437964,0.8720168611827348,-0.35037060193349845,-0.24499182129115388,-0.535117307242967
109.0,4.404001474380493,-0.129441343544399,0.2574895362231347,0.9875014995226533,-0.0025414901642202264,-0.007112000539713757,-1.6658070031795327,-0.051943776095809094,-0.18957207908202678,0.06136094434726902,0.7485972846581187,-0.6167672817155709,0.12164196036618967,-0.6684191638849937,0.16819070372580372,0.10981038678018257,0.7827319946625775,-0.06940346072536617,-0.10679347452425711,-0.1010999351149123,0.02711269694749508,-0.03434497717970408,-0.31957837668161215,-0.053963459811302315,-0.09497458476619744,0.9829764882126619,0.22048038548253418,0.7171816438834427,0.31262075000785733,0.08080104199987692,-0.13954298793856112,0.12598895308212302,0.8702562093576298,-0.3452933038405066,-0.24295539649375186,-0.5361481237802306
111.0,4.459081172943115,-0.13401500663089916,0.24077657158344828,0.9863977254976837,0.001706266618679812,-0.009088098472988894,-1.6644995782567602,-0.04196971598545396,-0.19104854745863956,0.05404616552082324,0.7556547097526373,-0.6089434929449501,0.11960888807364109,-0.6668939938269318,0.1575400994381385,0.08479661484709408,0.7906214601006318,-0.04130715041176622,-0.1166153407646951,-0.10356499553770099,0.02725760402149707,-0.03224744890563537,-0.2939383460564299,-0.049141638827835926,-0.08635450625647134,1.0053691658518031,0.21491211720379874,0.742424453355676,0.3167075589052538,0.08252961235091105,-0.14246060379050446,0.1162118538773153,0.869397802956228,-0.3376123613717168,-0.24010531050213887,-0.5363978332786505
115.0,4.509202480316162,-0.1382873266780281,0.2258007245629715,0.9854534608071611,0.004476298035110245,-0.010606364847991333,-1.6637197977323344,-0.03316812856384198,-0.19152005879775263,0.04840338171926839,0.7641089448231686,-0.6010445944869292,0.11811977386428998,-0.6647335138527861,0.1482569292020936,0.06363519757165494,0.7991895512158422,-0.020435577467524994,-0.12545241428725934,-0.10445642190821312,0.027385408374626136,-0.029712914996841804,-0.2704557131582516,-0.04696163746539071,-0.07815576137070901,1.0242163737766754,0.2086348779746759,0.7632632549358291,0.32028977241050893,0.08366743083782159,-0.14656304037107692,0.10655912922923394,0.8694260390987816,-0.3302657201108299,-0.23721806816027355,-0.5355597189172026
119.0,4.575610160827637,-0.14365688690203454,0.20806005660684412,0.984778667642348,0.006385323926953516,-0.01132770294624488,-1.6632908998007963,-0.023314727452225188,-0.18941178417845314,0.043711151227382644,0.777091873364602,-0.5864775006410692,0.1161737926513711,-0.6599639921004573,0.1427753963013247,0.046342882625180874,0.8117330616638962,-0.0028251572489505893,-0.13105321399624809,-0.1031753804055127,0.02961628143599558,-0.02779422194340985,-0.24098405949418644,-0.04819388760330624,-0.0674872460977669,1.0413484856104192,0.19942614611578124,0.7808673750795688,0.32474948788213204,0.08559023207455453,-0.1544632484239234,0.0964053912396944,0.8704798826133455,-0.3239268387466468,-0.23489572371686185,-0.5348453041059488
123.0,4.626585006713867,-0.14991866805457194,0.1874907336900954,0.9852104200324276,0.006494686708900344,-0.010600649873951422,-1.6604184086390086,-0.01228994295064611,-0.1818048836197082,0.041699930464636145,0.7942945051844406,-0.5611659950270201,0.11414045511855919,-0.6488177425599674,0.14382922750341443,0.03692719074065335,0.8251139111495671,0.01584429751452232,-0.13176809023586286,-0.10111504122164933,0.03517194156440584,-0.027811663718963316,-0.20681959558173535,-0.05221580685486548,-0.05936787349860756,1.0543170393775774,0.19001797568129203,0.7946734656544245,0.32468089773463504,0.09106537431865472,-0.1651537126359956,0.0880713291835079,0.8723280618629708,-0.31980831163509804,-0.23279077827981481,-0.5326276682288982
127.0,4.697237014770508,-0.15682092697980923,0.16518532159282706,0.9864408487783973,0.004388988750117823,-0.00983913988515766,-1.65288255148241,-0.004069739905147703,-0.16696698365574902,0.04672804664540342,0.8198556829235897,-0.5193842747342444,0.11146551730920382,-0.6303458875512993,0.15201655811946152,0.038317189146854926,0.8379772099405334,0.03312389483566602,-0.12714964533355527,-0.10050790636325646,0.04268336721623395,-0.02835858846157069,-0.17125589420260479,-0.05730680222834368,-0.05905499257985515,1.0636437940122478,0.18477636178958995,0.8040526943202269,0.3187268941077403,0.09873201819220898,-0.17739584729195484,0.08164589997361003,0.8752418644615211,-0.3172886004278015,-0.2294880109810045,-0.5278525262664236
133.0,4.777638912200928,-0.16422294766254286,0.1415649303765751,0.9884521413228807,0.0015439690425226717,-0.009581846464906021,-1.6394817883790218,-0.0033727005469211635,-0.1417824512730754,0.06189860564843187,0.8577365476543537,-0.45799990319146017,0.10966828282068232,-0.6066705704144133,0.1625346980449243,0.04461275768437554,0.849057553273376,0.04919915689472061,-0.11908856549746288,-0.10136316868817358,0.04979951204881074,-0.030060224436922755,-0.1378725235757487,-0.0632783659344196,-0.06605645701043966,1.0697335356585989,0.18443949314352492,0.8106329540670132,0.3103456786008921,0.10700056623592834,-0.19019242527974467,0.07554991586782292,0.8795849012804338,-0.3145072250973648,-0.2220571394867631,-0.5201827693485702
137.0,4.869627952575684,-0.1732075532972688,0.11406915258107059,0.9910780905662728,-0.0013839124783611612,-0.01185669161878888,-1.6149375073142278,-0.0216138013024865,-0.09415532711098636,0.09685652434309694,0.9275257628113287,-0.3635187211345219,0.1148930835603043,-0.574923508201929,0.17536766063660808,0.05710835321034827,0.8581043030984176,0.05643719902733038,-0.10698974744223999,-0.10344258103080425,0.05327690256516949,-0.032313794268376536,-0.11129824041899838,-0.07057417875714042,-0.07507199118072735,1.06853739898243,0.1855013702971615,0.8106628578822299,0.30245504928464806,0.11277788041738918,-0.20593556279016345,0.06968334054298564,0.8841624262721535,-0.31294301063356833,-0.21024373232078103,-0.5112652620012953
143.0,4.942049026489258,-0.18166004840040056,0.08878780481889179,0.9934490157667513,-0.0037777302205048487,-0.014367351891816597,-1.5859620914420816,-0.05421610316118322,-0.03828140727720939,0.13614392532757347,1.0107711598435152,-0.2769308754633648,0.1285932686943301,-0.5432765551905049,0.1899351215785147,0.07207907414281986,0.8638373183749017,0.05623250785639934,-0.0941837442771905,-0.10588770183789259,0.05436603706291536,-0.03237181677555445,-0.09620346325441925,-0.0783589170935961,-0.0823571874684865,1.0603427621726722,0.1858508726021868,0.8044799377008325,0.2967575532679187,0.11504829067103642,-0.22345564697292009,0.06598641087553261,0.8854790297285837,-0.3145655056823203,-0.20370895662855598,-0.5044451868058533
147.0,5.021453142166138,-0.19034478990944864,0.06198479477404695,0.9956951129676641,-0.004742325246027773,-0.0187050816718071,-1.5507170634699463,-0.11004665854409776,0.020969531767517768,0.1764420013761469,1.1050999374817958,-0.23002502797092728,0.15398516651386435,-0.5087453587013904,0.2066244445055601,0.09066735817220317,0.8670926173984947,0.04611752421524018,-0.07955506323968828,-0.1056857166823921,0.05401222889558417,-0.03137153359948863,-0.09636148579060977,-0.08800470640708177,-0.08546084361978593,1.0412289871939011,0.18426875081539507,0.787686800297714,0.29700287939047515,0.10691467556527809,-0.2467312228885007,0.06779693402598887,0.8832896624707607,-0.3243138258051076,-0.20407588726877424,-0.49947608724836196
153.0,5.1129255294799805,-0.19757165454703549,0.03823516436838198,0.9972439063137583,-0.005519119421445238,-0.022433659365993307,-1.5209916431421897,-0.17053956121456448,0.06272889765388354,0.20467183699666994,1.177709275599756,-0.22700486957720362,0.1784936186131677,-0.47772108366581906,0.22358450513921452,0.10855737635629095,0.8685544799860578,0.03790170661007577,-0.06542911026897796,-0.10041340733111163,0.05250822455131823,-0.028434851056463775,-0.10468959966251279,-0.09784778145094705,-0.08357908423602947,1.017383471485506,0.1810612240063093,0.7676035615162126,0.3045123994132184,0.09159529813321524,-0.26953126041596165,0.07193210933050383,0.8797041883388017,-0.3367271472490787,-0.20444846228327976,-0.49540861131738145
157.0,5.18817400932312,-0.2043408295473825,0.013250532573522067,0.9975063590537878,-0.006578153991439085,-0.02639743262257621,-1.497429217497428,-0.2406172266893678,0.07412117615759727,0.21701487291448118,1.214069218031042,-0.27961711477240553,0.19291932043781684,-0.4463397530159201,0.2419061115864483,0.12539731437152976,0.871331867164067,0.03615626243519039,-0.05055971437132755,-0.08682588092568973,0.04649032311652901,-0.023651612016864845,-0.12056309913096111,-0.10988805746436783,-0.07206702739398713,0.9911790781272847,0.1732098905032533,0.745867659937559,0.32279181453402056,0.06293049614779116,-0.29383571864824065,0.07833120141553859,0.8735960973043014,-0.3523499092328677,-0.20488763555635367,-0.49062622066958606
161.0,5.274252414703369,-0.209745180081464,-0.00960504918760792,0.9967130069204049,-0.006837599950717571,-0.02850339350515027,-1.4810049730012538,-0.3053409611896232,0.06843590481569001,0.2227151037500278,1.2168908455880971,-0.35557868596341136,0.19996664698751063,-0.4200949501002067,0.2582884975332845,0.13745573392125443,0.8741182143832966,0.04180766763971598,-0.037269571817704586,-0.07154734877701902,0.040942522876210204,-0.01949638328465471,-0.13367574797109916,-0.12161800379969187,-0.058863109100738276,0.9690886080186503,0.1651160559249546,0.7290038024723642,0.3435476850710943,0.028950445108870498,-0.31577664726766547,0.08500514562177178,0.8668894519174288,-0.36732624567256594,-0.20304026676589615,-0.4844634013248299
167.0,5.340703725814819,-0.21381459143734288,-0.03057551680352097,0.9950027254033689,-0.0067122059931769215,-0.02795314961212247,-1.4701356214993817,-0.36314821425255683,0.05379733089728502,0.22627457678095977,1.1934234682750182,-0.43428533996739394,0.20143370456984788,-0.39787834561894087,0.2747127602262395,0.14645906611293408,0.8768233417757297,0.051777212285148096,-0.024925896038190506,-0.05720784061385102,0.03795439682296633,-0.0171181304292837,-0.1429660751032108,-0.13174327421072388,-0.04975043468913361,0.9531282172113378,0.16007184172662292,0.718012482724798,0.3614914419835751,-0.009137349903715584,-0.33433229494190253,0.08990288813173665,0.8581143621686642,-0.3805910231594851,-0.2045641522322797,-0.48256035911451994
171.0,5.422215938568115,-0.21741859259008212,-0.05478759795056354,0.9927230409108505,-0.006453975825441031,-0.024699146495991385,-1.460813245490002,-0.42431352670999123,0.028345549254519976,0.22680060430648408,1.1416887115544228,-0.5069552067573599,0.19519903148425558,-0.3713260655873867,0.29468756627998743,0.15571344851771696,0.8762040126579613,0.061165906531421455,-0.01201503878791494,-0.04472630570156869,0.037421364326293324,-0.015539167809830208,-0.14954479659974543,-0.13970674775682682,-0.04894104569660336,0.9418284193411826,0.16049106064295549,0.7119606013590969,0.37331771283574244,-0.05895554727150167,-0.35176980689336385,0.09455938472430328,0.8421568711631409,-0.3923648817040378,-0.21627270844589935,-0.4784528588872293
175.0,5.49048638343811,-0.2199108043172429,-0.07738812225894134,0.991011718810205,-0.00642837472197093,-0.018613477658602842,-1.4547997490127424,-0.4761301300521897,0.008381767099024717,0.23126888268116075,1.082596854413192,-0.5477960167721593,0.18663260048659808,-0.34451274255107966,0.3133171783053701,0.16254547059983768,0.8696705910722375,0.06847163399686962,-0.0013191054590394038,-0.03574976992851831,0.040470505712542834,-0.0157040831277891,-0.15218002395386432,-0.14402405081563124,-0.054097411191249334,0.9347893789570263,0.1643644338616077,0.7100371478411234,0.37748331670524327,-0.10717594960160921,-0.3642569468043547,0.0987501506815239,0.8237074137945348,-0.4031439208558162,-0.23405537316757352,-0.4790253904187066
181.0,5.575961589813232,-0.22174361061289138,-0.09933743189266438,0.9900074868228902,-0.006891992988286113,-0.011219232639855376,-1.4524684948309838,-0.5210555334787965,-0.011254511400231851,0.23366651932747887,1.0191905517402977,-0.5598844002180442,0.17172228745524615,-0.31630620218952427,0.3286510516726598,0.166176696368736,0.8576101159055396,0.0755865436336115,0.006305947941663361,-0.028250162053601785,0.04461855418481753,-0.016368677577417806,-0.15366456596942815,-0.14729120899316595,-0.06267966027285066,0.9310019339733391,0.17006901672882618,0.7120881077184904,0.3773974107988245,-0.15336149702656998,-0.37430528611788577,0.10222764890063152,0.8025944807089,-0.41428698756825866,-0.2580713947313232,-0.48545604314737223
187.0,5.678175210952759,-0.22301127846389288,-0.12482057633463325,0.9900725786458523,-0.010253420434346532,-0.0013087441124836506,-1.4540919840910695,-0.5602748287562158,-0.021620403279715497,0.24811797184145523,0.9435756361912109,-0.544867054803487,0.1542516818383254,-0.2788515080963324,0.34026804906976094,0.16449750050076883,0.836490372510885,0.08533894838443398,0.01087377013924479,-0.02040507346257052,0.050789656084918394,-0.016051265843302846,-0.14994963379078174,-0.14628856247978758,-0.07484230121985717,0.9302987002002194,0.17877959524765524,0.7212482505631717,0.3737516282639593,-0.19600505988034023,-0.37729230988466955,0.10945862925171242,0.7761731443162563,-0.42796056379072567,-0.28975453423619935,-0.4960585661342663
195.0,5.773486852645874,-0.22334899097973882,-0.15293007909427714,0.9905214556995954,-0.014790194962436174,0.008959971333706865,-1.4605861064748344,-0.588993593032909,-0.023810929290246256,0.2716769550989089,0.8626427372304508,-0.5358536385408169,0.14136698512098683,-0.2358120697966753,0.3473224129180039,0.15991179003357864,0.8102422772097024,0.10037617288765949,0.012848285386114823,-0.010918259162504215,0.05459386128739313,-0.01630027722280148,-0.14075147990200537,-0.1421713025840434,-0.08742962357691983,0.932804158780632,0.18821413119357194,0.7358224766229358,0.3684866674746956,-0.22851286575715601,-0.37216746986134863,0.12038035878761999,0.7508183775865869,-0.4418048064850051,-0.3211862633647329,-0.505803968842409
199.0,5.8912060260772705,-0.2220518811807925,-0.18826179117142686,0.990284927640235,-0.018408467984712462,0.019329261350661788,-1.4763810451713575,-0.6082056258665114,-0.027055651653863304,0.28463643040052305,0.7813174135438019,-0.5725977081031073,0.14273940041528482,-0.18548090131230544,0.3492174496434377,0.15231041299115652,0.7821055087235671,0.11559784420885029,0.012904960309143418,0.0036015822191390323,0.054028864043574557,-0.01908976983925554,-0.12873444419831792,-0.1340447503378345,-0.09520679884995573,0.9388042774049064,0.1956249019411686,0.7522793678379649,0.3649749217920056,-0.25051362718472525,-0.35896422515260584,0.14367612931369972,0.7297950221800591,-0.4600755516181928,-0.35226310794204296,-0.5042849146083065
207.0,5.966366767883301,-0.22012446458193408,-0.22023274034058551,0.989053612553084,-0.020195335320928487,0.027668431105418743,-1.4953546788821503,-0.6149056788493366,-0.027095021028931014,0.28992291534228987,0.7242025553304288,-0.6182769031681108,0.1496241808409614,-0.14075624699582562,0.348701980078842,0.14729425704624957,0.7584641781749917,0.12680518523441459,0.01213421027300297,0.017874904815202042,0.052363330987648816,-0.022117505346178675,-0.11682080156519226,-0.12565283863177562,-0.09655482791689032,0.944780648578925,0.1988923067190482,0.7663721811314996,0.3639616669435112,-0.25913545601283783,-0.344681917675939,0.17111274595526615,0.7182364155964087,-0.47937006506111113,-0.3769473176646927,-0.49634977270550684
211.0,6.09558367729187,-0.21662954823450653,-0.25973876519031625,0.9860782793091312,-0.021120556163130154,0.03727329921837453,-1.5231563079905062,-0.6056887095319394,-0.00452987166738294,0.31237272256569737,0.7080045822578134,-0.6382684868563047,0.15833343840833242,-0.09342682923055866,0.34449198099537603,0.1420847764674727,0.745318703929443,0.1407785735148371,0.010261005034451029,0.03384185918960615,0.05113510459291597,-0.027789036046106552,-0.10341186219710867,-0.11496673660948475,-0.08959579381739674,0.9531120479875386,0.19621416081042056,0.7819875287141296,0.36250481507245413,-0.24693618294159464,-0.3243542020090531,0.20847781626913292,0.7204492626111667,-0.5020959972823396,-0.3943413311475319,-0.48230722295974676
215.0,6.175848722457886,-0.21302298382579588,-0.29535074080602886,0.9847878734621415,-0.020682549979151192,0.0427267508031753,-1.5466730818474785,-0.5906034892382795,0.029290622193431454,0.3494066116743152,0.7192662264982139,-0.6274094149675755,0.16735659109100526,-0.05439959681493603,0.33496111274543705,0.1379868100969448,0.7383076946272512,0.15128046200559483,0.005141145801390445,0.04385532636347715,0.047083394861077196,-0.034757135675890935,-0.0891956397883866,-0.10493758521998017,-0.08278701393094944,0.9596512550494153,0.19222847462157086,0.7924636059710491,0.3580245735149332,-0.22218869507134775,-0.3029140952539454,0.23848386188533333,0.7328519319929807,-0.5177645213584254,-0.40158290492074494,-0.4731169259475415
217.0,6.236798286437988,-0.2095392573320154,-0.3275522630477953,0.9845064290119813,-0.019656278940769448,0.04447325127065159,-1.5611290886894202,-0.574529488172622,0.06540462482824255,0.39290786190989846,0.749892686204294,-0.5831004761342564,0.16909305137233674,-0.024122055870005377,0.32269566178905434,0.13367917839235166,0.7399236794923352,0.1571013322166696,-0.002006263672962745,0.0456755050390871,0.03931776244892746,-0.042508838624164026,-0.07501250314050711,-0.09514619959653386,-0.07890941115128146,0.9641091181269537,0.1895032372103295,0.7980040544969966,0.35141478237368706,-0.18502016943387584,-0.27911596763528557,0.2550681576145984,0.7540770919111293,-0.5220720847741843,-0.3958458540682044,-0.47408343816709064
221.0,6.272587299346924,-0.20683403959462118,-0.352404006584354,0.984601593977841,-0.019892357813717624,0.04444792448118817,-1.5664920330605696,-0.5605422241930182,0.0932563340960313,0.4292132675735555,0.7798256120908256,-0.5387138751520697,0.16810346527390463,-0.002450187426870313,0.3109524755939362,0.12719078212349988,0.7452185580208011,0.1574158336572463,-0.009200484758008153,0.04223422893484389,0.031269790170543064,-0.04876689517953767,-0.06416652977147161,-0.08657733743921031,-0.07816070435084349,0.9660774842358609,0.18868471533053527,0.800253357612471,0.3444851998223838,-0.14893282774727434,-0.2579472118461119,0.2611057798607614,0.7760851821780292,-0.5183824069905704,-0.3845974175632827,-0.4790640038756473
223.0,6.327600479125977,-0.20362467798436817,-0.3763874823367645,0.9850716915237424,-0.02146157911972294,0.0444385888330093,-1.5635264050195061,-0.5449181137326906,0.10988993431737584,0.4536516608640976,0.8067424429471097,-0.5047283112930908,0.16647385347762222,0.01375762069618461,0.2933558300858965,0.10942646864414879,0.7566951193884326,0.16184076744562403,-0.018014170959295993,0.03355491270645002,0.02370867410470063,-0.05500314430433391,-0.055257529644893055,-0.07687480793741919,-0.07907193277309775,0.9640035893868417,0.18896150925682464,0.7973488259080622,0.3364162110822523,-0.10231782269393937,-0.2350892536003395,0.2548214092854738,0.8037777258923853,-0.5020383551981372,-0.3637598500129062,-0.48656745287369196
227.0,6.381441116333008,-0.20065886752223713,-0.3962035481365359,0.9857247290425948,-0.023042129574301524,0.04387643422649294,-1.5605393844819782,-0.5306875559512114,0.11541298765289834,0.46449631510366274,0.8243914927564122,-0.48773013599607334,0.16416752515296146,0.023958460245899295,0.2721001119439128,0.08687152987270069,0.7701656963296626,0.16922383520037765,-0.027230102266293653,0.027520634070223225,0.017435125270524272,-0.061688655474554,-0.051071940479629374,-0.06875108446674894,-0.07921451585638853,0.9601756929376994,0.18878163727848568,0.7935691049801268,0.32964664281701667,-0.061322871397591724,-0.2162928703918047,0.24527651439218,0.8288615608234151,-0.483602770550457,-0.3417478740488517,-0.4909659222638517
231.0,6.447289943695068,-0.19626300119040932,-0.41835138642253716,0.9871694332066581,-0.02449634347511844,0.041857061013183976,-1.561944990210408,-0.5120097472301729,0.10765122056820427,0.4620516210298401,0.8338703396254415,-0.49398300458928524,0.1637635593437506,0.027807477406156727,0.22698513786551028,0.04164974409745065,0.7931940277022442,0.19328995116480535,-0.04154435206978679,0.028628338327750635,0.01199662406217395,-0.07013810779801993,-0.05293306988865641,-0.059650834169801305,-0.07775107480705919,0.9523628955668287,0.18784008150121456,0.7868360765709099,0.3230640041204688,-0.016692083180893488,-0.1980798972026864,0.23335744623494153,0.8596275683029888,-0.4614986200272173,-0.3073739016934526,-0.48679591292721136
235.0,6.505786418914795,-0.1906383508023175,-0.4417807554368857,0.9888728137867425,-0.02728503109894146,0.03880916841122506,-1.5682460142949064,-0.4884089189104439,0.09334244967707062,0.45484813851114425,0.8377648423343842,-0.5115200717106556,0.16469681087417026,0.022669418714273692,0.15905067528996,-0.021474024221722607,0.8333247955120684,0.23941317774447562,-0.06108557323642646,0.03588901493990855,0.008597584387973714,-0.07467269988890078,-0.05800918816938586,-0.04862321387613419,-0.07285325850542118,0.9412295583237977,0.18595109205839577,0.7791445306542726,0.319532216140634,0.03091408184292446,-0.18206092495183404,0.22720521978526317,0.893717225439763,-0.44370851548455736,-0.26138662728722506,-0.471226597876899
241.0,6.569364547729492,-0.1846564901498272,-0.46468889061967933,0.9906047424937772,-0.03016884028993355,0.03469591683487533,-1.5764971850358944,-0.4632248392456991,0.07555218072469215,0.4459055730438975,0.8371514847766978,-0.5326405638625644,0.16534403791643026,0.002494002121513867,0.09539125081512193,-0.06854881863458463,0.8919293286299441,0.29603198508935846,-0.07854718165966879,0.045523128429323434,0.00749967178996024,-0.07495191363413184,-0.06853193042819819,-0.040250634061557274,-0.06318488303354512,0.9266326351103746,0.18084680017723398,0.7699697123999824,0.31898415955900583,0.07205892306258169,-0.17559290538124767,0.2295629406118519,0.925784128072681,-0.4348554343418729,-0.21042577854362762,-0.44244346156529285
243.0,6.652924537658691,-0.17697014041788234,-0.4909630528364281,0.9927445776471148,-0.035707730427406784,0.03054258490100616,-1.5865572078690424,-0.42943433353831184,0.05366383234570953,0.436399700934837,0.8313536884915984,-0.5570305750480836,0.16540665967735377,-0.02388175642550924,0.043850140715837926,-0.09065653426827505,0.9583419672521671,0.3311760896713599,-0.0912230138203905,0.05647969898527554,0.013558728856502519,-0.07491262469938095,-0.07109571248237107,-0.035924905649967746,-0.05240186359517896,0.905007267482649,0.17543986219114271,0.7535781233778167,0.32435307999479734,0.11329756827027367,-0.17869185612426433,0.2395050940312039,0.9516494554166555,-0.43342355309150227,-0.16475994667009028,-0.4054426019438268
247.0,6.718273878097534,-0.17064622368581212,-0.5113107135167825,0.9943984882226351,-0.04024195560205818,0.029499375714484133,-1.593620770875137,-0.40209251877711105,0.0361051900358625,0.42685905186027356,0.8249720661016813,-0.5768511945501067,0.16619398561761542,-0.06960656783840823,0.007166519911178899,-0.09893333476416777,1.0329116748742806,0.3118772415294464,-0.1036584930989636,0.062118843518220904,0.02537295716226185,-0.06692057016651405,-0.08833352593629953,-0.02907005040709945,-0.03953706926758983,0.8857882752183048,0.16947671658114266,0.7384244417994603,0.32918351024452036,0.1291413228873287,-0.18338116846875202,0.2504033621133349,0.96805561013722,-0.4336468749109219,-0.1242271295774568,-0.36404427297536446
251.0,6.766700983047485,-0.16412450690434133,-0.5298578655682977,0.9958241700863966,-0.04748859508074829,0.030346804877392504,-1.5950763530562648,-0.3746347785923716,0.01702689424342339,0.41234520680045994,0.8177799570481419,-0.5932505783898149,0.16604182670084427,-0.12134442280934349,-0.013739168889887068,-0.09313364128275739,1.0972057206522785,0.24143615327391774,-0.11172342005224227,0.058092925497069334,0.043179540856547745,-0.053561518018831134,-0.10569108681741142,-0.022945116677853615,-0.029218328393965338,0.8681140507307678,0.1646225399432924,0.72319800394065,0.33190095384133156,0.1343556814676296,-0.19141928928416518,0.25739663947639635,0.9701479512075177,-0.4341618560551267,-0.10212457302012763,-0.3381726833355184
255.0,6.833009719848633,-0.1574925171953341,-0.5473163375792047,0.9968309449410285,-0.056321151824211595,0.0306728230024434,-1.5866414587275206,-0.3475955151671374,-0.005183381426329632,0.39409693940110474,0.8097732439328889,-0.6048579844207747,0.16513699202242638,-0.17394325053977377,-0.018346705751706188,-0.0745633463353442,1.1404907607525439,0.1381726367160054,-0.11260965435106282,0.04301539960331201,0.06219274045623837,-0.039219073989857266,-0.12386317665896174,-0.018288833205945383,-0.024193289779208,0.8547626669131436,0.16302927283375865,0.7132600029214972,0.332826523153251,0.13410301664837576,-0.20000361653875848,0.25559648435380966,0.9580459737272365,-0.4318254305067817,-0.09977679080403036,-0.3370178237455472
261.0,6.903190851211548,-0.15096418689649593,-0.5640700996573338,0.9974404170036315,-0.06540141258087602,0.02902565436507471,-1.5677866305366817,-0.3223628765003387,-0.03313626534724632,0.3682412435396979,0.8014614256401782,-0.6129796905562956,0.1626942027863822,-0.22426391457202893,-0.004364151596209974,-0.03935420550286549,1.1577109505554344,0.02474126569602729,-0.10533380944903756,0.018090756321218076,0.07908669999024648,-0.025049793154303595,-0.13909932314258197,-0.013810244932065546,-0.023791407737523758,0.8451023318598594,0.16372982709969675,0.7078926324078805,0.3298300297517933,0.13685823994997856,-0.20573311757986334,0.2450264481098092,0.9326470787872039,-0.42715154437588143,-0.11990265368790502,-0.36605288191154656
267.0,6.994122266769409,-0.14342734851283884,-0.5850153347790702,0.99653584067829,-0.07358456474764738,0.024314910577463968,-1.5321570627008074,-0.2958275293847007,-0.06631818615209356,0.3376403541805571,0.7961597991398014,-0.613377845485809,0.1583354941105907,-0.2754208476115656,0.04003552322166111,0.03374429159546062,1.1386825884570129,-0.0799679168860023,-0.08777919631561285,-0.016891132108185315,0.09397037869642556,-0.013347078794361384,-0.1547913877794868,-0.007952522346046787,-0.031561711029756113,0.8352651139458565,0.16831325054577428,0.7059650884835662,0.31835356881395405,0.14407488324174372,-0.20362658323800165,0.22310823890060782,0.8963723053026846,-0.41720523027862777,-0.15706641792932574,-0.42316564431557896
275.0,7.104927062988281,-0.13521206533893454,-0.6089027173073098,0.9947929318734945,-0.07772498209759897,0.016639191382844965,-1.4810438310154983,-0.27040301715485476,-0.10462601231111755,0.29951115229008135,0.7933083495133364,-0.6086172681179933,0.150430726876381,-0.3240025493120987,0.10974749634900345,0.14824948437877436,1.0910124760854119,-0.1322190935006501,-0.06965812523833641,-0.052779282705841694,0.10596431489689792,-0.00725124726292629,-0.17624864726999329,3.064587882487717e-05,-0.0450241627444665,0.8221265255846155,0.17714419802132098,0.7015996533730204,0.30404114742576027,0.14842461270346835,-0.19179761501868725,0.19763814995069573,0.8580482058670953,-0.4035640760948461,-0.19519669705403397,-0.4832600012456517
281.0,7.234161615371704,-0.12472097431427137,-0.6380391494565361,0.9932275628844358,-0.07899497644256065,0.006461771739216062,-1.4101240721079336,-0.2371455022035025,-0.14071400674693155,0.26288255733333843,0.7854410940068943,-0.59215084349234,0.1410381514956326,-0.37707978521286034,0.18487636054200918,0.27797646683161475,1.0181560057147985,-0.12158722572780171,-0.06707068054502544,-0.08192136930582566,0.11388966669491468,-0.00275028943556824,-0.20466250495822025,0.0049296275693386255,-0.06468094129227134,0.8041179417853089,0.18994173206561177,0.6985173043165311,0.2889757060326157,0.15297530887651467,-0.1761521772631654,0.17956335590738845,0.824310676582261,-0.3934683235243327,-0.22575356735569568,-0.529224174574875
289.0,7.340922832489014,-0.11314153583715354,-0.6664563445106587,0.9921796633922173,-0.0768325120410496,-0.003428691163493152,-1.3430774023972507,-0.20318375123935506,-0.1720831916344361,0.2300883056587586,0.7723913409918388,-0.5709544834360687,0.1287036352570769,-0.43915156261292054,0.22947138601509237,0.3497307027430082,0.9417797774942731,-0.08327660694275671,-0.07460552706553558,-0.0920718551537604,0.1189514902962949,0.0006583141405372214,-0.23355942839517074,0.00652670430660128,-0.08408946827779107,0.7868007291775287,0.20273213302690973,0.692373774431678,0.2767879467299213,0.1534780301221284,-0.16621750601826635,0.17684041250063656,0.8033661720654353,-0.3936051729276896,-0.24147638438296393,-0.5470275150167494
293.0,7.45507287979126,-0.09958153248050726,-0.6969114703685405,0.9916996877057349,-0.07124864625669078,-0.014371532899754048,-1.2728462387902364,-0.16368531258185318,-0.2035813973314373,0.19219846152047332,0.7511735567183587,-0.5489688463503724,0.11321447076443095,-0.5091075503202397,0.244826865811609,0.3526330961044693,0.8642760338124391,-0.03980131085344311,-0.08257856099271227,-0.08406806989981128,0.1174105409670127,0.0059865061337279835,-0.2578092864443909,0.0019718697279729907,-0.10444139128255976,0.7751066491914036,0.2133721314642379,0.6890596505334718,0.2620436505445687,0.15274598815817558,-0.16704020584274393,0.1868123970717056,0.7955966912466645,-0.40063768737001515,-0.2416431347537148,-0.531847675128603
299.0,7.5371904373168945,-0.08808307735288076,-0.7220725500547593,0.9914361203125819,-0.06464560541071213,-0.02266160939933448,-1.210781722664799,-0.13069917031390102,-0.22786784135283245,0.15621054388022748,0.7316868119467663,-0.5287428407545868,0.10073065144527289,-0.5597203157712514,0.25527283465525363,0.34522036081591273,0.8060337401745706,-0.008743350594586993,-0.08977073233952063,-0.07399520819719,0.11301740090581114,0.011339017148649549,-0.2662415535495712,-0.004802005341462885,-0.1213084435687978,0.7694658058106085,0.221571636077446,0.6845430206971008,0.25146345449055485,0.1562956579587979,-0.17213423042569453,0.19474320157987646,0.7941710536515583,-0.40585127327534537,-0.23630771689983399,-0.5127182871627268
305.0,7.640206813812256,-0.07707198127279542,-0.7467055857159394,0.9904257600699486,-0.05670595169997682,-0.030599965014277843,-1.142788209514753,-0.10151974697587372,-0.2504618160496642,0.1124474941499808,0.7196546000380736,-0.5073512390146906,0.08848787988826473,-0.5933162449974894,0.2668706667232562,0.340658446237474,0.7655959708471949,0.02915739708292296,-0.09876738197979705,-0.0663897378852861,0.10077058636989918,0.017413602291843244,-0.25643482417197627,-0.01767763513587388,-0.13745606780469283,0.7740393163177008,0.22923125465226063,0.6846787985796452,0.2480538667220853,0.169617198533865,-0.18374559160470869,0.19170465803831016,0.7942572129919736,-0.404476731550411,-0.2288000800888395,-0.5000789543987397
309.0,7.72316575050354,-0.06541386435024643,-0.7731596873907082,0.9882367332034572,-0.047366195895337665,-0.04019134617273762,-1.0676803389742493,-0.07223946053993233,-0.27156543098480546,0.06594581328433816,0.7158674342738027,-0.4891382190669894,0.07713052846088811,-0.6116321828214535,0.2672487010380088,0.3273112260340296,0.7421820925905964,0.0909497402931285,-0.11601855551973445,-0.06256681801511205,0.08131323250390925,0.02250781356047436,-0.2344778631526379,-0.030824039049457137,-0.15161530365901868,0.7908657483433205,0.23759330589540129,0.6935374225014644,0.25141573664963,0.19046926689725135,-0.19696392068573587,0.1791349551923317,0.7941827301382745,-0.3970706171723336,-0.21954443039004462,-0.49583063748957423
313.0,7.810330629348755,-0.05437301051992942,-0.7977862984229352,0.9856304427760527,-0.03872613314659677,-0.04836436103062394,-0.994684187644812,-0.04604680179720782,-0.28928003912836,0.019149668218237083,0.7186142557941322,-0.4757857313141781,0.06876099565056978,-0.6128134002275303,0.2619480163475767,0.31823553051279985,0.7327649196480988,0.15035610646914602,-0.13632022505237856,-0.0663446441162949,0.06406766477801532,0.024733658669177493,-0.2064129249910852,-0.039967025381720866,-0.15912717979085472,0.812349010793026,0.2435415620549281,0.7069228903941116,0.2588894752598007,0.21383156721064162,-0.20794093810100842,0.16468212709471966,0.794283295572942,-0.3889408783092554,-0.2102505293140448,-0.4974491530955617
317.0,7.878762483596802,-0.043300223956056254,-0.8222212569922493,0.9830384913432595,-0.029189647463599092,-0.05350826761738472,-0.9205458734667199,-0.02387260770426114,-0.30450042969646374,-0.031789343335258624,0.7285877320911189,-0.46450332203827116,0.06089122463622479,-0.6061734740100325,0.24838577512120988,0.30447781332319634,0.7330955584973795,0.18340014216277256,-0.15855946288877604,-0.07338255775876933,0.04896219442794474,0.019997187737885978,-0.1831159740577063,-0.04597596159576839,-0.15998628368419593,0.8414553620550258,0.24555503814060373,0.7269300700629927,0.2656078664631639,0.23425971210792348,-0.21704841232748312,0.14865438102989315,0.7962979976590691,-0.3788650256783711,-0.2004781315296375,-0.49934237954358773
321.0,7.944218873977661,-0.03242954827711568,-0.8457988370817052,0.9811209950102904,-0.01983249942143113,-0.052021004290869644,-0.8485085294014353,-0.009963469417378426,-0.3107067733934657,-0.0783198185834976,0.7467147072242157,-0.45429369389251906,0.056010180931775094,-0.6004077703289401,0.2260330426230322,0.2762782096562383,0.7446957503392169,0.18793878280531767,-0.1777250605189642,-0.08167869895201452,0.03911756540573443,0.005815718910496766,-0.16882793393257173,-0.05130529414040387,-0.1504547714735196,0.8740377557252492,0.24153062157252583,0.7482169976602444,0.27651904797238624,0.24637011545985835,-0.22662690915870642,0.13030026320340438,0.8011746554425541,-0.36649713185217087,-0.1932960462748643,-0.5003373350408401
325.0,8.003973722457886,-0.021202748276934826,-0.8683846409658654,0.9806367008763794,-0.011842112763635417,-0.04806634303884942,-0.7807025649291901,-0.0014425911850169555,-0.30903860334828437,-0.11410045509975517,0.7710793730080696,-0.43968472027968547,0.05394016527690696,-0.5932357378355396,0.20799500427440837,0.25455656891665285,0.7685317092693325,0.1826723954915626,-0.18745072646451064,-0.08814439231893398,0.03498629116604436,-0.009489849598422018,-0.16126833427794546,-0.05564213672805374,-0.12895805814929798,0.9063970368984227,0.23082457031744072,0.771443813844997,0.29417819304557336,0.25142998462532823,-0.23722985884973063,0.11206037399166974,0.8085335949976482,-0.354204383407965,-0.18518083089073464,-0.4989277186421588
329.0,8.065309524536133,-0.009581388007100629,-0.890241763641908,0.9815870910176723,-0.0034666172676017584,-0.0467922389868652,-0.7161334078534753,0.0008862199980370594,-0.30044134788667815,-0.12984720606726108,0.8021920282220797,-0.411203295311804,0.0534065354387959,-0.585442453809724,0.1781636361771028,0.22077403904218573,0.7973038956241043,0.18480329316970168,-0.19171665302001353,-0.08883782770911341,0.027458483194138374,-0.021460211453867985,-0.15684680938281798,-0.05921966542646906,-0.09962545631233741,0.934220734361237,0.21427932911003902,0.7900945656992686,0.3136674829780999,0.25109633879217,-0.24845482899257754,0.09656248778528317,0.8182284575772304,-0.34265577065344066,-0.17326452118213365,-0.4900207448961892
335.0,8.142006397247314,0.002043806950963775,-0.9109049097480915,0.9840585382950401,0.004921785576332029,-0.046288142203339516,-0.6474876821662745,-0.00989740093644318,-0.27995284115709546,-0.12318949419112388,0.8460768246716144,-0.3642303468485469,0.0553600066326471,-0.5708976197690869,0.15190023710374384,0.19617777409625722,0.8232844412509865,0.19185332000918107,-0.18856639912149628,-0.08653684708976306,0.020478724110851613,-0.03166245876360384,-0.15073703037388747,-0.05689310496809449,-0.0743506047233409,0.9554145866489135,0.1997157327212099,0.8011491405434009,0.32733361540300143,0.2526004376653167,-0.2563211237552784,0.08754152032933553,0.8296865923320182,-0.33320488136457643,-0.16048834177392957,-0.47340665415341043
339.0,8.236205816268921,0.014898085727938456,-0.9335308716514119,0.9887846133253747,0.01337389999958233,-0.03989311962314224,-0.5537479016980675,-0.05144697016874573,-0.2181693428635022,-0.0693533247132547,0.9192296368705597,-0.29894757482703854,0.07044938040117485,-0.5470737368646118,0.1396382051185114,0.18636675997662175,0.8445237483730297,0.19280953997678027,-0.1749972023593143,-0.08698704560522758,0.021278055513914804,-0.04468329459556077,-0.14913948595095441,-0.044227687591386164,-0.06236740687913651,0.9691050787051667,0.19439517066912348,0.8000210099486127,0.3312833570058088,0.24786672949571084,-0.26707648598033845,0.08798724493059962,0.8426069526425007,-0.3309843697826445,-0.14790431346445168,-0.4476457584283064
343.0,8.300409078598022,0.02649409026810616,-0.9534497386677776,0.9925233171427834,0.019647308291363436,-0.03008878729517568,-0.45986994528328884,-0.10727706136887843,-0.1403397927324353,0.005019848910619594,1.001245314792216,-0.2680193742174078,0.09712275895706404,-0.5204848330260337,0.13342898619878535,0.1795423312124354,0.8522906654053292,0.18658285309180983,-0.15782669018453901,-0.0871113005943279,0.030394999276056843,-0.054770206443415556,-0.15353474190827238,-0.028223826523277717,-0.0619582330469506,0.9738280742461864,0.1961409113361669,0.7880298359474395,0.327329120878069,0.23681799685447003,-0.28212796082078934,0.0922930611602582,0.8513504432832706,-0.3345607846558501,-0.14166515516537098,-0.42448535800509823
347.0,8.363720178604126,0.03704272863556633,-0.9706647444398252,0.995881456063802,0.026418400576532962,-0.019138467049585516,-0.3696851222822121,-0.16541729085465934,-0.05412803402666335,0.09665749756327538,1.0746587831856813,-0.29011095771001943,0.1388619932499628,-0.4947222823426609,0.12993849424218018,0.17573800874368928,0.8523254808202763,0.17852729450313726,-0.13963506294376504,-0.08635564451969155,0.04757303173023367,-0.059334813040864895,-0.16307785587223972,-0.010348802382329356,-0.0653850162486248,0.9701594156353481,0.19944185077011178,0.7690410011347126,0.317213357331548,0.21946291365915316,-0.3014421240590446,0.09783653473872361,0.8542368392568189,-0.3451022703553638,-0.1400139304008135,-0.41392679407240807
353.0,8.443514108657837,0.046612346949208884,-0.9856010844161571,0.9985459370766827,0.03340800200122747,-0.010660612514884305,-0.2896576650043445,-0.21713393008476697,0.013105197334610031,0.17986349928072023,1.1242606364317393,-0.3444510695030151,0.1787717584756614,-0.4706562884734634,0.12838423321293618,0.17348734798643345,0.8503981209389839,0.17450824580205973,-0.12250509167820073,-0.08224787068267791,0.06496209499388625,-0.05482843595061733,-0.1750088080877495,0.0008886058726811281,-0.0637378120472275,0.9591124797047453,0.19809014732716113,0.7476037222743497,0.31038240938516526,0.1958916577446813,-0.33143598332126745,0.10119493923599651,0.850594577077273,-0.36067006287543246,-0.13943391140672384,-0.4112989608620279
359.0,8.552809953689575,0.05961190085581797,-1.0026237351589498,0.9995138942852252,0.03699544621728966,-0.006365251803942239,-0.20083591244330612,-0.2716129368664676,0.032538452598527265,0.21873573457828116,1.1395257131155199,-0.3991199795467818,0.19162204759275017,-0.43858836897398956,0.13556907367352675,0.17001828984618014,0.8499700536476575,0.17408301057620917,-0.10460977266425557,-0.07149289703563794,0.08300540465117406,-0.048873555797103715,-0.1810921406248571,0.004201448279461048,-0.055396298574824795,0.9392957218204452,0.19099481307653948,0.7239403641452666,0.30919282682257654,0.1698633954251404,-0.3746604964692313,0.10065931015446555,0.8417366284352011,-0.379507813052557,-0.13686230187927434,-0.4123485438928517
363.0,8.625010251998901,0.07319580477926534,-1.017013768893053,0.9987537253472425,0.03767216738821769,-0.0013653788861863183,-0.1172365340634894,-0.33469196679710744,0.011144893471764075,0.22700490937020257,1.1218389887123892,-0.43232655498347305,0.17761667846200996,-0.40765642026079185,0.16518389253338311,0.18951428316964658,0.8547543474366263,0.1763225382175212,-0.08107203453263678,-0.04296000447427093,0.11038810396906566,-0.045900535750815624,-0.19349819491006148,-0.0011262838877336171,-0.04430934986280437,0.9215012502029061,0.18104039135928018,0.7068889390103477,0.3121311772847162,0.1245929507152244,-0.4238964439041842,0.0857750242585447,0.8322080505896907,-0.38911778588328616,-0.12525819777305386,-0.4159075911427634
367.0,8.685912609100342,0.0864983770804108,-1.0284506241542457,0.996996952508961,0.03626961186446993,0.0038241254261237325,-0.039547890549532394,-0.3916008901282566,-0.019748986291042686,0.22463854854346055,1.088696117484197,-0.4518706753334934,0.15889579325025732,-0.3798185018424649,0.19868645668472534,0.21096601368853019,0.8595679518740018,0.1756219384502427,-0.056832332320835635,-0.018646645798321603,0.13658926742604718,-0.049423698323808794,-0.20284411554930995,-0.011427344844242552,-0.03851998759154291,0.91067542593724,0.17434175472325603,0.6956799984501728,0.3160309782001559,0.07904368270806253,-0.47017561577553535,0.0631673638404467,0.8200040277338376,-0.39183821406630426,-0.11799240168100883,-0.42559656591620243
373.0,8.764402151107788,0.0992271689364927,-1.0372114681121902,0.9948654977026432,0.032886676407282996,0.008147133058926708,0.03166119828380542,-0.438086001239255,-0.04262400180610437,0.23032388137323767,1.0467296097180412,-0.4688391180820927,0.1461606533320381,-0.3549091233920798,0.22995250500388234,0.2271458687582138,0.8618081415425498,0.17269429890883226,-0.03454872325044594,0.0005723648231726036,0.16242913850892532,-0.05528267213322803,-0.20733949246068284,-0.020818931346770563,-0.04342005374650497,0.9093460155188746,0.17750418927607636,0.6929447471579395,0.32256291878120835,0.03810941749518447,-0.506276029001568,0.03497313509503285,0.8043037727876314,-0.3877783461536505,-0.11817524418858792,-0.44421245969261336
377.0,8.862045526504517,0.11369728812976491,-1.044367550965018,0.9928925858154944,0.028522479990303246,0.012257083630078332,0.10072196134390524,-0.4789573336536864,-0.054806997594004016,0.25347400966946365,0.9909281418611295,-0.4826674771059136,0.13737925413556507,-0.33124820681573863,0.2535639182968453,0.2308658570860786,0.8595941506156248,0.16990301583376421,-0.016483241690538754,0.02119524164855906,0.18911176413804492,-0.06244140641227809,-0.2047551457132279,-0.02951063282357418,-0.056360156037003034,0.9164021543830776,0.1917465630830184,0.6985621209069743,0.34261179818803394,-0.005553441153066309,-0.5345142244628053,-0.0027859016373115476,0.7774010213605833,-0.3776248949947957,-0.13775051399218258,-0.4816376692634693
381.0,8.94989562034607,0.12772876089574778,-1.0501033117881855,0.9918158278192226,0.02307493047949709,0.014376620094539171,0.1595448809097964,-0.510766404949931,-0.05603774410699883,0.28248353089962613,0.9377725371926395,-0.4853505876743226,0.13005793959774486,-0.3078230052698492,0.27189873430576733,0.2283023217190157,0.8512619800341474,0.16527826922322503,-0.0029162396601710985,0.038566296357857015,0.20998234340625072,-0.06581855297068487,-0.19898653299086178,-0.0351026319437695,-0.07171396859077699,0.9289912593576201,0.2062099370733513,0.7117295324487176,0.35392781114049965,-0.04497107471470162,-0.551534046985456,-0.038169903940507795,0.7491312877085714,-0.3647291366356269,-0.16789692409394347,-0.5182673506955175
385.0,9.00962233543396,0.14148590615172638,-1.0546435256481448,0.9908949671044284,0.01594781254987094,0.014340647283076175,0.2110235633523368,-0.5361507192316375,-0.04909015882861085,0.31625939706551764,0.8914071881622722,-0.4859365432257404,0.12410619266322559,-0.2840561518348127,0.2912414685617326,0.22539928043966756,0.8395879350721169,0.15898093277654568,0.008400337871155803,0.056358964853326365,0.2282032956522102,-0.06738832103950376,-0.18925545858052162,-0.040712845323333885,-0.07870441495034586,0.939418640978875,0.215293783879838,0.719298341033568,0.3702074954040629,-0.08569686626200958,-0.5563567703627847,-0.0707199292167352,0.7236726466468373,-0.3484348559551531,-0.20390092201976223,-0.5522923118620748
389.0,9.075599670410156,0.15534463082955913,-1.0581420534121937,0.9899296399451079,0.007294788867456731,0.010846750842588493,0.25515282271286305,-0.5517671286042466,-0.033622543767465804,0.35485873188496986,0.853549699085471,-0.4907045115222646,0.12093673833713936,-0.2576130662830058,0.3137987308028497,0.22534507135634074,0.8242439822353654,0.15264099662787936,0.018667049281537552,0.07256768458261444,0.24177668423508414,-0.0658788829053325,-0.17732681659075503,-0.04609938222773799,-0.08045832741716055,0.9501734456249403,0.21720100860613534,0.7280121297514404,0.37677688283952776,-0.12960577883196295,-0.5511114207173065,-0.09535465214141368,0.7044582826720576,-0.33349179892370656,-0.23449407236952122,-0.5787451103568292
391.0,9.119078874588013,0.16932008246855712,-1.0606120172669253,0.9889094673931329,-0.00327052056117855,0.006638335629702327,0.29235070365737925,-0.5597800786971054,-0.009956874104060296,0.3990156011205797,0.8247207677871559,-0.5046567520481616,0.1226829794193047,-0.23020917766734028,0.3401779271774344,0.23031083424786247,0.8046454162274246,0.1441675768306097,0.02703375488795429,0.08703458204896927,0.2507233832929425,-0.06637760762303296,-0.16379354979901573,-0.049479674493908984,-0.07876462793744009,0.9599067898486695,0.2135457650752535,0.734695433158813,0.37306570831556707,-0.17424296280888202,-0.5381353199066469,-0.10676800340397383,0.6919478921873883,-0.32410801702989056,-0.2617474452647609,-0.5937760454989702
395.0,9.182261228561401,0.18757939383403016,-1.0627069997235816,0.9873190292638897,-0.018862959451302584,-0.000918429920499883,0.3326094423402063,-0.5614415138927416,0.030807737414812804,0.4640675584911623,0.7970362922005824,-0.5328160018359378,0.12837096828406944,-0.1921306868078968,0.3757656190792208,0.23952626257563991,0.7733450811796962,0.1377288168307203,0.03663893813664244,0.10466118806536043,0.2593244757993692,-0.06665439330450648,-0.14441281811266846,-0.05128630649264357,-0.07873576361493895,0.9716084016921127,0.20808121779644811,0.7402749086849567,0.35962823996980386,-0.23328538325809747,-0.5168752423369662,-0.10958606510113575,0.688766084671772,-0.3229579148793681,-0.30001412220458745,-0.6053105612513164
399.0,9.23591160774231,0.19703933877898272,-1.062582132044097,0.9859919229730174,-0.026742247693074688,-0.004515826034160383,0.34457583521048973,-0.5603733189185969,0.05293102281474474,0.49423742721553543,0.7918448258521017,-0.5493591473472292,0.1311548321907451,-0.17858070726847497,0.37747431095208805,0.22275138739306197,0.759432397070799,0.14826380748332127,0.03808642890648996,0.11673253952289613,0.2590500482266235,-0.06829919229099227,-0.1376742835737947,-0.048494563467957844,-0.08042783764058103,0.9781669697806501,0.20441925639364789,0.7469635716161477,0.3416564160775779,-0.25930031440509865,-0.5047612765074699,-0.10000499169601443,0.6903401443913206,-0.33062402392363116,-0.31854748070728367,-0.6057303204327057
403.0,9.305140018463135,0.20930042016372052,-1.0616077575800298,0.9846789491119745,-0.03552704354075055,-0.009022588106254833,0.3555435760684478,-0.5584312055997269,0.07490012986411584,0.5201750744074823,0.787582807646698,-0.5669466043030817,0.13388071989216477,-0.16391500088277502,0.3753196191682949,0.19744653736474585,0.7473388407227859,0.16762331886002424,0.03849239155748086,0.13381472885181886,0.2549077363333704,-0.07128108011095942,-0.1272464413787101,-0.04571759381481048,-0.08247308645940214,0.9850086275046923,0.20004883613811514,0.7552309347102297,0.3208106388953549,-0.2851190218744363,-0.4899087561490668,-0.07793038058154018,0.6917840868849172,-0.34681762283960316,-0.33780060182571103,-0.5991348618907033
407.0,9.372269868850708,0.22443205820015832,-1.0596911170824663,0.98313613874351,-0.04404734728608911,-0.014953960241765357,0.36449950755364713,-0.55250972342415,0.09762672574681946,0.5446439353868469,0.7849091856480124,-0.5877110233431506,0.13847768853436934,-0.14528698740697993,0.37103673971971063,0.1692647192815771,0.7361463619283873,0.19077460221061915,0.036889262462299836,0.15593178589034745,0.24694934107371222,-0.0733007558377242,-0.1116723925427244,-0.0427334263649001,-0.08229747412098556,0.992533369884533,0.1936655586550325,0.7667726255895426,0.2993265159403559,-0.3073827800051556,-0.47316511928364025,-0.03997061604989244,0.6928012676470078,-0.37371644663546466,-0.3601972800831634,-0.5817779445713916
409.0,9.418052673339844,0.24144718068879342,-1.0568060093606295,0.9818071072702497,-0.04990179527268966,-0.02348794702944584,0.3720028400064763,-0.5396188360696871,0.11798619153365093,0.5638125190337,0.7873923525347584,-0.6102913545382516,0.14200865015766562,-0.11905708067794747,0.36633370726484016,0.14473231148315133,0.7213982409893835,0.21042274279857226,0.03286188211229844,0.17224693198949692,0.23790198532000703,-0.07795065427634533,-0.08534109578817016,-0.03779675576632287,-0.08386784220191196,0.9958745226786883,0.190274771275355,0.7738772509158569,0.28354158929879286,-0.3156196701809108,-0.4542608550556454,0.0009205128241284166,0.6906829431700477,-0.4038375588930839,-0.3782973190781256,-0.5661179205751647
411.0,9.459240913391113,0.25636558302745804,-1.0533521542097786,0.9803517052612845,-0.05627037009125717,-0.028386086283214818,0.3771449195423652,-0.5288921676667947,0.1351894270254271,0.5780676989147161,0.7920491763514099,-0.6287553813570115,0.150284734485585,-0.09997712658335543,0.36308999549803,0.12523830917069792,0.7133526140952182,0.22449028142542965,0.02844354877791106,0.19123890645052205,0.22662744390633072,-0.08077104071936902,-0.07064349546480611,-0.03353907156208166,-0.08675527640484415,1.0008805111721362,0.1898729900872598,0.7831291941695366,0.27352122096399895,-0.3261800969323485,-0.4372271735126162,0.052582995874488406,0.6928026078536165,-0.44287024138957426,-0.4047241425749143,-0.5463150872433715
413.0,9.505537986755371,0.2691165487275027,-1.0497841609501357,0.9794495211312106,-0.060305413946216954,-0.03140913606183409,0.3801224947247651,-0.5201579078846293,0.14525078731788965,0.583376870899186,0.7995901872926446,-0.6390121315703396,0.1569140640613728,-0.0832351719960999,0.3610289105484086,0.11441236819262982,0.7072218927764822,0.23069897879201717,0.023390581547882122,0.2048984296786877,0.216314822217474,-0.08420280742712749,-0.06034197670642297,-0.030100334152202514,-0.08743158733215195,1.0042165904452067,0.18889758564752857,0.7910507403708203,0.2677889479873923,-0.33233741977488807,-0.42200949701163804,0.10078538949190147,0.6958102252153712,-0.47802412983507786,-0.4330421362911804,-0.5273961153867958
417.0,9.54744267463684,0.2802951337781195,-1.046142375401687,0.979369735721858,-0.062068672244476895,-0.032643004462276665,0.3824892377912297,-0.5147398637347099,0.14659052290413635,0.5778888989510125,0.8076324552320264,-0.639962865051902,0.16064661130105937,-0.06887028773575699,0.3601135907416688,0.1110897705244887,0.7038659502543403,0.2314777321046091,0.01892092960381733,0.21480161063063885,0.20553516656755702,-0.08876666618133203,-0.05125242060385453,-0.0283422827524378,-0.08648488876322624,1.0057923362377132,0.18748783837767533,0.7964930968639355,0.2663658665279548,-0.3362764275834864,-0.4052567407126325,0.14305407981545973,0.7011750998841444,-0.507438140397211,-0.454920892781163,-0.5114456587747859
419.0,9.609893321990967,0.294381571324654,-1.040745094677635,0.980092861543044,-0.06228719169544105,-0.03286712584835684,0.39054518048159687,-0.5073437094194719,0.14524165515330656,0.5713918630583736,0.8181790242302597,-0.6321199681990801,0.16443593986553703,-0.05411382450196899,0.35714266112005055,0.10629325960218433,0.7054005962759652,0.22879990777920656,0.01514743834453716,0.2233564308373716,0.18703680731408195,-0.09331746299433992,-0.04283363882331161,-0.02449077048707107,-0.08549018672285866,1.0085851315970542,0.186353556554221,0.8047549611426325,0.26385433814726966,-0.33128295576067746,-0.3797049086955059,0.18950152692251793,0.709149342756807,-0.5368142925504011,-0.4692099931834806,-0.4950447764065663
423.0,9.648906946182251,0.30721941931242924,-1.0354701552114418,0.981056618393503,-0.06208313710085511,-0.03436527600760386,0.40064231804905087,-0.4989501465495327,0.1437945117270656,0.5654939798997607,0.8282269825980616,-0.6211685335033248,0.1655972921906807,-0.04086089922765107,0.352125507692483,0.0969452343626543,0.708473729606196,0.22290636109592143,0.011523875112216635,0.22742839877942797,0.17082846519390596,-0.09615470598327974,-0.03748236818147278,-0.018928742348553934,-0.08456331779506457,1.0105534811303505,0.18588937329448857,0.8132484786400387,0.26163097433789995,-0.3195476875407116,-0.3546999523646564,0.2273654464683042,0.717919564054049,-0.5575331996343611,-0.47907465871078425,-0.4817852238103689
427.0,9.700979709625244,0.32290427092691787,-1.028221578721368,0.9829480206821566,-0.06200160762503654,-0.03793026326074991,0.41476692992268815,-0.4846320281886376,0.14002739648733212,0.5575208974911837,0.8357449005746678,-0.6106082324771264,0.16411244965039418,-0.02752249450012501,0.33590285608606685,0.06871041582682594,0.7171261553312682,0.2109577167880948,0.005108287656081449,0.23109741530119723,0.1547381574745584,-0.09923100091048939,-0.034426726376932254,-0.015718358519245332,-0.08416236710591884,1.0106002256723912,0.18636542559800784,0.8187806283281724,0.26308210717199415,-0.29520857654412136,-0.3269276276967571,0.26683546504853806,0.730335675877851,-0.5738543404197675,-0.4886152832030046,-0.4636762378915545
429.0,9.756711483001709,0.3404342092696197,-1.0190438323675979,0.985803099775326,-0.0632462829184568,-0.04090760272010158,0.431161712998293,-0.46656774302195325,0.13215065841741844,0.54636799563564,0.8376902990461315,-0.6072542710564515,0.1632822172890549,-0.018556315876117842,0.30289342695298604,0.01720588224179332,0.7337628485344128,0.1916327063021669,-0.006336631271599127,0.2356601248549116,0.14245819667716042,-0.1060480220632852,-0.035856611159596645,-0.014119230037862718,-0.08422078315480583,1.006649289939354,0.18665186846101775,0.8187362942510626,0.2639612888238022,-0.2619293684353579,-0.2992040677844563,0.30433878108680157,0.7452529724374819,-0.5866413243545854,-0.4999935139290954,-0.4486477662645477
433.0,9.806300163269043,0.3547953313135158,-1.0109306180052355,0.9882371983668672,-0.06354344661527488,-0.04337437166819821,0.4467975124263929,-0.45058247078197183,0.12089987124785931,0.5333286780787271,0.8358440794663774,-0.6082380533543842,0.16274112514859013,-0.014330172412599741,0.2639549784040299,-0.03954135427021241,0.7549531489614064,0.1694272340209599,-0.01970220374219758,0.2381685298104872,0.1347836541003533,-0.11188732217167603,-0.03871339775021898,-0.012371668575054407,-0.08505127421214168,1.0005146757089285,0.18794329985274177,0.8151624901905383,0.26600011110747246,-0.23066767856150067,-0.27503881823268594,0.33014556478576906,0.7602550179475688,-0.5925844849173153,-0.5069415764321753,-0.44220059077200435
435.0,9.856900453567505,0.37025333172555513,-1.0015871555867044,0.9900713001694876,-0.06270238780377654,-0.046985707216532224,0.46736199576432336,-0.43235640533952924,0.10608731730814877,0.5168665910914809,0.8336616856467576,-0.6104726429893615,0.1609506392044121,-0.01479109377965241,0.2070264866205188,-0.11411006038141222,0.7952308104470296,0.1335921753776475,-0.03993343583608411,0.23703348402747157,0.12945600625731976,-0.11621317653106465,-0.04411340832178928,-0.013154514550648063,-0.08565255248917367,0.9898172587778367,0.1899876989444416,0.8039729770961244,0.2733263079724483,-0.19074533098027346,-0.2483934321709124,0.3461238790123933,0.7803801995399191,-0.5905703821898174,-0.506603837561735,-0.44574768793948305
439.0,9.893454313278198,0.3823725904451592,-0.9939254724467192,0.9907977736201676,-0.05980786639191672,-0.049403340079005556,0.4877883030946885,-0.4177118569278385,0.09030742013744336,0.5024725074852263,0.8315294404450394,-0.6111417002944239,0.15863423001855356,-0.019504633918720128,0.14965148001524872,-0.181620425481279,0.8418057977620592,0.09666678515781846,-0.06160148837003786,0.23231708751608873,0.12455931461045287,-0.11767072199341752,-0.05117448853447029,-0.01354298163692621,-0.08645713353352821,0.9786230429872984,0.19251782153766775,0.7917292919840646,0.2808649395607711,-0.15677831741852388,-0.22555083050821403,0.3509185249714101,0.7994479907815841,-0.5831598354097706,-0.5006514183651043,-0.4566862487112359
441.0,9.958213806152344,0.3950194198466801,-0.9852656902300703,0.9908035106382762,-0.05717439496649942,-0.05205693622967937,0.5119583538065191,-0.40359354133585706,0.07260172908252431,0.48451804743446997,0.8308173560153553,-0.6117750041434388,0.1550193469624796,-0.032754437618225676,0.08027522096283088,-0.2500298347566892,0.9087115823187033,0.04859815306794496,-0.09284531963943204,0.22495763554425394,0.1233058161046435,-0.11659952103702151,-0.06533852416994801,-0.012956718863784354,-0.08730659875419297,0.9638947760595314,0.1950814034464271,0.7764268807135845,0.28663634633173657,-0.1185154045088897,-0.19955593190937906,0.3429177777056813,0.82278506560505,-0.5666009018550513,-0.4868677112983263,-0.48043904909323104
445.0,9.997273206710815,0.4054654560120715,-0.9779063976089496,0.9904563447563239,-0.053371489229802685,-0.053199711271977035,0.5353232560193918,-0.3923112171068619,0.054644063633718445,0.4680136265901669,0.8298537866316438,-0.6108335861036753,0.1518518508525547,-0.05000457068910187,0.018035223549284756,-0.30215692524590326,0.9750120437354767,0.0015910733201975405,-0.12330784719327605,0.21640075714592066,0.12084430035530128,-0.11385063243387081,-0.08152815965693314,-0.013197388019889452,-0.08761687598719052,0.9503557188019196,0.19641824394675586,0.763670318739421,0.2895924369680825,-0.0867332831252058,-0.17854934323545846,0.3307224598208497,0.8442930656935794,-0.5487788467865838,-0.47016832095176764,-0.5026311453931841
449.0,10.060831308364868,0.4161546473236517,-0.9699708216115874,0.9893267858229038,-0.04803466603809693,-0.05487246309306214,0.564067168121813,-0.38063851816783584,0.03496404894841541,0.44950827063822296,0.8313326987731346,-0.6078934325397393,0.14875317302234475,-0.08183477601327818,-0.0330766900489565,-0.3271734935823345,1.0501561344899089,-0.032735231193012485,-0.15284225884918612,0.20469999178690068,0.11892903989296803,-0.10603148159393033,-0.10704986644332048,-0.01504966570361363,-0.08492321788938256,0.9355690070436151,0.19453117809292983,0.7544927172397002,0.2895160563455435,-0.05497311019187302,-0.16134418657686916,0.3120204510363752,0.869687988979023,-0.527966309069004,-0.4420424275483593,-0.5255876753464939
451.0,10.122009992599487,0.42709044682311137,-0.9613099318645673,0.9877308039128301,-0.04074284390472412,-0.057343293363060266,0.6006849545608899,-0.3676623838539559,0.010242006219017809,0.4252226908131433,0.8338451503304636,-0.6039031070207268,0.14477742921809097,-0.12927508432010237,-0.061159227613764494,-0.3183085374342714,1.123438183364812,-0.04065224054332229,-0.17216110987203875,0.18963456345620794,0.1168133479502812,-0.09304410708914693,-0.1406061432554646,-0.01559722764763706,-0.0812954840558183,0.920410462702212,0.19259807172820634,0.7477278230775217,0.2890523424574432,-0.02371843169287339,-0.14722898368012544,0.29303325265707586,0.8989124543666092,-0.506501371542395,-0.39951550377374045,-0.5372974290429011
455.0,10.175835371017456,0.435621032904922,-0.9542370069654944,0.9862390542046398,-0.032792761805519405,-0.05866170689020092,0.6347658186452583,-0.3571561398476184,-0.01466905692300133,0.4015699110037109,0.8350796170733417,-0.6001165433390491,0.14198563104595208,-0.1752765193681068,-0.06982286663668116,-0.29170110497794394,1.1774755424169805,-0.03439741786965521,-0.1797114905202682,0.17415601629056204,0.11319488577310002,-0.08102877968397608,-0.1701098891148072,-0.01623257781521619,-0.0799765647103894,0.909453211564059,0.193158443993407,0.7419302229348923,0.29077696167067035,4.811535786562564e-05,-0.13917440824136945,0.2789375396425416,0.9223543553682854,-0.48939602887814165,-0.35696830122982204,-0.5372053495809316
459.0,10.220091819763184,0.4451693081676146,-0.9457575921687159,0.9850986294001667,-0.024623568516118317,-0.05991186256677238,0.6769089632344503,-0.34564066191197795,-0.04528036687136791,0.3677373063283779,0.8350263951418517,-0.5970890522891058,0.1396651846164269,-0.23070953726633742,-0.04789409854427789,-0.23368158887438467,1.2142912157881884,-0.006135196487880308,-0.1731276484254271,0.15412040857999976,0.10982049120481749,-0.0686474145953504,-0.20780143226475067,-0.016963921792736394,-0.07902799874647318,0.9023187869997551,0.19482788243307358,0.7420356460275915,0.2934349285649189,0.02277213904148177,-0.13364030191205828,0.26583386299504896,0.9460626471118917,-0.4702642956542769,-0.30258641576200057,-0.5189846949359779
461.0,10.28910779953003,0.45571977805416225,-0.936629423216769,0.9841667010675141,-0.016923394831407382,-0.059422044004825515,0.7255458047416461,-0.33396762380759437,-0.07999740934385158,0.3261024015676711,0.8332164389365033,-0.5927526631258841,0.13628652618137688,-0.2878047137972828,0.008238284617603977,-0.14509979087811944,1.2284503851703508,0.04670205487129999,-0.15165210594674144,0.13197833364772157,0.1051341469874327,-0.058059021428514296,-0.2512123375670573,-0.01447366390297799,-0.08209656769510756,0.9005074447488288,0.1994063933163602,0.7475170460746844,0.2913022427790159,0.04516035831505467,-0.1280839804487173,0.25730336214450555,0.9649249594097756,-0.4508859854322891,-0.24739572474078114,-0.4833301948747324
467.0,10.3495352268219,0.4646080491908091,-0.9289137399152813,0.983578178730933,-0.010648210331179844,-0.057663516821009723,0.7678644313700025,-0.32387967042645044,-0.10797788302555515,0.2926214622623583,0.8301802346803622,-0.5858701677113936,0.13336645664758168,-0.33171344580876494,0.06771511932495097,-0.060071127490572224,1.228477899340298,0.09847529189729994,-0.1271844351918089,0.11202567275964317,0.09993388692174839,-0.05051451007018949,-0.28764040392876933,-0.01273259398186717,-0.08695586904674171,0.9021405760107786,0.20420967757050984,0.751947099338366,0.2870080153183333,0.06418827803338523,-0.1263524703073897,0.25414372867303314,0.9739509758234902,-0.4368213998593793,-0.20412847531142614,-0.44671503023431525
473.0,10.425877809524536,0.47668819346444014,-0.9174611939134409,0.9828520189507683,-0.0063870610668488115,-0.053613843702699934,0.8295157703484886,-0.31173106693913927,-0.13835660407059822,0.2511724377127985,0.8280648573294203,-0.5741054261745909,0.12702194712113796,-0.3813812510332456,0.13640597776116692,0.03966365118456175,1.2026518653003284,0.16191459451388446,-0.10768833621987617,0.08224583766616936,0.0948699977301532,-0.0455940880598747,-0.33268653834356166,-0.015194139823181092,-0.09806236422170024,0.9040818950367152,0.21261514582343977,0.7549223414254141,0.2813319431134199,0.08625510954924483,-0.13336374245098997,0.25805514925019196,0.9741124038461311,-0.43022858125443686,-0.17393113285752354,-0.4077187150437166
481.0,10.531463384628296,0.4897920115724246,-0.9027413541143418,0.9827810771277129,-0.003987890241856199,-0.050364590175033454,0.8974953210586925,-0.2948945294299863,-0.16715076978575039,0.2061475498237968,0.8244839863192075,-0.5610747464565438,0.11926431960098872,-0.43630166824337036,0.17297778565229516,0.106561033206806,1.1483611772291107,0.20337114032599335,-0.11279288897581036,0.05252153068165936,0.09196347931715454,-0.041394710059810755,-0.37613015975328185,-0.0215819821767831,-0.11154982918591755,0.9022664360480708,0.2220914063676124,0.7473250734242237,0.27756220116994923,0.11054883723005772,-0.1445071387040463,0.2607953290902545,0.9611604106319299,-0.42799849647853283,-0.16578515385032125,-0.3917702863194006
487.0,10.667194604873657,0.50492495621411,-0.8819342513325432,0.9837305976128163,-0.003846846934035885,-0.04700363838115108,0.9659860153591067,-0.2679891993977407,-0.1947715428562019,0.15787043766981032,0.8133706471185528,-0.5497323065347093,0.10979077893852579,-0.5020428382792332,0.18819171669016665,0.13502229793715367,1.0550497313035794,0.19051564945865274,-0.13052046595657507,0.03291655214472449,0.0924672455604307,-0.04053356807933668,-0.4169760457083924,-0.031202861530591083,-0.123256509523632,0.8947666560244283,0.22790188845128462,0.7317561235770754,0.2706206157684125,0.12369021133698865,-0.15466631128444097,0.25603839497778735,0.9410290477377645,-0.42388538576540225,-0.16443830393273384,-0.3926966183209678
491.0,10.749370098114014,0.5193271169929103,-0.8596638996328737,0.9854803489881436,-0.0031840531941681478,-0.04448996695575147,1.0228524603077092,-0.23436320310706824,-0.2183795223953204,0.11347077228879841,0.7945248108077714,-0.5407360897255524,0.1011282223967735,-0.5535775991229299,0.19138906294614638,0.13406817112555058,0.9624282973984863,0.15178056655504435,-0.14344707004606955,0.02200476338787352,0.09552341753567531,-0.044321859373314995,-0.4356608927457215,-0.04235236488447793,-0.13463902713314202,0.8853646465513967,0.23160036270641804,0.7175123119596809,0.26202811345565785,0.1363836655332022,-0.16424211000296368,0.25026952263969415,0.920657021658015,-0.42130007355826005,-0.16865074651968703,-0.40253161165848644
497.0,10.841945886611938,0.5313190735336487,-0.8392494084312732,0.9867091276459781,-0.004377221168516835,-0.03948763352889028,1.0615189820892164,-0.20427143900542033,-0.23642369211941675,0.08159855615087978,0.7740200473134901,-0.5322182207373537,0.09296636859950314,-0.6051568491493144,0.17945591167187505,0.08940992594814114,0.8685969305099432,0.09420293322092439,-0.15004105522933792,0.025847147601231538,0.09530407382581853,-0.04500441690841692,-0.4459403916244634,-0.04881930114018922,-0.14194829066370207,0.8767799035718814,0.23322702587441416,0.6962823437675698,0.25429911975461916,0.12490174164064508,-0.17480214263986926,0.24186301285878775,0.8993046749526037,-0.42069263991068734,-0.17164914966945966,-0.4157562550651118
503.0,10.941287517547607,0.5434953344163682,-0.8175631629811899,0.9870635056780812,-0.006176575829497476,-0.03301037472402925,1.095990575137663,-0.17344246074995742,-0.25478189255050354,0.047921249134723384,0.7541096980029643,-0.5217357090298284,0.08326067605969371,-0.6460733184762308,0.18140868324180226,0.056352456000712134,0.7913164064005919,0.045015711062562996,-0.1509992433824823,0.03213936145703277,0.09310365545389494,-0.045580403773182655,-0.4407581694704321,-0.05077737730945826,-0.1508186346238468,0.8770647371894509,0.23523774586840074,0.6860308439799867,0.24041256526003651,0.10501110910009284,-0.18439671372291713,0.23202991203472045,0.877599800521855,-0.42065366168941953,-0.1760118535375,-0.43146578546886194
