ccrpRepo/mocap_retarget/src/mocap/src/data/output.csv
frame,timestamp,posX,posY,posZ,roll,pitch,yaw,left_hip_pitch_joint,left_hip_roll_joint,left_hip_yaw_joint,left_knee_joint,left_ankle_pitch_joint,left_ankle_roll_joint,right_hip_pitch_joint,right_hip_roll_joint,right_hip_yaw_joint,right_knee_joint,right_ankle_pitch_joint,right_ankle_roll_joint,waist_yaw_joint,waist_roll_joint,waist_pitch_joint,left_shoulder_pitch_joint,left_shoulder_roll_joint,left_shoulder_yaw_joint,left_elbow_joint,left_wrist_roll_joint,left_wrist_pitch_joint,left_wrist_yaw_joint,right_shoulder_pitch_joint,right_shoulder_roll_joint,right_shoulder_yaw_joint,right_elbow_joint,right_wrist_roll_joint,right_wrist_pitch_joint,right_wrist_yaw_joint
2.0,3.8186447620391846,-0.1713148384620936,0.7001456996459299,1.0062104159236482,0.017724522406029928,-0.05842034789271401,-1.5709457386018815,-0.42820674870327957,-0.13528348689346353,0.025939760197582113,0.964179505619895,-0.5337655871773406,0.15066416743098074,-0.3828961960283533,0.2843331898773501,0.18646716771591038,0.9621865093052726,-0.22694825683468678,-0.0225501315375174,-0.03891797988373989,0.024872224867702575,-0.0076680978294609735,-0.10937844291408819,0.018872006690449587,-0.04442370244312202,0.9125656361120087,0.19009948628659235,0.7337631472209369,0.322475536426991,-0.026112266090707246,-0.13649203149986444,0.14509743069662945,0.851058584791808,-0.4106770811474355,-0.41639073669357984,-0.6389112093026521
3.0,3.868319272994995,-0.17189314361586916,0.6998975087599215,1.0060497412251175,0.017453839037477725,-0.05872547101680762,-1.5710556054020013,-0.42850094762338364,-0.13478139381302845,0.026543250107985784,0.9655799067561004,-0.5335084783230799,0.15043834256737748,-0.38266951425266904,0.2849939072788352,0.1867267466973557,0.9627889435797103,-0.22660733790352272,-0.021831653122503014,-0.038404603895905526,0.025488360462125055,-0.007607444863299865,-0.10792924827701507,0.017338914643420193,-0.0449461146357816,0.9126493377275409,0.19012431234746785,0.7338398290391294,0.32290811603945435,-0.024887572464069186,-0.13291422641644454,0.145189088986711,0.8528252675093718,-0.4096009357151888,-0.4154330462448907,-0.6400511563280358
5.0,3.92075514793396,-0.1729068917713577,0.6994405566475046,1.0057666233289662,0.01749723658840645,-0.059308826535210635,-1.5711586208023762,-0.4295788749524089,-0.13400845892250984,0.027641570145749632,0.9683736863447053,-0.5333750477423376,0.15022864404537706,-0.3827539954900632,0.2860913430182993,0.18709919813337766,0.9640530975376138,-0.22640411707736807,-0.020687187578083258,-0.03771970520515551,0.026483787551934576,-0.007977527318370776,-0.10639315392161394,0.014805263676750464,-0.04522463051134969,0.9127878451701262,0.19005939465859142,0.734321394288574,0.3244755183139837,-0.02392115779012139,-0.12699982615915884,0.14576393849020736,0.8559538591080762,-0.40825117957788304,-0.41415077981362514,-0.6417530792822406
6.0,3.9873862266540527,-0.1747440709396899,0.6985692574485558,1.0052340105246294,0.01819106241654865,-0.06044894082401779,-1.5707260575830864,-0.43236649324508303,-0.13298119631287092,0.02955517663710472,0.9741522355025047,-0.5333032072253715,0.1504170772319851,-0.3834751343037123,0.287605405832571,0.1871811638256991,0.9663666942879876,-0.22676798518246766,-0.018881551403088417,-0.03763168302083063,0.02877542515914756,-0.008779093972458869,-0.10452133046031531,0.010378620025392726,-0.04481099866005582,0.9130868809019674,0.1895343070757961,0.7358046272548721,0.32785110818059937,-0.023114389992068073,-0.11723748972248155,0.14780543698226323,0.8615117634716128,-0.407131816743837,-0.41237165160459416,-0.6443877048241671
8.0,4.016809701919556,-0.176565089692483,0.6976835230259031,1.0046707142091482,0.019087949914021324,-0.06157048038074135,-1.5699564679149867,-0.43579613024997355,-0.13181667519861684,0.031758596048828476,0.9808518370913784,-0.5333789992116837,0.15093995961914336,-0.3844405015429752,0.2889691840176858,0.1869609835028873,0.9687638039141604,-0.22751722455109724,-0.017199829407821825,-0.03815438364546821,0.03103637732549261,-0.009893455357057015,-0.10294138598621917,0.005880790498280521,-0.044139126071072836,0.9133491260789426,0.1889071788182073,0.7375431844352194,0.3315469581724443,-0.02280324437907867,-0.10824103659182366,0.15017764052793664,0.8674434677526396,-0.40649938881916575,-0.4112007246945578,-0.6469937800976279
9.0,4.072150468826294,-0.17876537341763743,0.6965646686469081,1.003945461268414,0.020267354439768924,-0.0631604560401984,-1.5680726813210408,-0.4411415805608764,-0.12977713427315246,0.03603266243424359,0.9911212122510389,-0.5333561062562248,0.1524371206934185,-0.38548441630563673,0.29000123024384444,0.18621212474872106,0.971647038863908,-0.22931580077524635,-0.015519525741219354,-0.039930505310343714,0.03327163301996551,-0.011515498682672634,-0.10196359933646787,-9.728587632097316e-05,-0.04351445554467065,0.9141480354679201,0.1883660243553332,0.7398062327265499,0.3366105636640344,-0.022680042503765648,-0.09969360218261755,0.15321349604460582,0.8742481240387762,-0.406688234458219,-0.41109229263387315,-0.6501766708393406
11.0,4.124966144561768,-0.1806653063651632,0.6955839396833663,1.0032968277210372,0.021344416446121665,-0.06455103236348032,-1.5659547772816502,-0.4467285173166606,-0.12747162478631374,0.04081086658646768,1.0016523426151291,-0.5335551188555661,0.15422103186605432,-0.38633205131711307,0.2907011747002901,0.18538012608497734,0.974132508546535,-0.2314015992799618,-0.014186886887936774,-0.04200551446920556,0.035039057968777,-0.013202501607713914,-0.10148561052597872,-0.005724421148888112,-0.04315640026951362,0.915164396029968,0.18814624967502425,0.7421919872744214,0.3416894121645413,-0.02264505868505018,-0.0935999674197129,0.15590566374523926,0.8804720662088223,-0.407262165786336,-0.4117949751423434,-0.653257013046648
12.0,4.181825160980225,-0.18273028384237172,0.6943325655291409,1.0026144873218827,0.022247627377712027,-0.06599300472510151,-1.5632053086891804,-0.4539288305353132,-0.12404642138518371,0.04813282942280429,1.0154505055471006,-0.5345076034478873,0.15720382615261141,-0.38649870329692015,0.2912453982172657,0.18443655957112884,0.9763734302986642,-0.23401723083286896,-0.012820100888709855,-0.044459640152959806,0.03719579410856429,-0.014654174625307244,-0.10194506459866454,-0.012872519918643355,-0.043164447187709135,0.9170762211006307,0.18856444158789873,0.7458476434741976,0.34898959308564764,-0.022108594274302305,-0.08918518685509494,0.1584623919133228,0.886642575960872,-0.40833175452782,-0.4130602283429544,-0.656856801077131
14.0,4.2190773487091064,-0.18446075976384652,0.6931198475980745,1.0020472167446643,0.0228286523297457,-0.06683375099891867,-1.5609341087729445,-0.46078293759848854,-0.12012352456702233,0.05564924676165517,1.0286296469067708,-0.5359409776337799,0.1604253917133499,-0.38624616015619695,0.2919380006484751,0.18351381802109334,0.9779362269025937,-0.23615612176585898,-0.011608209191683894,-0.04634264166209418,0.03940561438488555,-0.015770015302696044,-0.10279243606707911,-0.019665205473755203,-0.043173861093522864,0.9190902397137228,0.18914822850263763,0.7497396785821206,0.35644680192941036,-0.02154876018609466,-0.08665389889156937,0.16042631732965612,0.8920297400493097,-0.4091680631001796,-0.41445781424177075,-0.6597148728755168
17.0,4.2914910316467285,-0.18635841272382855,0.691437080137224,1.0014975223993068,0.022639949547032436,-0.06735398628460317,-1.559127064363645,-0.46853053151878077,-0.11420774627801272,0.06621024952028473,1.0439662464012984,-0.5374291832504586,0.16470414166763198,-0.3845200131419869,0.29308577325367335,0.18261440847205956,0.9786708222282279,-0.23788862462096766,-0.010302187283944988,-0.0474036585026917,0.04179423463514487,-0.016263933509858573,-0.10386768856429829,-0.028216986383837538,-0.043399371961122285,0.9215664229774546,0.18990554402669196,0.753891759623349,0.3654306109148982,-0.02013548252880373,-0.08653023210529465,0.16226912210525665,0.8971522148172777,-0.4100948072066457,-0.41547399780063743,-0.6607953656023358
18.0,4.376976728439331,-0.18892270042179848,0.6887001137076851,1.0009126681737799,0.021463953131368996,-0.06777901992298213,-1.5589431320659128,-0.4792293146352814,-0.10626527438448585,0.0810610963806828,1.063649449530417,-0.5368021460415409,0.16947732075539795,-0.38046610532609537,0.2952790778138388,0.182133027347531,0.9785280215985881,-0.23901357860604316,-0.00886554034960917,-0.046098635232850155,0.044242396516275484,-0.016550058603132398,-0.10405029009769057,-0.04027242857825869,-0.04420394421158179,0.9243860905655492,0.1905365759250966,0.7566099688911362,0.3759720410320498,-0.016442902632923577,-0.09035936970810506,0.165496873785361,0.9020565830929099,-0.4126850490555005,-0.41767221536042076,-0.6592572643484664
20.0,4.424871444702148,-0.19094861656110818,0.6862711370622929,1.0004935870255505,0.020611121472819446,-0.06755019535861144,-1.5601048171847363,-0.48897310645819814,-0.0991523328370141,0.09356920094408565,1.0799544352502395,-0.5349574429647971,0.17298535582921937,-0.37698527970607565,0.29779977526932383,0.1820628845480065,0.9779014866848563,-0.2391624814193341,-0.007764503216877884,-0.04353970823023905,0.04668442616852265,-0.01730578685042356,-0.1043252320158694,-0.050084349804842394,-0.04466791200495367,0.9266065507598629,0.19072272158943093,0.7581045900061101,0.38417732234764235,-0.013447215486127402,-0.09487731054477574,0.1687025449526912,0.9057184705392229,-0.4153177906377675,-0.4200674896323923,-0.6571222585060639
22.0,4.486263036727905,-0.1930014234156871,0.6834417670294897,1.0001891788822252,0.020359329291786,-0.06735265173137055,-1.5627781414846051,-0.5007164281478016,-0.09299008792452593,0.10603409550166366,1.0951196638601073,-0.5290475889449265,0.17531543106464598,-0.37362812399291556,0.3005014356062135,0.18243116118601332,0.9768571729530529,-0.23809216916857734,-0.006850190102402674,-0.03953200212307437,0.049665821196215834,-0.018989108098939028,-0.10549860828698349,-0.058837054018140794,-0.044686640159948804,0.9283295689350657,0.19013458505396494,0.7584787989743704,0.3902473157050991,-0.01175342221611499,-0.10038644720846529,0.17341105379701066,0.9091922370008171,-0.4195359310936744,-0.4209596835707382,-0.653340318648425
24.0,4.535171031951904,-0.19495785672032662,0.6804301199714105,0.9999124509452103,0.020709399197536026,-0.06706233214420053,-1.5667275622144339,-0.5141281959810269,-0.08961434653131237,0.11600446875053735,1.1074283021535871,-0.5193656971616304,0.17569777817775928,-0.370821840745303,0.3030497753188326,0.18262522656316982,0.9756386119334267,-0.23507606852205698,-0.00616839608636585,-0.034749028854587666,0.05310273741350856,-0.021206648271711502,-0.10737225382458396,-0.06625836507013236,-0.04431781875695355,0.9297629299062007,0.1886377905508875,0.7583139202062681,0.3933472074866948,-0.011856084866411567,-0.10713089989774745,0.17947345709048215,0.9123602425457715,-0.4250799702082463,-0.4199974913252862,-0.6472189641029595
25.0,4.606241941452026,-0.19683081897380567,0.6773062930666139,0.99960405696127,0.02144818104761519,-0.06655331341935825,-1.571808415525338,-0.5288498946911652,-0.08954668046342135,0.12267229131376861,1.11609476929046,-0.5072005217682046,0.17417323182586303,-0.3685590397652718,0.30567718305767155,0.18262704324749776,0.9744017102256719,-0.22961568437257995,-0.0055497388081479655,-0.029466909149169187,0.057087426710505006,-0.02318322593354838,-0.10922319738338687,-0.07236397592006588,-0.0440798519730055,0.9310330212603519,0.18670407312331988,0.7581062064015869,0.3937033910705394,-0.01327764183530123,-0.11499293934191755,0.18654575809651686,0.914726593716307,-0.43137831822215544,-0.4192334341523284,-0.6391088380043961
27.0,4.65891170501709,-0.19837862003925205,0.6746430742537575,0.9993633446946524,0.022257379117024356,-0.06586725090940862,-1.5767125441691632,-0.5417939076125106,-0.09081251675005264,0.12672091758322987,1.1215029367948377,-0.49630018801497156,0.17205873509527458,-0.36678055162285117,0.3083869225218735,0.1829511629977257,0.9730081497196825,-0.22433582699361232,-0.00497152005653782,-0.02471512654596942,0.060800440656638505,-0.024579566071066546,-0.11023730740077178,-0.07686310600019355,-0.04422993916124961,0.9320641448545179,0.1851302273655419,0.757280331490666,0.3930183229364201,-0.014799000480017633,-0.1220321817561506,0.19302010175720286,0.91626445204176,-0.4366539484456124,-0.4186589730206922,-0.6310536156176287
28.0,4.7136523723602295,-0.20001974902684153,0.6716263715635652,0.9992558860283538,0.022896039660302517,-0.0650379708085401,-1.5827555654755403,-0.5553613981229784,-0.09476056699129036,0.12841173940147338,1.1231328117809056,-0.48574953510651653,0.16881104788499604,-0.3641565805853819,0.3119642543947015,0.18415406729760914,0.9707815576208527,-0.22035116701651974,-0.004560595020985346,-0.019327274249572424,0.06434448346507067,-0.024986423426718356,-0.11009900513577436,-0.0801475723380837,-0.04549604449741153,0.9325143531228628,0.18430035538454292,0.7551617909117069,0.3911536419745061,-0.017201157266838678,-0.12976999409898388,0.20037147587562398,0.9172389648571591,-0.44226642959192053,-0.4177155186806254,-0.6203857877203487
30.0,4.752830505371094,-0.20138206610699438,0.6690263527400477,0.9992449357573702,0.023569468465483082,-0.06432134965061614,-1.5880802494925157,-0.5666768584347466,-0.09902143632547647,0.12880006543897254,1.122458606530413,-0.478135043499612,0.16586418205257186,-0.3617391971738023,0.31527212122633685,0.1856395027790631,0.9683647337889753,-0.2181940782489803,-0.004520584690533461,-0.014849275403585535,0.06697150546398029,-0.02530685521799543,-0.10991185099771739,-0.08233145690441905,-0.04708372847586345,0.9329948667831403,0.18403052222614769,0.7530466789589589,0.3892861308383232,-0.019906048134153673,-0.136683523830538,0.2067551545888555,0.9175061328072471,-0.4468368340882287,-0.4166582201299547,-0.6105104454291114
32.0,4.810627698898315,-0.20300961630223713,0.6657983638131331,0.9992342848925686,0.024518722990109917,-0.0639687358825144,-1.5936186145688525,-0.5793486134859467,-0.10483491321302585,0.12903617583291369,1.118668763036227,-0.47232972723930877,0.16308793339525574,-0.3585601571372587,0.3187347251867366,0.18746904018716293,0.9654002513924722,-0.2175078328883371,-0.005345804150708505,-0.011005554117382622,0.06852455181076011,-0.026099368210356293,-0.11073715770538978,-0.08462172541662245,-0.04932211828407369,0.9340174575647336,0.18402026630977475,0.751520765121676,0.38658983057942564,-0.02450065871791892,-0.14562547934352607,0.2135283266279076,0.9171053761543504,-0.4520158924072265,-0.4156896404931791,-0.5985599699102981
34.0,4.870493173599243,-0.2048997340748811,0.6619548588011003,0.9992017973828067,0.0256949583948589,-0.06395617530555983,-1.599054837606793,-0.5931147462825199,-0.11086560843354282,0.1305312413032015,1.1116066080738727,-0.46796630258350375,0.16118761480003968,-0.3544486545132986,0.3226431900305867,0.19011350192261506,0.9620858121035972,-0.21790516997011172,-0.006668484736639233,-0.008636787304336473,0.06905184823579272,-0.027130048075030562,-0.11181021210080676,-0.08708796989573885,-0.05184765178979529,0.935534396536716,0.18371517297315798,0.749902452681399,0.3824006946454622,-0.030253124381800417,-0.15615612121476213,0.22010608676496535,0.9160657013081137,-0.45724158579764745,-0.41470662966755056,-0.5852461361587276
35.0,4.941682577133179,-0.20689225407390896,0.6577064790971168,0.9992159245748913,0.026825713732154734,-0.06407560199233191,-1.6043647726561296,-0.6068357022450213,-0.11695164680107317,0.13275874383868272,1.1011652647549708,-0.4657871545492107,0.16004319300406322,-0.3493887358325112,0.3268321212000056,0.19358913799915203,0.9584283196084259,-0.21890023559568644,-0.007864929952248731,-0.007551750007668919,0.06859730257456562,-0.027976782234644795,-0.11226529088135889,-0.08927848349720374,-0.05491498262499903,0.937331558373126,0.1835796527437631,0.7474800334141387,0.37729317004664503,-0.03642954556340066,-0.16687197358558858,0.22565354834459228,0.9146564261035014,-0.46161506966527016,-0.4123005788427151,-0.5716154276243112
37.0,4.980523586273193,-0.20852042368475482,0.654033371487915,0.9992441560234001,0.027830243264051126,-0.06410787192913266,-1.6088159095832109,-0.6180899511090407,-0.12237949432993286,0.1343660495628284,1.0908935629719947,-0.4651685702732218,0.15919519781647198,-0.3449494241274459,0.3302758535927176,0.19666972167883628,0.955198533650391,-0.21935947872932143,-0.008538173285197107,-0.007042042880153725,0.06807680746194728,-0.028737609221045405,-0.11256670942518825,-0.0907477741894275,-0.057817866567408074,0.9391876122796321,0.18366331496353316,0.7448296068801246,0.3726533852993718,-0.04178406340876524,-0.17562956993524548,0.22962598271292467,0.9129063820510184,-0.4645681019790838,-0.40948963626753976,-0.5607154043986698
39.0,5.046874046325684,-0.21014451060762118,0.6499155034955253,0.9992719914390381,0.028768548720876842,-0.06354003110853801,-1.6134657873659222,-0.629496439370679,-0.12854285019485628,0.1350813650739449,1.0782059347592992,-0.4665371512322643,0.15828393142890207,-0.3399808556576567,0.33339972917928307,0.19888126206086887,0.9515455265860597,-0.21826370351743857,-0.00857478497767309,-0.006795682563319687,0.06795619272118461,-0.029427146086798965,-0.11356300362924109,-0.09120303244280056,-0.061428100821997456,0.9414204160974655,0.18429344183175694,0.7424037608524754,0.3669873297938152,-0.04814432505258345,-0.18400239282194528,0.23209816240135017,0.9102407737353582,-0.46693569827067644,-0.4062639348480437,-0.5523619147366925
41.0,5.126638174057007,-0.21175007007374494,0.6453720698771055,0.9993737982591279,0.02930040956489586,-0.06250918245754974,-1.6182277919924277,-0.6405977277269438,-0.13452517645138962,0.13619467984464562,1.0630807107626588,-0.4682107235584461,0.15768555210855822,-0.33409667198899484,0.33585432187037156,0.20009116435523933,0.9470727404082412,-0.2151942227712187,-0.00811768895358519,-0.00686964646048323,0.06837822937675005,-0.029459791996758383,-0.11477371017333428,-0.0906153460386219,-0.06562675148094715,0.944274668996924,0.1852404029430188,0.7413904188361353,0.35974433074867673,-0.05455451577452227,-0.19174365046115993,0.23332223838441818,0.9069702527051227,-0.4688121084358699,-0.401658247455723,-0.546124281488465
43.0,5.183755397796631,-0.21338788853905405,0.6404129862162548,0.9995521711960564,0.0294569877503593,-0.06137926330164868,-1.6231816061540245,-0.6513500232707892,-0.14023364014589812,0.13823719885373095,1.0455764912801502,-0.4687919525886801,0.15723235094552718,-0.32720061252191845,0.33774597689434926,0.20091707133148767,0.9416387677141956,-0.21045037895258167,-0.007474368405231755,-0.007431668257224941,0.06869117553082277,-0.028746317306819973,-0.11574839061555439,-0.08978931302563978,-0.0699711044743997,0.9476436767811338,0.18610171228513223,0.7416983880641242,0.3515028689937883,-0.06027020438876865,-0.19954081368417825,0.23333372132012026,0.9030226576923741,-0.4700922188704425,-0.39572956723125996,-0.540994127429549
45.0,5.261343002319336,-0.21515830048186363,0.634943987410179,0.9997977883364617,0.029670301984655797,-0.06017042142752924,-1.6285852272350114,-0.6623487892082072,-0.14602886518391833,0.14050786694232031,1.0263255980121468,-0.46749295853149975,0.15641366013332553,-0.31946340131895,0.33979243604251785,0.202204429179339,0.9354787380371117,-0.20547057595407103,-0.006985765959244104,-0.00789658127216967,0.06899852796143754,-0.028104544675211535,-0.11735464970757839,-0.0889189041619722,-0.07410135142646304,0.9510992753493626,0.18684329070991307,0.7424342857489643,0.34323239519133864,-0.06579317040475302,-0.20786344814972324,0.23199058187943533,0.8978265211340246,-0.4709040664269594,-0.390387611569744,-0.5377733631593946
46.0,5.317164659500122,-0.21703012807953803,0.6291429843120799,1.0000878253078302,0.030057652691778097,-0.058811772047399416,-1.6344139973498417,-0.6731140400009508,-0.1517016529355646,0.14244391239701684,1.0065221420703896,-0.463084203395775,0.15492516047385782,-0.3112272183207465,0.3423034139274299,0.2042456604387099,0.9289306531737658,-0.20087551794490394,-0.006656265245753725,-0.007701241301867287,0.06945288960310328,-0.02793709537552315,-0.11983980728836438,-0.08776156081172509,-0.07760737759579112,0.9541733618775584,0.18749124306399545,0.7431940362431482,0.3358492089963454,-0.07112178326305672,-0.2158292210648445,0.22915952235369344,0.8916169207282176,-0.4705777055480709,-0.3863300073387209,-0.5361022269320939
48.0,5.355419158935547,-0.21858431292586783,0.6243561258710707,1.0003298630675836,0.03052531387354726,-0.05776780527066387,-1.6393173580036098,-0.6814861689370706,-0.15640720145049186,0.14370944337048625,0.9900234119381226,-0.4572510539608249,0.15328794534991974,-0.3043536812512273,0.34448259594634134,0.2063824847671229,0.9232471287627135,-0.19702813203695105,-0.006360991590842635,-0.007172914930895114,0.06986141710142796,-0.02794879130315226,-0.1224085233617204,-0.08655916238354022,-0.08002198711274071,0.9566975784046137,0.1878350523193139,0.7434379257776227,0.33020799592510164,-0.07516539186984439,-0.22196131039059736,0.2262661541380553,0.8857528663107503,-0.46961366307783403,-0.38338122814852604,-0.535071306323015
49.0,5.412674903869629,-0.22032863932548785,0.6191568273324282,1.0004847335207687,0.031072714569800153,-0.056501489225724386,-1.6446178668310765,-0.6902925501833768,-0.16125681531564745,0.14476793870216026,0.9728946779991507,-0.448534439841236,0.1510138514688792,-0.29695423837199575,0.34701013407231107,0.20848534758741738,0.9171588348137936,-0.1926504861502718,-0.005878991339773069,-0.006780620735915736,0.07037161944573526,-0.027778819966588087,-0.12496723441862052,-0.08439462694624347,-0.08154703117401205,0.958701875473644,0.187850908592682,0.7437604355601879,0.3248838341286784,-0.07886529571999024,-0.2272975961852815,0.22284607190183658,0.8795254229020637,-0.4682260275643417,-0.3808743840727631,-0.5348264534240561
51.0,5.460673093795776,-0.22180438661666868,0.6148451398585617,1.00059349034227,0.03153961271089846,-0.05545160065234926,-1.6489682402140198,-0.6972271929064249,-0.16515376169954685,0.14566060365238012,0.9584907631358768,-0.44001077089695706,0.14883981298523388,-0.29066807895387065,0.34904778150102933,0.21017593982671307,0.911782309059425,-0.18853153258842237,-0.005326283111480317,-0.006617983167108536,0.07080097525386037,-0.02736654997290283,-0.1268812560473678,-0.0821171498537337,-0.08234913647808398,0.9602209196694282,0.18772685593488997,0.7436044970652734,0.3209297446828704,-0.08121282280664321,-0.23102912940953269,0.21987790138934504,0.8740193474423037,-0.46711403087040554,-0.37851526771815514,-0.5356321713658287
53.0,5.510203123092651,-0.2235273078289371,0.6097300347843108,1.000629781308693,0.03181963252377893,-0.05391170744741666,-1.6540451498785993,-0.704692590788228,-0.16902283085651393,0.14687162555875571,0.9430516300968754,-0.4305652268973992,0.14583823429288317,-0.28311196410101613,0.3514260865727769,0.21164794014656962,0.9057602862416099,-0.18388474250091202,-0.0047225028344748425,-0.006403258440662146,0.07120226672120727,-0.027010108019419207,-0.12836960296026795,-0.07916492655785941,-0.0826992379754319,0.9608478266099353,0.18787472600317,0.742795462596628,0.31849204346803117,-0.08336039563250325,-0.2340982103810006,0.21583005866347132,0.8684179679038866,-0.46566322776115576,-0.37539543066262837,-0.5384951918737794
55.0,5.580014705657959,-0.22547088063585446,0.6036503581880791,1.0005212113138433,0.031844093611389075,-0.05183426274045545,-1.66017278678141,-0.7124953493057582,-0.1734287519890404,0.14747987499742135,0.9267189463947129,-0.4208022757202956,0.14152451186780485,-0.2740211576635428,0.35422388082424083,0.21317972632690704,0.8990708276205774,-0.17913370855607474,-0.0042279513623881704,-0.0054981408522725836,0.0716944748846799,-0.02692380249333369,-0.12996399171107648,-0.07577279019716042,-0.08257367031996257,0.9604501923937279,0.1882959864734191,0.74134770405082,0.3177621016323684,-0.08595829044900372,-0.2368124893137899,0.2107267958901873,0.8628681855632294,-0.4634659169942336,-0.37145613624858775,-0.5417740254164018
57.0,5.648067474365234,-0.22755561100599306,0.596952278487822,1.0002082943113584,0.03168502205439571,-0.04947638676876919,-1.66702880252114,-0.7200827402573737,-0.17818117212034684,0.14714300137721234,0.91046879483673,-0.411039742072467,0.1360096975552124,-0.264017763854628,0.35737347005461484,0.21494377854907648,0.8922188683294034,-0.17435309735239474,-0.0036963349299288214,-0.004109746297301103,0.07234017931450146,-0.027026881792892248,-0.1313609373178051,-0.072030814159805,-0.08178511157508828,0.9591614781809862,0.18857541940825884,0.7393107513940098,0.31795241095585325,-0.08829815051890222,-0.23971453434141804,0.20590663950008098,0.8573251951186271,-0.4615940017493747,-0.3679910932292686,-0.5446628003636169
59.0,5.720908880233765,-0.22976296931826407,0.589665095832061,0.9996904213756941,0.03145329419351666,-0.04710670087121402,-1.674442136257509,-0.7271450089784981,-0.1827828988985297,0.14652910780535916,0.8944548057237459,-0.40161746689469957,0.13035379889877322,-0.25336824038110306,0.3609366847064097,0.21734376919497436,0.8856970920542155,-0.16933355496584024,-0.002758186583150849,-0.0023472879403355013,0.07289975405752838,-0.027712570019417078,-0.13220510739018165,-0.06790776966128725,-0.08057115530566744,0.9572574548633351,0.18850485532687067,0.7365961134206956,0.317794327623781,-0.0897801608744685,-0.24328712644440767,0.20191807102614673,0.8515646336513317,-0.46078627417462104,-0.36641976102592205,-0.5477940645490326
61.0,5.792558431625366,-0.23192443641358906,0.5821301354773333,0.9991146625481574,0.031230280504367748,-0.04493462237567068,-1.6820293939270812,-0.7325441694947554,-0.18601508379006743,0.14656422614032857,0.8794597576843903,-0.39421837017245365,0.12629894143868073,-0.24255367359477514,0.364693025117907,0.22056229335055033,0.879841011610809,-0.16366814687903464,-0.00136905843855713,-0.000617352092160091,0.07311217441969814,-0.028607674375861564,-0.132544248399305,-0.06392505351496355,-0.07862080276411876,0.9547459751326952,0.18774196705866686,0.7333451036972182,0.31740737365882293,-0.09030743189552709,-0.24734703190036128,0.19875433291493305,0.8458851565779175,-0.46101962697199284,-0.36611008045779525,-0.551144927893301
63.0,5.847666263580322,-0.2340069538265877,0.5743551783836425,0.9986122045887826,0.031153957680909613,-0.04286163989792311,-1.689870841522755,-0.7359221149470145,-0.18660606325319373,0.14843455591088603,0.8657205753811265,-0.3908696747106672,0.12488123917981442,-0.23174018818495273,0.36819712113271297,0.22401091861250427,0.874393933735809,-0.15687683498509464,0.00020225585850041012,0.0009236459572366099,0.07314997960084244,-0.029269157134121038,-0.1327119752217775,-0.059805387882990446,-0.07562885306772585,0.9518316826499661,0.1862803923628777,0.7303088523394411,0.3171886956639075,-0.09006362710235934,-0.2512642598927148,0.19647298795751156,0.8404919606625946,-0.461915796735345,-0.36623135396516804,-0.5539468731115486
65.0,5.913623809814453,-0.2360244506817073,0.5662703865697087,0.9980503558013545,0.03126102913742257,-0.040852702587696264,-1.698030236010777,-0.7373351632056478,-0.18465500675162352,0.15206285787273666,0.8536902418127466,-0.3931484777896157,0.125916799895806,-0.2209606824315386,0.37117311259978236,0.2272833174102648,0.8692940099864088,-0.14946218464100536,0.0018134990217433576,0.00266832190282561,0.07330030293410544,-0.030016313236249096,-0.133148612443507,-0.054769850963805475,-0.07195002564468098,0.9492330650375803,0.1845665295600723,0.72831033287373,0.3168707112945498,-0.08928362010904731,-0.25431186551487095,0.19538491668393046,0.835427399650484,-0.463291110218762,-0.36722518023375805,-0.5558762227527227
66.0,5.986712217330933,-0.238038895880578,0.5578328619600625,0.9972599774332181,0.03137745878183492,-0.03893508371940326,-1.7065103974249105,-0.7368933195422952,-0.18090642317893194,0.1567874154093,0.843753986920343,-0.4005961021074088,0.12863202849822486,-0.21019414035459844,0.3737305974313035,0.23031453614335815,0.8647982922219755,-0.1419676478729061,0.0034123217368424216,0.004645282312782641,0.07360309813431393,-0.030876671111000627,-0.1340600635810682,-0.04885694179069246,-0.06799673093566933,0.9469418071661447,0.1829674807217042,0.7264412750824386,0.3167123395576299,-0.08834313529570972,-0.25665051535379946,0.19555669628387234,0.8308114964126152,-0.46528665447465944,-0.3688961013784683,-0.556883949515977
68.0,6.026150226593018,-0.23968141695162293,0.550867213211554,0.9965293169080711,0.031347378871368535,-0.03737276760531718,-1.7137416597740391,-0.7353389148521211,-0.1767429719701788,0.16123696732579595,0.836981079178128,-0.408604147368791,0.13144613050944529,-0.20123118164249615,0.3757436160969133,0.2329130657109768,0.8612297592616218,-0.1357042570414303,0.004723818101139084,0.006569392099828562,0.07388327576076682,-0.03149603686348587,-0.13495482803321063,-0.04367833932574147,-0.06474019274574104,0.9452698408931646,0.18178952745232374,0.7246149526040371,0.3167559139712517,-0.08736317504423641,-0.2581551068889651,0.19631218810645806,0.8272133945297577,-0.46740654687354044,-0.37021859430507953,-0.5574275903538239
70.0,6.099050760269165,-0.24150061355900349,0.5431460406588734,0.9955973191485258,0.03117468397268166,-0.03574368321252856,-1.721678446941972,-0.7323676279949144,-0.1717318428571304,0.16573464228546936,0.8320557086090028,-0.4170149421456051,0.13460290792319773,-0.1917868022797988,0.3777803828440328,0.23537833177801254,0.8585433780125481,-0.1296916269669368,0.006108522089428832,0.008609506091280052,0.07349960822073445,-0.03265623474129945,-0.1357104089838465,-0.0378019480879922,-0.061516107957563015,0.9441226630018136,0.1809210905203973,0.7230928798504888,0.31702934375962655,-0.08571161390612878,-0.2589783951206067,0.19779913416269074,0.8241761397575328,-0.47028470560554037,-0.3709948828341715,-0.5586612036404264
73.0,6.1508941650390625,-0.2434990344777181,0.534633128300716,0.9944694761264615,0.030680943512381247,-0.03392099976183714,-1.7305805779292722,-0.7279242725723962,-0.16635835302808238,0.16922568110278913,0.8294114507030886,-0.4244422631411459,0.1378701094615791,-0.18116481813591845,0.37983377093875703,0.23786968338502518,0.8560949298885111,-0.123536087803349,0.007383142228862884,0.010720737421405644,0.07237259586640941,-0.03373286523448921,-0.1354313642993929,-0.031597555019491165,-0.05832017545931263,0.943794368400559,0.18034149175931175,0.7228727137240938,0.31779821082495974,-0.08246298342898922,-0.2589607140673994,0.19978419897124589,0.8215058151438888,-0.47339722552853003,-0.37109324364371965,-0.560272376658697
74.0,6.2357330322265625,-0.24615981529419828,0.5232707284584968,0.992337992483,0.029762090029803914,-0.031244337832208063,-1.7419868899770812,-0.7210504381613321,-0.15931146011401093,0.172309347849249,0.8312444367094953,-0.43182346703679664,0.14216126927306608,-0.16494943045406169,0.382484190930912,0.2413083533300207,0.8522889981584911,-0.117153247739579,0.00842766218258346,0.01300515122242597,0.07037651221581342,-0.034465403959704904,-0.1348107834076437,-0.024348166767542655,-0.05427650203444487,0.944439411418071,0.1795885312116976,0.7251626710607438,0.3190022775497342,-0.07640225728207752,-0.2586050373184604,0.20265013873185383,0.8186124503634945,-0.4763045730936495,-0.37156416923324476,-0.560223779521926
76.0,6.296824216842651,-0.2484337144906516,0.5136509987145609,0.9903785829251268,0.028722280117220472,-0.028595954062639112,-1.7518641130267616,-0.7146458426150515,-0.15244678849168117,0.1751189195994422,0.8351151291577429,-0.43785925542050685,0.1457416526096647,-0.15003283863866937,0.385048180490295,0.24475071951556232,0.8484150510523355,-0.11188369830671771,0.009082796798599687,0.01528917563816109,0.06889328299001536,-0.034808823911229345,-0.13458864826128414,-0.018385914200714535,-0.050948678277887294,0.945242834786378,0.17895192230426848,0.7276365421376736,0.3199128149051544,-0.07087407588996372,-0.25802218414952516,0.2050358555163505,0.8161171476300257,-0.47838627461123473,-0.3718157199257798,-0.5596055742882736
78.0,6.342220783233643,-0.25083790725730065,0.5036007943530139,0.988594198179898,0.028059911508626544,-0.025781376602729743,-1.7617085455614565,-0.7073118432809062,-0.14282207180827663,0.18114152218526067,0.8415492396037088,-0.44210824706858337,0.14951312893567514,-0.13532528825572077,0.387111836724283,0.24768176758571603,0.8447183692808158,-0.10596035604636435,0.009349176169101825,0.017613041064470182,0.06717609751419497,-0.036195273441650674,-0.1346745741480185,-0.012296792439374314,-0.047791296584609635,0.946050256821205,0.17846184690395295,0.7296502877143469,0.32080787371909003,-0.06493811715164709,-0.2564485091850979,0.2071522026692138,0.8141377135748484,-0.4797399924571679,-0.3712041642177668,-0.5588617565815983
80.0,6.4107842445373535,-0.25343074095726936,0.493073806500525,0.9876583089118854,0.028046646939686552,-0.02371998206880966,-1.7707848402247004,-0.6992087820072145,-0.12790439545306254,0.19525118038353373,0.8491302421888316,-0.44222965825357075,0.15432086478456192,-0.12222560003609037,0.38778326765129134,0.24987006284520552,0.8418682966613603,-0.09859004443342856,0.009144700592124771,0.01932872652908481,0.06405515941008595,-0.03916398282013704,-0.13460089326554514,-0.005606998589946996,-0.04485468346156704,0.9469608788843549,0.1781409093451577,0.7311901865139425,0.32125123151380663,-0.05796722595607205,-0.2530657965612767,0.20903875210561576,0.8126034425894776,-0.48047601399447826,-0.3694954995950963,-0.5591024606133466
81.0,6.473796129226685,-0.2561974878135355,0.48218069233679445,0.9876285982338886,0.028760998151636803,-0.023514854287741062,-1.7781865313406453,-0.6911121090117476,-0.10892542247703797,0.21720854963912956,0.8570517667012393,-0.4377400371612357,0.15984408487522345,-0.11125027745027907,0.38624477880230623,0.2512557871947353,0.8404894846350748,-0.090823270154891,0.008186707905221025,0.019574397821035275,0.05806275399466243,-0.04356740045340921,-0.13462192446046684,0.002430823017963861,-0.04210415009170981,0.9486963314451385,0.1778338525437493,0.7335020019959979,0.3200616316838626,-0.04942011309625327,-0.24690606187820702,0.21088825132188493,0.8115365387080995,-0.48066935027213087,-0.36663758392885926,-0.561200599098643
83.0,6.527184963226318,-0.25861508598728444,0.4728970693062985,0.9878742909720836,0.029419280826655417,-0.024444589726860342,-1.783744384664516,-0.684372056636958,-0.09235312982549453,0.23787062732742426,0.8638438905495781,-0.4321803304335642,0.16408875831306674,-0.10271932302477954,0.3839231848068119,0.25231306700553124,0.8402833699422845,-0.08481351556120187,0.00685209539249807,0.019242928212726763,0.05119044555530365,-0.047384873532767366,-0.134745485170864,0.009920617020350044,-0.03989696459845739,0.9507892561022846,0.177602029950171,0.736184781854605,0.31825400606150434,-0.04108223910445824,-0.24021438704457831,0.21232573450185768,0.8106931602849917,-0.4804327224866434,-0.3635044487459088,-0.5639391120103158
84.0,6.5709943771362305,-0.2612869870991483,0.4629581677847113,0.9882780568921382,0.02984749844085146,-0.026166263560990694,-1.7873598227681409,-0.6779654014482608,-0.07852986490361888,0.2561840061071555,0.8713403301157376,-0.4217973663232655,0.16581842509822903,-0.09463748934985206,0.3809200604910547,0.2522143981234198,0.8421906125331,-0.0811113875277639,0.004662103435558919,0.017029300839068937,0.04194519897835537,-0.05013437154287419,-0.13479496821982734,0.01828225615532878,-0.03789441317269617,0.9534701010965163,0.17765400657328284,0.7395202941050336,0.31609540467443725,-0.029821174300458695,-0.23131788025505676,0.21312577404463665,0.8102695869384413,-0.47885339947646316,-0.3602205873253749,-0.5682460079007456
86.0,6.629131078720093,-0.2635841805373541,0.45471807952458654,0.9885786752499779,0.029682957204200108,-0.027641655920965347,-1.789511506832239,-0.6729066285737815,-0.06975928719750876,0.26799906691246,0.8779722062680464,-0.409863192308899,0.16526320515649812,-0.08811892185144693,0.3785013829636754,0.2514710313541935,0.8451548559343034,-0.07923730371803453,0.002440287027023318,0.014802305693387483,0.03357321814565192,-0.05150401595514966,-0.13494238354207677,0.02537956644082307,-0.03670036401050935,0.9557694614153647,0.17807751794809326,0.7421373755959232,0.3143268167555937,-0.01913349227450733,-0.22318372033203257,0.2132572649730645,0.8099506349866868,-0.47677934351791107,-0.35766538555397587,-0.5725534372800384
89.0,6.6971776485443115,-0.26625394826690035,0.44516718927466215,0.9888816382984956,0.02882574182497129,-0.028139987554179992,-1.7903978127782287,-0.6672080906751321,-0.06445862842043085,0.2740797181356773,0.8859824575692163,-0.3943457275585924,0.16257795812679007,-0.08127396698934683,0.3760402369130701,0.2480827581971347,0.8503699140628134,-0.07670538961564141,-0.00025142637985759255,0.011772735057855067,0.024640665669923272,-0.052241072615025363,-0.13577648811427404,0.03280877426780048,-0.036419798738026136,0.9581607383470767,0.17954565181782417,0.7442429767755635,0.3133595207304344,-0.005693494170648448,-0.2138474202561077,0.21199442217433234,0.8104290223416961,-0.4727838897164132,-0.3561199957097606,-0.5782316960212427
90.0,6.769812107086182,-0.2697697463383362,0.4317238919360058,0.9897058387871904,0.026841713525884707,-0.027782427424705988,-1.7905414174103906,-0.6565872150046892,-0.061552952032225064,0.2763533112325691,0.8950092140562478,-0.3854880813402821,0.1601551235840704,-0.0733665213160675,0.3702938951370358,0.23894039985185223,0.8592533504278441,-0.06789400375556798,-0.0038487593129365675,0.007860631012010498,0.013995395684370731,-0.053385054022667286,-0.1387302487908027,0.04193059423452632,-0.037253833863506995,0.9619031756960106,0.18235107747743828,0.7479487147024335,0.31215194987124983,0.013777925659894844,-0.20110874451802305,0.20912198423193384,0.8132563144090288,-0.46535952754174137,-0.3545098251631217,-0.5846940880293697
92.0,6.81703782081604,-0.27261961084624875,0.42055716428726136,0.990603412801698,0.02465526639180705,-0.027573353993810917,-1.790809953125265,-0.6464498246061904,-0.06137912900780966,0.2758870398236448,0.9013253902984643,-0.38274730508218185,0.158478873055791,-0.0674545737985654,0.3636191731298154,0.22926157340228037,0.8672280555712267,-0.057044950699322944,-0.007084349717138473,0.005344277379908292,0.0054539674451479225,-0.05463350292221266,-0.14184360437591567,0.04935070483266786,-0.0385480863537137,0.9652762464422209,0.1849337005433546,0.7512654494688764,0.31060095056021897,0.030430169214317862,-0.19020213048689627,0.20658735681269053,0.8164099459759402,-0.4586771114555055,-0.3520224635674518,-0.5889004098627432
94.0,6.878177642822266,-0.27543195886278926,0.40860028096091905,0.9918053553688674,0.022315185201296082,-0.027536126409739,-1.7926443077733414,-0.6344298196628625,-0.06373797366345338,0.27267612249716655,0.9061901179791503,-0.3857692687958546,0.1575378677693229,-0.06271686713911924,0.3534120964030114,0.21632735747500875,0.8761410626609197,-0.037413104533178615,-0.010481217696728388,0.00408353434883545,-0.002339362357580115,-0.056878686930612536,-0.1447527923146582,0.05666133812268928,-0.0400434748685088,0.9681446745144882,0.1874438172037358,0.7539822396792043,0.3084831027323297,0.048378728870054566,-0.17853871026116336,0.20487992893762608,0.8213368834739283,-0.4517236535994753,-0.3467300885373123,-0.5901625474488049
95.0,6.941386699676514,-0.2780761909229561,0.39657487534772135,0.993176681044758,0.019758247974582706,-0.027744786168765207,-1.7961613269710075,-0.6206925155223609,-0.0667450862095208,0.2692020701687532,0.9090961257001139,-0.39305226891123207,0.1573619912512026,-0.059991802507585956,0.3406830494227049,0.20148184909393185,0.8869980095763867,-0.009950321435177363,-0.01333716676269161,0.00432329244911301,-0.009612881914887836,-0.05957063602074261,-0.14727237084839148,0.06340976139507408,-0.041635572745397975,0.9700480549200805,0.18991153076136028,0.7557260941585393,0.3065845736223025,0.06649701871813733,-0.16731293481962978,0.20547601452935899,0.8276062350608171,-0.4459293699950012,-0.340198536146136,-0.5873927752311852
98.0,6.9902729988098145,-0.2801452735604909,0.38705192515261094,0.9945001978085171,0.017479018231892657,-0.02818857732410643,-1.7996828608282738,-0.608665986978666,-0.06928374388219588,0.2667370817719398,0.91008565747811,-0.39997124632206504,0.1571343728851611,-0.0595434993391036,0.32945417260799137,0.18902325299677109,0.8975171294843949,0.015659702746193667,-0.015262267842163687,0.005192534701203113,-0.015583742134215765,-0.0619699542365306,-0.14947261637931358,0.06860171687885983,-0.04303325786999378,0.971163719195949,0.19196641953436383,0.7565492597633285,0.30527977273519485,0.08040597740440161,-0.15877494714655302,0.20759241890874386,0.8330978666028284,-0.4423152558064066,-0.33405429102465745,-0.5825401285653221
99.0,7.068137168884277,-0.28301881892024827,0.37395802901709874,0.9971075891161405,0.015706786574711393,-0.02808617975697934,-1.80502970076864,-0.5920313165666222,-0.07086245891965079,0.26405461293843663,0.9099328960706738,-0.40889000590284585,0.15572080809261618,-0.06487350089206784,0.3207975730136037,0.18000666499515366,0.9180035499219972,0.03937132587978208,-0.01263186316604671,0.006020408621690274,-0.022029965105378413,-0.06598743103093979,-0.154384044704647,0.07426190987801617,-0.04377288482366614,0.9711279252780003,0.19394678709925817,0.755728211598802,0.30491225735804944,0.09459933167150987,-0.150163275487526,0.21451050049916032,0.8423780371208041,-0.44074223543802626,-0.3246632418822817,-0.5694721493777007
101.0,7.119957208633423,-0.2852681102288986,0.36357260391850754,0.9988874371984546,0.014224522932019229,-0.028449076914398158,-1.810297438963874,-0.5788556137617061,-0.07159390564440607,0.26327197297384297,0.91012658378925,-0.4161910318575536,0.15448863464711365,-0.0717098803237655,0.3112507213299261,0.17045637155061044,0.9374669846669267,0.06679818510474006,-0.010512674228653327,0.007230164467698958,-0.027430230671936985,-0.06958640387995088,-0.15923284488275233,0.07814509428839149,-0.04389982230677909,0.970817736975954,0.19495236968170332,0.7548159715733374,0.30444049080544466,0.10426978852265452,-0.14471376230353938,0.22175958671707427,0.8497727089498361,-0.4405992105548252,-0.31620711598990603,-0.5555981509829251
103.0,7.1964194774627686,-0.28723172015585674,0.3530290123407875,0.9994236162578893,0.012801294781503495,-0.028877084689345058,-1.8195515355751462,-0.5669503212515552,-0.07039857584427653,0.2651437168677962,0.9134245533532288,-0.4246845903900779,0.15420150531839702,-0.08274386729962607,0.27925090648836515,0.13698182080570073,0.9597044707610256,0.12939745401582087,-0.01703956371835623,0.01092281443711636,-0.03184996910667287,-0.07324849240817843,-0.1652735609819711,0.0804966862977532,-0.04291069814662338,0.9691673157275015,0.194556069385777,0.7535976720215337,0.3034914323530843,0.11146594635275242,-0.1422218877646693,0.23113600180901672,0.8562041560279349,-0.4422777968790347,-0.30744912322426443,-0.5372178708243271
104.0,7.254058837890625,-0.288978078534591,0.3422913344013023,0.9994734727197871,0.012073018320189092,-0.028393203157892163,-1.8320027495362354,-0.5558449351264331,-0.06777845975150136,0.2673982846014086,0.9184686005853802,-0.43598155078509104,0.15527625361901665,-0.09677386837621078,0.22651100560404452,0.08223744460364191,0.9838918551006615,0.20203033808754922,-0.03362390263925749,0.016359621562720486,-0.033690312788148234,-0.07640623891158224,-0.1720238258506105,0.08161095255750356,-0.041229481593564724,0.9661566089768594,0.19331317643392476,0.7510816174537837,0.30266114386638915,0.11623073152174629,-0.1421209719298415,0.24197869319434295,0.8616275119113689,-0.44524664249458323,-0.29874206779539536,-0.5155119844106713
106.0,7.291492938995361,-0.2902988543489231,0.33411221745464503,0.9993955421393821,0.011796831976318601,-0.02797895461550206,-1.842039928910015,-0.5476848390511078,-0.06622509552106078,0.2685226657517197,0.9224515913289982,-0.4468163100017484,0.15677784770503977,-0.10959900896624364,0.1820197697032168,0.036383149380256455,1.0043778607867746,0.257795446661708,-0.050433077740030835,0.020239760127768753,-0.03397133054737585,-0.07853895553709468,-0.17763143514124238,0.08226854973917107,-0.03984286361050909,0.963473879102863,0.19209850550413735,0.7483681949495324,0.3015931239174471,0.11834834165329894,-0.14299071131701935,0.25130191613546304,0.8647762078245746,-0.4480202582495974,-0.29159158480609443,-0.4968678878696928
107.0,7.347192764282227,-0.29187429352391103,0.3250798320773962,0.9998879547236581,0.011829734763901497,-0.026996523548621205,-1.8519714082144278,-0.5379638467388239,-0.06606210365466536,0.26723165373900454,0.9247769414741047,-0.4610515285000163,0.15826571015908297,-0.12621647996400642,0.150356621706533,0.004872236249105415,1.0311821710393891,0.2897079609307426,-0.06294049547300443,0.022539401122049944,-0.03166490237168744,-0.07976275744907332,-0.18424648310667657,0.08364694891147992,-0.038978464817205453,0.9601984863390196,0.19119855724484944,0.7438280071652297,0.2996100158611546,0.11799322579692803,-0.14394062999912974,0.26175360651746116,0.8680472939443074,-0.4517507674079819,-0.285354207195657,-0.4776892554776939
109.0,7.3951966762542725,-0.29319695249358785,0.3178224709695753,1.0005471333979692,0.012011778064723219,-0.02597356097921528,-1.85956633322951,-0.5298131714509251,-0.0662314117102575,0.26559014775532724,0.9259033063820834,-0.47359459956222044,0.15930453095528524,-0.14184924664466825,0.13311672051846826,-0.01153234291246547,1.0564936771722935,0.2952764309369222,-0.07067262921727023,0.023149991060267477,-0.02818108954985466,-0.08026778767883908,-0.1902508017989355,0.08570479942729312,-0.03857217091108198,0.9575365478171578,0.19073108093520963,0.738744809507548,0.29725934316338604,0.11552115677535171,-0.14426403729298473,0.2702077942588756,0.8701524144918581,-0.45484069332563937,-0.28069192615527017,-0.46354079461159786
110.0,7.446909189224243,-0.2945834492112843,0.3097380113265622,1.001538340204793,0.012572568185996644,-0.023725442459136475,-1.8682640438867537,-0.5201737511989993,-0.0642376838920649,0.2651983839319365,0.9267027298568806,-0.4861103876799235,0.16047554138281486,-0.16240089987065057,0.12176902147209309,-0.02216343023266668,1.0883373346851701,0.2718543460582874,-0.07499284124639238,0.022663055341857797,-0.021590199628849466,-0.07956294248952644,-0.19792958893700513,0.08850120827229982,-0.03883164274955678,0.9540589931182644,0.19074772671682172,0.7308225227918639,0.294173535208735,0.10960360300518943,-0.14429956411981992,0.2775794667976723,0.8719416451011502,-0.45803214765382166,-0.2775134911624177,-0.45295742697347496
112.0,7.488414764404297,-0.2956739621956356,0.3028401838285117,1.0024014870666305,0.01305095053780475,-0.021420060910479106,-1.876331626109378,-0.5116705376498818,-0.061223546198799536,0.26622235203771377,0.9275090567959722,-0.49621887508135104,0.16170069359085182,-0.18214935758300688,0.110692972236068,-0.0325695606262215,1.1181788752434543,0.23861069299252768,-0.07895152565619909,0.021876994878386215,-0.015247971341584031,-0.0782490084169292,-0.20505279211602412,0.0907510350315049,-0.039513191400707394,0.9511654607531833,0.1910778240902668,0.7233899295053174,0.2913687406974979,0.10339250456528759,-0.14457519015106962,0.28271541619705526,0.8726403543591664,-0.4603054489980718,-0.27527378627757243,-0.44634470452590524
114.0,7.5556721687316895,-0.2967352007909386,0.29526353289326834,1.003375740437512,0.013436614863713387,-0.017488789664351374,-1.8853187159400453,-0.5016692945996928,-0.056910223488878364,0.26696779842490337,0.9280335703448729,-0.5065988205557781,0.16330266727286352,-0.20569007930496924,0.09549495489446777,-0.04828044805651388,1.1509966278349664,0.1874691146781184,-0.0847801325468096,0.019945682586728963,-0.007463711533875527,-0.07532788201191812,-0.2132341796359405,0.09187400495772853,-0.04197966728849538,0.9485184006940617,0.19278845147389512,0.7161012852813555,0.28920333096460554,0.09680336397597437,-0.14561770261238194,0.2851532980311534,0.8717453143393391,-0.4616302032797584,-0.2748355721965433,-0.4445211533219021
116.0,7.611247301101685,-0.29775218192902747,0.2869533699398248,1.004253327608403,0.013380303891019171,-0.012440016018898352,-1.89432779016833,-0.49025069883266137,-0.053579200361091414,0.2656006284037695,0.9281284690895332,-0.5186262410624972,0.16508786192313224,-0.23242953866572874,0.07682226841556564,-0.06775879136757462,1.1854392111308552,0.12939911067841647,-0.09266423555513839,0.016657149095661485,0.0008932506560886829,-0.07112018890856987,-0.22286278812964638,0.09231533398965454,-0.04658292672299286,0.9465270641097407,0.19636174894098635,0.7099823247519541,0.2877355100702968,0.09077676857895987,-0.1466777759538073,0.2846906318126153,0.8690267438801269,-0.4616004296387157,-0.27613725134099343,-0.4476914944919974
117.0,7.680130481719971,-0.29865733301101705,0.2782123928874515,1.0049260174195318,0.012559442017459805,-0.007266416161932527,-1.9020499660819576,-0.4779582530437046,-0.05267542631958416,0.2622106698290241,0.9280747532807604,-0.5322146762547557,0.16691711695037265,-0.26086421513207336,0.056912306175227606,-0.08744768095946484,1.2185252264143378,0.07662460818272408,-0.10154925496552145,0.011736941998176667,0.009291145366119873,-0.0657891619242668,-0.2338763494023752,0.09335360675928717,-0.052896069774123505,0.9448231382971348,0.20160326399291933,0.7041494831236039,0.286315004322489,0.08530582225229125,-0.1463816716912922,0.28109396364288614,0.864499491808329,-0.4602935053377363,-0.2783489798161671,-0.45760048585384505
119.0,7.730483293533325,-0.29937343301414554,0.27085471901622327,1.005306127223875,0.0112423891250735,-0.0035106989633118626,-1.907249931181352,-0.4675477884846375,-0.053934429067750936,0.258395543439078,0.9282235020433842,-0.5444232156027209,0.16841402690374946,-0.2851539366162344,0.040273100260579266,-0.10270197057774129,1.2455483367933602,0.03733460901604847,-0.10907483546575344,0.0068747533662923705,0.01573696317737066,-0.06081831803541467,-0.24373768218251585,0.09487959844442717,-0.0590260296188087,0.9432753507584435,0.2068603973970393,0.6980967010181258,0.28486352880004917,0.08115563806432657,-0.14516626260859172,0.2765460005961274,0.8596016556234926,-0.458573069528859,-0.2803920823285051,-0.469606593763477
120.0,7.768639326095581,-0.3001678832700814,0.262970136318327,1.0055000177403621,0.009254556582062689,-0.0001975165630116833,-1.910465184429543,-0.4565918519844389,-0.057735191015682585,0.2528838896432669,0.9289541249609843,-0.5575567037315006,0.16971068241656256,-0.3107936628743795,0.027251909951962763,-0.11351858509294929,1.2689995807477181,0.009870983279331516,-0.11440364370014292,0.00020086045823090003,0.021797943339688295,-0.055520287417991115,-0.2544171616498679,0.09745454637234786,-0.06640667438259375,0.940824556911805,0.2133937377701101,0.6886470659315078,0.28335308239059787,0.07726376868543056,-0.14262608719133507,0.2697267079636501,0.8536207283899915,-0.4557117835711707,-0.2842089951014195,-0.4861634959356321
121.0,7.804609775543213,-0.30087430531144943,0.25647996166249565,1.0055059529516672,0.007456939836430066,0.0017719645561694493,-1.9117276080754806,-0.4479197786083212,-0.06218881955097386,0.24798245851851652,0.9298647351792875,-0.5682277185404607,0.17080690767051754,-0.33238401686094377,0.019168565120235376,-0.11927740405311599,1.2860974044663815,-0.006751036149174149,-0.11704258954557392,-0.0061723666715170575,0.026185597327510537,-0.051179404623044863,-0.26411643940665047,0.10031006533362434,-0.07274619448327506,0.9395298552694268,0.21896482184839416,0.6808064842561583,0.28080157024554697,0.07430095041642,-0.13989504076368317,0.2637217721009337,0.848286685517648,-0.4530664946461531,-0.2884965254170768,-0.500817399030963
122.0,7.837122917175293,-0.3015405353336915,0.25092603457890633,1.0053927235881865,0.006096830856930855,0.0029406641479316434,-1.911904056862833,-0.4409397085999067,-0.06661405562717514,0.2436755235193717,0.9307294456544324,-0.5769129996989149,0.17179201523413035,-0.35136169739410417,0.015203155551942345,-0.12131667984551106,1.2982588512895759,-0.016545885053411126,-0.11735471378680185,-0.012281094333000581,0.029796970251443695,-0.047635175538710384,-0.27345184674824563,0.10328070426269333,-0.07814464187361095,0.9398762865097248,0.2234669915890038,0.6761569438975601,0.2765803704076748,0.07200838972263789,-0.13720853284368362,0.2588261565539618,0.8437333528304315,-0.45080538082980426,-0.29331829195265996,-0.5130146136443255
124.0,7.893678426742554,-0.30255392910391415,0.24311778050512092,1.0050245777668372,0.004787512927012385,0.0037911164271442538,-1.9112521096320356,-0.4320390579914777,-0.07356827646181052,0.23753431554296636,0.9317708871354395,-0.5886553868970976,0.17331468212116324,-0.37948350767204253,0.014004892778647547,-0.12003696098659378,1.3117597642093883,-0.025338713476945676,-0.11469018509248258,-0.021176510586995472,0.03495514926228471,-0.042911979714964806,-0.2888103080700529,0.10805380692337654,-0.085738211154963,0.9437245937373526,0.22933223226619542,0.6744321360426064,0.2666488488628074,0.06939285306417367,-0.13304104787461474,0.25254217499133524,0.8377118981484142,-0.4480370513278493,-0.3015306218892109,-0.5293854896912928
125.0,7.943776607513428,-0.30326910313013333,0.23806868818188076,1.004631955971309,0.004484452614335659,0.004484388933677887,-1.9108567095172495,-0.4268972554225591,-0.07773956242639529,0.23324800124003212,0.9325944365621558,-0.5956959144431384,0.1737988011104951,-0.3974770437153481,0.016847698463832654,-0.11672741118505536,1.3153140742610114,-0.026807424244759147,-0.11135055566191632,-0.02622261175944361,0.038414901756208944,-0.04055811035757576,-0.29785510242092184,0.11048661710979,-0.09000747003806667,0.9452966035106729,0.23272256615152598,0.6738080895923719,0.2617248239766484,0.06838941759951059,-0.13064923979176554,0.24868337403425156,0.8344224399024692,-0.44642211722214103,-0.30640509732929266,-0.5388990916671614
126.0,7.97721529006958,-0.30401021965359915,0.23305231709465296,1.0041707811672347,0.004355262597562457,0.005131813625890595,-1.9104108699655793,-0.4221084408211683,-0.08196004181549951,0.22870947482535103,0.9337032772389982,-0.6025664449288836,0.1739786893485414,-0.4154296781793577,0.020567344073334475,-0.1128068770976472,1.3171277218195048,-0.027458546488548778,-0.10767575727862833,-0.03065099179379233,0.041465151096425956,-0.03855791405186705,-0.3064028751946497,0.11242993987051726,-0.09395553701417314,0.9460376065267836,0.23633785828110987,0.6716964168379217,0.25909861189112937,0.06777586999459109,-0.12843875417730333,0.24461212460957515,0.8312298327854557,-0.44486874310134483,-0.31129236678428884,-0.5486081006591967
127.0,8.018354892730713,-0.30478613673983074,0.22805435315468459,1.0036615255515002,0.0043206588277889535,0.005695321683878229,-1.9098939036461076,-0.41754039274581256,-0.08607419375390396,0.22420907860419031,0.9350495634582159,-0.608957960830773,0.17394284219380712,-0.43321628158576175,0.024852149619670232,-0.10843851015914208,1.3173602324710676,-0.027761363809174766,-0.10388576830810557,-0.03449891735393114,0.04421515020498103,-0.036836105639724295,-0.31448602516658836,0.11399993531229975,-0.09760189684429144,0.9462003542900649,0.24027342511700195,0.6686179215557393,0.2588284432122222,0.06760529278042701,-0.1263784451966321,0.2405031184261095,0.8281264768506678,-0.4433875431430572,-0.3164234059383093,-0.5582328888642833
129.0,8.057220458984375,-0.30559602150042636,0.2230523871958509,1.0031390503550002,0.004336708976558014,0.0061532601821954235,-1.909322202174957,-0.41299648718411064,-0.089708357728854,0.22032854359155657,0.9364986373898823,-0.6144552420050438,0.1739125153261374,-0.4508036722977694,0.029522277922976174,-0.10361542789311531,1.316120039708748,-0.02803957292186216,-0.10011945100716715,-0.03786526488838985,0.04697954040978694,-0.0353183036026517,-0.32203470467259365,0.11542635627306802,-0.10099329473212162,0.9458410032170121,0.24458262975355044,0.6647597659089344,0.2607124052722323,0.06789462631630294,-0.12445245748236086,0.23663775431452969,0.825204130172504,-0.4420357143218401,-0.32190593025998926,-0.5672615125461591
130.0,8.102445363998413,-0.3066947767759861,0.21664365531198068,1.0024791448062047,0.004146971701931734,0.0064790856628898635,-1.9083196107126899,-0.40671814400376205,-0.09218657900952346,0.21845899012409845,0.9384026536354659,-0.6183336343057886,0.17431577265629355,-0.47244015834440156,0.035648053520345405,-0.0964835830680564,1.3111280237976972,-0.02929162293927589,-0.09620288198438666,-0.04168625785357315,0.050859729567206524,-0.0337047103807723,-0.32935646993264545,0.11773749084325622,-0.10431895725731494,0.942091906993084,0.25082275459937137,0.654574644834333,0.2690424335135755,0.06856286536049841,-0.12229159617892826,0.23302699477919475,0.8223494220176248,-0.44066041614508167,-0.328505953101993,-0.5759310728181191
132.0,8.155709266662598,-0.307730584215941,0.2106649826496422,1.0019301836739394,0.004207406689945247,0.006626681901214349,-1.9072558856490374,-0.4008187282263359,-0.09337286254681329,0.2182542654978311,0.9398256347634619,-0.620443655769821,0.1748381733878753,-0.4925080889104753,0.04167197196758757,-0.08905150617123728,1.3047043217681287,-0.03130469822795276,-0.09291749089860091,-0.04514177872915996,0.05478052384269824,-0.03230236242098581,-0.3354907545187324,0.11995733833312676,-0.10629836701118894,0.9375883582301363,0.2560361489574794,0.642744168714459,0.2778531979284716,0.06894211204319163,-0.12049093558986722,0.2302778632168797,0.8203527719012272,-0.4397785719422662,-0.3344961546000148,-0.5826317513665656
134.0,8.222805738449097,-0.309080448385741,0.20324634168018244,1.0014304944914763,0.004560172379670529,0.006587686196748883,-1.9054110356899587,-0.39315575115354934,-0.0942336384584696,0.21887351405331362,0.9401961459032944,-0.621389320011188,0.17489534240989718,-0.5162765001499434,0.04898083567137289,-0.07913996637742227,1.2928063751452323,-0.03679906154463259,-0.09029960743416604,-0.04944015058427551,0.059551998148745566,-0.030248249448561443,-0.3433918218397306,0.12184698904675653,-0.10580879359490161,0.9328717805627383,0.2582117923480721,0.6324060080239711,0.2829467730188724,0.06890112087814627,-0.11863781775284164,0.2282571937810769,0.8190452693787433,-0.4391989003519041,-0.3402859147964107,-0.587893283073434
136.0,8.289687156677246,-0.31067925469288427,0.19486033749620357,1.0011512154488302,0.0052726968907269595,0.006236752416314965,-1.9029781883463415,-0.38415750024900047,-0.09678301570754047,0.21770752341352484,0.9382288109077883,-0.6230707061149778,0.17386959350635042,-0.5416562096935498,0.056919894910075715,-0.06746316604089167,1.2747484710684955,-0.04752013287148669,-0.08875914085363755,-0.053567268305104006,0.06445730992884445,-0.027542675069285517,-0.35341035567081325,0.12229357676992111,-0.1029288101615621,0.9301517322856941,0.2563430986104616,0.6293615800579633,0.28112858711431893,0.06930855669562212,-0.1172116861433451,0.22693790644025802,0.8186065666068878,-0.4389850615979001,-0.3449922756605099,-0.591424663101692
137.0,8.33524489402771,-0.3124223255972104,0.18593110972048094,1.0011646657132207,0.006329727381909511,0.005467007977939872,-1.8999150083711576,-0.3743172265545502,-0.1019495308885838,0.21357083971901117,0.9337188544734856,-0.6262082911536213,0.1717218210114203,-0.5666071039266809,0.06496711583130094,-0.05445684173335935,1.2507472526905128,-0.0644489876830302,-0.08841615689425918,-0.05760842076074109,0.06901102019201918,-0.02471869624999689,-0.36491583135312416,0.1220118846592323,-0.09890322198286708,0.928045972113462,0.25252745642527896,0.6305088244973844,0.27601691177287657,0.06981660080276182,-0.11665387286540213,0.226356882963595,0.8194109175467442,-0.43889002105029085,-0.34748388974261235,-0.591663390361857
139.0,8.396994352340698,-0.31389369059945316,0.1783503216979812,1.0013398661302224,0.007407208024922499,0.004610208574892439,-1.8969383909515114,-0.3657522345707056,-0.10734213882916409,0.20891918478376126,0.9285804066364396,-0.6290931555929198,0.16951001959658307,-0.5865074467119877,0.07178371521063732,-0.042830273531396006,1.227989032633647,-0.08177425668252984,-0.0885709078159723,-0.06095285560399856,0.07259309163483892,-0.02250703213466689,-0.37496523763489786,0.12178906634682884,-0.09553436762076865,0.9261851661102568,0.2492710398183185,0.6322476051106661,0.27121640100221794,0.07018802928667534,-0.11641390606699342,0.2260584426453493,0.8209305068394892,-0.43865470779861493,-0.3481260409800494,-0.5899102843828717
141.0,8.457866907119751,-0.31546819070559234,0.17015421345471246,1.0017164918977848,0.008429303254438846,0.003545237077123981,-1.892564896569646,-0.35596858523812425,-0.11318932969675011,0.20388752679190136,0.922029080085808,-0.6313719090957928,0.16683357050930833,-0.6050674079771827,0.07831385261851168,-0.029839112412694806,1.1998069851470794,-0.10408243628629993,-0.09001258654008708,-0.06425925173896346,0.07590047165884098,-0.020535895501683287,-0.385352794532046,0.12191663726430874,-0.09323371469655761,0.9230276203400078,0.24711501753417425,0.6331206310347997,0.2670969733136397,0.07105683798553607,-0.11589545109347385,0.22557550506736232,0.8237034283468365,-0.43749580289084844,-0.3459522221288296,-0.585971463627564
142.0,8.501876592636108,-0.3171423661297269,0.16132933119198856,1.0022108176689895,0.009262655337483511,0.0022149118118134042,-1.8866868455154384,-0.34499839514345076,-0.1187198775056027,0.19958648148968783,0.9145763207857336,-0.632571132786702,0.1637623736678636,-0.6223703242947812,0.08448865588372997,-0.015171218941842219,1.1668595416340481,-0.13025507528327174,-0.09277012780902541,-0.06764296019501535,0.0789720360600272,-0.01930471330512218,-0.3951860578204363,0.12237346056695578,-0.09228780370023612,0.918114255895074,0.2467265946196253,0.6309397467207326,0.26537680952358644,0.07278122578331676,-0.11527182751777355,0.2245716006514088,0.8273091160326589,-0.4357085878703929,-0.34188872951511945,-0.5818093100540773
143.0,8.543564319610596,-0.318546740834439,0.15388068988106668,1.00267992674268,0.009826963678196745,0.0008902527008652183,-1.88122516861951,-0.33532265427489294,-0.12325648196184905,0.19637928319279846,0.9076225259853343,-0.6328753522137078,0.16106298914822037,-0.6355263733813472,0.08978702207405617,-0.0016763952515489915,1.1377498361554026,-0.15355567303994594,-0.09546872902350012,-0.07042454203871837,0.08121232853786078,-0.018775567030598135,-0.4023272145626322,0.12294945722439353,-0.09219574460837317,0.9131206835345698,0.2475356116914122,0.6265527279807834,0.2657466563998646,0.07468002415021786,-0.1147643542669376,0.22355518216913828,0.8307359075583944,-0.43403068369760933,-0.33754923250370794,-0.578109173708591
145.0,8.598134517669678,-0.3197952131112428,0.14734981874945066,1.003117289246068,0.010153979654700176,-0.0004599251207662341,-1.8761246088869803,-0.32648708209859983,-0.12735841347639967,0.19360821177921128,0.9009678912243494,-0.6328499534157295,0.15862330074059466,-0.6459499724698614,0.09503969575245158,0.01165125894541425,1.111522038059843,-0.17431603531270334,-0.09788593765483512,-0.07279350802857215,0.08280621767413407,-0.018611566163945447,-0.4073542214065312,0.12350117963211492,-0.09245965577213056,0.9082013280671116,0.248940802801783,0.6206663514801266,0.2674822659124882,0.07685113477858413,-0.11434410651543161,0.22270163653429173,0.8339667927678606,-0.4325140308765266,-0.332911917527542,-0.5745682077539493
146.0,8.647841930389404,-0.3213625864115457,0.1396980539598539,1.0036324171326614,0.010257629439532493,-0.00232642925345388,-1.869270799737997,-0.3159437009746215,-0.13255948853788121,0.18975616338369433,0.8929274854189038,-0.6328661156482862,0.15567391487400992,-0.6566211005907241,0.10351329564019354,0.031230946918452525,1.0808412125540365,-0.19535869325605248,-0.10014028725592806,-0.07543204025529282,0.08408189007991981,-0.018631140060422085,-0.411710748199213,0.12341075796031935,-0.09261903717863823,0.9030446027046413,0.24989028877893518,0.6150264629205672,0.26855746647975265,0.0809030822774022,-0.11378212899479545,0.2220237328003058,0.8376654657432341,-0.4306837764663596,-0.32646179438884937,-0.5700131909121415
147.0,8.67952847480774,-0.3227904820147497,0.1329720626118203,1.004135563988123,0.010281451833418623,-0.0042854125249315875,-1.8627701984083556,-0.30640250104320005,-0.13763825760583334,0.18587394368343865,0.8850800802742832,-0.6325109460078564,0.1529393952221017,-0.6651566006709666,0.11269503870349831,0.05145102398259949,1.0541913221102879,-0.21046077641858463,-0.10147955549599763,-0.07770815668385554,0.0848736234774238,-0.01877521628263008,-0.41490170404866283,0.1225753132409079,-0.09238685959504453,0.8991791857540887,0.24988685808764677,0.6115744789682398,0.2680836018787317,0.08528026536060093,-0.11354709363093772,0.22154573831650828,0.8404963057478019,-0.42906902249819323,-0.32088181834178775,-0.5657887702555853
149.0,8.72422480583191,-0.32416280278270815,0.1266787696007291,1.0046018892114055,0.010297939078042913,-0.006336124291681335,-1.8563486595241612,-0.29745340173159585,-0.14260047979289886,0.18201434039022876,0.8774998510222867,-0.6317540379247305,0.15025105088536223,-0.6726681661781196,0.12282232728673215,0.07291650293335156,1.0302218148322828,-0.22048522505565366,-0.102103606044542,-0.07984971067959279,0.08539471032228946,-0.019173317975191128,-0.4175021325867282,0.1212051282129108,-0.09193817276050295,0.8958676014710951,0.2492654777437702,0.6092461485965917,0.26663165000069616,0.08981245395568804,-0.11384668521553562,0.22114832765103348,0.8425329709774877,-0.4275718025343072,-0.31648178917866154,-0.5617553106469464
150.0,8.767247676849365,-0.32597617861175465,0.11868702019066543,1.004975167635087,0.010515425038009306,-0.008803549172032854,-1.8475160403982338,-0.28690036327154567,-0.14825572250805763,0.17708758153563162,0.8693515386641101,-0.6301026179028283,0.14675709649794894,-0.6818974437894008,0.13845242411211695,0.10391304376396815,1.0032864166630369,-0.22636693297578464,-0.10205315536034143,-0.08303972402021262,0.08600636928938282,-0.02052176654146778,-0.4200981066317343,0.1191509940621884,-0.09183749949147613,0.8912231677518396,0.24852764157137253,0.6052089534013092,0.2648500809964406,0.09552374292042509,-0.11551572050975288,0.2206165893155802,0.84429998711704,-0.4257475576078653,-0.31301268182974573,-0.5565279406283582
152.0,8.825486660003662,-0.32756725614027593,0.11168674868418921,1.005228589759993,0.010994531804137689,-0.011098415951896826,-1.839699965466357,-0.27785374191739715,-0.15297723804995828,0.17300563575743985,0.8620254425697969,-0.6277669629347087,0.14373618042895395,-0.6894988117977887,0.15384382352672332,0.13366461656396733,0.9813182605912059,-0.22858847726000148,-0.10157209829367225,-0.08588197651437184,0.08648881271322156,-0.022171545368553383,-0.4219128817058019,0.11723201546613204,-0.0920175478497619,0.8870367564767402,0.24815505535400745,0.6010629109602158,0.2634723171514936,0.10040510051994306,-0.11756042324995507,0.22000690013429447,0.8454510833957709,-0.42425673405037845,-0.3104034817554746,-0.5521651886415231
154.0,8.888912439346313,-0.32955805424954954,0.10304745878591356,1.0053415026019463,0.011396429620288773,-0.014061105406777614,-1.8294340396907427,-0.2669502137503497,-0.15850991580908158,0.1681526134137521,0.8539880862051712,-0.6246109356582936,0.14029265881472913,-0.6980819999321952,0.17323467621401456,0.17139691632509702,0.9585622515463356,-0.22937518002098836,-0.10144078356478284,-0.08961447687922655,0.08648694701171554,-0.023924350638481345,-0.42377897717645074,0.11458616385408607,-0.09275295078747245,0.8822093632340744,0.24840086256801325,0.5966045586243427,0.26329012719555533,0.10640028963581868,-0.12009609886205738,0.21868596162478884,0.8469884060810564,-0.4223411862328288,-0.30597114191497815,-0.5477465832837267
156.0,8.93673324584961,-0.33181574178406226,0.09327955439765273,1.005230158150857,0.011126898011387148,-0.01748846007780521,-1.8175872088958756,-0.2543387826563274,-0.16581639872980825,0.16126656925566846,0.8455910420183457,-0.6219043409233038,0.13627911295499967,-0.7054985094017555,0.19592268971565877,0.2156072517733531,0.9379647306793057,-0.23030786284395127,-0.10179031821228843,-0.09356015474107188,0.08608324376817683,-0.024771162456781206,-0.42426808880131384,0.11145640587818809,-0.09352576583625569,0.8768815294002356,0.24926107961174676,0.5910095068180377,0.26561954364356183,0.11338334409541628,-0.12216528939239588,0.21680224818117994,0.8490999662401479,-0.4200777288887413,-0.2988069949415723,-0.5437841470119122
158.0,9.01577639579773,-0.334270597132844,0.08293611032613588,1.0048680311287734,0.010681686373718781,-0.020516026661046273,-1.8047967876903241,-0.24116812541373575,-0.17354940761898685,0.15256295791003383,0.8378971987768351,-0.6196759612955288,0.13208734668840824,-0.7099448663484109,0.22178929090572302,0.26430593762837795,0.9212938028394014,-0.23507415992786646,-0.10227270936699553,-0.09750341077136718,0.0864605948113186,-0.024553452564616923,-0.42311167309321573,0.10810358866615499,-0.09411890889194222,0.8718449458541669,0.249968120162914,0.5849053416095233,0.26835572999187807,0.12072985954930834,-0.12355004852131832,0.21464586232202076,0.8516174040121419,-0.4174318669758686,-0.2901652923697642,-0.5399869122119857
159.0,9.067256212234497,-0.33698879599767784,0.07205781866694205,1.0043465645045293,0.010340605239504017,-0.023078467486958847,-1.7909792030340024,-0.22765724749549685,-0.17918386302832556,0.1450893502996332,0.8313382320828657,-0.6167942330290115,0.12852928962083193,-0.7113787479556325,0.24869611382696513,0.3140258239193192,0.9081807505242849,-0.24434196801264946,-0.10262879174033204,-0.1015025571992507,0.08742224358758405,-0.023398306978622135,-0.42075966771634404,0.10375562574679925,-0.09465586072136956,0.867446138340614,0.2500044940660191,0.5793100729591507,0.27017868946055246,0.12852939839548413,-0.12530875521842352,0.21178414808951068,0.8539208076882034,-0.413705739233758,-0.28169302805259333,-0.5350586406240116
160.0,9.11225414276123,-0.3392191181486885,0.06331289893112545,1.0038695530481807,0.00990064966363765,-0.02525348491594801,-1.7804834553691138,-0.21641909832394474,-0.18288108415727067,0.14036501959362074,0.8259479704842567,-0.6141520414158603,0.12620200284735525,-0.7104791297334574,0.26923168282774934,0.35223861858305344,0.9001301416760332,-0.2535374884407127,-0.10262262609900538,-0.1039314395884213,0.08808099488688687,-0.021918000547744336,-0.41770280531999826,0.09970613573592416,-0.09493548468258724,0.8644282514456658,0.24972223600101276,0.5751290000464027,0.2712574011292941,0.13506018040258838,-0.12701656910419082,0.2091404840607346,0.8550639948261811,-0.4103192147893612,-0.27484707906716493,-0.5307556685552984
163.0,9.160693883895874,-0.34108816595002484,0.05615529638796983,1.0034171126990246,0.009320218659758215,-0.027254648753601934,-1.772806601031321,-0.20690472538666982,-0.18559682953605566,0.13735094989401972,0.8215253069982584,-0.6122185798015091,0.1247302383616053,-0.7087559913291765,0.28318235253912294,0.3789230724324822,0.8954568670847374,-0.2611153593736575,-0.10246554034011957,-0.10486058357708242,0.08826646812516362,-0.02038805295266809,-0.41432646730166933,0.09590130985178297,-0.09523850603261577,0.8626386059521829,0.24939815101454396,0.5725530950488098,0.2717562566421454,0.14060950721386606,-0.1287966810532278,0.20669759227765677,0.8552785974638204,-0.4074450155430437,-0.26933992822474095,-0.5273834106433202
164.0,9.24113941192627,-0.34411148058781493,0.045487913874903314,1.0023488358306407,0.008184563911191347,-0.029842690807007934,-1.764149523935192,-0.1934776458122779,-0.19031232848426877,0.13109869947998998,0.8178374147418279,-0.6132556364328472,0.12328218408802369,-0.7079630196930848,0.28871916329482666,0.3915116625011684,0.8917142108676883,-0.2612182860308244,-0.10305024362159271,-0.10330439149618759,0.08773827864124337,-0.018406562768088826,-0.4079314488747669,0.08958628305065475,-0.09667451380242448,0.8626519949460567,0.24920163014193647,0.5726930615228415,0.27228010983581186,0.148045189295146,-0.13205657150960448,0.2028460808195049,0.855992931175746,-0.4038760993046939,-0.2619968552123594,-0.524151715773443
166.0,9.28485107421875,-0.34677082329535813,0.03631970473777403,1.0012846942366658,0.006873480816218594,-0.03196511072279658,-1.7578474566488254,-0.18158780166861158,-0.19491164092326177,0.12492744385912155,0.8149562976255222,-0.6152110792306277,0.12242371817295364,-0.7073783323448724,0.28849013242596644,0.39340813622871257,0.8895565811838446,-0.2561457253858244,-0.10383301402173212,-0.10111200042275281,0.08707129513716196,-0.016801762650895388,-0.4018797068653038,0.08416896636247806,-0.09797211149463737,0.8634565185901,0.24905886672424976,0.5739191620603098,0.2723969084747017,0.1540854142862515,-0.1350029885403382,0.1996102154118835,0.8561194572022679,-0.400987982131616,-0.2550836500645261,-0.5211177905175143
168.0,9.35085940361023,-0.35000294942031407,0.025734203881803332,0.9997490493044132,0.005358761512236434,-0.03424019708917782,-1.7515348319508623,-0.16839581205437715,-0.20004587417560776,0.11761913739395119,0.8133253796725303,-0.6190199310656095,0.12231000078386572,-0.7068529732991188,0.2826860755636486,0.38502964331138967,0.8888325632417329,-0.24180041448647066,-0.10514102274551926,-0.09843568493658922,0.08630915530403388,-0.015869740040138112,-0.3942044599668032,0.07906612236917741,-0.09910989539021664,0.8657439777883535,0.24875004547577173,0.5758058467117175,0.2724194622209039,0.15948108665601363,-0.1381898819398526,0.1965919158236228,0.8564290070033285,-0.3980589323204814,-0.24760393622557259,-0.5167007235869328
170.0,9.426566123962402,-0.35367196239763354,0.014274154218926345,0.9978621651805442,0.003997545159101359,-0.036644281669021395,-1.7449323514439514,-0.15467715253681422,-0.20550321873875113,0.10930450833571716,0.8131523966542293,-0.6243759138234803,0.12300508405626306,-0.7060569343422801,0.27216104711390704,0.36816764246478273,0.8899059283818374,-0.21955546922105382,-0.10693255641966583,-0.09583478827924191,0.08581174129539572,-0.01611874727349493,-0.38387199996990073,0.07535219601780965,-0.10039775576463908,0.8695864036580032,0.24924026026757268,0.5773262058534595,0.273806696643053,0.16430491594552712,-0.14106354013743583,0.19435146877881918,0.8565566390722038,-0.395433566965553,-0.24137451703097035,-0.5115612953887584
173.0,9.492171049118042,-0.35762685193014143,0.0025857470636029512,0.995973824248298,0.0029764529751063764,-0.0387402313837131,-1.738086239708001,-0.14117827846437464,-0.21133281797534914,0.09897565998708241,0.8139975867595871,-0.6298256763208261,0.1235364581010581,-0.7053932999785131,0.2569446185418103,0.3433735768008249,0.8920731264473414,-0.19218396858470177,-0.11041420874554737,-0.09338285232563323,0.08540807537240006,-0.01735676672772391,-0.37019894768970274,0.0722356038428749,-0.10204893816073299,0.8742578480978103,0.2504412535341023,0.5783069623344939,0.276643235431419,0.168611717069637,-0.14396529285751417,0.1923686817718252,0.8564568726454977,-0.39280399332690097,-0.2361852024027502,-0.5058462256376028
174.0,9.572651863098145,-0.3628686564543542,-0.012312245001759863,0.9941775997556395,0.0033719302379447537,-0.040201668047585064,-1.7299287488235282,-0.1257776615489852,-0.21659175302225694,0.08573969322338613,0.8153637097650817,-0.6348028708983464,0.1237419309327381,-0.7085651970696565,0.22766602838167072,0.29690001901211566,0.8945172595465432,-0.1527062248963374,-0.1195349432419337,-0.08958019458964392,0.08544184172652824,-0.020612003892491203,-0.35111297768300465,0.06599247556423578,-0.10208332473859424,0.8816719146916947,0.24924664753245496,0.585209036446378,0.2791347120515495,0.17228319995267544,-0.14960259801956555,0.18814898073176284,0.8563617614919777,-0.3888546560173849,-0.2299218596722836,-0.4991067868105347
177.0,9.629470348358154,-0.3671026979101235,-0.02419265241122977,0.9930105430466079,0.00476539187653084,-0.03991096761635108,-1.7226579381474982,-0.1146260541133147,-0.21876315532804613,0.07465990151855001,0.817392156753312,-0.6379897036671216,0.12436152785989849,-0.7123343971042311,0.19972840780667733,0.2522952626931884,0.8957209310476526,-0.11970562123334433,-0.1288023114352335,-0.0874574235079577,0.08722944655603096,-0.02422622594984638,-0.33520645073467514,0.06001793778780189,-0.1008237376897787,0.8882616250634122,0.24682954779838362,0.5939133929461226,0.2805160273247337,0.17458504447437428,-0.15514610733963433,0.18406610060005169,0.8557864886298869,-0.38546473794353314,-0.22512913928405756,-0.49368748652121525
178.0,9.716603517532349,-0.37231265123541,-0.038585415134244114,0.9921507678562583,0.007617199605511844,-0.03770720208069151,-1.7148040018323427,-0.10363912423147251,-0.21590661957794977,0.06567265148363355,0.8229171646142266,-0.6376969629257525,0.12655294901511988,-0.7156167244956095,0.16892367953605486,0.20100210499139726,0.8992660690751865,-0.08779037454964816,-0.13800164527529257,-0.08464810006186232,0.09293770171020599,-0.028382439927753526,-0.3145494839982977,0.052167455665188815,-0.09633927709861023,0.8967692627326289,0.2409307950231045,0.6075730878125121,0.2811838398953658,0.1739076993632606,-0.16358690301151607,0.17825525867528164,0.8550006305561942,-0.38161356403684643,-0.22153263893072844,-0.48823318399344356
179.0,9.758218765258789,-0.37640374075996696,-0.049857131214790004,0.9917111456503764,0.009957369140190003,-0.034781166147930274,-1.7080503902119553,-0.09609217819107918,-0.2116232394691826,0.059041696722262754,0.8294717456597742,-0.6359838511763078,0.1286264921103081,-0.7166708693711027,0.14665370462372057,0.16239097261944535,0.9027248114503096,-0.06469647674513451,-0.1443321678780612,-0.08325974573596966,0.09930706778695253,-0.031245890034669915,-0.2968614599506533,0.045793566248125736,-0.09201505546055269,0.902524070267027,0.23557151665849907,0.6182540156622949,0.2822840398571579,0.17235534121680163,-0.1707583699083069,0.17320583377068613,0.8539158417594206,-0.3785252577121339,-0.2193831824098154,-0.4842023585024623
181.0,9.79613447189331,-0.37957087488472524,-0.05861558081749273,0.9915547408235246,0.011423907732278412,-0.031748057503252596,-1.702504152731973,-0.09089562404376017,-0.20694544324097347,0.054356495194319676,0.83662001339484,-0.6331785368728684,0.1303417251159445,-0.7153643386224788,0.13298664722361336,0.13675962048187024,0.9064168679553815,-0.048114148979914506,-0.1475884469281845,-0.08260534634064423,0.1054901700799529,-0.03273961371668008,-0.28130118870956683,0.041169872827428386,-0.08829456645100603,0.9057454834658704,0.2311732770737236,0.6252590845633241,0.28384243103880485,0.17045160405566667,-0.17630628921001235,0.16897123453355484,0.8526859271273768,-0.37616765034309996,-0.2183282946736118,-0.48175932143098404
182.0,9.83924388885498,-0.3831342668596688,-0.06860998099677018,0.9916645465105536,0.011886480222208692,-0.029189150320311524,-1.6973071523530368,-0.08495662251792072,-0.2015601327563985,0.05122757372913187,0.845783183171047,-0.6265400585889034,0.1316223672435529,-0.7110665307587711,0.12431530085784594,0.11840612297500006,0.9126838073361225,-0.029090000094554754,-0.14812977985277873,-0.0805044470991347,0.1114146731003921,-0.03337962537391348,-0.26166333261891883,0.037445904716510825,-0.08389563951581455,0.9089490070250945,0.22627105012854393,0.6309339048724021,0.28553941498156155,0.16746334964933765,-0.1811798215286709,0.16400723863497485,0.8513253175398495,-0.3738780562508104,-0.21719238739162705,-0.4818200826097492
184.0,9.888082027435303,-0.3860211656753478,-0.07676248383309851,0.9919211476979444,0.011747057278423262,-0.02714744626286402,-1.6930792477627785,-0.08047790171904522,-0.19697374378362906,0.049047318530413685,0.8543898401346179,-0.6188135134508195,0.13199258776022632,-0.7058346918769697,0.12058707642340111,0.10833543815867008,0.9181303859000818,-0.013189940237787932,-0.14727172352515425,-0.07874190884257828,0.116095806212227,-0.03348592842137053,-0.244596349274678,0.035230165834000196,-0.08018663957049724,0.9111308435497534,0.22231012655447097,0.6356229341787369,0.28704153537360877,0.16456313561522531,-0.18439003102683046,0.1599739488661438,0.8500713048113262,-0.3724265002353232,-0.21614611421113594,-0.4833102874975793
186.0,9.958197832107544,-0.38960743753603655,-0.08681513600240598,0.9924480038132759,0.011410202448498732,-0.0257684630805236,-1.6876163325371731,-0.07615103072052884,-0.19224358253661683,0.046789517397993974,0.8657837075006021,-0.6046453396169038,0.1308982575250896,-0.6978943504635928,0.12020150681031237,0.10348765621909745,0.9249555491480436,0.0027628217317797413,-0.14439967287536415,-0.07606443893462123,0.12025955317218479,-0.033418621316466446,-0.22436644540388717,0.03356556247524471,-0.07611914255391233,0.9156744938915646,0.21842102936661034,0.6432023269398057,0.2891947707828365,0.16061168241752605,-0.18769977105405994,0.15580096535623977,0.8483701314943717,-0.3716787858635687,-0.21574722160941484,-0.48687039578199875
188.0,10.025331020355225,-0.3936537209851264,-0.0981212237753151,0.993394112304554,0.011239876714384762,-0.02524149782054446,-1.6794693198402522,-0.07361101738426913,-0.18557028798957992,0.046755316509254546,0.8804819645683859,-0.5822828335167338,0.12918252670076025,-0.6876028245588439,0.12252430719223016,0.10370103543003845,0.9321132550983631,0.01524850519642236,-0.14022436482116146,-0.07405224774546405,0.12348559018217856,-0.03345576799200235,-0.20290162907765835,0.03233088723401657,-0.07250086173516038,0.9228394929098926,0.2152146112749962,0.6541455292426825,0.2918190443532374,0.15566226219607976,-0.19164118389391818,0.15206513095627383,0.8463760138007075,-0.3719627460324735,-0.21590380827724875,-0.4912263629971637
190.0,10.073402166366577,-0.39786263775362884,-0.10993940908546132,0.994827699819358,0.011749200740888862,-0.025465193443728,-1.6678128048343366,-0.07451502728392799,-0.17610879648246008,0.04987295319485642,0.8989160133620329,-0.5519084576587546,0.12730080047422893,-0.6758683460706545,0.1266129049598253,0.10787145584031511,0.9387569856602994,0.021836470996582463,-0.1352725372086543,-0.07380331389984231,0.1257344904860493,-0.03391463853492885,-0.18203340596285,0.03133845952076446,-0.06947269578117592,0.9323423143394045,0.2125395232639955,0.6680026426138479,0.2942188533689645,0.14965934635746952,-0.19651033887976993,0.14872314769204392,0.8445072141776535,-0.3726890129911763,-0.21634052824376526,-0.4945350762984936
192.0,10.14451003074646,-0.40212895818497313,-0.12207933362249956,0.996644944935106,0.013002835463260979,-0.025844799679913134,-1.6525468134455403,-0.07966196740367096,-0.1643187330464153,0.054953564194765436,0.9222981748373305,-0.5151050457999119,0.1255034611425528,-0.6630933610191486,0.13162079905845736,0.11398372183894126,0.9448967392504528,0.02339962322807243,-0.12962604966926558,-0.07482006218028173,0.12801186396730604,-0.03441619915857757,-0.1624083151283855,0.03021216567747844,-0.06687016712255603,0.9432856930355769,0.2102971664104025,0.6834207597238238,0.2970264805319085,0.1430955117216765,-0.20255726635594046,0.14513876713901264,0.8424011731518521,-0.37317270117303947,-0.2185347409586925,-0.4969417058788031
193.0,10.201581716537476,-0.4061424465442146,-0.13380923917909146,0.9985375543091657,0.015068277654878618,-0.025994401941315665,-1.6345178533761762,-0.08997889566812717,-0.14884019111681263,0.06401948280881939,0.9510497553294441,-0.4740594774481124,0.1254002893307598,-0.6503947176793208,0.13645675073384547,0.12000324867720467,0.9502565255499779,0.021113910028523107,-0.1235534809800787,-0.076486347921911,0.13156241934699303,-0.03469035567364761,-0.14579584582278876,0.029207818988079927,-0.06415420934011806,0.9543616647714241,0.20812674091043948,0.69906410519192,0.3002626914227144,0.1362772383306791,-0.2095219001744505,0.14154839174752254,0.8398655650432729,-0.3735894250544113,-0.2235217842264694,-0.4988611130308034
194.0,10.264042139053345,-0.40921114851107065,-0.14291564870273357,0.999975916593728,0.01729498772518677,-0.025625259457187643,-1.6187521380873466,-0.10164327197392627,-0.13336870056118272,0.07419691346106255,0.977648946438234,-0.43847921290857095,0.12670576398084532,-0.6405306263063899,0.1404290428644788,0.12435450553534275,0.9539614153080322,0.017535414940905013,-0.11826461719845843,-0.07813403014168843,0.13549435142963773,-0.03477546817777455,-0.13408512719335744,0.02847608887204467,-0.061911816199946734,0.9630820784323642,0.20620330494766803,0.712523274660664,0.302889197556123,0.13071314920095148,-0.215735442835379,0.13875009848828,0.8378169882541824,-0.37412712880608345,-0.2293013962512862,-0.5000969584965278
195.0,10.291062116622925,-0.4116150140279153,-0.15003436027056286,1.001038276894506,0.019455058522885538,-0.024952700842030325,-1.6051884452187317,-0.11385726039379385,-0.11782524710631809,0.08543721914310654,1.0021236810058585,-0.40765959801065454,0.1293580429513166,-0.6327594392452627,0.14385862455765852,0.1275029343792837,0.9563418277253706,0.013431936729816364,-0.11377808507819126,-0.07921458744146488,0.13923280130281068,-0.034467191078911136,-0.1254070929870626,0.027724804126311148,-0.060500360356232775,0.9700999443498827,0.20472204451320308,0.7245999689579535,0.30485735904097877,0.12688009110423368,-0.22168083635985153,0.1365959588147144,0.8359882395116479,-0.37500338366256797,-0.23565646156898723,-0.5010948501364718
196.0,10.325546026229858,-0.41360093163289047,-0.15579274466071175,1.0018936537623206,0.021325771881872742,-0.02427527442566548,-1.5933619527018297,-0.1259713600393233,-0.10216561930975895,0.09768376020400069,1.0247140942323445,-0.380856214305501,0.13312157458389368,-0.6261352774480246,0.14708158107679892,0.1302026869326487,0.9576778310196064,0.009014516068644528,-0.1100035341070397,-0.0794313245040234,0.14206079465520705,-0.033700012270375265,-0.11798223633766614,0.026578235170691463,-0.06028793885776919,0.9759997442724956,0.20386680614161387,0.7359872060416608,0.3061394295176646,0.12502829132295357,-0.2279096628803736,0.13483111295969444,0.8342922872268099,-0.3762075081015723,-0.24203107596673654,-0.5017759368575982
198.0,10.36033010482788,-0.4153612784964623,-0.16081236070990101,1.0027027461421387,0.022830127457053404,-0.023773395419044243,-1.582525879994332,-0.13770367442337011,-0.08663831982570683,0.11045576691473188,1.0460168114466473,-0.35807207111073247,0.13778338644211485,-0.6198143269946901,0.15037424221448403,0.1330915405365159,0.958312299872808,0.004329402317640986,-0.10671410020244168,-0.07867444498356879,0.14369911494979393,-0.032609216293743644,-0.1107558873642523,0.024850077486185597,-0.0612924355865569,0.9810844511469322,0.20365331227135236,0.7469172093828698,0.30690457507505264,0.1246897106621769,-0.23470601987077985,0.13310043131757293,0.8327980833209682,-0.3774183724881891,-0.2476943635987138,-0.5016617953138465
200.0,10.4258131980896,-0.41764575985606456,-0.16769137993191707,1.0038666316204192,0.024653772195967094,-0.02405745568853293,-1.5676958565674237,-0.15355265019259018,-0.06564537222839852,0.1292972563895201,1.0746733620540883,-0.33831096679201744,0.14574955840293746,-0.6106846414043702,0.15447909053863462,0.13780803965903565,0.9591212276376133,-0.002173200181088076,-0.10247721572227714,-0.07588263709856172,0.14465561999788912,-0.0310647996638694,-0.10156143838691503,0.022891294271367525,-0.06331209799551836,0.9871726814160033,0.2039271865271558,0.759132367527436,0.30684567498082704,0.1232284712341957,-0.244109280931811,0.13074602722438838,0.831484393385628,-0.37860715494113656,-0.25190848860387544,-0.499610225262531
201.0,10.474555969238281,-0.4201592503641601,-0.17599933665876052,1.0050096270295197,0.02736285770767785,-0.024601441834941923,-1.5502309318927958,-0.1733903282835186,-0.03993738286502503,0.15340535330080673,1.1089156914802751,-0.33276352019623057,0.15760087401521283,-0.6005427771883249,0.15880804925081943,0.1429878637725578,0.9605017734870194,-0.009480127484701575,-0.09743692991046926,-0.07151497476008044,0.14691701799258466,-0.029682313826325277,-0.09388967095770412,0.022878250315980033,-0.06497608304695691,0.9920981598999584,0.20415358654634155,0.7688351571384788,0.3059714071943126,0.11673224705869482,-0.25432303777710014,0.12868015708229674,0.8301947118059962,-0.3811518779169514,-0.2547352328847347,-0.4982556691230291
202.0,10.521714687347412,-0.4222530571943122,-0.18325304795411165,1.0058070539996407,0.029926869957397045,-0.02462266679667056,-1.5352695212487861,-0.19179092530857222,-0.01654624627002189,0.17518011375541376,1.139714782017775,-0.3383864746476989,0.16941913084548701,-0.592118336875358,0.16296316447804782,0.14720037746315798,0.9618126762352136,-0.015695746155771108,-0.09289954801173683,-0.0671982246834825,0.15000516485164592,-0.028539407082739388,-0.08898599125393702,0.023767629540863148,-0.06613264292642722,0.9945927012203455,0.20420993486047123,0.7751543070894114,0.30510287610118436,0.1084849308348901,-0.26351883717024827,0.12744107154161521,0.8288042622702367,-0.3847378742983964,-0.25735129966826314,-0.4982835495478488
204.0,10.560479640960693,-0.42396898758553514,-0.18948385462263104,1.0063150969402546,0.03209899322907625,-0.024300527848506837,-1.5228104591566312,-0.20837753606883666,0.003617128669601315,0.19387699588052304,1.1663696185694645,-0.3522239676623424,0.18036309522027005,-0.5850509338675383,0.1670169163436026,0.15075382143478905,0.9630424187945779,-0.020992407006544575,-0.0889573905022642,-0.0630717182055382,0.15363328745865007,-0.02739860839142296,-0.08663158046715258,0.025369663279392028,-0.0667938951785635,0.9951656828921143,0.20409821676306333,0.7787298088314438,0.3042654176100066,0.09894719534206137,-0.27186669894016396,0.12730351991722383,0.8273742051621746,-0.38949118311182235,-0.25991976336621475,-0.4993024478145413
206.0,10.619409561157227,-0.4257512105715755,-0.1967020539476445,1.006840712227179,0.03393377053249026,-0.0245639696203293,-1.50901755867645,-0.22714217203488823,0.02233806818955095,0.21261311603041122,1.192656093988326,-0.3755233772955322,0.19179781171836535,-0.5762953228011694,0.17156228862596112,0.15542819337071168,0.9647151064001911,-0.02756340428141411,-0.08478432466742225,-0.057550515238152335,0.15812134452636284,-0.025719898999720135,-0.08778550502851068,0.02883043303460071,-0.06696249363910588,0.9944826239445846,0.2041015160197598,0.7799742705509434,0.3032197339325803,0.08379983028813409,-0.2814423304834013,0.1296551486633229,0.8266649567745163,-0.3969806256621945,-0.25982494589379335,-0.49801176232166694
207.0,10.681301832199097,-0.4275494848484036,-0.2047728631446814,1.0075300673793934,0.035505860786531944,-0.025079511123186078,-1.4936230786202334,-0.24865766977879855,0.03814124994539664,0.2297240762235539,1.216917610737943,-0.39918490559126296,0.20269942244638325,-0.5660778477321965,0.1764614916353338,0.16060623434994367,0.9665022738602462,-0.035723812257093784,-0.08033974995871938,-0.05067563153580268,0.16364174595091036,-0.023489254189256112,-0.091290787356692,0.03317264875071642,-0.06717739686079943,0.992667238466868,0.2044661968510869,0.7790375419732394,0.3022511445761155,0.06378980027333667,-0.292214409724661,0.13407989052498323,0.8278860651430173,-0.4055510749503979,-0.2543244916598669,-0.4906003538839089
209.0,10.729805707931519,-0.42906149354811185,-0.2117450861213821,1.008106678467926,0.03662344800254461,-0.025185705936869487,-1.4802599420973812,-0.26844854534666196,0.049504329095393484,0.242172042073321,1.2363615645652324,-0.41786180536052986,0.21069250538857676,-0.5571008609994985,0.18124300338414573,0.1650036876268039,0.9680260012208697,-0.04318658946083066,-0.07633545690801379,-0.04459517685109243,0.16904103186041047,-0.02113348071848039,-0.09474058279454994,0.036649617172251715,-0.06740773533947274,0.9904657155391638,0.20471801044260424,0.7771058369454644,0.3014481448535173,0.04500476377628542,-0.3020548360472882,0.13845533688699244,0.8297273013673574,-0.4130588644037782,-0.24735298762134364,-0.48201306704204105
211.0,10.791835069656372,-0.4306831753085404,-0.21950476326806678,1.0085712113016183,0.03746666441352822,-0.02537803271856159,-1.465311849086664,-0.29194520232807125,0.05549306844906378,0.2505140595200248,1.252495806235392,-0.432143625416635,0.21533073127682872,-0.5468202670416864,0.1873570503446712,0.17041246967214901,0.9702244346206585,-0.051437048126963966,-0.07160664943705078,-0.037573216364826134,0.17472653151865863,-0.01764014043265019,-0.09867061611733619,0.039407288862593676,-0.06742548993835465,0.9871426009562791,0.20464171135263287,0.773195396604055,0.30061822679473166,0.02390418190794015,-0.3136171155112985,0.14302481550936824,0.831466931859904,-0.4216130719717005,-0.2389044897391296,-0.47361825348335873
213.0,10.854554891586304,-0.43225742269342715,-0.22765982165523496,1.0086470121933764,0.0379338689364749,-0.025472570228613545,-1.449357748446913,-0.3178447136861317,0.055610995461297746,0.25462210774799343,1.2632744229908948,-0.44050820178827466,0.21586968246615046,-0.5358395227938593,0.19514296464807646,0.17704245300055116,0.9735457484846604,-0.05908402724382067,-0.06594519797107132,-0.029870593994856774,0.1804060276977909,-0.013933965109506525,-0.1031428849799606,0.04124109769335765,-0.06665394415996317,0.9830153580788602,0.2038858497988496,0.7684716372440148,0.3001509764187719,0.0020907523420495757,-0.32571314087419534,0.14732887689094248,0.8328113868920743,-0.4303426066031095,-0.22989106490693706,-0.4662247341719903
214.0,10.900687456130981,-0.43376884615647676,-0.23624206271350617,1.0082958929727037,0.03830370158183315,-0.025684953728310575,-1.4319593511320803,-0.3460110672294209,0.05010458962487341,0.25570026888861463,1.2679803151119176,-0.44447206073457696,0.21245175510994402,-0.5242923812082113,0.2042691895077779,0.1849417490696454,0.977911526993658,-0.06575078321254547,-0.0592557613428186,-0.021789602818730706,0.18618862420674476,-0.010382753874862321,-0.10775867585892729,0.042300162904018876,-0.06541189837581297,0.9784516841821989,0.20277001374245762,0.7637759731706786,0.3001080426917919,-0.019452533225862493,-0.33798669414403826,0.1512453028636133,0.8334530723151079,-0.4387687310039784,-0.22115199038942424,-0.4596053318382445
216.0,10.961991310119629,-0.43493663022437895,-0.24343016022761507,1.0078159421831303,0.03862331234429663,-0.025692240626005506,-1.4168493196706542,-0.37044662482527557,0.042814237476990105,0.25478914297021327,1.2687955950340708,-0.4466252672542065,0.20764690505104733,-0.5146151000457132,0.21246548171504206,0.1918587688641344,0.9817549165208803,-0.07079244949491212,-0.05306533984231873,-0.015509071939973973,0.1914516853978402,-0.007536489720274119,-0.11136248417378561,0.04259664476419675,-0.06423593222570294,0.9745554149852826,0.20166198240340066,0.7601781163685482,0.30032415357556097,-0.03706687900724794,-0.34810053087569975,0.15422541517914012,0.8335825424718742,-0.4452488266836945,-0.21387951238300362,-0.4545052708304316
218.0,11.02512240409851,-0.43589358721524196,-0.2510765285592832,1.0071521675631878,0.03873881893181542,-0.02529505561545119,-1.4003321348458586,-0.39636317722315906,0.03219257852110334,0.25205882160121473,1.2633088976092992,-0.44868866816213215,0.2010473201697601,-0.504062000226091,0.22080389459602662,0.19801820387253907,0.9851713164953994,-0.07458125941143426,-0.04653447217436023,-0.009518924967557112,0.19711354002854395,-0.004651343037429702,-0.113228613222347,0.04104409584896854,-0.06336239941774631,0.9699415941979195,0.20049042312219598,0.756683680821544,0.3011081139389717,-0.05306215027815008,-0.3582890693875963,0.15548172031133137,0.8327193481336215,-0.45012456759207475,-0.20683064902981585,-0.4503549342456341
219.0,11.067830085754395,-0.4366166058132319,-0.25923094596091945,1.0064590655850432,0.03873767289747772,-0.024785107072419755,-1.3822267379370576,-0.42285374277486143,0.020469961939503727,0.24950660550259776,1.251694724184781,-0.450582798986335,0.19391408715787578,-0.49254406264798073,0.22832462264874848,0.20278189518459938,0.9878619721787516,-0.07755872724347332,-0.04010252461142924,-0.004466089070041436,0.20172233929160888,-0.0018546711256827151,-0.11304843179429515,0.037298354151418016,-0.06272554487428844,0.9642662970022354,0.1989566977500717,0.7523269285726348,0.3021234560934759,-0.06748272473826969,-0.3686102710018485,0.15444303050613653,0.8303308347223501,-0.45301557694812694,-0.20045918986722766,-0.4475168895039085
222.0,11.1292405128479,-0.43705115006577566,-0.2660756200989246,1.005912077342022,0.03890258286576495,-0.024354292378053248,-1.366450490691809,-0.44459709040281525,0.010216713493443254,0.24729328492960348,1.2392123929712708,-0.4520557794267282,0.1880922569313632,-0.48276371630744735,0.23411113813777085,0.2062973586701365,0.9896427484801998,-0.08017940710337575,-0.03465018162935258,-0.0014824083766484487,0.2049959549490169,0.00019748049333800065,-0.11236941558469181,0.03335074423313605,-0.06219681152671569,0.9589891724018078,0.1974050281560315,0.7483590837920535,0.3028094372392342,-0.07884765817539899,-0.3768827562355741,0.1523598198700411,0.826983361882607,-0.45432396359525856,-0.1961119952658224,-0.4467156962944885
223.0,11.203944206237793,-0.4372951998963558,-0.27605850809665716,1.0052265475453044,0.03902031460295827,-0.02375736921251804,-1.3439465293079444,-0.4723368048345557,-0.003292735659232845,0.24567884049620414,1.2157724121210476,-0.45749084589743017,0.18076154876969303,-0.4676547726443171,0.24280566689195254,0.21173099391719735,0.9910472496976963,-0.08579036405172705,-0.027336841510030796,0.0018597273921018955,0.2090900401020674,0.001315152618785159,-0.11355101937000411,0.028455440469663838,-0.06184771825200523,0.9520913741558756,0.19543706886211348,0.742755652748314,0.30243075941586833,-0.0937974228626842,-0.3858536363781711,0.14637599385352604,0.8197259956190887,-0.4544726028978136,-0.19475422520747399,-0.45251682193953213
225.0,11.258967161178589,-0.4373019688803118,-0.28426186870150005,1.0047574529412033,0.03929246950863591,-0.02309913033639642,-1.3250660401421364,-0.49388664707893737,-0.01372166019788813,0.24520288970168902,1.1938889536776873,-0.4635352177377201,0.17547975606220645,-0.45490014361039766,0.2498441787435756,0.21612528280136387,0.9912456698244949,-0.09151951882839116,-0.021150475669142632,0.003957597057754758,0.2122550758450537,0.001549501701988218,-0.11484197164327593,0.024419665094806434,-0.0616264135961267,0.9460675403622101,0.1938812919645982,0.7376501316618498,0.3020658555494418,-0.10545147609747771,-0.3925320099974959,0.14054592780131844,0.8127357624136594,-0.45393470194148733,-0.19487336699229105,-0.45911199666967295
226.0,11.30069875717163,-0.43707352187052634,-0.2930785745033045,1.0043465859097531,0.03949434681683901,-0.02198153237440311,-1.3051932751571482,-0.5147503840642973,-0.02202731090987682,0.2476796621028011,1.1670203782682456,-0.47308991180237214,0.17124747074349853,-0.44085742706588604,0.2569915336637152,0.21975568379874366,0.989904797947933,-0.09924357237598659,-0.015116230480319091,0.006444137733113867,0.21504157544425379,0.0011439214070008623,-0.11669455375184334,0.01959066367586175,-0.06126188976678633,0.9396937920190548,0.19227174372914846,0.7318147317462012,0.302496484225425,-0.11722557105822451,-0.398954091735096,0.1334642438952,0.8047644732456136,-0.45243138272283623,-0.19676555691033845,-0.4665601200123132
228.0,11.362361907958984,-0.43675765517363285,-0.30044877256039976,1.0040575214171041,0.039718024293469205,-0.021021119699270018,-1.2886212035003566,-0.5310012921446581,-0.02777325643713422,0.2514773700019879,1.1424163447875921,-0.4819326828986134,0.16825056396998078,-0.42895964741195486,0.2623662174210827,0.22213907144548584,0.9878966452363849,-0.10639228202921328,-0.010313770301762825,0.008489464703116019,0.21675412004278133,0.000908451261611216,-0.11823543514808027,0.01505942839373025,-0.0609459753360138,0.9342256822912993,0.1909674636733939,0.7263029129667429,0.30337069014833806,-0.12664079391204183,-0.4040987779520885,0.12701400587213985,0.7975958224993371,-0.4506958658916178,-0.19941036384008382,-0.4729935217496417
