ccrpRepo/mocap_retarget/src/mocap/src/data/output.csv
frame,timestamp,posX,posY,posZ,roll,pitch,yaw,left_hip_pitch_joint,left_hip_roll_joint,left_hip_yaw_joint,left_knee_joint,left_ankle_pitch_joint,left_ankle_roll_joint,right_hip_pitch_joint,right_hip_roll_joint,right_hip_yaw_joint,right_knee_joint,right_ankle_pitch_joint,right_ankle_roll_joint,waist_yaw_joint,waist_roll_joint,waist_pitch_joint,left_shoulder_pitch_joint,left_shoulder_roll_joint,left_shoulder_yaw_joint,left_elbow_joint,left_wrist_roll_joint,left_wrist_pitch_joint,left_wrist_yaw_joint,right_shoulder_pitch_joint,right_shoulder_roll_joint,right_shoulder_yaw_joint,right_elbow_joint,right_wrist_roll_joint,right_wrist_pitch_joint,right_wrist_yaw_joint
1.0,2.3059489727020264,-0.1033380993751365,0.5154905667095916,1.0170647110633144,-0.0002675710215040352,-0.006213072719593727,-1.6870620095145834,-0.2726743006319102,-0.11870366709524197,0.0480689237399676,0.9255956146100888,-0.5708685898841228,0.12597416380587878,-0.3371900839034181,0.27728338186431845,0.14876081588636725,0.8747898715500944,-0.042690438950096485,-0.04257611670151074,-0.026122617070662803,0.09237481827658947,-0.07393604710036572,-0.17091528644398335,-0.02783908859027927,-0.06997113112171165,0.9400121353761401,0.1774651654840304,0.7648601749069093,0.26747976962459963,0.019775974857980643,-0.08562929653486667,0.08017457833482776,0.9048408929530278,-0.31839035337543387,-0.27421151751845163,-0.6076662388820627
2.0,2.3364040851593018,-0.10333810790462881,0.5154906977396925,1.0170650733074384,-0.00026858229979152424,-0.006213082427074654,-1.687062044404105,-0.272672351547241,-0.11870372217938617,0.048068832858249984,0.9255929587322607,-0.5708668378304936,0.12597405220625613,-0.3371879873952708,0.27728307090846094,0.14876131747793483,0.8747871583014617,-0.04268871987214205,-0.04257598075118477,-0.026122706636930962,0.09237522178221358,-0.07393651683166617,-0.17092618271041693,-0.02782091921306478,-0.07001944335505357,0.9400356002613912,0.17739540718899,0.7648499224449172,0.2675032657193084,0.01976631561929093,-0.08566568428606924,0.08027483689236564,0.9048555526740234,-0.3182977923439685,-0.27420711777777057,-0.6077023914287571
3.0,2.3594603538513184,-0.10407177352458753,0.5149984246947859,1.0168440690498397,-0.00029336593661737103,-0.006336494999964735,-1.6852984062631218,-0.27555136769539773,-0.11689151167146303,0.04995479744630334,0.9313979027910655,-0.5666788619145294,0.12544211415542572,-0.33691402490933336,0.27747065941866506,0.1477271328151772,0.8755777870039481,-0.04231611984883988,-0.04183881348423303,-0.025901519742454214,0.09392509889111321,-0.07262334076401664,-0.17119274807143947,-0.02865659841965707,-0.07217789875582802,0.9405706837753822,0.17844929791092085,0.7654743178523686,0.266557037943351,0.01966884918719398,-0.08331178536942885,0.08091906800996018,0.905409115872875,-0.3190584660591475,-0.2755143175591179,-0.6115349224100681
4.0,2.4132232666015625,-0.1063214319319736,0.5135277021336797,1.0160355270199797,1.624321565486552e-05,-0.006806232171392436,-1.68008257866416,-0.2858008152385543,-0.11118403233478236,0.0558139898717704,0.9508856485603268,-0.5537237405409194,0.12401439237236621,-0.3365249904235943,0.2779405444567926,0.14442338293454418,0.8777592881000926,-0.0417630425542274,-0.040035899496565844,-0.02531361891866387,0.09784390049079818,-0.06931347488492422,-0.17296793290430912,-0.03172337923283948,-0.07789739426427242,0.9417218737705741,0.1813514852814626,0.7669042190005337,0.2646597442835627,0.01770514685666864,-0.07739786172912642,0.08209903815946659,0.9074439980685723,-0.32102481059943755,-0.27960714347404436,-0.622407467170019
5.0,2.437138080596924,-0.1076145627289434,0.512665263960985,1.015588941755632,0.00038910636610810576,-0.006947371208316205,-1.6769444269217972,-0.29246573722036245,-0.10722731487208453,0.05958814636201,0.9629843113379339,-0.5458410725884458,0.12366247203586211,-0.33638366649949464,0.27835235897526994,0.14246100541698614,0.8787703145547563,-0.041901152179965706,-0.03912457330051054,-0.02483693522651406,0.1000951639398103,-0.06770671780399246,-0.17428208999193645,-0.03322789377647927,-0.0808476558599219,0.9422209408440687,0.18289529545318162,0.767554477539262,0.26363370676817405,0.015888813229498665,-0.07406018129078892,0.0825242710239607,0.9088781313393712,-0.32188208803547447,-0.2816328536395286,-0.6283569455247975
6.0,2.4631824493408203,-0.10907124320303044,0.5116799015533656,1.0150955829682247,0.0009084383373610924,-0.007034906082062617,-1.6732942897957215,-0.3005855880879157,-0.1023272662052255,0.0640342331473132,0.9774989015472003,-0.5367616530709867,0.12376659587055011,-0.3361904577373612,0.2790569878586854,0.14043074818752627,0.8797087717248651,-0.04265428191159179,-0.038188719135704326,-0.02420065836512105,0.10264230246318057,-0.06606298431031199,-0.17596370276368611,-0.03468965852148287,-0.08372876278802949,0.9427208901613129,0.1844732428959397,0.7681252541280555,0.26275024367303057,0.013396565411673476,-0.07043189707433818,0.083069093007344,0.910531033835913,-0.322755352653194,-0.2839322352085025,-0.6343614360338684
7.0,2.4887590408325195,-0.11069003939940905,0.5105834875058339,1.0145761448671955,0.0014557468228854646,-0.007033802015941933,-1.6690996706714762,-0.3100537860973283,-0.09640816427030738,0.06915055107084093,0.994434098605997,-0.526616773642832,0.12443261532127797,-0.335809465082728,0.28025406847878614,0.13854351642786292,0.8806036632380256,-0.04419106231808004,-0.037174618838932603,-0.023405067705144784,0.10559698263104374,-0.06418045999049482,-0.17794663362009389,-0.036082877676383046,-0.0863594359366687,0.9432730102164627,0.18604420547820277,0.768709418045558,0.26229708130297247,0.010439302683656723,-0.06659785810627925,0.08409983976139271,0.9122502387850837,-0.3239486786751734,-0.28701779965106805,-0.640255569302115
8.0,2.5405449867248535,-0.11358859364835286,0.5087165167223965,1.0136792621329276,0.002227893638370379,-0.006640470178433038,-1.6615331609085193,-0.3279491103868125,-0.08462803916032077,0.07859767131956492,1.0265125487687774,-0.5089516345675683,0.1265858549116782,-0.3348704171870437,0.28352067546837867,0.13592111631849269,0.8819755745380213,-0.04798084658779794,-0.035365083111214675,-0.021899975619640695,0.11093701666445298,-0.06038772227515999,-0.18184699113616282,-0.038495970354997966,-0.08982321640477617,0.9442075071092351,0.18846905439882097,0.7699391462270401,0.2630287317032466,0.004517949513819033,-0.06076204221501895,0.08700014422957339,0.915591341203484,-0.32687713604670804,-0.2939031643128804,-0.6494254724117151
9.0,2.5663251876831055,-0.11488325030559418,0.5079074026010832,1.013327978832829,0.002241117759690171,-0.00652397140501795,-1.6583104408077354,-0.3358514333156526,-0.0789843854011336,0.08312142269197335,1.0408961415204943,-0.501693672499038,0.1280950757610681,-0.33401817095150954,0.2853235735269728,0.13536493202768085,0.8823954116872492,-0.0499661059287497,-0.03457912547811236,-0.021159102624889035,0.1127945044828772,-0.058260774014150515,-0.1835410284155713,-0.0395972912512622,-0.09067597123820481,0.9444662772167807,0.18926891947433883,0.7703826054859402,0.26413799623411005,0.0015686094115582349,-0.05904139416275287,0.08897148154464443,0.9170638244332536,-0.32881947234348574,-0.2969097639982218,-0.6524869774382254
10.0,2.5937325954437256,-0.11638955462593856,0.5069282061575853,1.0129925605660537,0.0018231202969601515,-0.006744221072318011,-1.6549018978762895,-0.3443201412641915,-0.07253204760335283,0.08871989875944492,1.0565891582034979,-0.49417026634453176,0.13021450370029566,-0.33244198771428785,0.28722803520728973,0.1352313215661931,0.8826810655100797,-0.052119314272398645,-0.0337059658421694,-0.020182048612476064,0.11405138283050115,-0.055424451123451665,-0.18513375932941845,-0.04090739493143601,-0.09127857900985059,0.9445243618216421,0.18990229358469457,0.7704471007983819,0.2655427418255908,-0.0019580670159467157,-0.05797251203933777,0.09184294990613781,0.9183814102471046,-0.33179931982337085,-0.2992181503016668,-0.6550121431952991
11.0,2.644348382949829,-0.11925636770126422,0.5050057198743787,1.0124781321690322,0.0005418647943471643,-0.007291285168312942,-1.6492098097512184,-0.35983656748401616,-0.05993966202276722,0.09976655195306078,1.0853368946324529,-0.48215749579023803,0.13464408978742548,-0.3286756939699546,0.2906888493644265,0.1353036837167436,0.8826732848067671,-0.0556326819193766,-0.032140666017732675,-0.0180634446627416,0.11553674785445,-0.049857908017930656,-0.1874013385961388,-0.043372451106480414,-0.09188932996652405,0.944256031614485,0.19046357545731224,0.769791281786172,0.26760094631087356,-0.009067729530493798,-0.057754356643046,0.09862015893021905,0.9205022677835217,-0.33892753882661836,-0.3016621899396931,-0.6582319628177784
12.0,2.6661221981048584,-0.12059221580810318,0.5040437749400596,1.0123088689597919,-0.00014626129692362733,-0.00756632477148605,-1.6469236845503374,-0.36702399810125264,-0.054133559563354354,0.10480852575352348,1.098141992950388,-0.47800858128205165,0.1369160604504161,-0.32664697795894987,0.29214788957516113,0.13532170406228308,0.8823730507828766,-0.05705539281394974,-0.0315069096906211,-0.016932002572037048,0.11604678840680083,-0.047535472160309546,-0.18791544148244665,-0.04450065902244721,-0.09186824584085138,0.9440826332513543,0.1903090795437773,0.7692698600185919,0.26805373808191496,-0.012313487941763878,-0.05867545855750241,0.10266939716027781,0.9211532612443898,-0.3431584878833463,-0.3025986846577256,-0.6589056761643192
13.0,2.712090015411377,-0.12301017725200042,0.5021501535762447,1.012063046843242,-0.0012508168689111632,-0.007962046937591685,-1.6431445997620096,-0.3807378123765201,-0.04393147726189822,0.1133897793123024,1.1209742490761094,-0.4726889626314962,0.1414000939080327,-0.32276919114298586,0.29474139319058074,0.1352836395031858,0.8814524238983075,-0.059852699152872925,-0.030570020096532105,-0.01470302932783833,0.11748766766866603,-0.04419279171907217,-0.1879848735919377,-0.04667750207853867,-0.09102875291863813,0.9439441644518904,0.18928127998197936,0.7687999510320611,0.2686563933228589,-0.017682295172709098,-0.06179860224267724,0.1115585316403709,0.9214835337086812,-0.3521500326177656,-0.306025960110688,-0.6591229724845968
14.0,2.7347283363342285,-0.12425912955857327,0.5010567199708575,1.011973109230629,-0.0017240790225466701,-0.008302063484953355,-1.6411894173167192,-0.3881640384637909,-0.03908302719188444,0.11759532531897866,1.1323139051782782,-0.47062350419468624,0.14390457759563016,-0.3206409331123049,0.2959556019599816,0.13537471897794462,0.8808830452274041,-0.061680702962478545,-0.030215831764233335,-0.013394557752334474,0.11844653846727587,-0.04292591058975907,-0.1877222866105983,-0.04787162181905518,-0.09024752049035162,0.9440301785690031,0.18851130562512755,0.7691072584586953,0.26913137773173684,-0.02012897178307732,-0.06374721893738505,0.11648018455086347,0.9211960098931659,-0.357022431366281,-0.30891384188464616,-0.6589930796489099
15.0,2.771543025970459,-0.12563787433689957,0.4997327717680408,1.0119301925271915,-0.0021357511981258846,-0.008865650904528352,-1.6390009460968828,-0.3967386351658218,-0.03400887207935789,0.12226585871032795,1.1442677863950335,-0.4687793694545884,0.1468623059544662,-0.31814606714917565,0.2971828924835578,0.135677272276057,0.8801587580777066,-0.06413730824671113,-0.02996579517211905,-0.011733375733149465,0.11958911007025008,-0.0419177682952695,-0.18728576131538005,-0.04917497973808889,-0.08920217665325553,0.9442259429181876,0.1875476353307953,0.7699842521116582,0.26972839560499823,-0.02268878877111704,-0.0659588289129944,0.12183514545795504,0.9206353959153699,-0.36228252556221585,-0.3128080243725714,-0.6587544078874445
16.0,2.803109645843506,-0.12715517710829535,0.4981730892458018,1.0119538811195634,-0.002451902899442456,-0.009693797678390702,-1.6365881074114634,-0.406479382473243,-0.02855041675774183,0.12763892487052528,1.1567058456387618,-0.4670039740701937,0.1503421863474645,-0.31529952260118954,0.29842616156831436,0.13624929273685488,0.8792500182018346,-0.06715483130237924,-0.029817827123734833,-0.00970918544742359,0.12070597449351683,-0.04115659447755275,-0.18673230041778893,-0.050504644344736394,-0.08805563896235993,0.9443775341406097,0.18645030042631483,0.7711020023285886,0.2702055270779631,-0.02553529110722185,-0.06839824058637384,0.12747962750484843,0.919935108329597,-0.3678200756537082,-0.31723745344033194,-0.6583749778827517
17.0,2.8308699131011963,-0.12881888317101958,0.4963800048181273,1.0120415822227455,-0.0026056587471629178,-0.010826744522886874,-1.6339527411886203,-0.41742926083965926,-0.022662280338836584,0.13383371074309333,1.1695175955782033,-0.46522703317134084,0.15438001398090054,-0.3122054902843638,0.29964927783003104,0.13707426187457505,0.8781926532048947,-0.07062251336626446,-0.029746467833260747,-0.007413091953104732,0.12158946689142477,-0.040721998168759876,-0.18604589298246177,-0.05182072513108934,-0.08685984439677083,0.9443645576374585,0.18518347242477098,0.7720244654818291,0.2703395066955964,-0.028773759509515197,-0.07127972102231661,0.13353945443114051,0.919127601568319,-0.37383121373433015,-0.3220805585242368,-0.6577607995610487
18.0,2.859013795852661,-0.13046529726136186,0.4945342370470943,1.0121732183603802,-0.0024659369065167473,-0.012172872653012621,-1.6313742873273593,-0.4286818820153024,-0.016889873477113633,0.14033387462567765,1.1812333004650744,-0.46363464325400294,0.15858088567514772,-0.3093211687729282,0.300712755173365,0.13804308312901922,0.8771112664968548,-0.07410739091696207,-0.029752178705587006,-0.005203545827297261,0.12200801035957254,-0.04084271670313151,-0.18520271817197037,-0.053042890448306595,-0.08568543460963471,0.9441296883298884,0.18377953467392427,0.772451742535184,0.2700230816514724,-0.03216448641051068,-0.07468020170390333,0.1396235675031734,0.9182946085303313,-0.3799327394941758,-0.32696812972047623,-0.656829680885287
19.0,2.9138588905334473,-0.13308710964155457,0.49153176313254193,1.012378419668698,-0.0014899521297528954,-0.014625475638114904,-1.6274462900376916,-0.447572265408436,-0.007673319983444133,0.1513521259465363,1.198216917320496,-0.46117224738444107,0.16561769761356418,-0.305495000059411,0.30222676988515923,0.13976157377014464,0.8754538820598996,-0.07947305021383876,-0.029799316563724216,-0.0019958926080874987,0.12173545294231491,-0.042286275041868236,-0.18322432096075447,-0.055183633773206966,-0.08374776288810018,0.9432641495730252,0.18115374061796743,0.7722276850794361,0.2689466324482072,-0.03801313262840863,-0.08175678176882858,0.1500605319546547,0.917053270699602,-0.39029250229687296,-0.33510766960078564,-0.6543659908757331
20.0,2.9436473846435547,-0.13423541082038543,0.4901753631633701,1.0124473285904076,-0.0008844549596253217,-0.015903259210696755,-1.6258451193659682,-0.4558168849130236,-0.0039772559370508925,0.15629303804710676,1.2042623533128167,-0.45991165274999074,0.16864909256840283,-0.3040533053972254,0.30270428954728645,0.1405641061154273,0.8748476402244927,-0.08154938945321785,-0.02981556475369898,-0.0006829435547899046,0.12101056269490057,-0.04335625610008318,-0.18200991892477292,-0.05634940790762496,-0.08293842724212286,0.9427694369236124,0.17990166051166784,0.7716865294715924,0.2683903049483385,-0.040796407263095025,-0.08568205174180972,0.15486624695494447,0.9164736550850291,-0.3950307870810138,-0.3385222350821759,-0.6525013158924347
21.0,2.973818302154541,-0.13553609609753364,0.4885483589974011,1.012511568469883,-0.00033287137373388476,-0.017506246937103072,-1.6242229168072309,-0.4646924273775808,-0.000273953900010419,0.16188572631636944,1.2096382327789514,-0.4582990863004194,0.17192506331719454,-0.3022594775562633,0.3030939841400854,0.1415643769465853,0.8742735520127439,-0.08359266532989809,-0.029829488005613053,0.0009834328922997402,0.1198222820595014,-0.044607563271065104,-0.18040494172991145,-0.057827847682532116,-0.08213574634241505,0.9421972826004312,0.17856222030753052,0.7706419404794768,0.2679167902092229,-0.0441373223198714,-0.09051921239727764,0.16022180210699233,0.9156579515552034,-0.4003617520183488,-0.34202652504061387,-0.6496175066441598
22.0,3.0020298957824707,-0.13696158411893244,0.48661985961161736,1.0125762931605917,7.494818111898376e-05,-0.019294342545846846,-1.6227623820262946,-0.4740852324715907,0.0033839684348009862,0.16802973185781928,1.2142248255335497,-0.45650730035540693,0.17538503752488754,-0.29996284187105504,0.3035051979408634,0.14279941901397603,0.8736860834958489,-0.08554390828199554,-0.029852695093921137,0.0031962136409049574,0.11850283437767148,-0.045903271349050895,-0.1783626983773745,-0.05946257803024894,-0.08138120900650024,0.941482427502178,0.17726174660254984,0.7690395445020819,0.26769040977434394,-0.0480083946587513,-0.09601180669712919,0.16602411520329763,0.9145886616726202,-0.406094674166021,-0.34574262329334826,-0.6457924364163175
23.0,3.0299384593963623,-0.1384897716954986,0.4843845892280638,1.0126527261257456,0.0003016631015989206,-0.02115774422272553,-1.621528803545878,-0.4840070293395075,0.006802648198746151,0.17448816190352795,1.2178956166620698,-0.45468597377526765,0.17889139785205088,-0.29709105208555614,0.3039797759010642,0.14422628863625903,0.8730003721315098,-0.08744025472512401,-0.02991141299536905,0.005959776856752582,0.1173006417457417,-0.047107079672121493,-0.1758279968972602,-0.061097893269980205,-0.08071432459585814,0.9406184204270633,0.17608344343699303,0.7668919018578126,0.2677382275897443,-0.052299882077199995,-0.10200179560246976,0.17222026422672854,0.9132430490996627,-0.41212423048023905,-0.34987136525093404,-0.6411373777090854
24.0,3.0568723678588867,-0.13995172732557892,0.4820776210704622,1.0127511346664089,0.0004006954734161862,-0.022813231605986882,-1.6207210315510898,-0.49360305752975797,0.00933913718818731,0.18031622647600348,1.2198723418062878,-0.4531520567608526,0.18188317024760953,-0.2939701792983708,0.30453485134194275,0.14569234634948117,0.8721567899128193,-0.08910092750554066,-0.03000364356608934,0.008904670357418975,0.11652520040613579,-0.04798579008759247,-0.17284998726415396,-0.06258626304565883,-0.08028053785377415,0.939615037939209,0.17520633034902278,0.7644386177616267,0.2681057020813248,-0.05649056636983675,-0.10804962620721714,0.1782531893213419,0.9117273310450551,-0.41784137957454137,-0.35415346118745855,-0.6360546606662105
25.0,3.1030473709106445,-0.14136891715430697,0.4797530714426135,1.0128932486847984,0.00046497578197299456,-0.02429761697694883,-1.6201910852377277,-0.5030509402178723,0.010698713217876223,0.1851983321369407,1.2200467207895833,-0.45186755076721447,0.1841338003515788,-0.2907257347068908,0.3051289543288236,0.1471365310796817,0.8710308615860408,-0.09055987612348336,-0.030111124866706595,0.011736896818553715,0.11614315021759614,-0.04840370033514925,-0.16945729821885464,-0.06411591140313666,-0.08012108125262521,0.938517225434055,0.1745621487800929,0.7619837604380476,0.2686048769542405,-0.06046015963460854,-0.11449133173491878,0.1842327465765342,0.9099266505741863,-0.42354150417223557,-0.35857309086311306,-0.6306820918236147
26.0,3.133922576904297,-0.1427670164205462,0.47744256100765115,1.013072301845639,0.0006546771478505944,-0.02567429725721354,-1.6198439968450677,-0.5125190132900181,0.010670954406076745,0.1889110937104692,1.2184001569462666,-0.450727944643771,0.18542406898564923,-0.2875321281264054,0.3057353630172097,0.14854200650320276,0.8695985278596521,-0.09177457744472746,-0.030202455538720446,0.014272904972828558,0.1160327123760482,-0.04841497779119333,-0.16585871404636104,-0.06589096191307767,-0.08020019085928451,0.9374144727429666,0.17399923300984826,0.7599128872639394,0.26896732600021794,-0.06428679478032952,-0.1216934025589533,0.1902614230727857,0.9077395443737041,-0.42953784659603733,-0.3630256982407338,-0.6251306665429286
27.0,3.161996841430664,-0.14415453521160707,0.475135718626565,1.0132583678783444,0.0010528804887278572,-0.02702267360344398,-1.6196785295561416,-0.5220732480509848,0.009073956805883066,0.19133572770641838,1.2150404817313611,-0.44970109826869686,0.18573595412745217,-0.28453163817025284,0.3063183379142268,0.1499438062616713,0.8679898840469116,-0.09265812944634735,-0.030235031747130867,0.016559675057719075,0.11603130126019216,-0.04827171090518398,-0.1623937877819952,-0.06794424876542053,-0.08043199779822571,0.9364613924644118,0.17339807235757249,0.7585565046130067,0.26899273796804735,-0.0681773525953209,-0.1297009193481136,0.19627261697396875,0.9051504087179368,-0.4358535302141417,-0.367408698840665,-0.6195162325116789
28.0,3.1912224292755127,-0.14553035615464022,0.47279831106203035,1.0134012794704812,0.0017086143263474148,-0.02840811067854443,-1.6197369084642128,-0.5317371043779183,0.00579546139601004,0.19245573810054,1.2101163777493624,-0.44883215304003254,0.18505852602928263,-0.28178502395058946,0.30682515859268317,0.15134290923236293,0.8663877993531752,-0.09313666014512179,-0.030185895149872126,0.01881642038551727,0.11597982657903957,-0.048287865618258444,-0.1593635717552881,-0.07013096338120157,-0.08077227768172159,0.9358396626027576,0.17273529084484682,0.7580484798078491,0.26855012843760434,-0.07237439916502131,-0.13825758654647874,0.20208351970590033,0.9022345041105635,-0.44222898751286,-0.3716876162107596,-0.6138418152836199
29.0,3.2253193855285645,-0.14688258487562655,0.4704107788849471,1.0134709651181153,0.0026223823266188825,-0.0298170624032484,-1.6200374174541676,-0.5414564950292374,0.0010042285123052022,0.1924419671206679,1.2037813544255962,-0.44819023995962143,0.1834996280240278,-0.2793437366036493,0.30720639411102846,0.15265194033355395,0.8648906882952505,-0.09321805671123543,-0.030063283173289483,0.02125701366874432,0.1157870087382767,-0.048687477932584725,-0.15681527038538856,-0.07220373801966752,-0.08129458430166617,0.9356749390724823,0.17212521126676417,0.7582598019644102,0.26761506407974733,-0.07692312850161422,-0.14684114195477638,0.20743833551275626,0.8992023230252797,-0.44814664722595066,-0.3757752274416732,-0.6079167462763839
30.0,3.2589406967163086,-0.14819568466248853,0.4679817954684495,1.013488834582331,0.003815478221531067,-0.031158657368697402,-1.6205889853111128,-0.5511867204063003,-0.004874416701073723,0.19163172206825071,1.1960703461581055,-0.4478403579765953,0.1812557838866686,-0.2771972083370157,0.307483122322619,0.15380707350400483,0.8634109885524555,-0.09297534552207556,-0.02989982247527461,0.024007799922950428,0.1154589441925864,-0.04950043116900538,-0.1544406245107222,-0.0739642510399203,-0.08216723770009524,0.935940786087474,0.17177176443877645,0.7588821552632041,0.26630806330036405,-0.08161400702207408,-0.1549492560674603,0.21216089949346545,0.896292032442003,-0.4531459730111531,-0.37948067515168193,-0.6014736125619843
31.0,3.293224334716797,-0.14946480268672696,0.46552394218868487,1.0135121904587194,0.005256009577743933,-0.03232527678700356,-1.6213832114230868,-0.5608526427114502,-0.011248238263915038,0.19047910325233794,1.186945818266364,-0.4477357087253877,0.17858337744711145,-0.2752230184767184,0.3077314389140553,0.1548119259235306,0.8617424011422218,-0.09251053225610567,-0.029760851045684364,0.027014794239259326,0.11506753582194479,-0.05060221345680567,-0.15186351923504543,-0.07536522735045945,-0.08351820492777548,0.9364418107216703,0.17181875758152051,0.7595677651275823,0.2648001388628372,-0.0861701357549455,-0.16240014814494333,0.216220096337833,0.8935937119402064,-0.45715229302004656,-0.3826518150599502,-0.5945788030477311
32.0,3.327364444732666,-0.15069714417221675,0.4630324874744859,1.0136030290130313,0.0067938620266271375,-0.03325678868302831,-1.622355897509359,-0.5702535782071058,-0.017432088810840067,0.18954092245473558,1.1764676368292286,-0.4476554524420597,0.17583800884767217,-0.27318739922405144,0.3079628684595587,0.15562515301983476,0.8597257359765333,-0.09193832329060742,-0.02975041261569656,0.030045495727803767,0.11469377837167175,-0.0517969851635647,-0.14894789475194056,-0.07646905120517355,-0.08534350720887998,0.9369742971186626,0.17226756868607074,0.7600938527924785,0.26319155142170936,-0.09042755587437384,-0.16933861548724505,0.21966610876508796,0.8910069575905812,-0.4604741130790603,-0.3853642150888777,-0.5878384071608684
33.0,3.3610785007476807,-0.1519054374360597,0.460482582486035,1.0137851780830927,0.008225250105927352,-0.03396388696679249,-1.6234364473827299,-0.5791836801829868,-0.022957308195988083,0.18925387818927025,1.1647272727759357,-0.44734508343994883,0.17330020445292008,-0.27081401700859814,0.3080676214406361,0.15611527834685368,0.8573095855695406,-0.09128704646525582,-0.029962907926622772,0.032885387863190986,0.11436927217082393,-0.05289418105095163,-0.14584613364315008,-0.07738611607465128,-0.08748716669641801,0.9375092304161246,0.17298489933379702,0.7605455832474916,0.2615069525860146,-0.09444182848112356,-0.17607704338356828,0.2225858112722065,0.8883458696539638,-0.4635885426744413,-0.38780628771896947,-0.5820313890030866
34.0,3.4002645015716553,-0.15310230596934477,0.4578452168872775,1.014043043671565,0.009382358174236485,-0.0345117893540188,-1.624599044757474,-0.5874383480812092,-0.027710523659323878,0.1897415786204561,1.151892604609426,-0.4466490298075521,0.17105764125284204,-0.26794967925653124,0.30788586162125126,0.15614518151666132,0.8545432841814637,-0.09046810237767865,-0.030419445400566514,0.035423685993808775,0.11409593597499834,-0.05374462820163604,-0.14290861294878276,-0.07823969923085333,-0.08967279950111778,0.9381378679716249,0.17376208058665316,0.7611978374244708,0.2597975805625272,-0.09843680202493216,-0.18286414006210827,0.22508185625111893,0.8855177787474755,-0.46689113565167434,-0.3899735669160969,-0.5776249137911393
35.0,3.438798666000366,-0.15429412666457865,0.4551164214815674,1.0143404902366002,0.01023448090474446,-0.03495512382321316,-1.6258703499583158,-0.5949726060486965,-0.03187934316956682,0.19084033241530607,1.1380654519640794,-0.44557403242065097,0.16900781936962772,-0.26461268321143583,0.30735757683139264,0.15569809053535322,0.8514967275369807,-0.08936989876269119,-0.03106040110361139,0.03767701816865682,0.11395157389734187,-0.054255132116844296,-0.1403707328582966,-0.0791083590284394,-0.09168837848933822,0.9389228969981299,0.1744438593141266,0.7621879602192262,0.2581176730930969,-0.10268121015217144,-0.18981351412529665,0.22730778037234461,0.8825758215423201,-0.4705520610529862,-0.39168714963156226,-0.5743958730867035
36.0,3.4669885635375977,-0.15547726682948976,0.4523199049818436,1.0146333590491732,0.010903903466985316,-0.03530035646402762,-1.6273218515393246,-0.601913704396939,-0.03578999346859538,0.19220142916486846,1.123291643481491,-0.4442899025824494,0.16696508981889968,-0.2609844384040509,0.3065913176786323,0.1549251135368115,0.8482093082799128,-0.08795681449499822,-0.03178652655804551,0.0397373591378487,0.11404734349016153,-0.054439873604461564,-0.13821206797709254,-0.07999778647827871,-0.09348113932373313,0.9398421098929722,0.1749751813512183,0.763397283455368,0.25644547732746636,-0.10730065108836478,-0.19685672499033796,0.22938160032252478,0.8796795111365169,-0.47444320502947507,-0.39272123124943403,-0.5716375694069947
37.0,3.4976258277893066,-0.15664901903921108,0.4494873718540119,1.0148911698554202,0.011559099647825113,-0.03553548683069155,-1.6289743022657892,-0.608465862729954,-0.03976880183906081,0.19344494346868873,1.1076003598709938,-0.4430158155006796,0.16477943072923773,-0.25726955174512156,0.30579889164381296,0.15406712590604793,0.8447004902832387,-0.08636330740553277,-0.03252780291043311,0.04166181460976105,0.1143550924712765,-0.05441589710130718,-0.1362477307002213,-0.08094068166234461,-0.09513287600519399,0.9408094073997306,0.17536183664617486,0.7645025152022715,0.2546885967111155,-0.11223164331139912,-0.20390574722912833,0.23126246721621205,0.8769579315528675,-0.478269308890731,-0.3929782424342098,-0.5687775171400058
38.0,3.5275156497955322,-0.15781334119257234,0.44664285364255374,1.0151012573555138,0.012293335389875405,-0.03566288928043383,-1.63070292282435,-0.614797200809899,-0.04409218464697824,0.19425560965716132,1.0910034654089114,-0.44195765678565935,0.16238085208062775,-0.2535559986425542,0.3051385596342738,0.15326423532182448,0.8409812326923676,-0.08486413866313891,-0.03328256167459358,0.04338778242015788,0.11470268431549929,-0.05431180941287882,-0.13423985590867435,-0.08203867732103164,-0.09679013293245972,0.941754635515831,0.1756455996660483,0.7651699942969388,0.25277528815295414,-0.11725328495820578,-0.2109588448242985,0.23276271241757168,0.8744181403306559,-0.48172885840157365,-0.392604235348854,-0.5656878898157764
39.0,3.577831745147705,-0.15965040889006038,0.4420776135088418,1.0154222083421496,0.013828183505581484,-0.03591105237712073,-1.6331275659101818,-0.6244932219338186,-0.05234619433590576,0.1944031893787168,1.0620094920192376,-0.44053841386364495,0.15811464457390617,-0.24759130982162625,0.3040034265987384,0.15202844656329415,0.8342356313805761,-0.0827727389507915,-0.03457385237655336,0.04548712272886653,0.11491386391276395,-0.054225468805393834,-0.130653798967687,-0.08421297056002566,-0.0996599254645503,0.9433943911211418,0.17599233744414622,0.7650498656158418,0.24938685640666367,-0.12490431357617023,-0.2223494289891217,0.23424237786778754,0.8703002035008989,-0.48625617506020535,-0.39104253831026914,-0.5606254912125623
40.0,3.607043743133545,-0.16044504559801914,0.4400582413989008,1.015568427544244,0.014595297280777127,-0.036003507652961765,-1.6338812169372923,-0.628588544606799,-0.05646494849208071,0.19395970237160093,1.0485418615731463,-0.4404204455223124,0.15613760012412922,-0.24497701782028905,0.30339163316837525,0.15123584403287216,0.831074527320339,-0.08208590228745283,-0.035223313549680335,0.04605562629754602,0.11474426996451664,-0.05431210444556405,-0.1290578031157227,-0.0853468663035625,-0.10094535125632634,0.9442828109007548,0.1761361521880092,0.7648226490883971,0.24798501753533092,-0.12794448876971176,-0.22725975891406613,0.23425077622084783,0.8684885129649377,-0.48763577678042574,-0.39000889558503427,-0.5586875961380355
41.0,3.6477925777435303,-0.1613444309043755,0.43771726354981433,1.0157458935116936,0.015485622356361237,-0.03605068638939449,-1.6345491901763585,-0.6331725882050172,-0.06117444336656455,0.1933859995338145,1.0330922813423036,-0.4410040350366311,0.15394645767659115,-0.2420368423593394,0.30252553178196134,0.14991597469723122,0.8275406799555596,-0.08135824425208274,-0.03604101605225671,0.04649304785221231,0.11450482714286775,-0.05451051327077844,-0.12751754366136872,-0.08664744813001962,-0.10225087911816286,0.9454054420136155,0.1762938909216084,0.7649432241202787,0.2466786694868214,-0.13132084433707525,-0.23266081358335772,0.23376382236268212,0.8664810028607429,-0.4888522846813171,-0.3887808168962428,-0.5569013460846358
42.0,3.6769654750823975,-0.16234463278009775,0.43504462359482277,1.0159642508676159,0.016511372029856464,-0.03610942096422028,-1.6351805482435715,-0.6381887294543693,-0.06632447693207813,0.1930078944298914,1.0155602090712714,-0.44223733870627807,0.1516134193056412,-0.23878827216780985,0.301297362977324,0.14804617562875338,0.8236216801000724,-0.08037871298522847,-0.03701471109314358,0.046784683805868456,0.11436104960741894,-0.05478822314316119,-0.12619183875401732,-0.08796116138718493,-0.10347173940124779,0.946715658912733,0.17643453326524933,0.7654556161685278,0.24547217533308555,-0.13517408452958213,-0.23851791825199037,0.23291579381413177,0.8641797656792923,-0.4900218368255502,-0.38760987239186734,-0.5552677215428458
44.0,3.715031862258911,-0.1634434532284202,0.43203825581289335,1.016205774379702,0.017691370606367905,-0.03616423042279068,-1.635808508182594,-0.643587935838585,-0.07177682691629778,0.1929739556405632,0.9959994339539326,-0.4439037276496963,0.1491869139008591,-0.23525553342657946,0.2997907475318124,0.14573526056612066,0.8193113163557555,-0.0790889608616862,-0.038116487559463307,0.04694713616099262,0.11441331561746418,-0.055106259895780316,-0.12505603454384684,-0.08914903662943077,-0.10461412224476813,0.9481414828786989,0.17657693625337723,0.7662009317948602,0.24431217901191465,-0.13947163428161816,-0.2447166110364099,0.23175794983886636,0.861561337941454,-0.4911365841405478,-0.3866931625679463,-0.5538117885617173
45.0,3.781524896621704,-0.16589242527234077,0.4249570934819199,1.0167291012923128,0.0203895605587024,-0.03565614756642008,-1.6369788715646334,-0.655042518918945,-0.08289035644626336,0.19389072544162866,0.9508502211718404,-0.44761490989514796,0.14437114732162115,-0.2270072856218895,0.296905933455298,0.1402443784327339,0.8092590515042557,-0.0758881068720141,-0.04059928393085117,0.04674641749728144,0.11576056296353583,-0.05569400145556602,-0.12287605272895186,-0.09042218635615795,-0.10691331849187033,0.9510647101462438,0.1771739535577905,0.7676001396113001,0.24199865992489783,-0.14862974973050821,-0.25695358028168264,0.22793619262021592,0.8556408576584644,-0.49262793962918205,-0.38551147319020435,-0.5528794335796756
46.0,3.8085811138153076,-0.1668178584157527,0.42212069999344626,1.0169658005476763,0.02144621337452369,-0.03528402332256902,-1.6372903326541088,-0.6589618397689732,-0.08690564057121763,0.1945339518574432,0.9326203407931417,-0.44826764729703344,0.1427578724312288,-0.22352811945834325,0.2959919577632959,0.138237220530246,0.8049831682929924,-0.07464716534093807,-0.04152678335650038,0.04641605752120856,0.11657308261309027,-0.05595582120683127,-0.12201772205151737,-0.09047728077539925,-0.10788490421161243,0.9522706386890593,0.1775608500093921,0.7675696325373526,0.24108945670378695,-0.1518457188888643,-0.2610662814001471,0.2261284000404601,0.8534121669417529,-0.4929446396192609,-0.38485887114026396,-0.5533161725992428
47.0,3.8398237228393555,-0.16773731762695643,0.4192015517011056,1.0171892968722336,0.022365276251976006,-0.03464455831794501,-1.6377814080165625,-0.6625431762897533,-0.09006768383484892,0.19580103952206201,0.9148594412018267,-0.4483476636719637,0.14140479110808418,-0.21977165243005642,0.29555746109410624,0.13652333022192986,0.8007845307892597,-0.0736089194707821,-0.042399123236378164,0.046068954194639564,0.11762287365895466,-0.056364445482706596,-0.12119867193042139,-0.09020549725904942,-0.10893202301487698,0.9533787387841526,0.17810953949010846,0.7672405820446417,0.24023955985777606,-0.15492681346698858,-0.264581130709027,0.22408017962326923,0.851476159884563,-0.4930116402866659,-0.38385489734030676,-0.5541936664936453
48.0,3.871002435684204,-0.16866286757646448,0.41618699114630564,1.0173922836101574,0.023162628276649624,-0.03388737196727024,-1.638570797242142,-0.6657956260651956,-0.09243161830989839,0.19786630849237086,0.8976067129885741,-0.4478892384535287,0.14019635922490845,-0.21576883219595816,0.29537091528397347,0.1350350096088168,0.7966849161458158,-0.07255116028794947,-0.04322313967415702,0.045761669530858404,0.11867155139012177,-0.056959993954995666,-0.1205586692177244,-0.08972726995645883,-0.10999644844058157,0.9544754391807809,0.17876365172625724,0.7668778383558036,0.2394679953458505,-0.1579683269742651,-0.2676149753886716,0.2218330962113714,0.8497656121362018,-0.49279314626114146,-0.3824613754784023,-0.5551401039216011
49.0,3.9003450870513916,-0.16970796091602475,0.4127790670554385,1.0175713635043608,0.023976951835058873,-0.033038186765281675,-1.6397918725841971,-0.6693713479544884,-0.0946637394069833,0.2005356933528112,0.8791844095094119,-0.44746893682900446,0.13877710093860757,-0.21130095125709736,0.2951334120663016,0.13333517394977812,0.7923311485277721,-0.07108461215544905,-0.044116270474501174,0.04557133133611374,0.11953756714585342,-0.05774212756826075,-0.12006393208534089,-0.08918087805858714,-0.11112900659820099,0.9557894948067421,0.17949561516020007,0.7669983253207964,0.2386359639918751,-0.16127465544732397,-0.2706771476302805,0.21914784832273423,0.8479916089573003,-0.4922030756259391,-0.3806609895348114,-0.5559376022579794
50.0,3.928734302520752,-0.17076226025724656,0.4093331795258929,1.0177239651685426,0.024820023777017287,-0.03228021673427019,-1.641228943679086,-0.6728617025518173,-0.09701025187659362,0.20308900719297296,0.8611512789548711,-0.44738068976772144,0.13715708697609658,-0.2068822053925306,0.29454953164290404,0.1313323116174124,0.7879511503545095,-0.06902130678575508,-0.044999276434006405,0.04544632684786636,0.11989115800780775,-0.05859168106343839,-0.11977629723015867,-0.08866912156617796,-0.11222946693368872,0.9573990934619203,0.18020048025335317,0.7677277034159973,0.23772619141067106,-0.16425750128252337,-0.2733671583629128,0.21614175302774885,0.8462213944174914,-0.4911773637527649,-0.37860447424040944,-0.556737636155488
51.0,3.9577713012695312,-0.17182391171667583,0.4058802954371712,1.0178577036200642,0.025662219970192267,-0.03157931860487261,-1.6427159504496167,-0.676356286105406,-0.09977771813350739,0.2049982312399248,0.8436708806868554,-0.44804042692007917,0.135296443333227,-0.202546162601493,0.2936037034334429,0.12888746047188726,0.783544486382729,-0.06641849686191456,-0.045878504806394355,0.04528738002668954,0.11977402132111878,-0.059378458321491426,-0.11957015314352856,-0.08822351094760189,-0.11333112578194046,0.9593164489632495,0.1808626654867122,0.7690705936207402,0.23665742598290013,-0.16668805980390974,-0.2756436463760656,0.2127213767180067,0.8443688930913552,-0.4897366611040499,-0.376549538408683,-0.558059240920964
52.0,4.013529062271118,-0.17352524379632672,0.4003436773847656,1.0180903506599757,0.026988391218366624,-0.030635695502082755,-1.6447343463757593,-0.6815328927444257,-0.10523653336268914,0.2068031163630333,0.8159035234031308,-0.4495812150874257,0.13198153533891685,-0.19543569921879927,0.2914118247357952,0.12428424077452886,0.7759128546629368,-0.061534542690420115,-0.04729228605459199,0.044774597995133614,0.11907594183118791,-0.06034351025730121,-0.11928215565792963,-0.0874091896569199,-0.1153172127443306,0.9630384000878127,0.18202241388487608,0.7716609413449407,0.23459870140466993,-0.16914670059829884,-0.27841585484344394,0.20642733312829023,0.8409207957269154,-0.4869483105498774,-0.37402992476078467,-0.5622370328675325
53.0,4.041290760040283,-0.1742700635297751,0.39788421032013116,1.0181691545586589,0.027408792378227406,-0.030151592332926837,-1.6454880125330438,-0.6836609022008585,-0.10762137482178841,0.20734449314076508,0.8046338411573475,-0.45017362685616136,0.1305354715892033,-0.1921259776815361,0.2905515624136299,0.12224530849427068,0.7725807864116114,-0.05960475507889369,-0.04786963571550158,0.044459149093160885,0.11898569267551706,-0.06055388072304743,-0.11902352170288538,-0.08677112850576879,-0.1163456399998907,0.9646271803819833,0.1826965668892599,0.7726821460975588,0.23363643638979298,-0.16961952971893318,-0.27915208976624206,0.20354268568325481,0.8392163223280371,-0.48570159165323223,-0.3737654578691424,-0.5651081039004715
54.0,4.0693957805633545,-0.175114409952993,0.39500936214860727,1.0181968267312818,0.02769480215072566,-0.02941381885241075,-1.6465083419220252,-0.6860797781511657,-0.10991061823985573,0.20800449624136821,0.7931019420372143,-0.45090994002027823,0.12901593205801926,-0.18818346168573968,0.28992714713679724,0.12013454516123526,0.7690803198436302,-0.05775586919808154,-0.048455765645306695,0.044175522213812185,0.11924854931352898,-0.06063296029194825,-0.1185277967129359,-0.08569493100659448,-0.11761134427771142,0.9659702835975861,0.18362904905397948,0.7736193881177491,0.23258257268592195,-0.17004507531652413,-0.2796951934157047,0.20051930030387421,0.8372953892592037,-0.4844583855488819,-0.3739375211212329,-0.5685932451540342
55.0,4.098589897155762,-0.17604565476636821,0.39169578324068866,1.018173516044131,0.027910315803302072,-0.02848137449018738,-1.6479504774215465,-0.6886629891443341,-0.11218187256914497,0.2086693214959957,0.7811310480879614,-0.45215861185627565,0.12751735722734917,-0.18365220595295428,0.2893275448772292,0.1178593288870253,0.7653724486951633,-0.05557185650080404,-0.049042288689628226,0.04400987540962491,0.11957407794396044,-0.06067146313174627,-0.11792432519318234,-0.08425644122713599,-0.11900655365304755,0.9669722615528944,0.18474275808849086,0.7744052457752189,0.23150456902961658,-0.17072284443285313,-0.2801531411921741,0.19748727432381669,0.8352783495000506,-0.483323533134119,-0.3738231295650901,-0.5721001629187067
56.0,4.127920866012573,-0.17705794366654193,0.3879296423973344,1.0181065166019212,0.02814444192881968,-0.027409509963249878,-1.649850992000408,-0.6913177467561374,-0.11458373457552884,0.20910882093752808,0.7686000644790745,-0.45447179904884416,0.12614974451583544,-0.17863053844692262,0.2885061861840078,0.11520125441878415,0.7614468270611694,-0.0525729598158331,-0.04963520180686376,0.04399238389924353,0.11961599507881357,-0.060868984902943526,-0.11737288272159739,-0.0826371457946079,-0.12039177339510661,0.967631915459097,0.18591740691349357,0.7749971923535044,0.23049113640627739,-0.17185961893197915,-0.28058665204747724,0.1943801877017729,0.8332779087483143,-0.4821680298331441,-0.3727951369734878,-0.5751271993720148
57.0,4.177609205245972,-0.17864229087457212,0.3817026008118894,1.0179813206800097,0.028631539885557687,-0.025805966142991247,-1.6531197212937465,-0.6944651481371197,-0.11884805337827417,0.20863838744307725,0.7488913187623822,-0.4599664390070135,0.124665213027602,-0.1703423384017005,0.2863857052399111,0.1103369081287455,0.7546517492056769,-0.04574752794181641,-0.050560927725867844,0.04415116398813025,0.11874014159842256,-0.061685408552885165,-0.11680838260264548,-0.0802083291182435,-0.12230401640000446,0.968086597265356,0.18760458409244166,0.7747687789701201,0.22915268439229272,-0.17409023578159685,-0.2810653627725845,0.18947399773589663,0.8302958340521442,-0.48023181902620926,-0.3693062318372702,-0.5782073906833746
58.0,4.204222917556763,-0.17932819461591165,0.37888025221205063,1.0178694873462477,0.028862367872525337,-0.025080829035413792,-1.654578090093914,-0.6955540417866561,-0.12081208518726594,0.20778709062556577,0.7412311518844925,-0.4631386171914638,0.12443220225520807,-0.16665486473743185,0.2852607943580735,0.10790564477009537,0.7516911842621748,-0.04216885510918636,-0.05099270539676637,0.044219312119263554,0.11811474407260347,-0.062379626099813526,-0.11662165810762254,-0.07942529466852277,-0.12292505942015924,0.968133050340851,0.18812353340812477,0.7741242313771486,0.2286453882192978,-0.1750169463254642,-0.28120821422802056,0.18722833757522223,0.8290630993193819,-0.4790744617511996,-0.3676382641135859,-0.5788825885073473
59.0,4.230600357055664,-0.18011522656728252,0.37558779471797177,1.017607059220491,0.029058668380265433,-0.024130406458119043,-1.6562760856780865,-0.6969377627169284,-0.12281965441673492,0.20650268813467787,0.7342030331837882,-0.4668110063511289,0.12449770097618364,-0.16233129241565583,0.2841586892922782,0.10505448973913376,0.7485067253579721,-0.0382921617415331,-0.05153146768812046,0.04422997284826998,0.1175986905037393,-0.0632746566972009,-0.11629133269751638,-0.07878701418518148,-0.12348588995668425,0.9681606456610736,0.1884914814268106,0.7732477798542576,0.22794964453716776,-0.17568127861587363,-0.2813816637855402,0.18471244991041258,0.8276320864292503,-0.47750628667312134,-0.3667319986596974,-0.5795456452946485
60.0,4.255837917327881,-0.1810067040766759,0.3718301230663429,1.017114628521624,0.029184662355418334,-0.0229280304803783,-1.658248816469039,-0.6986771216251936,-0.1247549017186607,0.20486182083928112,0.7280896402627084,-0.4706457815652518,0.12485748533891164,-0.15709145368487748,0.2832115939367332,0.10190660886445566,0.7448487702173774,-0.03426995155536908,-0.05217045066583085,0.044145479445935235,0.11735690816274859,-0.06403969977324489,-0.11573514631555468,-0.0781803004139986,-0.12400570055747007,0.9682396543838678,0.18872122227170895,0.7724162824966376,0.22695223567875028,-0.175816791099554,-0.2815779057519127,0.1821556450478184,0.8259049904205433,-0.4757756894968478,-0.36696114101405086,-0.580353194137268
61.0,4.2900214195251465,-0.18200400042380158,0.36759896684504423,1.0163586833860485,0.029221837645538908,-0.021490291669529406,-1.6605727065919766,-0.7006949686216803,-0.12652033904277352,0.20303965569742816,0.7229046107704338,-0.47472490886356644,0.12549737322603197,-0.15073106257256147,0.28243277081724255,0.09856050822654133,0.7405222611187379,-0.030028424018966146,-0.052870692290449904,0.04400929408772147,0.11739611847812054,-0.06445267564994545,-0.1150118367766904,-0.07738086100059631,-0.1244115525880794,0.9683533792096886,0.18886223012876763,0.7719105136526636,0.2257747625755438,-0.1754233755858896,-0.2816705030014853,0.17981026545074671,0.8238969597518239,-0.47416545167676893,-0.36797211845820055,-0.5812534155971736
62.0,4.326881170272827,-0.18301492008089784,0.36327945784142135,1.0154242210096893,0.0291594667036653,-0.020011241101306143,-1.6630555724374187,-0.7025271314207631,-0.1277009874385005,0.20166053006051807,0.7192107409546085,-0.4786435962855724,0.12637873283470635,-0.14369433502004217,0.2818267602551959,0.09540515955367133,0.7357258248616552,-0.025784368005814004,-0.05354908834740623,0.04388449281994558,0.1176848625706121,-0.06441515496013575,-0.11428222747512676,-0.07623022376736781,-0.12450914624418669,0.9684486811204391,0.18890789739680333,0.771909305011351,0.22471141388923632,-0.1745154773184287,-0.2814487054269656,0.1781411142316932,0.8217732810019094,-0.47309035686246614,-0.3693544195794174,-0.5820789788941549
63.0,4.355572938919067,-0.18404496084392397,0.3588627523887541,1.0144291606776217,0.029071256262212217,-0.018524570783237992,-1.6657266583317587,-0.7039491342734834,-0.1280428292613876,0.2012866706275565,0.7166420401028986,-0.4825383831576846,0.12740303174001086,-0.13632829753028214,0.281326785103315,0.09248528959844485,0.7307671554342974,-0.02142668572081764,-0.05417260717749042,0.04388483183332391,0.1180691449454086,-0.06421913532617517,-0.11361773708548879,-0.07460053972577205,-0.12419334758330579,0.9684266394532683,0.18887508219051286,0.7723356205947933,0.2239724261687152,-0.17336524663707253,-0.2808276487783488,0.17721738261672734,0.8196546358898833,-0.4726188330676001,-0.3706641283725899,-0.5827038779443908
64.0,4.413080215454102,-0.18576081012766352,0.3515834553660727,1.0129781031895395,0.028999777645272395,-0.015869498197081507,-1.6703482082601837,-0.7051306123945622,-0.12667471949754666,0.2026489839398839,0.714155388631448,-0.4889847176188814,0.12910455089360134,-0.12433130427068825,0.2808639678956028,0.08818039690255425,0.7223968406520529,-0.013670859761353144,-0.05512939008158009,0.04431477125380628,0.11887036187041791,-0.06420444027602225,-0.11265707868546948,-0.0712184939111229,-0.12294420074707013,0.9680024615791164,0.1886979217928715,0.7733126213997764,0.2235313048893588,-0.1712841462036748,-0.27914479123824654,0.1767713424032949,0.8162659355521047,-0.47293112598850284,-0.37258581467684215,-0.5833958806981258
65.0,4.441560745239258,-0.1865451035635244,0.34830066598555837,1.0124774941384083,0.029165353768464332,-0.014579772058770738,-1.6725229492257232,-0.7051595611660831,-0.12522958751599494,0.20399803898918797,0.713676201132476,-0.49140245943208455,0.1297672727430251,-0.1196902179379328,0.28089843382533053,0.0864892040052785,0.7193090502191544,-0.010244915794556279,-0.055470838264978534,0.04474702015242081,0.11918337675448419,-0.0647673996665517,-0.1123555920862208,-0.06955652981026016,-0.12209231423404253,0.9676962575647113,0.18853426360233289,0.7736783503246251,0.22365418487013564,-0.17040881830425883,-0.2781815244616392,0.17696279308256632,0.8149862421130394,-0.47341594516059693,-0.3734476968988366,-0.5836094966384919
66.0,4.472738265991211,-0.18745893012098352,0.3444719292961924,1.0119875266739469,0.029557441517995792,-0.013082873612254922,-1.675111395693763,-0.7048627748054513,-0.12322517162422872,0.20570357715611334,0.7134765315757128,-0.4931958174379858,0.13042304331060267,-0.11525085183621486,0.28114675486681473,0.08473464848373782,0.716910576321957,-0.0067159613028189916,-0.055730754296127075,0.04536847688486441,0.11934243051148097,-0.06596464832952251,-0.11218336495129527,-0.06773873384223168,-0.12095485743571685,0.967395351512004,0.1882569681975419,0.7740309576139364,0.22397404302353754,-0.16944544893223645,-0.27704537789385336,0.17745903437043603,0.8138834173696852,-0.474058686515202,-0.37445710089344003,-0.5837676528625161
67.0,4.500187397003174,-0.18850426928787614,0.34007005785250144,1.0114773285172394,0.030058091870590244,-0.011387461033587239,-1.678122350860002,-0.7040815940642424,-0.12083682158462644,0.2074620503874644,0.713589416294059,-0.49436410556264765,0.1310745397312538,-0.11078130813765892,0.2816358711328239,0.08295780246568352,0.7151969727245695,-0.003092360957340272,-0.05589797504159587,0.04610450751545374,0.11928952431292117,-0.06757779059429041,-0.11216411941312959,-0.06587689813760182,-0.11954253732544264,0.9671251305423505,0.18786100215817436,0.7743774343842992,0.22454154256691466,-0.16829576807302488,-0.27583216993172843,0.17827747332387428,0.8129785114156629,-0.47489716436904933,-0.375559197921672,-0.583834656630319
68.0,4.527482032775879,-0.1896820496138695,0.33507644117334745,1.0109220163491244,0.03049180721363909,-0.009559371125199043,-1.6815661961496329,-0.7026146774706008,-0.11818594587179941,0.2092380044977457,0.7140265295669579,-0.49533706140770944,0.13171586714942757,-0.10600553361051579,0.28228052361502826,0.08116555107483653,0.7141060699792947,0.0006555015284919776,-0.05598471971228417,0.04686468979213216,0.11894359068029216,-0.0693370162117701,-0.112279988548948,-0.0639997338723565,-0.11781516528271097,0.9668581856433112,0.1873287390272947,0.774680735516917,0.22543361927582561,-0.16691518173767272,-0.27460624040488035,0.17948582921212713,0.8122424952079498,-0.47602948156394564,-0.3767423811310109,-0.583822956745408
69.0,4.558410167694092,-0.19087888935293246,0.32995630533313824,1.0103674216222491,0.030691537759969162,-0.0077531976017666,-1.685182432499616,-0.7003216269854312,-0.11541183437513237,0.21093711825040934,0.7149265598499046,-0.4963425612868764,0.13226263175874248,-0.10119221918422279,0.2830036146860344,0.07954435075838044,0.7136655661618603,0.004361852526140094,-0.055987342884312584,0.04754955878910805,0.11832149712521818,-0.07087160457212938,-0.11242793525746184,-0.062292174098530544,-0.11586351367580562,0.9665884913583214,0.18666469746853148,0.7748622695685285,0.22662213254445945,-0.16529339779767993,-0.27344733876205224,0.1810491748609248,0.8117421926330489,-0.4774492525646509,-0.3779732109101457,-0.5837471131355153
70.0,4.59816837310791,-0.19208043814393974,0.32473302931278236,1.0097904188494762,0.030660353647863355,-0.005944177763021117,-1.6889973030790084,-0.6972599083255793,-0.11241165913119901,0.2127677294549135,0.716310926437949,-0.4976024262310965,0.1327513997179044,-0.096311256929461,0.2837445392512531,0.07802683924477509,0.7137969797319529,0.008188204249094706,-0.055898398711422964,0.04821444682698866,0.11757143945453341,-0.07210458532890499,-0.11244072426159807,-0.06055540814576095,-0.11371289011651128,0.9663171358205764,0.1858868669834283,0.7749457163744193,0.22795339986595503,-0.16333862832116175,-0.27212527041719825,0.18297473223639743,0.8114739610588897,-0.4790780169122672,-0.37927776806035407,-0.5836975769762429
71.0,4.630574703216553,-0.19327943956848903,0.3194127490742068,1.0091835232442932,0.030489067364496705,-0.0040719221533580575,-1.6930425491064782,-0.6935682509716831,-0.10896814043454796,0.21500805313875754,0.718249229888575,-0.49876355792806515,0.13322330852568284,-0.09141837513163062,0.2845008177165013,0.0765882988025981,0.7144095728741018,0.012307747527548658,-0.055709540982587666,0.04900215981974405,0.11690145323620801,-0.07310284759387167,-0.11217188832015546,-0.05860751526073325,-0.11144997195164069,0.966042098608022,0.18504617801352036,0.7750046248634418,0.2292330894543887,-0.1609618127390064,-0.2703918680207307,0.18522255790208025,0.811472151584206,-0.48075929571816395,-0.3805703252396494,-0.5836645534583652
72.0,4.660761594772339,-0.19448500432159624,0.31397147085949345,1.0085546992028007,0.030263901187206295,-0.002134539132049781,-1.697378398733593,-0.6893628358313221,-0.10484831141065165,0.21799432950363745,0.7208283676943599,-0.4990871204055909,0.13371800698265535,-0.08654894604734592,0.28525036793614517,0.07529688793286198,0.7154321855168211,0.016822636000350725,-0.0554368587056217,0.05006369147929239,0.11638070387210037,-0.07401128140062276,-0.11156189882581871,-0.05640942908884628,-0.10917636880872672,0.9657298468690297,0.18418851467083933,0.7750899938949474,0.2303260239412917,-0.15815659523350808,-0.2681625062957626,0.18769836268279178,0.8117545011420626,-0.48234123957683794,-0.38173623001869134,-0.5835769774735374
73.0,4.693418264389038,-0.19571879467262215,0.30836932147130086,1.0079181713054073,0.030020001078261693,-0.00022264596801237994,-1.70203296411199,-0.6846713678540595,-0.09998228996805061,0.22193706500691762,0.724075686994613,-0.49801413127476046,0.134260789860341,-0.08166766309586874,0.28592387323135027,0.07426997868098353,0.7168256113474598,0.0216615625081906,-0.055127251836962786,0.05144944137698146,0.11583546606585893,-0.0749661584885396,-0.11070244490570169,-0.054032938800442784,-0.1069526905024861,0.9653368203779447,0.18333729417719247,0.7752078292277981,0.23120537298526955,-0.1550591158217386,-0.2655427398953288,0.19026040927944432,0.8122880338643741,-0.4837370445841943,-0.38270354299056164,-0.5834211783705491
74.0,4.748452425003052,-0.19778893448017626,0.2990458675683633,1.0069084591900002,0.029352622626358637,0.0026673081718069985,-1.7103689225761922,-0.6760465825489069,-0.09060077783924737,0.23025202833076192,0.7306099396614356,-0.4937692551765557,0.13516478948947877,-0.07334842273337477,0.28678972666704294,0.07349463087783295,0.7194294254423959,0.029962163679771565,-0.05472628114219979,0.054403974693095394,0.11445908655823842,-0.07652845597065729,-0.10903607947563188,-0.049989180160985774,-0.10345011278455152,0.964500148828189,0.18198566948829623,0.7756227733002962,0.23236725870593966,-0.14983480261217147,-0.2608130575176283,0.19436193539740015,0.8136234398558084,-0.48562724882350317,-0.3838671365322837,-0.5830814823654099
75.0,4.775907516479492,-0.19872174871783604,0.29479658740625464,1.0064847797694518,0.028967533158629155,0.0037436498430407274,-1.714233477366538,-0.6717762186352074,-0.086191855847482,0.234441197397444,0.733828683879327,-0.4909083662123327,0.1356332000696762,-0.06952815911108473,0.28685345453206856,0.07339141913976274,0.7207568960934947,0.03352892692186976,-0.054635833738349154,0.05578438293595649,0.11347944431592058,-0.07734184472474367,-0.10820653933853178,-0.04807951885764735,-0.10198324418043248,0.9641599119745919,0.18143815876062747,0.7760569797435066,0.23273659917063905,-0.14733875397502835,-0.25850354900175887,0.19615335016697596,0.8143934398848203,-0.48628047998298674,-0.3841805872124935,-0.5829116325640071
76.0,4.805554389953613,-0.19977365302039288,0.28982946197432624,1.0060412265588916,0.02854560919002521,0.004806673934141603,-1.7185326726897978,-0.6667164451814752,-0.08140017747012805,0.23915769988453284,0.737432919995445,-0.48714249766493056,0.1363012186275322,-0.06514310661280479,0.28648940184130134,0.07311180210226756,0.722362778338647,0.0372764611356936,-0.054638695926792116,0.05713108192403946,0.11218859940593251,-0.07852562129864155,-0.10706160788955166,-0.04574200988725925,-0.1004023390267074,0.9639556524132105,0.18086444685695474,0.7768681940109082,0.23294197246476026,-0.14399585049808436,-0.2556352502949275,0.19832464870166736,0.8153557574410235,-0.48695960340572475,-0.38446551117211447,-0.5827311113302264
77.0,4.8324644565582275,-0.20093945255864254,0.284138816378,1.0056449840852424,0.028108524612863717,0.0058665259229253065,-1.7231958171483863,-0.6610893091297997,-0.07631467665399352,0.24421837920567094,0.7412573594385228,-0.4826939529283785,0.13719946232566949,-0.06009732599258266,0.2856087652693749,0.07253301060166926,0.7240342410827363,0.04118071177328935,-0.05483954403754955,0.05841272940224347,0.11063762728299195,-0.08014619729704364,-0.10545405366460284,-0.043078587300716176,-0.09872172884898212,0.9638903188151435,0.1802371430726845,0.7781055735578151,0.23296419411397765,-0.13955301386135688,-0.25228057352301964,0.20097834832938954,0.81653100063202,-0.4877226150737425,-0.38477356330219165,-0.5824178411429807
78.0,4.863211631774902,-0.202234883078188,0.2777061238749433,1.005392107724122,0.02767162469726407,0.0068254715197455205,-1.728156118159041,-0.6552149755644763,-0.07111867448040328,0.24935010639928312,0.745114376533075,-0.47773529287524735,0.13834016790877968,-0.05431070913327697,0.28409371843081055,0.07166203155440301,0.7256053260633838,0.045208272486070594,-0.055360554908952454,0.059653571386995924,0.10864309328155151,-0.08226286612328776,-0.10340525974959489,-0.04022504038453353,-0.09694275291792046,0.9638712846449378,0.17954285606148362,0.7796673018577803,0.23288517231840838,-0.13402777986031203,-0.2485380855883882,0.20410950435983916,0.8179644559440217,-0.4885378499647862,-0.38488083188733746,-0.5817090808190043
79.0,4.903308629989624,-0.20355585429286105,0.2711190828232818,1.0054106972087742,0.027258388351810416,0.007367793398330831,-1.7329107867741578,-0.6500123285854799,-0.0665910086215909,0.2536978932161048,0.748499612771821,-0.4726449079499825,0.13960005504230746,-0.048242127490371045,0.28188841322754377,0.07076004830233708,0.7267778676833948,0.048868097160612335,-0.056299714035021785,0.06076016402638428,0.10609578238383915,-0.08473995383405264,-0.10116036039018009,-0.037379614967758185,-0.09521850087324205,0.9637666459583697,0.17885460009237514,0.7812728817580938,0.23272964347343544,-0.12798734328834557,-0.24459977118471377,0.20740167544269555,0.8196063451975557,-0.4892642846547585,-0.3843348611500452,-0.5805741517711382
80.0,4.940860986709595,-0.20491120579226751,0.26438508808358807,1.005697755196922,0.027015734996912448,0.007272419390899235,-1.7373377922501163,-0.6458216579100073,-0.06311183415884761,0.2569080991900541,0.751431219502724,-0.4667664234063238,0.140892099281046,-0.042149183780455915,0.2789375040084496,0.0699945504752558,0.7277220542638674,0.052078403955008214,-0.05761831196863912,0.06162974229043937,0.1027807675072856,-0.08766942923719737,-0.09890727455579529,-0.03432990833289366,-0.09346687566207224,0.9634762204182157,0.17816812327742876,0.7827196989777059,0.23249829662840482,-0.12162394482389602,-0.24016674510831137,0.21072174001522792,0.8214128425752991,-0.48984276758126943,-0.3827365128361452,-0.5793398841766533
81.0,4.972889184951782,-0.20629853996863237,0.2575203513094689,1.0061596123043774,0.02713829404000965,0.006386606446486295,-1.7412941614735096,-0.6428161583984043,-0.06090951249573637,0.2588963274619034,0.7542089427336276,-0.45867098254823196,0.14202560465966516,-0.03643475396765092,0.2752784594114003,0.06945100501178833,0.7288003417082533,0.05487213695382569,-0.05917713050508879,0.06210707931169532,0.0986029646076134,-0.09119377749437242,-0.09683452420076286,-0.0308810354714657,-0.09164732306877402,0.9630273238749116,0.17748556494533466,0.7839837437597881,0.23210620300997387,-0.11504063668253237,-0.23496311521755794,0.21388304636285713,0.8232912090637289,-0.49022390928295856,-0.38000497225824303,-0.5786493995286842
82.0,5.010814905166626,-0.20771566754210946,0.25055294534699013,1.0066490081078667,0.02771155730486447,0.004757547453246213,-1.74457410044199,-0.640963647820499,-0.060017428243854934,0.25975969134340204,0.7573414853643159,-0.44648062176571346,0.14271658693614325,-0.031445996781066334,0.271091703853733,0.06902106165001506,0.730448636684917,0.05737773196216685,-0.060796115432184224,0.06204295638350809,0.09362416391439957,-0.09535681511549185,-0.09507082397386256,-0.027022378737341313,-0.08982699751560592,0.962539914531537,0.17683069526212059,0.7851761660311509,0.23142634726321681,-0.10819870663203854,-0.22896725194915096,0.21667475221320381,0.8251642037497662,-0.4903079768278317,-0.3764553528119093,-0.5790162191278213
83.0,5.042810916900635,-0.20916324873507797,0.24352738588578998,1.007032210150633,0.02868775016895922,0.0026509661605863474,-1.7469769950472842,-0.6401040817283612,-0.060486347608828026,0.2593281285309901,0.7612589842385051,-0.429213204885487,0.14270378954819835,-0.027358523691225663,0.266619666754964,0.06837368968927128,0.7330187723815946,0.05984365523146283,-0.062332864388827625,0.06133972574561764,0.08800952501843878,-0.09998955213408921,-0.09372274105528819,-0.02298715096227153,-0.08807869099948493,0.9621683253091357,0.17621109966109977,0.7864722476492747,0.2304749363176229,-0.10103103415149206,-0.22246563199197297,0.21893847696126945,0.8270705817439519,-0.4899345537641367,-0.3724932153009439,-0.5803517530310784
84.0,5.08173680305481,-0.21063674297562487,0.2364964291375487,1.007240313934889,0.02986303572779929,0.00045259674710353907,-1.7483976069425753,-0.6399771100732917,-0.06240206916113286,0.2571792573097247,0.7660876336925337,-0.40796394335155467,0.14191453221015743,-0.024161835277708016,0.26205344800035124,0.06703548316120059,0.7366752772275464,0.06263576167549413,-0.06371644509730082,0.05996539847742788,0.08202535106405216,-0.10472711098147414,-0.09293406427731604,-0.019118388315683018,-0.08639375332894639,0.962045752302711,0.17560925990488674,0.7879722689186007,0.22948741001376857,-0.09358307747699433,-0.21589021374320028,0.22063668626686725,0.829158654216414,-0.48895397733283713,-0.3684309510741278,-0.5820133252756106
86.0,5.11352801322937,-0.21211384487459523,0.2295099147122434,1.007280344248258,0.030970285430154385,-0.001436723183179103,-1.7487922816686585,-0.6401929527756147,-0.06558509727191002,0.25324428267433785,0.7716830513714347,-0.3854437274019318,0.14057444306790484,-0.021646655709635972,0.2574928618749629,0.06452374012768711,0.741361456421912,0.06609601165747221,-0.06494045252776892,0.05788193967737307,0.07609848303865004,-0.10915099654767986,-0.09272654057083987,-0.015611454784568815,-0.08470258666956201,0.9622572908640414,0.17501614560780193,0.7896369486789414,0.22877620125292292,-0.08578963943861843,-0.20951032453741678,0.22187426892136078,0.8315785732435128,-0.487313272545027,-0.36454216009903606,-0.5833800173914836
87.0,5.182174205780029,-0.21528754136590145,0.21370164444408835,1.007073088957715,0.032375998427996405,-0.003023216825433609,-1.7462285557079795,-0.6393370207831037,-0.0728609179052045,0.24312432883358123,0.786526791836724,-0.3456741099775639,0.13836370982494792,-0.016798322036831775,0.2470052143376968,0.052638690849572706,0.7543834567294855,0.07762531234807843,-0.06745073666913204,0.05047700225069118,0.06577659533044176,-0.11706421340664046,-0.09430136191067177,-0.009163482001056779,-0.08023663430840872,0.9645980891298086,0.17356818135389326,0.794306637957714,0.22938288513067462,-0.06555824990885008,-0.1959929509129163,0.22343073814935605,0.8385431577226219,-0.48150851317288546,-0.35812183184447033,-0.5851629581450146
88.0,5.213134050369263,-0.21642895674890505,0.20756199773118897,1.0070368783462735,0.032667282576698924,-0.0031652707975176036,-1.7442864960483497,-0.6380144103890688,-0.07478727622816861,0.2408459697935038,0.7921747497443831,-0.3349731302320915,0.13845570593833903,-0.015202844008082287,0.24198856536024227,0.045542399171505675,0.7599339683731259,0.08321203623257699,-0.06865055878165473,0.04698012705133375,0.06265372485636729,-0.11996344205365891,-0.0955815425744967,-0.006889463401397081,-0.07840596176905011,0.9662105370970393,0.17303441485473353,0.7968163999620184,0.23009586894350031,-0.05674201168829476,-0.19086771785690038,0.22372156245704938,0.8415499804088671,-0.47862349060854736,-0.3563691053957533,-0.5859228711671861
90.0,5.244871139526367,-0.21745865615008253,0.20141927314079405,1.0071477694725735,0.03279620406402135,-0.002884022028116453,-1.7423742341462765,-0.6356164106475894,-0.07518943259787275,0.2406345962222635,0.7977439651177376,-0.3289139771421167,0.1395665712001462,-0.013684322816352599,0.23591120288207057,0.036668279542728124,0.7654108875665944,0.08984483411756264,-0.07016947321490893,0.04385179516675643,0.060488868501230086,-0.12270543747980736,-0.09741949313275722,-0.00488441059263619,-0.07662854664976834,0.9682798517513527,0.17256855662449655,0.7999107636973743,0.23106188943925038,-0.04737690983650875,-0.18597900187089733,0.22357048482218508,0.8447419779128719,-0.47530245805618276,-0.3550804278411107,-0.5867633479679775
91.0,5.285430192947388,-0.218722818002763,0.19253888949986253,1.0075987223669804,0.03308367907262401,-0.0020670283411587257,-1.7415495877764942,-0.6309868883994749,-0.07527758287649355,0.24022021252832845,0.8053074447379465,-0.3273186046727432,0.14202984623334827,-0.011995209471630987,0.22425628206215958,0.021342982478736002,0.7729473542096705,0.10213399382613797,-0.07311897605963494,0.04173311746352658,0.05866992618850243,-0.1266698052497287,-0.1009587046079549,-0.002666685352546782,-0.07420995962099519,0.9710074369631784,0.17189485559197398,0.8042976092138608,0.23255503924196025,-0.03397550624481461,-0.17944263982233455,0.22252538937988164,0.8497728611864759,-0.47013044124794084,-0.35259454624467923,-0.5874829629951267
92.0,5.317732572555542,-0.21991994787691932,0.1836799913019433,1.008041822959629,0.03345288431059408,-0.0014056768308147258,-1.74164532703425,-0.6264632713615128,-0.07677163877883147,0.23775807062726084,0.812773369266522,-0.32794303018938475,0.14429353300767633,-0.010697986452455309,0.2107854827358045,0.004591302187275324,0.78079646652097,0.1159528958378388,-0.07674018646768603,0.040691529447713634,0.05695897991803678,-0.13103716209682725,-0.10504253908797677,-0.0005478065243963729,-0.07176314489823403,0.9735421054563576,0.17109441309993112,0.8081397740123378,0.23386082065128283,-0.02097597379105456,-0.17292041309123152,0.22147926058555756,0.8550093743052758,-0.46500899298928083,-0.3495849603156368,-0.5878760836043537
93.0,5.3539814949035645,-0.22095277296374266,0.17555459619673713,1.0084119458879748,0.0338928294996652,-0.0011974859030797255,-1.7426385313018542,-0.6223505509810633,-0.07978222527196133,0.23355366043649145,0.8193025297653063,-0.3307358895180714,0.146083171799735,-0.010231137009769645,0.19604385626897153,-0.012587325911731312,0.7889093823961829,0.13049020736067918,-0.08088522616875773,0.040739488602848,0.05545512994780155,-0.1356087848915696,-0.10941056495450115,0.001608507393354425,-0.06939207381737326,0.9756458884117165,0.17014851174174006,0.8109393943898342,0.23461617256421877,-0.009559268975719524,-0.16673432050683046,0.22090047247118638,0.860081749777688,-0.460620900362386,-0.3464322000418194,-0.5879812518580931
94.0,5.3890931606292725,-0.22183786993038945,0.16819276060002553,1.0087308479554393,0.03429914985189459,-0.0015407456454455098,-1.7443508470216202,-0.6183937211636809,-0.08351594890870971,0.22896707236457348,0.8247314097912557,-0.3352025692709754,0.14740786213433693,-0.010843108761433094,0.1803126531782659,-0.029739784955209684,0.7978548877315632,0.14554020316829924,-0.08542176960608289,0.04157305676407154,0.05415119928798261,-0.14008442372670088,-0.11381454719548727,0.0040039376903884235,-0.06707577208640515,0.9773278362599433,0.1690503093261929,0.8126633106359623,0.23469527356700443,0.0002838185765212135,-0.16089083842691565,0.2211970115414964,0.864947820929564,-0.45732117378629805,-0.3436027757825116,-0.5878694681021346
95.0,5.4280431270599365,-0.22259498809060296,0.1616188301193411,1.0090752750002094,0.034503929021966945,-0.0024163137863753227,-1.7466711773620065,-0.6141756743292803,-0.08680732954862613,0.22568803612879496,0.8288942992538596,-0.3408358934180085,0.14835718971498224,-0.012753305024268122,0.16389965870675588,-0.046445502364303115,0.808116477044072,0.1609600192409834,-0.09023006949217557,0.04300929230807273,0.05296039146838108,-0.14395271788830102,-0.11791366474939213,0.006565842484730957,-0.06489288325187582,0.9785986621812459,0.16787135653706675,0.813466881418253,0.23419940334698883,0.008777524661941554,-0.15561773564409678,0.2225730880610896,0.8695428323969163,-0.4553026785435308,-0.34143291223092886,-0.5875032920903633
96.0,5.460163116455078,-0.22332654108423602,0.15516649917967426,1.0095445400620457,0.034409934716851026,-0.003632276489922291,-1.7497302619586197,-0.6090785531984558,-0.08893230784766537,0.22446752019929578,0.8322505623349881,-0.3471604502770202,0.14910008407080771,-0.015940444390337094,0.1461966039277399,-0.0633917452900791,0.8204907510227365,0.1777492363248488,-0.09544484118881882,0.04501628643969018,0.05166968846565739,-0.14706585802460886,-0.12173078864730799,0.009076364835784924,-0.06272629439758784,0.9794546810571481,0.1666179180762129,0.8137146865715655,0.2335737995779102,0.017015726481472804,-0.15083780185473195,0.22487870017740974,0.8742030281593949,-0.45421500350385546,-0.3396204959651149,-0.5866953828255628
97.0,5.487166166305542,-0.2240437257294492,0.14884174797378563,1.0101041176779615,0.03399965875616249,-0.005073469758954918,-1.7536161062090025,-0.6032181015098546,-0.09000699510750848,0.2249373782486232,0.83484061783955,-0.3536381249649361,0.1495032662535986,-0.020342310155914506,0.12752157045681545,-0.08015111509757286,0.8350187407431178,0.19596803465535415,-0.10110009228089145,0.047645463109441955,0.0501517052519041,-0.14935913367765302,-0.1253129456668829,0.011145186227467154,-0.060514034585296486,0.9796596432509685,0.16527504281236433,0.8133679883553058,0.23324223228913424,0.024807484275503635,-0.14690775806974044,0.22796262129371947,0.8788834114601711,-0.4539666931835228,-0.33771674176986244,-0.5850538505797693
98.0,5.524815320968628,-0.22475165508014577,0.14264501017101708,1.0106811438707322,0.03337059982618512,-0.006685085008132835,-1.7582460194441696,-0.5969126580042134,-0.09067342388057534,0.226147716858419,0.8367515220475462,-0.35987083883936066,0.1494836123006211,-0.02591790447157891,0.10913853461068315,-0.09514607078347292,0.8515261261074349,0.2156546395354619,-0.10690024777944421,0.05078538760740326,0.048390369826644436,-0.15105314796015046,-0.12888821170740855,0.012705571120665638,-0.05806577269352723,0.9790269402531432,0.1637701354609697,0.8123935097941606,0.23347211690007846,0.03175584321259452,-0.14390489655841998,0.23175482064600383,0.8835488981928487,-0.4544709196654805,-0.3352534452482392,-0.5822044815570816
99.0,5.579060316085815,-0.22584621124310922,0.13299032628250126,1.0115140009365313,0.03224439340102552,-0.00996915008612603,-1.7671432564673113,-0.5866545058027556,-0.09218529237080059,0.22845014681883324,0.8386720441375094,-0.3695547678638186,0.1487715623492803,-0.03736856487940409,0.07842148906707824,-0.11751936370607272,0.8820502670199333,0.24993722498037535,-0.11773749042356728,0.056814537929335954,0.0448585281278693,-0.15357695021489676,-0.13511021245175392,0.014868296711705744,-0.053347131579696005,0.9766847390052871,0.16090314119739482,0.809578881896251,0.23487489068639467,0.04055271609556932,-0.14033841574192363,0.2394310308965203,0.8909784271513752,-0.4563873480225772,-0.32956941708414444,-0.5750381468400599
100.0,5.608518600463867,-0.22628756099277947,0.12888723586462741,1.0118531450244628,0.03192838923853831,-0.01150738140827903,-1.7715044667619724,-0.5823681815722951,-0.09324458136025945,0.22902599428003423,0.8390581696028974,-0.37375339997005397,0.1483395679529898,-0.04349152503823141,0.06524917560776271,-0.12585833047786293,0.8965618802796278,0.26567960166278576,-0.1227922745688744,0.059594412847308646,0.043417100154736266,-0.1548826570091929,-0.13799149766745408,0.015845878555816074,-0.05094148411495586,0.9749620557306308,0.15948526316012865,0.8075651068462197,0.23586369122438272,0.04298876244084002,-0.13926750480100886,0.2435284543826854,0.8941279691213622,-0.4577771955618575,-0.32643097536087556,-0.5707200466926428
101.0,5.633763313293457,-0.22675656140184713,0.12427607086586631,1.0122982811307284,0.03183569843653869,-0.013020111201574255,-1.7764981597272886,-0.5776224237834987,-0.09452885023514024,0.22920533823109362,0.8392305303322384,-0.37869590172170575,0.14799251406011113,-0.05131550016385272,0.05173353524603899,-0.13322798060982408,0.9132878003681347,0.28355879985230853,-0.128119206554909,0.062455719724171535,0.042298480309563694,-0.15652061250626553,-0.14115735953005235,0.01700576049136781,-0.048210356711796784,0.9723788053213104,0.1579127919962339,0.8045003348042588,0.23703810935382458,0.044717506890610756,-0.1383752490105686,0.24855429269244153,0.8975668711333447,-0.459838495629767,-0.32275854983830843,-0.5651934817625388
102.0,5.658096551895142,-0.2272517750758679,0.11915903426792412,1.0128915658107247,0.031985724119224845,-0.01446477366228597,-1.7819607489182931,-0.5723531485051989,-0.09582464925281614,0.2292578765698296,0.8391265582620658,-0.3844266663471567,0.14787899289517284,-0.06102279792891011,0.03861164048172881,-0.13895055028166806,0.9320630550497764,0.30257083909215365,-0.13349909699169488,0.06516130019520991,0.04163845936477728,-0.15837125433977073,-0.1445214514718526,0.018388931165304483,-0.045531372706997406,0.9690013203383967,0.15636117659935914,0.8003966052715804,0.2379824590031615,0.04576371616649841,-0.13759921647789564,0.25431783529678087,0.9011397158102872,-0.4624469646445513,-0.3187256621648873,-0.5588294103957359
103.0,5.68883490562439,-0.2277678278402565,0.11353498150024507,1.0136400568307533,0.032360812897418385,-0.01569175790560336,-1.7878302340759964,-0.5664943917867671,-0.09689245146395446,0.2293087563776774,0.8387755039352082,-0.3908997077087761,0.14805998290758307,-0.0726344988851426,0.02631853235002383,-0.14291533210961388,0.9527224903067442,0.3213114740517008,-0.1387494718811802,0.06765580721671546,0.0417018566266211,-0.160253210221652,-0.14810890925871995,0.02000701682622394,-0.043280556827807085,0.964877073802469,0.15498425487273104,0.7954235618193811,0.2382221097528655,0.04619493175952134,-0.1369464580676188,0.2606060797794104,0.9047332908419481,-0.46544156290655214,-0.31443185202050344,-0.5518680687052528
104.0,5.74725341796875,-0.22850907838969353,0.10475671419799361,1.0149375903934128,0.033283912897576845,-0.017468542533479563,-1.7972878279437778,-0.5571780349777187,-0.0979657270666584,0.23015175215943162,0.8375601177815494,-0.40150861253937764,0.14890122999220254,-0.09400721484899505,0.010544735451469615,-0.14452722053262826,0.987026352945702,0.34347185881475795,-0.1462319828788672,0.07092868226084295,0.04299389903826854,-0.16279238706871735,-0.15358715622229246,0.023129451726343824,-0.041380360278646264,0.9576264200205564,0.15350675904261415,0.7867692757294669,0.23622581993132413,0.0453063509592144,-0.1362971917768354,0.27084763361968145,0.9094093894357598,-0.47004983949990836,-0.3072654249533537,-0.5408731900773079
105.0,5.773715257644653,-0.2288032403139728,0.10101481659222518,1.0155241181744565,0.03370729098365385,-0.01782896417424478,-1.8011824583597007,-0.5531124573264324,-0.09810384671091216,0.23044738242786467,0.8369584426728535,-0.40588307506731325,0.1493550297246136,-0.10408323537983757,0.006492749546679548,-0.1429455047264786,1.001814758638058,0.3468895043392852,-0.14816650992849176,0.07196728411617197,0.04434357387480159,-0.1633404058718647,-0.15590293363197427,0.024542763809478,-0.041468201207499736,0.9542187751081221,0.15329804312156053,0.7829537582902033,0.23436562086173757,0.044611118803520644,-0.136400065088649,0.27507059487257557,0.9108549567778309,-0.4718451017160835,-0.3044277996991049,-0.5364431155442935
106.0,5.8015100955963135,-0.2291235850461488,0.09681987204568532,1.0161752010276968,0.03417272511864659,-0.01771004951585648,-1.8051296256014115,-0.5485804195291306,-0.09807425342100438,0.23030917656347472,0.8364371375589662,-0.4102936893812718,0.14971743998113685,-0.11572220316406953,0.005044057552122442,-0.13920449933096413,1.0178276486973215,0.3442042072030418,-0.1484051029898195,0.07269371862942747,0.04649713482909493,-0.16346293156202552,-0.15861748916534057,0.02586488711880544,-0.04207933111199276,0.9502277806071653,0.1533899994936273,0.7786259898856666,0.23218690077026924,0.04377768429366723,-0.13701603641145998,0.2792701069310774,0.9120706152248498,-0.4736991830972044,-0.3019447271704981,-0.5317763775669364
107.0,5.826555967330933,-0.2294577889217821,0.09219427521209968,1.0168731313047412,0.03483411870696542,-0.01723154578899372,-1.8091886500118022,-0.5438169861188875,-0.09783791003311804,0.2299234377991521,0.8360333605693582,-0.4145684713218195,0.1498892417614129,-0.1292421009762636,0.006428946422070857,-0.13311646149230386,1.0351874282347786,0.3341459309041691,-0.14657538605154619,0.07309125546915571,0.04930083451507137,-0.16344050086106504,-0.16184766424586794,0.02701229469169124,-0.04296955289732313,0.9456666656683499,0.15372325572545573,0.7736310353614206,0.23015453858754564,0.042568767586500356,-0.13818260404359975,0.2833054996456211,0.9130039607548258,-0.4754454657656615,-0.29991721038719327,-0.5266656465575446
108.0,5.88177752494812,-0.22993616744091983,0.08415702942838842,1.0179979860618602,0.03672611152255728,-0.016320962415324408,-1.8168323875458303,-0.5364510680206899,-0.09669419922961969,0.23003491656441175,0.835675328470018,-0.4214982189666118,0.14991410025472246,-0.15576436372564234,0.013322411748851133,-0.11857455875811859,1.0669798094693597,0.3015750719298692,-0.13945745416580546,0.07379922241437023,0.05479625974655054,-0.1640002743681233,-0.16788511022123598,0.02890255958080478,-0.04464609962356257,0.9371239764069899,0.1546711527072168,0.7642944918847538,0.22718388925616306,0.03933337983893052,-0.1408346032448454,0.28958230210768143,0.9134694513759122,-0.4775086261639522,-0.29718455802492266,-0.5170950599392767
109.0,5.90648627281189,-0.23005249426721547,0.08070595013457209,1.0184781173079434,0.038195974641955635,-0.0156123499385134,-1.821040165354113,-0.5338194501297812,-0.095250587519241,0.23070663994410165,0.8356846527735236,-0.42458168712796074,0.14990414474825595,-0.16829441013011254,0.014305990797137685,-0.11481294087200547,1.080705015492256,0.2793948455864007,-0.13696636739862106,0.07469951792349434,0.057952480017349095,-0.1648409579559585,-0.17049748644013035,0.029719897321167494,-0.045527652948111286,0.933204230005342,0.15540688955000687,0.7598178619249065,0.2263718278744143,0.03735981727492705,-0.14217222478994912,0.29173306935573196,0.9130965553026299,-0.4777667812160911,-0.296691628319231,-0.5128910661309934
110.0,5.933686017990112,-0.23014991623192166,0.07679631112234259,1.019071400263932,0.040158739429499324,-0.01432274331133638,-1.826222128430181,-0.5308682784306059,-0.09301404792892853,0.23144513676097583,0.8356644272402538,-0.4284326245717035,0.14997031474918704,-0.18248957952946923,0.01358507408230299,-0.11323257905234618,1.0950386449567813,0.24954298446624457,-0.13553902492210096,0.07600540730953342,0.06230491222575958,-0.16586829563104077,-0.17316977043092724,0.030738025704989735,-0.04689248496524759,0.9287412554838814,0.1567063754917351,0.754176956347236,0.22594310735735398,0.0350390053680376,-0.14352891485076555,0.293517408244092,0.9124696512475632,-0.47779548992126,-0.2968859002073605,-0.5089759075738779
111.0,5.965561866760254,-0.23025269594456876,0.07245677837886397,1.0197584537949256,0.04194246272826799,-0.012633440507130294,-1.8317231079825569,-0.5270621865180358,-0.09066144795541897,0.23193383431520398,0.8355117925329212,-0.43307910993154086,0.1500893655646413,-0.19780804999552457,0.011678085208036055,-0.11316573756052709,1.1099840327382569,0.2122794013391809,-0.13500164869954223,0.0771562980282855,0.0673495498912229,-0.16622686419352659,-0.1758635289706036,0.031953154776409545,-0.048818652523312446,0.9237628761908272,0.15869188942851237,0.747347332919444,0.22606784904272315,0.032600812688703906,-0.14474561031837693,0.29479329060633586,0.9114812612690071,-0.47766685243248347,-0.2975814764104078,-0.5061395982089428
112.0,5.999809741973877,-0.23037081454804992,0.06770236857750689,1.0205056565931478,0.042847503220054414,-0.010812241785027304,-1.8366876090038173,-0.5218793792131634,-0.08900980411079418,0.23189988233738948,0.8351346955228182,-0.43827671561860965,0.15019103098162095,-0.2136257710954204,0.009108662940859411,-0.11385454890429143,1.1255265947044963,0.1681306603923656,-0.13490349799341977,0.07743000066613769,0.0724220004486674,-0.16507607594908075,-0.17901851779937877,0.033274429715987125,-0.051179861387020256,0.9184521001762639,0.1613167861755761,0.7397080770061779,0.2268896844383156,0.029984285850659285,-0.14572041185477513,0.2953236881175645,0.910052046526213,-0.4773346985776062,-0.29846233888946366,-0.5048914882926536
113.0,6.036143779754639,-0.2304676950511449,0.06302903946784058,1.021193375918937,0.0423349701920846,-0.009294466407481279,-1.8401518888346815,-0.5155295391309025,-0.08878526094156106,0.23131675836212984,0.8344887343851841,-0.4433926976323709,0.15026156342895663,-0.2281842785247712,0.005874907527093468,-0.11509830137428069,1.1401907318754412,0.12099557309480104,-0.13516386334344085,0.07636146465653236,0.07659021927604831,-0.16201717886330966,-0.18283454540739685,0.03456188738669676,-0.05361321389521152,0.913517864783103,0.16425896724160638,0.732549829801856,0.2282632571102291,0.027234654340739302,-0.14628312397298382,0.294804331450287,0.9080968837496941,-0.4766581795811037,-0.2991238941676502,-0.5057325228438019
114.0,6.063352584838867,-0.23053285176574567,0.05838963164842279,1.0218133568281746,0.04059972754607144,-0.008036767414981003,-1.8420518379281372,-0.5081497704702886,-0.08998914087511095,0.23007895909147041,0.8335672665171183,-0.4482428433032065,0.15033857629631298,-0.24145710215762922,0.002079649370258255,-0.11678243743060297,1.1535415089501933,0.07260216437218382,-0.13570207783091712,0.07383588664832319,0.07997784745803818,-0.15739652245483765,-0.18776102954737733,0.03579441646284534,-0.055876813656140535,0.9092453362978945,0.1672278926049176,0.7265186428549947,0.22981490963467147,0.024190862435378192,-0.14656743944532263,0.293342921576163,0.9057040608860804,-0.47568283172814485,-0.2995478341776608,-0.5082319781343668
115.0,6.088903427124023,-0.2305635555772949,0.053753628712427795,1.0223688657407655,0.038286677440248246,-0.006858203416549715,-1.8429182937216844,-0.5002543739215641,-0.09210372064363892,0.22826125191589264,0.8323994018741443,-0.45283014567367486,0.15049109600267316,-0.2539384313821854,-0.001911213281676722,-0.11866323713848292,1.1650916946975596,0.024665182980590547,-0.136507426432074,0.07020952016291669,0.08305840423215638,-0.15208404678873821,-0.19368415512650727,0.036945780317535315,-0.057840475165479716,0.9057743342869904,0.17001836076787333,0.7219397646647425,0.23125957609583148,0.020982465533561468,-0.14682464394269118,0.2912419491512598,0.9029188047570862,-0.47460145461459224,-0.29998260271454774,-0.5118921785511177
116.0,6.145902633666992,-0.23055898350443016,0.04634806281355143,1.023070339929614,0.03416768973850012,-0.005311495654723088,-1.843271629464187,-0.4872776129846249,-0.09675626341958077,0.2248163595707331,0.830033150053552,-0.4596910075660501,0.15094130442922965,-0.2735799009714173,-0.008794499764221066,-0.12162896853442165,1.1813480815078687,-0.05120162660940482,-0.13824121986308652,0.06306300740319598,0.08760796296186016,-0.14318948562245853,-0.20423590310727915,0.03873242560764355,-0.06045258751755968,0.9014635505094595,0.17417304467117772,0.7170634956574037,0.23287856588580969,0.016247907687245076,-0.1475475305453078,0.2873465653947853,0.8971518415805388,-0.47312977161722675,-0.30109933331724215,-0.5194556232097536
117.0,6.173154592514038,-0.23055331370864135,0.04309474224223589,1.023318655504934,0.032543554941312045,-0.004526003842930212,-1.8431810696613335,-0.4817857663827456,-0.09879676346416008,0.22314707624506286,0.8289334987552798,-0.4621953686009208,0.15111497979371558,-0.28197732627047306,-0.011444887458105246,-0.12280385088030853,1.1863646331542819,-0.08147698475152484,-0.13903332971107385,0.05961821747606336,0.08976493805397207,-0.1396541578850612,-0.20875558638478312,0.03942675422985515,-0.06148862432416399,0.900060090837473,0.17584858626488836,0.715763735757604,0.23322177861678922,0.014783166389215336,-0.14812158744911083,0.28555638636253033,0.8940955799515953,-0.47268799282099894,-0.3021598314805088,-0.5233382723760469
118.0,6.201947927474976,-0.2305572083766595,0.03933245546068972,1.0235924968877859,0.030945471780205777,-0.0033430325195906332,-1.8428491344227425,-0.4757808897983544,-0.1007880615791743,0.221132851309534,0.8278382537200244,-0.4645016970324169,0.15114633548465886,-0.2911642543012023,-0.013574397691271669,-0.12386023154238718,1.1895841479565727,-0.11200891648402281,-0.13969163503918178,0.055654667137370765,0.09256314211308198,-0.13613103181232697,-0.21373270279863837,0.0402788597450989,-0.06275044457009196,0.8987280848072208,0.17766434751456592,0.7145436431829404,0.23327664757606395,0.013441440066446214,-0.148731660177339,0.28337887624368535,0.8906151091882084,-0.4721386043669237,-0.3035558115874085,-0.5278041041977155
119.0,6.230528831481934,-0.23056630482756912,0.03503574634523694,1.0238903777839197,0.029312858115173975,-0.0018988748675444749,-1.8421686686212282,-0.46920588589903267,-0.1029333903364945,0.2187857490778307,0.8267550597507706,-0.46670266486097534,0.15101991629009875,-0.30117637100008204,-0.014968130607256883,-0.12436655461760787,1.1910364501334845,-0.14287293714398588,-0.13999420064527832,0.05126148133529651,0.0959789799392658,-0.13266866742277938,-0.21952468176316134,0.04165366148384805,-0.06423703576143812,0.8974550103110839,0.17965525278747219,0.7133095298021326,0.23280381446000298,0.011772164418287327,-0.1489401185532161,0.2807561279401874,0.8869579696854368,-0.4713218121541418,-0.30445418241990085,-0.5325469597915822
120.0,6.256994962692261,-0.23057397740974445,0.030198178993008955,1.0242060634465577,0.027705573162249524,-0.00025532578630302956,-1.8411520784333777,-0.4621187869460981,-0.10533217413800511,0.2160669130626276,0.8256952588929146,-0.46904700428003726,0.15080136597175392,-0.3122664333010545,-0.015334068310454202,-0.12387147540683532,1.19075978574489,-0.1741374422215078,-0.1398229197774779,0.04646036849887511,0.10018960318832021,-0.12943546184613255,-0.22640596257723705,0.04380605803877648,-0.06589361375910328,0.8963771783722527,0.1818482386155013,0.7122348572071919,0.2317377385160761,0.009507432299671291,-0.1485181875844687,0.27778140472327517,0.8832601451947464,-0.47032380952487546,-0.30447816317338566,-0.5375840849680447
121.0,6.311994552612305,-0.23058348295112385,0.022389099199605328,1.024577077480107,0.025224303566258943,0.0019677854677930618,-1.8386417427649695,-0.45108502180395044,-0.10986176132982882,0.21162361831605786,0.824131879645462,-0.47279532241573186,0.15046827540939473,-0.3304827746762808,-0.013833929792255947,-0.12044815657431188,1.187986023150566,-0.22019502935743165,-0.13840043514318365,0.038476780804333935,0.10741975394011119,-0.12512649661239303,-0.23871717657741612,0.04854270211911414,-0.06866996548822173,0.8959660700195747,0.1857172417447876,0.7116175780058294,0.22892031099777585,0.0054299472187396055,-0.14671901790306327,0.2731257793561424,0.8771430785048477,-0.46909139966313307,-0.30274530442021963,-0.5457697792442289
122.0,6.338846206665039,-0.230601409210284,0.01898495748189384,1.0246581622236342,0.02429953753303029,0.0028485395551854148,-1.8372664348632353,-0.44659455662680825,-0.11177463294098469,0.20989364795179774,0.8236573068178276,-0.4744232458902433,0.1503730511478259,-0.33879830456016824,-0.011973588933007323,-0.11768362190777998,1.185435328804314,-0.2370956037707309,-0.13727444973219566,0.03484208450904705,0.11073248480685403,-0.12370481541656203,-0.24423861162861402,0.05070863691647722,-0.07019956638086979,0.8964632189020745,0.1878081329018707,0.7119402323560032,0.22786278713735741,0.0039025630140281462,-0.14596255165921765,0.2712989443815056,0.874309316466169,-0.4688805612270652,-0.30222352894743776,-0.5494987522006917
123.0,6.365310430526733,-0.2306490757099284,0.015133871976063744,1.0246663616242027,0.023344304268994715,0.0038884370057257547,-1.8355953468074724,-0.44175513077741396,-0.11366087970521846,0.2081629653819536,0.8234406961672596,-0.4762306391296489,0.15023768249439023,-0.34843227802472354,-0.008788671835553031,-0.11364073800636376,1.1813045699944973,-0.2526727892434649,-0.13554827845956818,0.03075668560280985,0.11430930027756608,-0.1222563246229954,-0.2499607799981623,0.05270360621973192,-0.07246749186911015,0.8971094823676133,0.19066075067728994,0.7120961501405749,0.2275218660077174,0.002767133553871206,-0.14562788473880744,0.26930286350380817,0.8710174553271575,-0.4686650921744687,-0.3028227031603125,-0.5536612588718989
124.0,6.39366340637207,-0.23073415140487014,0.010842545264824897,1.0245668262321144,0.022232115414481654,0.005013612977611281,-1.8336369060956588,-0.4364329920892279,-0.11588569328122728,0.20601844163561028,0.8234809054200042,-0.4783970489595891,0.1499558171920711,-0.35928486812822225,-0.004170207170568639,-0.10808538376572908,1.175730706993558,-0.26673763372355114,-0.1330125699737691,0.026426888812492617,0.1178076030367341,-0.12054900550588807,-0.2555802075442229,0.054412118077583393,-0.07541598017855951,0.897432388155822,0.19422969103405668,0.7110089942913098,0.22811416788410266,0.0020892344955011927,-0.1457308551020886,0.2669417629671204,0.8672745951583434,-0.4681189388337124,-0.3044294962163986,-0.5577864801512011
125.0,6.447641849517822,-0.23093530973388784,0.0032667067785906514,1.0241949503627976,0.02014862425017369,0.006811933903611508,-1.83004919877366,-0.4269906960980202,-0.12098400983524318,0.20060010454084964,0.8237805742256411,-0.48306169373493485,0.14883364416829797,-0.37868648204410726,0.006282675476370701,-0.09563267296920772,1.1645340489926357,-0.28661505735565185,-0.12700651405280752,0.01958954127055939,0.12293790957990201,-0.11717324518103725,-0.26448306255755966,0.05677359350002702,-0.08069971745124574,0.8970501071191141,0.20080247205246393,0.7053087007677661,0.23047170283880095,0.0016706496001439022,-0.1462966947974835,0.26207911207732093,0.8603489524226252,-0.4662307717745432,-0.3073955455167232,-0.5632382221658677
126.0,6.4709632396698,-0.2310514828345828,-2.824581025611555e-05,1.023938124568096,0.01922965123816623,0.007411977254067776,-1.8284550010488507,-0.4228981852712884,-0.12418476447545568,0.19693316909251418,0.823985032288361,-0.4856845807873672,0.1481287796400414,-0.38730393509954913,0.012000732430870104,-0.088624777907564,1.1589694293299309,-0.29236119902731894,-0.12380331339311768,0.017123867003617236,0.12455352527015359,-0.11563747151669623,-0.2679630505040743,0.05774519902958998,-0.08261452832287716,0.896232978149322,0.20340911943832257,0.7009494891988531,0.23172473090888548,0.0016383011665735848,-0.14636898775273346,0.25958570453699437,0.8574160775441169,-0.46475388121673894,-0.30788780716558106,-0.5642202334711574
127.0,6.492563962936401,-0.23120389424318233,-0.0037809408084309745,1.0236077154070409,0.01829675144874382,0.007962122735860583,-1.8266451646745325,-0.4184029837971711,-0.12842704268113678,0.19191596717028792,0.8243050350826473,-0.48894709768154343,0.14722643011863962,-0.39731300302958494,0.019230562635520032,-0.07953087466202521,1.1520672461300883,-0.29646490100572465,-0.12010183867270272,0.014595954314475659,0.12612063486479613,-0.11403387578762844,-0.27181391966827506,0.059087699528452456,-0.08429745727104379,0.8948884661444727,0.20586183414581677,0.6958030687763839,0.23273834981806268,0.0016401388049210007,-0.1460232065449128,0.2566451361653858,0.8544333251084353,-0.4626826431879025,-0.3076701498893865,-0.5647732290711605
128.0,6.545738697052002,-0.23150063755952477,-0.010777820718334882,1.022955181846872,0.016866164854687678,0.008854535762766926,-1.8232145529733153,-0.4104921983664204,-0.13656358505860983,0.18223570833900776,0.825085250230889,-0.49478287785525277,0.14557229240793282,-0.416368543115686,0.03430545923008833,-0.060383221073384896,1.138177971501598,-0.30004410887519684,-0.1130866238062237,0.01022754842471485,0.1291509449352376,-0.11120216957650578,-0.27915759260544803,0.06190229187852017,-0.08687674866009973,0.8925112959923115,0.20989071129361694,0.687016923576397,0.23361423218228833,0.0025356989122575094,-0.14477534181593993,0.25089170976309744,0.8485377405677383,-0.4589821232671473,-0.3071331993127478,-0.5670532479125638
129.0,6.5697715282440186,-0.2316413377468984,-0.014023619610396571,1.0226231136497819,0.0163158879431888,0.009196507729335337,-1.8214757761636127,-0.40711156345232463,-0.13994260437005596,0.17840361066298582,0.8256854343450284,-0.496839924373004,0.14491721697050208,-0.42524580845945675,0.04196983693091587,-0.05052330091216059,1.1313446554125868,-0.29950056057539576,-0.10989802964752354,0.00829799731533963,0.13070060355945595,-0.10996621416590915,-0.28259123993866003,0.06334906904762315,-0.08796359749838834,0.8914855399839812,0.21164249906881505,0.6835997546617198,0.23358871199177933,0.003603063143806748,-0.14396218226773982,0.24817288711122834,0.8455286571348894,-0.45769522758051673,-0.30770761258737006,-0.569848108607877
130.0,6.593310117721558,-0.23180586535479814,-0.017732548288307455,1.0222091264479822,0.015697303206276485,0.009523364244032738,-1.8192845105520832,-0.4034496944909826,-0.14316308986729484,0.17506892766100934,0.8266545232961768,-0.4983661464024589,0.14432625727609957,-0.43516865078216205,0.05095439713410975,-0.03877649090069051,1.1233585296175104,-0.2971402922652406,-0.1065049849566024,0.006107660308276008,0.1325566359792726,-0.10867005804675504,-0.2863918269237459,0.06508162677244045,-0.08916382558867497,0.8900817878356946,0.213552832303115,0.680093152448778,0.23346675635258696,0.005139553366001864,-0.14296378247814484,0.24519492595007275,0.8421521559409262,-0.4566149393339144,-0.30972136540699235,-0.5746943079226914
131.0,6.641846179962158,-0.23212461291117903,-0.02470898670913418,1.021432912854994,0.014739592382096173,0.010139349871944654,-1.8150887908277653,-0.396776215503006,-0.14812289376681798,0.17024117373967468,0.8285694452560819,-0.5001588850528738,0.14343657632279028,-0.4532328908839488,0.06859558142709304,-0.015586086543270058,1.1075610618952463,-0.29003957643675965,-0.10053669998775012,0.002459936743361797,0.13624655600739255,-0.10638494056393252,-0.29352497031130287,0.06814596994598009,-0.09121147623606743,0.887036229489904,0.21704041919743072,0.6731269280939969,0.23341709030558644,0.008180498909449732,-0.1412932532122396,0.23957979905380333,0.8360623050319929,-0.45509256789081787,-0.315843925437189,-0.5852439707785823
132.0,6.665528297424316,-0.23229059341877378,-0.02798044576108863,1.021098507908174,0.014334262095922519,0.010429355795885845,-1.8130787851929446,-0.3935707063627089,-0.15004898202751393,0.16843441847518487,0.8293118846979048,-0.5007503872454389,0.14294448308773122,-0.4612109927183466,0.07691902387531663,-0.004421262949453494,1.0996964350800977,-0.2860308093603451,-0.09825592530414107,0.0009814527081673469,0.13787273394001598,-0.10533953781749562,-0.29692766986864594,0.06939874554956038,-0.09207114273045566,0.885386017044527,0.21861797148213008,0.6694563034114593,0.2335681166590437,0.009349446858784183,-0.14076657725469474,0.23708185125393316,0.8336699881319739,-0.4544263286088065,-0.319153369130633,-0.5894621627471222
133.0,6.6906678676605225,-0.2324958209147872,-0.03171956163221889,1.0207828603756597,0.013760979849922743,0.010720320610208403,-1.8106987284279754,-0.38960553569296297,-0.15219351198091716,0.16647856258888055,0.8297847560787237,-0.5014865906615369,0.14239219970712996,-0.4698026266228289,0.08601041388757097,0.008236096660904585,1.0903215547140497,-0.28192417157421323,-0.09643180147288972,-0.0006437465829109909,0.13941052056594522,-0.1040355261942817,-0.30076222193413366,0.07067173829475498,-0.09306654231546907,0.8832374986056595,0.22032512451177869,0.6650974516922181,0.23378266628335598,0.010395477647761255,-0.1404937456970661,0.23470101201431526,0.8316205811784254,-0.45362742944347917,-0.32235239124002,-0.5925668353207267
134.0,6.726402997970581,-0.2327346290420104,-0.03591037607575182,1.020549984424138,0.012987608386241054,0.010980363318911869,-1.808004213668579,-0.3847275695437125,-0.15457817796028553,0.16437532648297162,0.8297010758545917,-0.5022674368401481,0.14161052070756963,-0.4789122655766501,0.09582555904783396,0.022443074193454052,1.0792308180429226,-0.27838947390747665,-0.09517453372880218,-0.002359602866070399,0.14086277795739693,-0.10236494420513254,-0.30488271525117877,0.07201522349684017,-0.09413414303215711,0.880634048417873,0.222033063718232,0.6604732055193214,0.23372443910874408,0.0116388801630649,-0.14045983461902303,0.23270871557907327,0.8298903373279015,-0.45300150871140316,-0.32507361684631636,-0.5946118441541417
135.0,6.75545072555542,-0.23299476070835506,-0.04055750635114276,1.020438998646377,0.012044685481287329,0.011160169347818796,-1.8049695408734543,-0.3788693285966401,-0.15710815191470084,0.1623485962471398,0.828856179471632,-0.5025921068822614,0.14062269613563078,-0.48846263562148334,0.1063794617040214,0.038332147747107026,1.066273696076295,-0.27583988511800484,-0.09449299420793969,-0.004168006045030027,0.1422567568194429,-0.10037896260487912,-0.3093434499770348,0.07352723511391265,-0.0950452343511439,0.8776927861921863,0.22350939860268937,0.6563252317442427,0.23303997042300822,0.01323133140250998,-0.1405698692894492,0.23125520735328947,0.8283374563825026,-0.4528312508554254,-0.32708557428547663,-0.5960219138117229
136.0,6.7985334396362305,-0.23324642341869348,-0.04521483770971407,1.0205078099150657,0.011109843098237291,0.011198066691924653,-1.8018606977744085,-0.3725336021514801,-0.15932760402910845,0.16091573435721163,0.8270513623312075,-0.5018349533201248,0.13948018161718967,-0.497288602442462,0.11679041442083288,0.0546440134486533,1.0524440701581994,-0.2747742634854681,-0.09449728277806482,-0.005836532242883833,0.14342818673096636,-0.09837022707024316,-0.3139741681628965,0.0750339881062867,-0.09540135809183664,0.874904349703671,0.22435613923609732,0.6537517347214583,0.23153465064012718,0.014939127061704251,-0.14074657995736395,0.23044428944245998,0.8270784664400307,-0.4532360033941413,-0.32787124341455853,-0.596721584258986
137.0,6.83315896987915,-0.23348872069036916,-0.04991414675478774,1.0207035698718063,0.01019258140845927,0.011101842458246036,-1.7985334948947105,-0.3657670384835869,-0.16124040911454354,0.16008797727619592,0.8244765780423191,-0.49986771357380155,0.1382122362051843,-0.5053569022725866,0.12719283443442947,0.07145886257934307,1.0379590205059472,-0.2747858606040898,-0.09497746964276974,-0.007580126401920043,0.1444361504577171,-0.09648071431741467,-0.3190225863191627,0.07654241262438007,-0.09504414083034333,0.8724582362685618,0.22448293853884504,0.6530502915971719,0.2292918749936787,0.016536405188326636,-0.14072506988465344,0.2298393505264872,0.8260108719470571,-0.4537883605893871,-0.32767015401164074,-0.5971911927544372
138.0,6.864899396896362,-0.23372473982437675,-0.05467346071803333,1.0209703567107486,0.009243119295302638,0.010939998670514896,-1.7948784426384505,-0.35863611868948847,-0.16305577170445246,0.15948091255738656,0.8213745246023364,-0.49714898570258426,0.13689009179943057,-0.5126384652481784,0.13769309259362672,0.08873589668996691,1.0230559670451913,-0.275192308739758,-0.09576271650875953,-0.00953392239120189,0.14532983040010475,-0.09474187086487729,-0.3244422258436765,0.07804893789327658,-0.09408683885018795,0.8703627471427424,0.22405956045557449,0.653753776982384,0.22667469663893608,0.017875156375229306,-0.1403564206948555,0.22910793641868465,0.8251304440638059,-0.45409440679171953,-0.3268578419799948,-0.5976383660972181
139.0,6.899219036102295,-0.2339582737800473,-0.05948352863109914,1.0212760026045873,0.008243277723498478,0.010802138272999938,-1.7908312029365685,-0.3512294371914479,-0.16504968378039236,0.15851874926228082,0.8179197525771671,-0.4944119297795965,0.13555143302464825,-0.5191552934342838,0.14829280083057367,0.10629891526852334,1.007871555797071,-0.2754650551886715,-0.09677516707204245,-0.01170998134679679,0.14618520350588446,-0.09311630836884138,-0.3299143978103068,0.07956192819773165,-0.09279305160187072,0.868518950790629,0.22339098775898247,0.655121362868933,0.22413019541206142,0.019020177472825847,-0.13963241126691717,0.22825991498834847,0.8245241000315608,-0.4540852936496689,-0.32564006554239744,-0.5979985622545967
