ccrpRepo/mocap_retarget/src/mocap/src/data/output.csv
frame,timestamp,posX,posY,posZ,roll,pitch,yaw,left_hip_pitch_joint,left_hip_roll_joint,left_hip_yaw_joint,left_knee_joint,left_ankle_pitch_joint,left_ankle_roll_joint,right_hip_pitch_joint,right_hip_roll_joint,right_hip_yaw_joint,right_knee_joint,right_ankle_pitch_joint,right_ankle_roll_joint,waist_yaw_joint,waist_roll_joint,waist_pitch_joint,left_shoulder_pitch_joint,left_shoulder_roll_joint,left_shoulder_yaw_joint,left_elbow_joint,left_wrist_roll_joint,left_wrist_pitch_joint,left_wrist_yaw_joint,right_shoulder_pitch_joint,right_shoulder_roll_joint,right_shoulder_yaw_joint,right_elbow_joint,right_wrist_roll_joint,right_wrist_pitch_joint,right_wrist_yaw_joint
2.0,6.257524013519287,-0.10333824262956015,0.5154915361225876,1.0170672267829208,-0.0002747277840018268,-0.006213739748640501,-1.687062210880111,-0.27266072348885473,-0.11870450594517622,0.04806845799032437,0.9255769400059854,-0.5708562525955584,0.12597326257059316,-0.33717581789158857,0.2772807839035698,0.14876434323002088,0.8747717343551096,-0.0426788513070056,-0.04257530021591646,-0.026125448662990484,0.0923771104429187,-0.07394059702419731,-0.1710005506326171,-0.02761110470857961,-0.07058512257254937,0.9401824563149817,0.17661033872102744,0.7648003524739285,0.26775966469792756,0.019689878691802422,-0.08602058016853291,0.08125872842010576,0.9049537949865372,-0.3173919924241224,-0.2741411226288144,-0.6080475631210993
4.0,6.308917284011841,-0.10407203144612004,0.5149992304751416,1.0168459962230667,-0.00029831072501232587,-0.006337030909606821,-1.68529855488168,-0.27553708193681303,-0.11689487798588406,0.049951923220940234,0.9313754811006139,-0.5666759673354811,0.12544222414168477,-0.3369040421546508,0.2774684551394865,0.1477314468799386,0.8755635248722186,-0.04230822965413377,-0.041839357494969504,-0.02590430019441715,0.09392432879028909,-0.072628922351308,-0.17125757530895896,-0.02846211842050622,-0.07269670601185402,0.9406962964423526,0.17772521438818129,0.765432797052894,0.2667937452918535,0.019600745110468467,-0.08363726419450526,0.08181191493148837,0.9054940823188897,-0.3182349086580971,-0.2754505048435906,-0.6118420003662801
6.0,6.367912292480469,-0.10607838005962407,0.5135878552606192,1.0161675877346763,-7.120872942843607e-06,-0.006956256800675902,-1.6805760839476114,-0.28473776368205084,-0.11158164224346159,0.05570583571393391,0.948733154897486,-0.5546277548790631,0.12474924457987654,-0.33632445457550275,0.277805279640207,0.14510578904703364,0.8773498589425386,-0.04234704599586214,-0.040302024405963546,-0.025265797237033136,0.09722613281459708,-0.0698141145635489,-0.17286501456524778,-0.03098090116217366,-0.0772855231236945,0.9416243003713792,0.18017866824598724,0.7663258839226829,0.26526778798407047,0.017544288042420364,-0.07825663011535866,0.08258317632809586,0.9068629603250231,-0.31982850545561237,-0.27828889652613814,-0.6207394208998958
9.0,6.449194431304932,-0.108958599060134,0.5115563909479933,1.0152290013566272,0.0005581687132296975,-0.007621459225818302,-1.6734509978206993,-0.2995103278286395,-0.10274206152271331,0.06446890488960691,0.9760611283204264,-0.5369158648397192,0.12498861018836298,-0.3353409062375977,0.27902434079789196,0.14184694834661254,0.8794585131494381,-0.04399227939202541,-0.038290276605113985,-0.024090539391077165,0.10205246757968847,-0.06598078618873442,-0.17572896925312803,-0.033996372009880406,-0.08271171857724287,0.94278604769261,0.18327697684779115,0.767318550953169,0.26394826128021953,0.01361059315746052,-0.0710079157182017,0.08413850206214549,0.9088216469657785,-0.3221741420230183,-0.2829402171953517,-0.6319172009590992
11.0,6.536039113998413,-0.11315118832857779,0.5086257404210826,1.0140965950367062,0.00030181290190215706,-0.009009899020139107,-1.6632715732215586,-0.3215639003331145,-0.08816016912395037,0.0787385217429747,1.017197174927648,-0.5129178485543445,0.12809330425128765,-0.3322426229451472,0.28203827394778597,0.13957860903793567,0.8816495643904534,-0.04863747097568406,-0.03563867676410415,-0.021873098763006565,0.10706706454125353,-0.05918152208873216,-0.18000111297506807,-0.03778814164868079,-0.08752232367762516,0.9437595562839005,0.18646874455360513,0.7679312969435922,0.26487622683672696,0.006466065366715745,-0.06375499430135655,0.08905577176850532,0.9107988618665074,-0.32798604559572403,-0.2893162600941117,-0.643423877834163
13.0,6.602886199951172,-0.11743022631673808,0.5056140777827804,1.0131934142977124,-0.000625075247949158,-0.01044247588016504,-1.6538050262228392,-0.34457571827206857,-0.07201809896146116,0.09395780311781196,1.0590165186920242,-0.4924465407821006,0.13305463598176354,-0.3279270731752796,0.28553961123632965,0.13816851997581525,0.8827582867464325,-0.05372766397158491,-0.033271163088250365,-0.01900703124126446,0.11045156289697211,-0.052157921477304886,-0.18353443194824878,-0.041382438029076166,-0.09048142780751976,0.9441525421578129,0.1883247737376793,0.7675798627692035,0.26604627168571116,-0.0019835021820410045,-0.060387836551470044,0.09689046663561074,0.91262727292864,-0.3370090206622527,-0.2944884116658985,-0.651264602720562
16.0,6.687838554382324,-0.12149304254384896,0.5025568943280017,1.0125797715802032,-0.0018519184049659975,-0.011731256156542788,-1.645738621618701,-0.3676476887070731,-0.056299129973916076,0.10821100521086574,1.098043959218717,-0.4779850560051695,0.13924612050633384,-0.3227794787610019,0.28917744167940684,0.1374840690512144,0.882764686618642,-0.05930113043472626,-0.03147391372150595,-0.015574250946843466,0.11318651554333223,-0.046333894939995436,-0.18552089305987352,-0.04479944232521643,-0.09103481644114095,0.9445407688657828,0.18840795518909476,0.7676863293126055,0.26743318754061013,-0.010245791166612797,-0.061212967698436885,0.10763803077647596,0.913630760794033,-0.3489471206807063,-0.3012259859248339,-0.6552569856092871
18.0,6.775532484054565,-0.12591212844034233,0.49858882230681334,1.0123789733437445,-0.0030413425286648483,-0.01393347597064433,-1.6379080873248268,-0.3945913545631733,-0.03993233349237199,0.1240961560372983,1.1363868587660688,-0.4681279779758462,0.14791001930082887,-0.3157121559249187,0.29272210461285436,0.13806180986275526,0.8814077957474067,-0.06684639358250805,-0.03041514972753735,-0.010635682456939043,0.11552002976069037,-0.04222589468255226,-0.18590055346454498,-0.04833861259539842,-0.08954107444999583,0.9450665676560658,0.18669338160862003,0.768829158591628,0.26836131400040525,-0.01930310012538935,-0.06584741657839067,0.12156891800532815,0.9133451470784351,-0.36411545536006,-0.31104404199209396,-0.6562494014400937
20.0,6.851491689682007,-0.1298556656033158,0.4946280729619037,1.0124410794289012,-0.003327889034268441,-0.016446122669907255,-1.63148363007778,-0.4205281695664191,-0.02565838134807703,0.13894716283882824,1.16686817939106,-0.46242336623311475,0.1568035495461732,-0.3092908907492082,0.2955348432073413,0.13919458879484786,0.8794629152286402,-0.07408085247499727,-0.030005554201822233,-0.00599228824850331,0.11665957440081698,-0.040913082428121764,-0.18496959331817503,-0.0515292457250989,-0.08719108299450526,0.9452341709660748,0.18392591530517638,0.769408867421376,0.2680565554960529,-0.02786145588835621,-0.07321057555128979,0.1354780510290126,0.9124515798876751,-0.3791656692491773,-0.3214862949370286,-0.6548122342386462
22.0,6.927451133728027,-0.13353313983085863,0.4905384358964039,1.0125718346492523,-0.002913259747718775,-0.019400450546194083,-1.6260965030458787,-0.4454892045849184,-0.013198033886141027,0.15346936111985277,1.1902003677132318,-0.4580788068736411,0.1656107245646527,-0.30345689841377815,0.29781208037739965,0.1408828558552446,0.877463021756699,-0.08060346802201132,-0.029908245460596096,-0.0014744094080138812,0.11633373880379766,-0.041683654959479,-0.1828153419062158,-0.05501796350638428,-0.08467358571440381,0.9449289719625924,0.180706731903655,0.768839527013461,0.2673522568905605,-0.03658296467242794,-0.08300454558111121,0.14919018817849702,0.9110736531861341,-0.3938463643833429,-0.3318597809585606,-0.6506226532448318
24.0,6.99018120765686,-0.13689421808760313,0.4862454163457881,1.0127067861952537,-0.0023630934216134518,-0.022331643445005003,-1.6223062441616563,-0.4684294789758007,-0.003005908466084983,0.16717818090392267,1.205769824315166,-0.45461525249088697,0.17365499313636348,-0.29768736258086603,0.29985411636685977,0.14305671962737931,0.8755222500384148,-0.08573129446315636,-0.02999345994521547,0.0035714618772451426,0.11535274094941336,-0.04349056068779249,-0.1792699742156897,-0.0584564216609188,-0.08261061231111971,0.94386923382618,0.17785324902212657,0.766505412943253,0.2670632591618828,-0.045553607150851584,-0.09416085113618747,0.16213961165247448,0.9093665135601832,-0.40731233917467935,-0.3415654614436078,-0.6437548531452371
27.0,7.0628790855407715,-0.1403844990065185,0.48106667873950426,1.0129931406359174,-0.002149199824605651,-0.025024591647779554,-1.6200319034822444,-0.48791141291645945,0.0034741330497403767,0.17805611863422538,1.212541536999003,-0.45246250884037476,0.1792130402452774,-0.29033708951450016,0.3017538358078408,0.14526280654225607,0.8722388219762904,-0.08950542834033101,-0.03072223011787046,0.008722133586637081,0.11431489975547762,-0.045951395006465875,-0.17119185600248182,-0.0607446048531424,-0.0820196536025892,0.9416131711761739,0.1761775544183255,0.7619447688427846,0.2666525411466104,-0.05157926603448225,-0.10533482737781061,0.1752388106516334,0.9068548754694963,-0.42042871116372893,-0.35117230996170123,-0.6361325110468088
29.0,7.1409752368927,-0.1437392625688759,0.4757767748221884,1.0132325686078814,-0.0012353776379589723,-0.027973187610130422,-1.6190824762348335,-0.5119502078561401,0.0031892662736073157,0.1859478910279115,1.2101250500522507,-0.4501593047152942,0.18189903502926313,-0.28369802732924937,0.3036332330605412,0.1481855691907086,0.8692804073460674,-0.09210239296332957,-0.030784405537948464,0.014718628712891198,0.11398755674521696,-0.04659509706914246,-0.16500034165076777,-0.06559269533509059,-0.08177982584996893,0.9400796288694726,0.17429516736209563,0.7593730990973189,0.2666124099887874,-0.062378221892658375,-0.12327798890193872,0.18894532134887676,0.9023387333927413,-0.43526735675124595,-0.3617264856652489,-0.623347294290717
31.0,7.21291446685791,-0.14679040867285043,0.4705503597606058,1.0133576886796711,0.0004925464754396325,-0.030603697604001428,-1.6195466024692842,-0.5348654920755184,-0.002814016547243438,0.18931129390241597,1.2006320055214075,-0.44889381672254425,0.18102627048160577,-0.2781208637301217,0.3052254552345552,0.1509862396198064,0.866248808727538,-0.09312621714725298,-0.03063518337314721,0.020926087162246577,0.11385293496303249,-0.047627550305985755,-0.15938692121910214,-0.07008155715232614,-0.08250849575810568,0.9395593882432927,0.1730115952987874,0.7586382812470994,0.2655782527296404,-0.07336738219510958,-0.14126556170349608,0.20084484996867555,0.8973981362753712,-0.4480656570473496,-0.3713869974289367,-0.6095683134466416
34.0,7.293560981750488,-0.14953911032306288,0.46542965407396264,1.0135103307889153,0.003036485898152934,-0.03261068053479732,-1.6211242051236154,-0.5565033901128527,-0.012174757604792452,0.18994285064660066,1.184749594813379,-0.44839765982255503,0.17767791443722974,-0.2733659687595009,0.30660212290225836,0.15338526675973532,0.8625933079958704,-0.09296124739327893,-0.03048921096873492,0.02719751714367185,0.11378869954233864,-0.04910141334849459,-0.15367579958792016,-0.0737879401513597,-0.08462774635175112,0.9397695617406171,0.17276125453493613,0.7589930720780229,0.26365915529775064,-0.08383002175845009,-0.1580340239989076,0.21041711791151135,0.8925072086052795,-0.45807556360207735,-0.37937237465709783,-0.5954087090108167
36.0,7.364279508590698,-0.15252116391971593,0.4591920153836636,1.013902108634467,0.005564134664893193,-0.033903982530575257,-1.6239882979832139,-0.5785469973767294,-0.022997558717981217,0.19112677246382265,1.158281419948736,-0.44740520276470985,0.17285067752691036,-0.2667763904021962,0.30715728728994784,0.15418771790500196,0.8570417632867919,-0.09145350230520533,-0.03110576318536131,0.033678106257815574,0.11382557364041554,-0.05047541413531119,-0.14771700828791706,-0.07710121871059636,-0.08828996954640014,0.9411336713150116,0.1734756784195121,0.7609769803389376,0.2605745306462973,-0.095713349952631,-0.17631478412216778,0.21820079022436994,0.886510423654174,-0.4678609787596575,-0.386135113660925,-0.5829166015832913
38.0,7.4377501010894775,-0.15525339294184703,0.4529888847453966,1.0143619169149134,0.007824434715575947,-0.03450728299658807,-1.6274215113304629,-0.5967087082698023,-0.03277261033578152,0.19262752905375308,1.128090324080988,-0.4460285951570842,0.1678095115476463,-0.2597582326506912,0.30689645756058387,0.15371176154686694,0.8504581862315846,-0.08895908028682825,-0.032180308504089115,0.03905374148559694,0.11432646858399526,-0.05166757899352584,-0.14208723698102693,-0.07953773269792003,-0.09209824218846054,0.9426784527153429,0.17444095431977424,0.7632160990003255,0.25710439997756884,-0.10664026693517067,-0.19257883460896494,0.22391841658446265,0.8809600694695432,-0.47620102673152853,-0.38993515567200626,-0.5733453937837925
41.0,7.518413066864014,-0.15781677555165813,0.44687421398615895,1.0147922018374709,0.010030907116363494,-0.034643421987042886,-1.630902921559515,-0.6125776110730107,-0.04244447280272324,0.19368330542429305,1.094665749722687,-0.44483406747878307,0.16259831395267899,-0.2525224641940299,0.3063574525900883,0.15256883399969398,0.8430071628405189,-0.08649173214785974,-0.03358402147637036,0.04322270326306669,0.11485426805469401,-0.052490253254903696,-0.13667500272734906,-0.08215191231389375,-0.0959916889142285,0.9441187051353594,0.17530635954835821,0.7647630731652173,0.25330803179724626,-0.11707303701264156,-0.20812091187155046,0.2275965598099886,0.8758115350766807,-0.48311981493031453,-0.391243376486174,-0.5653981175427842
43.0,7.5993452072143555,-0.16066989076835286,0.4396645573398491,1.0152797501176476,0.012664278536643111,-0.034429988137790524,-1.6342262646685244,-0.6288140370172048,-0.05444364369538704,0.19385871263527277,1.0517775833179175,-0.4460596585969613,0.1563424837494841,-0.24390383927725184,0.3048615082379142,0.14949385327535636,0.8334682008708594,-0.08384066713907193,-0.03576979309033329,0.0462001294798753,0.1151250678649541,-0.05336775442074637,-0.13142891051985844,-0.0856004143063323,-0.10001831803391449,0.9461133022825603,0.1760158631558868,0.7667914290736381,0.2493478996903048,-0.1285733397552089,-0.22524672194665057,0.2284001008067594,0.8701795024099912,-0.48868304501683035,-0.3902886303209479,-0.5586986640112885
45.0,7.677321434020996,-0.16321289676977252,0.43283981886815337,1.0157592593862168,0.0155103341813967,-0.03421654985862323,-1.636622827139151,-0.6424117866315715,-0.06598330801316163,0.19405287601750026,1.009043284871776,-0.4484959550649553,0.15067316128302372,-0.23602186345894166,0.30264103019129623,0.14558756383649585,0.8238182518714585,-0.08089974747520162,-0.03801514504490549,0.04764930787062015,0.11569659582745402,-0.05425228507870787,-0.12747137242620366,-0.08829879234495751,-0.10319728722282229,0.9480252126875177,0.1765455467664505,0.7685578732204158,0.24608923801525928,-0.13873864972328487,-0.23999419675007916,0.22723240692732224,0.8646651648558126,-0.4921204125022327,-0.3889268962742497,-0.5543295722400168
47.0,7.7474329471588135,-0.16556462612963269,0.42611012254359604,1.016244629086564,0.01823773020983488,-0.03351549140682919,-1.6383440514109597,-0.6541331666438732,-0.07630209257356332,0.19473940860129083,0.9668999869701774,-0.45101466394967,0.14585538558104844,-0.2281256657732089,0.3007526772548088,0.1414263584621613,0.8141441526404931,-0.07816829490891013,-0.04023310727119518,0.04805856217646498,0.11697476542287363,-0.055152659353310644,-0.12414267817108135,-0.0898046703924178,-0.1060246480365408,0.9498322233756678,0.17729446649748193,0.7697229511798729,0.24331388428644654,-0.14753340582601568,-0.25222744035938116,0.224484274575978,0.8593800859748675,-0.4938786126574244,-0.38729978523000214,-0.5525808049598756
49.0,7.818355083465576,-0.16775367904117933,0.4193826710169798,1.016711257877904,0.02062765421533222,-0.03232169343225175,-1.6400194979375726,-0.6638097588937142,-0.08413520177475195,0.19733914728495394,0.9267552733843332,-0.45222478350467743,0.14208408341411385,-0.21989205731205735,0.2994986349409696,0.13755953712032618,0.8047807071551073,-0.07558190083005138,-0.042288550888676925,0.047822404421153375,0.11887000916450802,-0.056381149322594123,-0.12163880110382869,-0.0899914405013528,-0.10860319099409063,0.9515007833114548,0.17840726164376314,0.7702858402710837,0.24108790606939673,-0.15525294799124773,-0.2617588349242855,0.22062277885629428,0.8546230120109073,-0.4942477046181025,-0.38496769102534606,-0.552831592993255
51.0,7.869473695755005,-0.16982544990631043,0.41269051533080264,1.0170940529826913,0.022754939258073894,-0.03097743040589887,-1.64210713059476,-0.6718684461997418,-0.09023614851801126,0.20117229113128343,0.8895038533592041,-0.4526530183752072,0.1387468366205027,-0.21161048827471612,0.298201939828078,0.13358767007632474,0.7958108305830353,-0.07216678850019596,-0.04414415198810595,0.047344055354538575,0.12024787289485137,-0.05792236420939664,-0.12003158203472147,-0.08936124804289261,-0.11095298770680742,0.9535451060875879,0.17970324423021733,0.7713837133283328,0.2390991680695695,-0.16168038580643118,-0.268774992219301,0.21577439949213445,0.850357191970117,-0.49307520399683025,-0.3817429128768893,-0.5540394557371344
53.0,7.938580751419067,-0.17191686034539042,0.40584918441754475,1.0173977720740899,0.0246126736731129,-0.029502898215104347,-1.6445123745124715,-0.6794104954030523,-0.09626657307738616,0.20436615537403857,0.8544882298100249,-0.45401149702113464,0.1351470825724414,-0.20308958708586197,0.2965208958223702,0.12883579988605165,0.7869364582257904,-0.06775660477901345,-0.04591348490281939,0.04666591490590748,0.12074183638930142,-0.05937495361292407,-0.11875125532660699,-0.08844795410602493,-0.11335653242876087,0.9563251474714762,0.1810979917082387,0.7736400509344161,0.23686851295737063,-0.16649008549319028,-0.2739214227561265,0.20960652280673087,0.8461590830334517,-0.490533499723516,-0.3784232938127285,-0.5572815008612132
55.0,8.009873151779175,-0.17401371424575526,0.39882827235885493,1.0175855574275476,0.026002585452724478,-0.027875232061557467,-1.6471376510487947,-0.6863159754937116,-0.1020151784449124,0.2070321899305792,0.8225701697445893,-0.4556320934476835,0.13144300663516637,-0.19404636377388074,0.29483490742386465,0.12384569607216142,0.7782304094021378,-0.0631404353708722,-0.04752179842440007,0.04590923074920862,0.12119907283989742,-0.060356735359773366,-0.11740347277937734,-0.08673500806168055,-0.116049273591039,0.95920484519949,0.18287903728537105,0.7761854766297681,0.2344423620509868,-0.1695945744509585,-0.27723541555155684,0.20288983763462345,0.8416737470026161,-0.48739705958775503,-0.37649191586672537,-0.5629452667823814
57.0,8.072908163070679,-0.17606073355106142,0.39154126603101047,1.017625281510601,0.027047613010932364,-0.0261688109647309,-1.6503372558526563,-0.6922539703075956,-0.10762617756186366,0.20866260836365239,0.7937348617935648,-0.45870699492968503,0.12817264185917018,-0.18458268348064852,0.29279899250391306,0.11855732386158552,0.7698186662480202,-0.05749771777287213,-0.04890083836898011,0.04543146829798386,0.12118845095392863,-0.06109852304950547,-0.1162186613804252,-0.08425720546544546,-0.11875102357858328,0.9614531156224657,0.18490601215069943,0.7780958325166891,0.2321561549060328,-0.17212774625225238,-0.27923556319556775,0.19651965261953963,0.8372701008989315,-0.4844241479714748,-0.37418362909377145,-0.568897205992356
58.0,8.13627815246582,-0.17805110201220853,0.38390121667241883,1.0174859347764973,0.027926380137604234,-0.0243492291745414,-1.6540125529842946,-0.6970149983977303,-0.11324140690764277,0.20850360096839596,0.7684567435546388,-0.464413858724815,0.12603504340123337,-0.17485653462237105,0.2902270829702718,0.11260775065905848,0.7618487666102525,-0.05014367432033538,-0.0501326244291124,0.04529002174292279,0.12034362637089784,-0.06240428810862103,-0.11533754040232364,-0.08172841127805905,-0.12108482698365026,0.9627587116479608,0.18675218153780615,0.7784100848432461,0.23024397789287793,-0.17459822416175594,-0.2803928430304524,0.19038041554844706,0.8333551015391709,-0.4811408815105562,-0.3709771067418509,-0.5734962210328438
60.0,8.19086217880249,-0.17962825116197448,0.377569933989923,1.017235070273466,0.028570941326449606,-0.02290185861792919,-1.6569912892589576,-0.6999082784030359,-0.11786173326702501,0.20735439536517677,0.7498474253690273,-0.46948365587965535,0.12507062161926435,-0.16650793422320262,0.2877951447626395,0.10743568036179166,0.7549461299369467,-0.04322829737803824,-0.05115600589286452,0.04519146689459297,0.11938583282482937,-0.06365727489328812,-0.11470432870356952,-0.07983401012240658,-0.12278728447944065,0.9635091564100786,0.18803574119255323,0.7775220903272004,0.22867553728029452,-0.1760657850089375,-0.28102033480674177,0.18558041203189274,0.8301286040046267,-0.47835433448957676,-0.3688051960040015,-0.5766050678148661
61.0,8.251709699630737,-0.181305844112009,0.3705427553862231,1.016361502634754,0.028965461166558546,-0.021129803224537225,-1.6605676899759398,-0.702717539523054,-0.12200723317583956,0.20500030452079204,0.7357958488477895,-0.4753513958371632,0.1253522543342493,-0.15646687688767327,0.2855462212252603,0.10180473890363176,0.7474947263666146,-0.03576223680270347,-0.052272569431429175,0.04498899249683616,0.11864000083531977,-0.06459563850972667,-0.11381220068149334,-0.07811929164364723,-0.12394424071504737,0.9640433754845819,0.18872337762904212,0.7763687161640138,0.22672860157763053,-0.1762419557815534,-0.28134861486813495,0.18140867012167572,0.8266590450263355,-0.4755385711981759,-0.3686820626881725,-0.5789604385889413
62.0,8.282920360565186,-0.18270852856361636,0.36457829088354593,1.0153460250219108,0.02912063738672266,-0.0195674332817437,-1.6636250564907684,-0.704568983058169,-0.12484068855380626,0.2029818205096199,0.7268026407902441,-0.48014871281160976,0.12620105292959355,-0.14705686363023907,0.28382552627549507,0.09715170428100617,0.7404329796309143,-0.02922898383773482,-0.05323237143679278,0.044726030669943004,0.11832127913582711,-0.06485851586187663,-0.1130318290334516,-0.07651763200352299,-0.12443905775001463,0.9645332034247764,0.1890078099309052,0.7755716614782688,0.22515055382443827,-0.175397356182045,-0.28122586169437613,0.17868570731736821,0.8235323757773487,-0.47367542956283226,-0.3695462345889119,-0.5806045645446882
64.0,8.31747317314148,-0.18393936934335603,0.3593162264959421,1.0143007926273608,0.029130145766234766,-0.018116970910502357,-1.66643834640453,-0.7056964787799129,-0.12622670090912985,0.20211763104777078,0.7212824127658174,-0.4841187758539463,0.12728883473161257,-0.13822624120182275,0.28260094108034534,0.09338196166755605,0.7338596723829046,-0.023485565876929352,-0.05403487072780446,0.044535284180240664,0.11838071215028241,-0.06470140324198959,-0.11236517011620732,-0.07467767491505799,-0.12432420836256697,0.9649460412815103,0.18906106920791993,0.7753054614154605,0.22406232907565188,-0.17400372894249308,-0.2806470021201206,0.17726107739480224,0.8207044716573448,-0.47280324281726327,-0.370847573055459,-0.5817848708622863
66.0,8.3829984664917,-0.1855314807372676,0.3525015835109899,1.0130774666507,0.02943973696345683,-0.016166964077022807,-1.6704847433069048,-0.7062784236062423,-0.12557610226251434,0.20358723215328084,0.7173525312730289,-0.4886604327894122,0.12875501184104227,-0.12841923231582678,0.2816515686732392,0.08928926707260945,0.7276215847103459,-0.016956350385670005,-0.054759503102993184,0.04484390580933278,0.11846336810955113,-0.06542996254142454,-0.11181598190568484,-0.0715130239925736,-0.12312895376517069,0.9651229710377185,0.18885093755874433,0.7755604037464019,0.22360575840480262,-0.17229651280905955,-0.27911295463355607,0.17716354093862485,0.8178461257340632,-0.4728531424797928,-0.3725332528329347,-0.5827412880009347
68.0,8.455990314483643,-0.18742446738739285,0.34442678459076903,1.0119308703104322,0.030138014467844275,-0.013594783090826207,-1.6755294041222242,-0.7054445317035984,-0.12290389060588472,0.20638890318213488,0.7152375856998718,-0.49182869308258537,0.13025450962429846,-0.11889813814367822,0.2814509153348118,0.0852812961911504,0.7228995283269789,-0.010019983676353594,-0.05524724872634211,0.045658723526319035,0.11827836423980527,-0.06748669802658003,-0.1116822382082177,-0.06780476507049435,-0.12094456429286717,0.9651400550456759,0.1883145106456785,0.7759712316516991,0.2240213156943453,-0.1701920239196721,-0.277000057715754,0.1783107675597992,0.815456859475673,-0.47378462416940215,-0.37441555260267767,-0.5833099269010231
70.0,8.526342868804932,-0.1896232725189407,0.335012212632247,1.0107924742091505,0.030691717156752854,-0.010536840685752351,-1.681662974783139,-0.7024703227377057,-0.11889539256395078,0.20960705268215218,0.7148179793398144,-0.4944069335320299,0.13162805130991923,-0.10910055986581559,0.28190418951577806,0.08143164112029466,0.7200581317771947,-0.0027153597949038082,-0.05548661709322957,0.046641350423621296,0.11743669506363333,-0.0700934200293443,-0.11184223786617824,-0.0640826609586583,-0.11781049601257437,0.9649587346995377,0.18736168418959853,0.7762407713687597,0.2254292408285769,-0.16742424367775469,-0.2747450746619473,0.18065998158126145,0.813606903341926,-0.47568512216131753,-0.3765617256578553,-0.5835725742263196
73.0,8.590177297592163,-0.19198204385312767,0.32471452339202556,1.0096163731898176,0.030919212137873735,-0.007076753518622235,-1.6888070391211465,-0.6970767152330111,-0.11342155863401529,0.21349338142491894,0.7164173979101982,-0.4966218706615785,0.13284352571543329,-0.09923011555011302,0.28283636268598256,0.07784822814943917,0.7192134332103484,0.0052824121055937605,-0.055401617551356225,0.04786864334204249,0.11628797237420904,-0.07260371093104738,-0.11167782700088899,-0.060140904945139025,-0.11391440216772851,0.9646414727699559,0.18602690800647484,0.7763379876426626,0.2273884604761719,-0.1634598559819618,-0.27180115461149873,0.18425154630098853,0.8125328722006461,-0.4783309996907936,-0.3789193566952228,-0.5836978970772764
74.0,8.671996593475342,-0.194914281835487,0.3115239712792995,1.0081658437473393,0.03089351605980275,-0.0029283493343089614,-1.6986806919107689,-0.6872658030467802,-0.10398244387497005,0.22120975738146176,0.7219017159578085,-0.49436518367185295,0.134337772307606,-0.08782945151428671,0.2838846570125279,0.07454780966083507,0.7212789926016099,0.01587244459364282,-0.0548841817902708,0.05022925160389569,0.11451473509398025,-0.07556832554803675,-0.11044285909781926,-0.05489095201752453,-0.108948945699846,0.9640538704449775,0.18420551477144526,0.7764710621981256,0.22946486994391654,-0.1567917900391991,-0.26659466063835385,0.18966207336289811,0.8127220989640827,-0.481400399310724,-0.3811034895978294,-0.5833910813111711
76.0,8.722543239593506,-0.19731341585205148,0.30066269572407683,1.0070197354948291,0.030436536955882075,0.0003380092851306652,-1.70744669525539,-0.677871854255003,-0.09486894685279436,0.22901213701780535,0.727923919048842,-0.4907855236045785,0.13553539607013934,-0.0781352332097576,0.2845530933131315,0.07266140037060555,0.7234161372206172,0.025023488489664254,-0.05452357365096096,0.052678479274064896,0.11278567945917459,-0.0777324689704644,-0.10896387810312616,-0.05037687062600717,-0.10484809588009936,0.9635886948715164,0.1826792253109627,0.7767788074054456,0.23102545030659266,-0.15071993750305965,-0.26164871586887917,0.19431106893469952,0.8134937550958835,-0.48378332709696314,-0.38256160995522986,-0.5830791192762471
78.0,8.775333642959595,-0.19975004542485683,0.2891692005412366,1.006028435882935,0.02973682648147261,0.0032481899986789354,-1.7168001565572704,-0.6670677111874113,-0.08466353073443497,0.2383330331277318,0.7353183826679281,-0.4842052955512991,0.13709585596750473,-0.06779990275313558,0.28405854211027937,0.07106396878361718,0.7260338817997141,0.03410268786484327,-0.054537419206822854,0.0552545433757378,0.11051655940341593,-0.08046348828168481,-0.1064453365856538,-0.0452798484945571,-0.1009109142812411,0.9634857644236668,0.18119772503494258,0.7780368884873314,0.23188687144197118,-0.14275393939853687,-0.2554888067788345,0.19949539512282088,0.8150905092879299,-0.48585508416291356,-0.38361845512228937,-0.5825727455801161
80.0,8.854222536087036,-0.20224192689305406,0.2770473409240266,1.0056227115199068,0.028945884723299023,0.005291625658923393,-1.7261128989471946,-0.6566704871901761,-0.07494387616372902,0.24718969880842,0.7426189609845514,-0.47575513712648915,0.13911318460675007,-0.05656372581341197,0.2816833291136519,0.0695173666986564,0.7281732996282084,0.04234514764455563,-0.05552446067588128,0.05764555028780547,0.1070208445520853,-0.08419420714526402,-0.10301173905288806,-0.040062523762950886,-0.09723010345964932,0.963582588212522,0.1797591997657316,0.7800643865424105,0.23221543353996568,-0.1327813206343712,-0.24854297258967567,0.20520520262006223,0.8175601493623925,-0.48759196514424574,-0.38350307026559105,-0.5810831687845878
82.0,8.925336122512817,-0.20481621737783007,0.264344541766737,1.005961482383996,0.02861477994978886,0.005479280475602711,-1.7346226196423147,-0.6487693905571537,-0.06786001832578795,0.25327235434912543,0.7492781185403548,-0.46350030315611845,0.14119868095989485,-0.045222876509111776,0.27694037501550317,0.06843503209744674,0.7300062706146941,0.049142273518221855,-0.05761193370685694,0.05929688287680181,0.10130534688804768,-0.08943027684636248,-0.09939452195942414,-0.03415389599756293,-0.09357788760678087,0.9635156834674161,0.1783540342045252,0.7821954368256563,0.2320270469849533,-0.12130317347088851,-0.23991420702287428,0.21098506904295838,0.8208005922013099,-0.4888453896114576,-0.38072591264145905,-0.5796913970379096
84.0,8.97832202911377,-0.20761159610650143,0.25060007099551845,1.0065462200820767,0.0292836100791155,0.0038291332225648426,-1.7416550416908332,-0.6438371019179923,-0.06414055200793502,0.2559188673000614,0.7573630666069027,-0.4398969517610859,0.1421995424646197,-0.034820096974247414,0.27032755498576144,0.0674159219474079,0.7332610379895461,0.055379827450063666,-0.060232405730422434,0.059611707444809967,0.09307756344859583,-0.09659147153864908,-0.09632441872087866,-0.027207285044094955,-0.0898534005625676,0.9633978623454413,0.17695532121555985,0.7845303299632524,0.2310986942514957,-0.10808235518734849,-0.22897866758793178,0.21607154244837268,0.8246311058673228,-0.4891444183180193,-0.37563145816857835,-0.580225460852401
86.0,9.049773693084717,-0.2104994977866229,0.23665819853734033,1.006959276233185,0.030486257167077535,0.0014681145617408617,-1.7458757972300858,-0.6417986965596381,-0.06500770861064843,0.2529180197797515,0.7678652621356263,-0.4062458875702496,0.14128072541176825,-0.026467871890219548,0.2628075132052662,0.0648352167123063,0.7390359321226153,0.06226801997024037,-0.062873588083659,0.05798866678059192,0.08334943318571025,-0.10427387933682955,-0.09472889131977466,-0.0204339845166063,-0.0861915657052595,0.963644372504028,0.1756013591147863,0.7872381723134407,0.23014262358287832,-0.09366672821879357,-0.2171632527449745,0.21960237367858476,0.8292628109112666,-0.4876159337304912,-0.3692310849393947,-0.5815818992997682
88.0,9.116735696792603,-0.21331872305093075,0.22276758998983254,1.0070845741912553,0.03153207254425053,-0.00013815480715325497,-1.746832627798918,-0.6403835138216569,-0.06823227347034894,0.24706456148577194,0.7802665293261399,-0.3729677966605718,0.13986616699635862,-0.01997399140449518,0.2546207956357293,0.05836765239387913,0.7475172801258478,0.07127836678996678,-0.06530741740881356,0.05397611170820438,0.07433474749192595,-0.111281282506066,-0.09478841176761123,-0.014298229473844284,-0.08231604963423268,0.9648178651359156,0.17426999400084348,0.7906454331253704,0.2301234366006614,-0.077315711837569,-0.20521003117533532,0.22173132217115915,0.8348343840363676,-0.4841772422814754,-0.363324359110646,-0.5832056079050284
90.0,9.190369367599487,-0.21588709569499873,0.20896924376752815,1.0072254328819974,0.0321923582340146,-0.0005049498786893017,-1.745442931443244,-0.6370800355704107,-0.07010345308315352,0.24376361364906823,0.7931617973675055,-0.34859971884450336,0.14007921843851262,-0.015006866344215893,0.24424287290933516,0.045986843435550165,0.7578379572091232,0.08338990478598202,-0.06801298721596985,0.04874899385072247,0.06753792489758736,-0.1176131747309769,-0.09676600178249264,-0.009061953275847547,-0.07841574097006519,0.9673892868168885,0.17308655355050478,0.7957166395421651,0.23112946760998823,-0.05866629964853174,-0.19374842828191322,0.2223440040490355,0.841198105762137,-0.47885645112881736,-0.358979898831181,-0.5851304796682806
93.0,9.25582242012024,-0.21812380686494143,0.19525691982396395,1.0076375223638896,0.03273708458441048,-6.283382166200828e-05,-1.744075455560226,-0.6317267712799863,-0.0717058313035527,0.24112596223463784,0.8052626261359801,-0.3359076495771912,0.1420212646532011,-0.011584692048765492,0.22934059462473916,0.027010989786285505,0.769093106225927,0.09975444570343475,-0.07180104842034375,0.04465628124740535,0.06271936270730927,-0.12389002262014845,-0.10068160766383608,-0.0048205712022061815,-0.0746291539266715,0.9706814090044833,0.1720014682680469,0.8017767754620975,0.2328407260525188,-0.038780705968555415,-0.1829224893170086,0.2216123168204765,0.8484459967989129,-0.4720165917052009,-0.3546278846010866,-0.5864659650794862
94.0,9.333430051803589,-0.220305362492964,0.17903862981821017,1.008310521626902,0.033607895370318275,2.7952125773270684e-06,-1.7457995819220118,-0.623567320643651,-0.07674491631458158,0.23448855163009277,0.8174728367049429,-0.33572976168306157,0.14482092570632643,-0.01069600972272972,0.20289659721342207,-0.0030696396309168143,0.7857655247201234,0.12665020160452845,-0.07839737664304199,0.04363297899569957,0.059232537731230765,-0.13224543023617213,-0.10775340852077697,0.0001344792453143815,-0.06968290860900933,0.9735195008375526,0.17005681725508465,0.807014262759555,0.23397949419211267,-0.016353512630952027,-0.17028231274137354,0.2213792467136737,0.8582939663497757,-0.46458170896995177,-0.34919864424170477,-0.5871008409823033
97.0,9.393688917160034,-0.22189729243012696,0.16633964280443025,1.008958459991771,0.03415036555418782,-0.0007565008305705274,-1.7482505017792676,-0.6161388959739408,-0.08149963719047465,0.22945752290801996,0.8260804649941489,-0.34054399558027515,0.1471520627442089,-0.012010032983885588,0.1771152626240204,-0.030946303116387793,0.8017130051186832,0.15156301649144405,-0.08535583121644846,0.04426672821561849,0.05651921118506633,-0.13926241632492825,-0.11429653503949709,0.004412827745259121,-0.06574929480720017,0.9758050334671167,0.16833316028847572,0.8105682213067166,0.23419544191810354,0.0010478877197238716,-0.16022317343538942,0.2221581034376301,0.8665567552974055,-0.45935236294960147,-0.34489492027079643,-0.5871250057830456
99.0,9.471947193145752,-0.22359806418576827,0.15155316824779477,1.0100974058942065,0.033774473280726906,-0.0026254039937268236,-1.7556467738660344,-0.6040570182754035,-0.08499251496954527,0.22715100866602458,0.8331930621941257,-0.3516769994593937,0.1484196034553875,-0.01947784625980388,0.1405543543605515,-0.06495114035704391,0.8301707639583975,0.19026933737510396,-0.09530406580768817,0.04879784052445009,0.05369531355259321,-0.14517522440107902,-0.12215184182283992,0.008459352475116061,-0.06051834079012575,0.9755323927517399,0.16554403573602627,0.8113610169926269,0.2346318792624285,0.01940850825374201,-0.15107239861085525,0.2270441035455441,0.8768857429209493,-0.45732920451027276,-0.33976575969334855,-0.5834593374769426
101.0,9.540358543395996,-0.2251183607046805,0.13791989029565116,1.011227709296643,0.03308488132447643,-0.0051863509474890665,-1.7653165019158168,-0.5914639491303324,-0.08809541509954441,0.22609934831286288,0.8378527947257843,-0.3641593989284022,0.14848856598442833,-0.03148570907407412,0.10312379363467589,-0.09561279470988616,0.8646813716005318,0.23342126426753057,-0.10671250893734971,0.055002257709312524,0.050858297047127535,-0.15002453514059955,-0.13022048529970506,0.011741716582519938,-0.05458384218188725,0.9728448817916293,0.16223415625502408,0.8091767408811575,0.23606972422707992,0.03318119604788074,-0.1447497428735804,0.23499653170256035,0.8869476149897634,-0.4585910116796052,-0.33350458590536214,-0.5757085566233486
103.0,9.62397813796997,-0.22645056515358392,0.12544279300565156,1.0124891533747098,0.03265214852536651,-0.008104545295525204,-1.7760827258194614,-0.5789047108694263,-0.09078734058185148,0.22612812147690192,0.8400419519075986,-0.3772499611579452,0.1482841585879063,-0.04847559947540189,0.06910183283011434,-0.11843454013450214,0.9035544986803601,0.2772693845739007,-0.11855476719012065,0.06123563194059185,0.04851973502792324,-0.15426571954000284,-0.1381124429088897,0.014740792507691038,-0.04877165967112519,0.9678143904567608,0.15896296424090398,0.8036613935551792,0.2378511069219678,0.04153383344170211,-0.14089065422023167,0.24536768058336828,0.8961459734265098,-0.462601098112332,-0.32623639309908714,-0.5645809503401469
104.0,9.675644397735596,-0.22763861971826704,0.1133946159710654,1.0139764353403362,0.03281448583218306,-0.010447226727812212,-1.7871638047911054,-0.5662575308163008,-0.09300369091790209,0.22610636082622476,0.8405273978660718,-0.3907009037595654,0.1485853757044889,-0.07003639648061316,0.041311102464395,-0.1323588660967125,0.9448517005602902,0.3148275065120056,-0.12955128158890483,0.06643237696082016,0.04812427543612754,-0.1578945893399034,-0.14602581029416178,0.018008801990166114,-0.044624717546583814,0.960824473886394,0.15644237038659603,0.7955189934492513,0.23785532114888402,0.04549955502706762,-0.13853934499810291,0.2567177177542544,0.9041852658278049,-0.46793559805831597,-0.3184038053930025,-0.5518431154825629
107.0,9.724925756454468,-0.2284503258745727,0.10455651500783367,1.0151794383024664,0.03328171955070515,-0.012245452239092115,-1.795836649154226,-0.5567962658006677,-0.094671402008733,0.2263187543529468,0.8398617781937183,-0.401069659442417,0.1490846045325325,-0.08996374940267993,0.02393827241760588,-0.13753719055796695,0.978493547119377,0.33586443099356905,-0.13759228689595004,0.06971189143398734,0.048736463829796066,-0.1602799847107637,-0.15212723337135528,0.020961286611905775,-0.04268317834610738,0.9545812158808555,0.15505616642120013,0.7878728318576906,0.23629358332536876,0.04589463639395496,-0.1375504562871259,0.26600021416401415,0.9093341064191269,-0.47242392714171233,-0.31186675706663186,-0.5413621314806787
108.0,9.799407243728638,-0.22932024213445018,0.09355465238197753,1.0168614712386752,0.03488013228116903,-0.011911710996858888,-1.8054240160639563,-0.5454513223801719,-0.09483092757702186,0.22546106592613518,0.8387094799253006,-0.4117949116536107,0.14946024786390694,-0.11975398313038729,0.019305286029456227,-0.13088641016346986,1.0186386826086231,0.32545635118315763,-0.13859086783997182,0.07115265481541919,0.05378573891252953,-0.16159697377237553,-0.16034671145359028,0.02393585539418438,-0.04325834900588428,0.945430221987202,0.1551278822370415,0.776158782792926,0.23319334872099404,0.043388477930263264,-0.13883988272955944,0.275346706923913,0.9134150812383695,-0.4771230795079491,-0.3069367130911007,-0.5289209988388698
110.0,9.85517954826355,-0.2298641131755706,0.0849195027993869,1.0181713373244794,0.03704618581964723,-0.01120623840617272,-1.8141269073374708,-0.5372458531421482,-0.09361976355954464,0.22580398704451285,0.8377776597172395,-0.4200234821025921,0.14968534531832403,-0.14678094061493258,0.01736678287854295,-0.12441563467731231,1.0517798020251934,0.2987585704984274,-0.13784181903346204,0.07250980547385767,0.05928843295944791,-0.1628925723908947,-0.1669842172886331,0.026394601605816255,-0.04462176370507011,0.9375634219448501,0.15586333499175103,0.7657663234703499,0.23045037873742505,0.039875105836441584,-0.14062655258982082,0.2820288952065317,0.9153020446514264,-0.4798820561952116,-0.3039477665681552,-0.5188946451400436
112.0,9.918905973434448,-0.23024826704339957,0.07608419738601498,1.0195732704643237,0.03996241344079997,-0.009049106965128152,-1.8241480681731683,-0.5290007961384318,-0.09061822011565294,0.22638011773249045,0.8367884373229898,-0.4287157495641434,0.14985631096372082,-0.1766170036147618,0.015444296884950038,-0.12024600142834305,1.083732347750527,0.24512500078957272,-0.13655206068482942,0.07409531969113604,0.06744614538467686,-0.1636753302135199,-0.17331274446561054,0.02895862294758953,-0.04744697718655163,0.9288118064836676,0.15825598214708234,0.7530207418797399,0.2291441647929111,0.03517713711607853,-0.1428113271529467,0.28662129501349853,0.9154558918454461,-0.48122140306744815,-0.3033107151011509,-0.5110485742171366
113.0,9.962618827819824,-0.23051016302959654,0.06704245239195157,1.0209825682800262,0.04093409341771212,-0.006375148053150053,-1.8327286141027153,-0.5184834355782151,-0.0887523041022272,0.22615358303321914,0.8354372129190715,-0.43796392702720427,0.14996789052409845,-0.20625846728111416,0.011567720422098053,-0.11919707258670804,1.1138820103903995,0.17057367918572489,-0.1358188685219292,0.07375549924982443,0.07582979250610938,-0.16095236473680213,-0.18048626873367193,0.031499867521519495,-0.051303426298280747,0.9199155560707708,0.16228193463769902,0.7392952861454938,0.23006506767832421,0.029709668876762036,-0.144497991462178,0.28827948285833505,0.9137428015301241,-0.48107052674318285,-0.30373276547393535,-0.5080752426509543
114.0,10.007475137710571,-0.23060083063327744,0.06007275010715587,1.0219397701977875,0.04013686808407506,-0.004780332590443744,-1.8381160173500732,-0.5090240773152629,-0.08885882435289655,0.22588662248579938,0.8341350888853456,-0.4454754130687374,0.15011421222026172,-0.22913325615515084,0.00623695533313229,-0.12018959685691194,1.1371248494155155,0.10093893963136688,-0.13611049563165079,0.07204816401238412,0.08152134447362214,-0.15660397828207834,-0.18710691613051222,0.033685146092690764,-0.054577513873455455,0.9132763686920398,0.16611228722641447,0.7291595858349933,0.2314817630171631,0.024866399617933257,-0.1453378528252015,0.2878731265221657,0.9108306599314078,-0.4799127484075715,-0.30398176595657234,-0.508824023542067
116.0,10.04575252532959,-0.2306319960018673,0.0540782315900008,1.0226441329674785,0.038243276513218155,-0.0037546473425185195,-1.8411371193382342,-0.49989830037823413,-0.09055623029671292,0.2250018579931195,0.8327669779710452,-0.4518368526519054,0.15033383263443062,-0.24788089140631642,0.0010600533123004976,-0.12135511579916318,1.1556223089318567,0.03785627194436993,-0.13676001200642485,0.06897449508282959,0.08562213047295904,-0.15133145785521263,-0.19397431446637403,0.03555736068179536,-0.05726075180684599,0.9082573106661913,0.16954028572684088,0.7220222270925336,0.2328110788889658,0.020637865350150712,-0.14585819935763844,0.28644261392334003,0.9073062465150878,-0.4785129182132727,-0.30407051464927276,-0.5117220291815233
118.0,10.109256505966187,-0.23062984348435694,0.047152111152235096,1.0233266598834703,0.035660886908327395,-0.001937184963252162,-1.8426547787431407,-0.4890309020352809,-0.09330603318418099,0.22251398032436753,0.8310367436755461,-0.45812171575788285,0.15057390279282182,-0.2674289201284685,-0.003921202584800559,-0.12321704740562794,1.1692581225576837,-0.028595840430082033,-0.13810919766837276,0.0633246408576482,0.09063909975438464,-0.14477998686836308,-0.20278794314415383,0.037134244174478324,-0.05991070746200923,0.9042505134355391,0.17308254523976047,0.7172194754404567,0.23424367942904675,0.016743659680235456,-0.1469304969248048,0.2834163628539743,0.9021020877540633,-0.4769656505708037,-0.3055701505641343,-0.5182399937978686
119.0,10.166067838668823,-0.23062504436992262,0.039165398548314044,1.0239548525069473,0.032762753669552,0.0004706934351478211,-1.8428028257220692,-0.4768634502829661,-0.09681285281719244,0.21898061804079327,0.8291931726873822,-0.46366580797382284,0.1505510234407981,-0.28799268233303776,-0.007725899985504058,-0.12449942393020774,1.1772231431103115,-0.09403580666036374,-0.13920403828378655,0.05590057377396549,0.09673266795844343,-0.1380582153416509,-0.21338587391809216,0.03938970630476275,-0.06280063823505701,0.9009798532022468,0.17676521070544887,0.7139303284002632,0.23447235391171933,0.012923209232786776,-0.1477452864685298,0.2792071722994369,0.8956979454512346,-0.475070442566213,-0.3072567347647229,-0.5266329385302659
121.0,10.218966245651245,-0.23061771619083615,0.03202537060466255,1.0244093582022928,0.030116469050699854,0.002388230671994131,-1.8420552327873487,-0.46613007811268775,-0.10057992367226631,0.21558498648124286,0.8275360977058497,-0.46802322504554494,0.15043995160754287,-0.30577306877084814,-0.010053845122199201,-0.12441955067570493,1.1815331726067193,-0.1480473799108557,-0.13956541224044136,0.04898704239937549,0.10225041382576847,-0.13256098351417506,-0.22345736314750314,0.04223257354343044,-0.06533777611221701,0.8986967808889694,0.1800318482590354,0.7118826098586474,0.23357553723153102,0.009462670712068159,-0.14771146416275563,0.2753125286692962,0.8897549868643457,-0.4733612120285462,-0.3076537966980571,-0.5342638740091766
123.0,10.281941175460815,-0.2306264031049906,0.02381944239873974,1.0247634730768844,0.02765660832174686,0.004570743673250133,-1.8400528367403033,-0.45479838395187944,-0.10485598537664229,0.21174018907123043,0.8261441624752965,-0.4723715395070329,0.1502296845352213,-0.3259231127321164,-0.008951767262933433,-0.12091266220570976,1.180044094354601,-0.1975331628040614,-0.1384708442553516,0.04079209187182254,0.10941980356595023,-0.12805071626708187,-0.23557695950369317,0.04660734591255463,-0.06865559738018526,0.8975385707423043,0.18423230938492063,0.7115291299232581,0.23183110338920737,0.00553693664797163,-0.14672030145332576,0.27111012280961067,0.883371426145265,-0.47182432354928505,-0.30742119768109283,-0.5430822541449902
124.0,10.329825639724731,-0.2307213424483826,0.015166397553593869,1.0247804656784887,0.025063695895664484,0.006532100684664564,-1.8367070360327287,-0.4434322335168695,-0.10974721229788753,0.207698068432757,0.8254609390835972,-0.476703565556617,0.1496738643028397,-0.3475002045368791,-0.003669643165202486,-0.11297361865054607,1.1734005739555013,-0.23701933875421732,-0.13510926202380483,0.0319601436712176,0.11640011764514006,-0.123977816297579,-0.24762084235426501,0.05101537211378818,-0.07350916424426637,0.8969430524576971,0.1900623206872603,0.7105978860823698,0.2312536686919981,0.0026534573099539598,-0.14606225015587265,0.2667306038390427,0.8762284480019937,-0.4702209804442259,-0.3085984300270752,-0.5518837139830144
125.0,10.374746322631836,-0.2308559436289526,0.00800761720491672,1.024556789925205,0.02276254842890972,0.007795314716733014,-1.8333510847445609,-0.4341234069780571,-0.11480823667473106,0.20344595832379148,0.8251778234404197,-0.4807044120040992,0.14900876043025854,-0.36574538694782427,0.0030534383549364243,-0.10357392343708863,1.1660676750182466,-0.26389540507130693,-0.1308688718445854,0.02484265492946751,0.12135507789307272,-0.12057985531900237,-0.25704066597949826,0.05437737688127115,-0.07800230140598827,0.8963088712713734,0.19552504645445642,0.7079016969174274,0.23167446407748765,0.0010459012939729086,-0.14578578712307172,0.26288050557973136,0.869797287251748,-0.4685262801869705,-0.30978155503689786,-0.5581905834609303
127.0,10.423248052597046,-0.23102519707459607,0.0018540911015652367,1.0241899425413252,0.02074475837444487,0.008634985801043075,-1.8302228567702126,-0.42619067115008646,-0.12030947562542972,0.19830689341931612,0.8251338504085475,-0.48479054085180157,0.14815248395679806,-0.38177564681931575,0.010896162957611292,-0.09297042197818639,1.1582950613198801,-0.2818083115139588,-0.12609856553074814,0.019220660353047418,0.12474581335188241,-0.11757646224696383,-0.26448591913324876,0.05695535566777743,-0.0818200718700014,0.8951989950249467,0.20033012426182972,0.7031886734737074,0.23272517570215484,0.0002701972093289393,-0.14567007301239726,0.25917675481257607,0.8640563672742589,-0.4663768116737519,-0.3104610132592748,-0.5620840578904931
128.0,10.46228814125061,-0.2313064193378141,-0.0051637556093178955,1.0235415331131794,0.018692041371359002,0.009245429381430473,-1.826424119348355,-0.41767702968359366,-0.12817829432678282,0.1900865906822493,0.825658244449082,-0.4901129460464332,0.14673065958038795,-0.4006769812772431,0.023224379482034395,-0.07648734085367347,1.146756114997805,-0.29187865988179457,-0.11971415409231834,0.013800871649694228,0.12747781410653025,-0.11438543054682404,-0.2720896121649371,0.059946393500355355,-0.08531386677703517,0.8927038990698716,0.20494504387320062,0.6959921151660633,0.23372590258438908,0.00038944238720538537,-0.1448700216206296,0.25438205098351857,0.858186739410206,-0.46281635008345406,-0.3104876812131827,-0.5652406870187792
129.0,10.508495569229126,-0.23156363787845907,-0.011215312785236452,1.0229112574343147,0.017154251392425206,0.009611391538650479,-1.8230016570242475,-0.4107446274353058,-0.13520010165188318,0.18270431420478828,0.826356751995978,-0.49439346737601386,0.14549194312982144,-0.41716193554757697,0.035647840991363436,-0.05986608596068521,1.1356947888160867,-0.29577109578117455,-0.11382582660251123,0.009643627897273554,0.1297136125875446,-0.11172441452748258,-0.27852047729384555,0.06267322019466787,-0.08785104228733197,0.8903741722027074,0.20853819779290309,0.6894403520312119,0.2340902689143165,0.0014285402986966471,-0.1437563500041897,0.24992998504473252,0.8527930060698541,-0.4597732583941472,-0.31077895609141465,-0.5690687626347121
131.0,10.548828840255737,-0.23179984384825242,-0.01679348141200101,1.02230130281651,0.01595307095281107,0.009912546131758019,-1.8197122474452416,-0.4047604438204728,-0.14107337577935938,0.17672459196094387,0.827309130651213,-0.4974799228172446,0.14459207003737043,-0.43224965680725064,0.04823878563504801,-0.04302012281978815,1.1246609877777156,-0.2956757962969683,-0.10844074008227308,0.006112566818797307,0.13203244653709925,-0.10946270249276435,-0.2843736288148553,0.06526931749445544,-0.08988547057607907,0.8881802258826579,0.2116142594394441,0.683608490477309,0.2341080702301213,0.0031586307106115166,-0.1425203235614194,0.24571923805238285,0.8475243969562825,-0.4574297017112886,-0.31235547304544653,-0.5745498187371016
133.0,10.601378202438354,-0.23212783657006902,-0.02379282974797558,1.0215050012549522,0.014570307584962642,0.01026972299950224,-1.8150809877914074,-0.39759171888496203,-0.14681017746296846,0.17138591340595305,0.8289767073596925,-0.49970269342558915,0.14354330393508985,-0.45006280030469376,0.06452318711994853,-0.020738590648103267,1.1097249841001122,-0.290864121038611,-0.10296497304707661,0.0018591041066874738,0.13507228781818104,-0.1070259697759023,-0.2915857128049561,0.0684081471812965,-0.0919928257077019,0.8848727826921327,0.2149567342446782,0.6765620921748186,0.23416659248286326,0.005484094306179795,-0.14113553764272396,0.2408417804799583,0.8416611191324519,-0.45503183731148444,-0.31693766825398695,-0.5827503547745881
135.0,10.67820143699646,-0.23254504150976632,-0.031718792836580106,1.020824471317277,0.012981223460075447,0.010590829446023995,-1.8096271052657764,-0.38894355604338793,-0.15225085368364927,0.16668337636350833,0.829908809404756,-0.5014422023446683,0.1422238787238905,-0.4686020543992746,0.08281327657694626,0.005377924514352983,1.090924905126206,-0.2845752615491013,-0.09894098874539084,-0.0023236763703263176,0.13804108829050335,-0.10408668820565478,-0.2995029928090478,0.0714977193303988,-0.09420668888308849,0.8804071015406147,0.2183254812363738,0.6683787639459168,0.23403119743985235,0.00818817445124924,-0.14044504102132893,0.2366144921103041,0.8364462856170682,-0.453075290139343,-0.3220197983415732,-0.5894214762937237
137.0,10.740763902664185,-0.2330188987879136,-0.040573977295591326,1.0205202023107247,0.011231648339340624,0.010730163905319792,-1.8034037276953532,-0.3781855345244802,-0.15737689070501326,0.16280457877536098,0.8288220536706462,-0.5015196898443515,0.14047641979055644,-0.48737770416755133,0.10267471002336936,0.03532089725779725,1.0674172454799848,-0.28034314323086823,-0.09686822701510275,-0.00633756175505578,0.14072047616502836,-0.10064741225881702,-0.3083824872398394,0.07468246524553167,-0.09573850372527325,0.8752540041262686,0.22081966730834224,0.6617214896018937,0.2323792871888724,0.011454917427350966,-0.1403282383788161,0.233849302744228,0.8321911846860102,-0.45234829127305304,-0.3253449795196597,-0.5938190021144805
138.0,10.808107376098633,-0.23351185847975253,-0.04999602591607648,1.0206242650548458,0.009478143321187224,0.010671809478465875,-1.796264142124294,-0.36564933860562554,-0.1618564753015796,0.1600377174085875,0.8255092512925191,-0.49905524266677326,0.1382585028645477,-0.5046941303517711,0.12352973863157407,0.0681301884434714,1.0402751323074368,-0.2785663232621618,-0.09663979156521238,-0.010453810270745972,0.1430129196772542,-0.0972465249736087,-0.31859448486541875,0.0777978617964481,-0.09562876687793956,0.8705616960811969,0.2216291925316219,0.6588374761177735,0.2289652326231464,0.014561173217356697,-0.14001893535071464,0.23179772835826817,0.8290751847896787,-0.4520405104046678,-0.3262632402909157,-0.5964514414708091
140.0,10.856987953186035,-0.2338938242954851,-0.05760047267391485,1.02096998203626,0.008128299556212734,0.010589006043226195,-1.790380600297857,-0.3547059522523437,-0.16518889086552466,0.1580532322269893,0.8211290142805957,-0.4960351961006445,0.13628134301167996,-0.5167547678370169,0.1408768224175371,0.09587208750399831,1.0167224352204849,-0.2777963229188655,-0.09732639724648665,-0.01343128030187437,0.14472161722189436,-0.09446558683879389,-0.32701209331955106,0.08013933877209903,-0.09461471745977132,0.867271674944474,0.2215141627871059,0.6582307020489517,0.22559479144358482,0.016997517945169648,-0.13953192223292113,0.2304072085846124,0.8271579808833116,-0.4520472213481425,-0.32563268236942866,-0.5976330759631708
142.0,10.904412508010864,-0.23427308600182228,-0.06578820574388415,1.0215407649942339,0.0066981130186978995,0.010625021849645727,-1.7830013729333616,-0.34246119465571734,-0.1692431559282221,0.15457046343098105,0.8152989349237092,-0.4932720549664046,0.1339255847226229,-0.5274283983500426,0.1589572068433311,0.12549960616892475,0.9907044091761104,-0.2772006519579209,-0.09918973207539661,-0.01680990245357836,0.1465661985985739,-0.0920316185003974,-0.33555382053970917,0.0825212411274669,-0.09259412714598794,0.8647964700383701,0.22069233282606138,0.6605212293465634,0.22219846078593564,0.019693931093970756,-0.13805287528985039,0.2293192937165213,0.8265074386853154,-0.45160311819014665,-0.3227481080443417,-0.5973504903744877
144.0,10.97389841079712,-0.23462497601533094,-0.07454125212870057,1.0222288161493722,0.00522022029239665,0.010520330525804755,-1.7745004723731967,-0.32914804532045433,-0.1743523529270447,0.14946669935992873,0.8080904577146548,-0.4913421961070432,0.13084491898737444,-0.5374075731022443,0.1768943426255558,0.1561048948896515,0.9630708566033837,-0.27548582058824655,-0.1020298310708001,-0.02000005035531304,0.14815330199614504,-0.09007293476280759,-0.3438944921960124,0.08421643618864551,-0.09031570793727536,0.8628700433136346,0.21964079253844743,0.664525247657681,0.2193593568003517,0.02266246778950968,-0.136670922489887,0.22858804511841613,0.8271209089483713,-0.45027569750788665,-0.31760197505981747,-0.5932201997090354
147.0,11.055217981338501,-0.23493989061398313,-0.08385786102368227,1.0229698709514206,0.003323167595923465,0.010136662144651684,-1.764808942750723,-0.31459016740193435,-0.18055493450986937,0.1430092334628262,0.7998161371201408,-0.48972385519059974,0.12700275168856665,-0.5471310252307768,0.1945178817054919,0.1871310075272109,0.9347558231902309,-0.27097461879892426,-0.10525318886144086,-0.023077365289299157,0.1490253091131159,-0.08822953050470689,-0.35148793656404015,0.08472822151616063,-0.08857028924471724,0.8603659721630025,0.21871309327918292,0.6674429355761877,0.21715949065652507,0.026326635124837863,-0.13690153532149674,0.228870345844574,0.8285046944775212,-0.4492088075180539,-0.31099894908018577,-0.5852600872035845
149.0,11.131373882293701,-0.23518393221345468,-0.09573353819723557,1.0237166408510099,0.0005025992661184626,0.010088579420637598,-1.7506717353407086,-0.29626771163731946,-0.18840005778148322,0.13358697313312567,0.79035303801765,-0.48732446379193073,0.12226166068957228,-0.5592263143765801,0.2145617944721265,0.2210642860294778,0.9022217933674361,-0.26460805803395027,-0.10850740376920442,-0.02704297283217064,0.15070325488339226,-0.08586252303184137,-0.3590367811111175,0.08468929680778725,-0.08723485173185333,0.8568083483847468,0.21796830079004473,0.6695047434934367,0.2153235938641681,0.03307333629890838,-0.13811958900534368,0.23113412775654146,0.8307377005762091,-0.45001488624629854,-0.30416091845641313,-0.5770885544554135
151.0,11.20316743850708,-0.23530931488436424,-0.10717607287770174,1.02423800491479,-0.0021938905930881172,0.009733945545478812,-1.7364782566054742,-0.2786345428453842,-0.19666033797026938,0.1235204911062015,0.7810767278333657,-0.48517070962462877,0.11781877783565267,-0.5711610982553769,0.23039224874778402,0.24724625610999545,0.8733146347638516,-0.25808375410193674,-0.11102658735861351,-0.030266573437298886,0.15218822826716139,-0.08387540819684697,-0.3648908037905628,0.0840195843702002,-0.08602349980301041,0.8534803035133227,0.21708587587420383,0.66945846617306,0.21398034630739166,0.04057671280363825,-0.1394327702703037,0.2332680929288296,0.8327714481246422,-0.45078346543557335,-0.29973328809793914,-0.5708558875231017
154.0,11.284521102905273,-0.23539630300528847,-0.11817873468583451,1.024539813969603,-0.0047210555198622575,0.008546514391313709,-1.7227128735150428,-0.2617231580773927,-0.20596248153639135,0.11265925256098176,0.7719793104061158,-0.4835127334680941,0.11362459791525403,-0.583898391220198,0.24040024276480226,0.26293362668824705,0.8487467194452001,-0.24985330831857538,-0.11291273766632941,-0.032639477009081416,0.15245715277626878,-0.08248032723953824,-0.36960365773968284,0.08187048251951393,-0.08477751337488638,0.8505241460651719,0.21569763931924843,0.6672858365471148,0.21313823263892334,0.048106314048312754,-0.1416450146254883,0.23445458923808093,0.8344677364018132,-0.451141204532023,-0.2974941139138131,-0.5665042237837958
156.0,11.373173236846924,-0.23548160116219935,-0.13071891207854158,1.024631450878341,-0.0074087777831685795,0.006331831247223703,-1.7076079967024844,-0.24279799835556828,-0.21731145257699253,0.09967011179427726,0.7622526837784148,-0.48181956687181704,0.10963731350084784,-0.6009088426355149,0.24286210679842662,0.2630828024411645,0.8257980355246295,-0.23654103964460418,-0.11432576914600262,-0.033595947039154625,0.15166668590014643,-0.08103145154013235,-0.37305868116646046,0.07799984169906998,-0.08396374165592929,0.8485681846948538,0.21454504366561888,0.6656530173490585,0.21372035782725196,0.0573442279634772,-0.14398998141960434,0.23424373719939223,0.8367971866598019,-0.4498923175737508,-0.2953212941327734,-0.5623931361457526
158.0,11.432698488235474,-0.23555480088673725,-0.1423045597643397,1.0245953119021454,-0.009629173334285989,0.0038995779320336716,-1.6938179005616636,-0.22546205093365154,-0.22775549865884676,0.08749510325405015,0.7533434744965337,-0.4794733347804546,0.1066127530013804,-0.6171918235975551,0.23959107481560607,0.25238199525355204,0.8071203681870552,-0.22194786834216812,-0.11521740099750825,-0.0339264316853086,0.15043057990549705,-0.07928780503524031,-0.37512914327811964,0.07389267976745678,-0.08330198343334286,0.8476611946442776,0.21378744647375453,0.6641936540054685,0.21552867058074404,0.06527708997231699,-0.14568961666444613,0.23270674600348773,0.8396344949469935,-0.44706920473797096,-0.29125770895060704,-0.557478392960718
161.0,11.504705667495728,-0.23567345676321583,-0.15341435794699726,1.0243528766344978,-0.011831215295628035,0.00171708845140755,-1.6803964329012513,-0.2090568027428288,-0.2369502783819365,0.07606229099512435,0.7458199153787862,-0.47687958548167364,0.10438980613603438,-0.6316949684284532,0.23499355837173483,0.23813434262891287,0.7916580661491307,-0.2072985678246257,-0.11579643889898938,-0.03432055299111897,0.14952021417074982,-0.07688689788446003,-0.3758076940416385,0.0695272178285523,-0.08244933722289216,0.8476553158768888,0.21290031797552095,0.6627377824791053,0.21789495911884665,0.07238902263621785,-0.1472135599842128,0.2306578136860471,0.843249316640562,-0.4435992452650158,-0.28509618919028223,-0.5515196376567697
163.0,11.598689794540405,-0.23599580956766758,-0.16600025253316164,1.0237411724339283,-0.014846230244559867,-0.00019726430801953918,-1.6646608327482828,-0.1907945555007051,-0.24635305278174568,0.06236428786890601,0.7398754107892551,-0.47510114479040305,0.10262707670634394,-0.6436500561901564,0.23438706235802093,0.22823479707959643,0.7783131787895047,-0.19416156233093224,-0.11679092608808053,-0.03474332274507652,0.14871235683990777,-0.07258025731046372,-0.37265938326836945,0.06377718906085547,-0.08175369506100352,0.8484576485052973,0.21093677337760008,0.6607633618757163,0.21866571570588467,0.08160929063033637,-0.14910499983795408,0.2283128476063871,0.8481060759863598,-0.4391714122488817,-0.2774764162067536,-0.5435469817337788
165.0,11.66755723953247,-0.23645938645431924,-0.17770196116981818,1.022944687576714,-0.017647424589045634,-0.0015756470014390467,-1.6494655620737526,-0.1743271886991385,-0.25475652660110104,0.0482207612949274,0.736015968000372,-0.47383575703088543,0.10123981970984225,-0.6504028415532062,0.23800390012441966,0.22620293567469302,0.7684854375241625,-0.18613315192785856,-0.118335407301056,-0.03592347362477306,0.14840680296276795,-0.06821958970519962,-0.3676740877349929,0.05859624214791141,-0.08054656362655352,0.8506790246525406,0.20844937770562608,0.6598386479448208,0.2187788278056858,0.09007727890700687,-0.1511039354128685,0.22620835221296232,0.8522015343617904,-0.43554286912343365,-0.2705586690915429,-0.5371605238489945
167.0,11.74337100982666,-0.23699506037894752,-0.1890970386806595,1.0219037749726994,-0.020559212294292306,-0.0029584367068894645,-1.63494191897313,-0.15899318136152263,-0.2627573462789724,0.034347991704484555,0.7342684681533518,-0.4730823071633986,0.09982244946481554,-0.6537495076096886,0.24164965224464724,0.22545826149790296,0.761486935385912,-0.17589926156188002,-0.12027568864594074,-0.03679889420320602,0.14891901112745104,-0.06387036471821633,-0.3607668324220911,0.0546273352737565,-0.07973668396983688,0.8549153338556021,0.20681443884663323,0.6616501108292229,0.21936377728153506,0.09890985506797048,-0.15234000350801716,0.2245449902496272,0.855154067464424,-0.4328430992123515,-0.26549120351992217,-0.5338296234684173
170.0,11.82220196723938,-0.2375724169712373,-0.20027528850993875,1.0206879480521236,-0.023282016114552818,-0.004845840911232584,-1.6215337413855186,-0.14474004090823103,-0.2704240063292499,0.021737658014235748,0.7340625780803742,-0.47258061539500207,0.09815168931138421,-0.6550974310604782,0.24114254181377082,0.21960934716333552,0.7568173553586908,-0.1579497116711,-0.1226236151478226,-0.03738784614984125,0.14900871541720917,-0.06012023305171389,-0.35292518662846706,0.05128645031645068,-0.07942077334652595,0.8613370993237957,0.20569215818154235,0.6678539995918489,0.21949503846292037,0.10775185690048308,-0.15319513762140244,0.22310244299418536,0.8569369458914085,-0.4305168633622479,-0.2620209904416129,-0.5319255751408599
171.0,11.901342153549194,-0.23835588813058334,-0.21368783264234348,1.0189422657458427,-0.025066237727800957,-0.007513399571000947,-1.6067976541747995,-0.12988721998675565,-0.27861532530803756,0.008590849884629378,0.7362782665886697,-0.4716496904476519,0.09592438256143243,-0.6550934435126017,0.23450068477640063,0.2039457981031355,0.7543910199967466,-0.1307248850340021,-0.12605971049861298,-0.03795571146116555,0.1487286525323605,-0.05878202139223926,-0.34433477725272466,0.04816310552671529,-0.07793008129589885,0.8707888247037193,0.20391954518462008,0.6778669064434271,0.22013585018673354,0.1142823126580606,-0.1529122679017697,0.22034475291997513,0.8592795204380261,-0.42688167316578884,-0.2557827444253817,-0.5297086844954066
173.0,11.960458755493164,-0.23900033558131067,-0.22454643256405502,1.0174604516132593,-0.026442831541897818,-0.009520269106751349,-1.5945680404165155,-0.11809989191290818,-0.2851572594057301,-0.002518583924267007,0.7391315950326592,-0.470765443576902,0.09403139191153555,-0.6539217977374725,0.22663994533883192,0.18775038616343218,0.7530327924178943,-0.10702802091027032,-0.12917969673386226,-0.038779191205859286,0.14907664644772292,-0.05858933166392842,-0.33718510973302557,0.046168388608803825,-0.07678262169546433,0.8790046011094678,0.2026632633356443,0.6850184184859631,0.22101274494102985,0.11844983385701174,-0.15188751707918244,0.217792269793239,0.8612351334416786,-0.4235428174045657,-0.2500484372032287,-0.5281482644420894
176.0,12.02424430847168,-0.23971517478313198,-0.23566589110196579,1.0159438947633082,-0.02808407663188546,-0.011645818413392687,-1.5816318247823151,-0.10632404819565072,-0.2912007728625907,-0.013154628413053768,0.7435719099693738,-0.46910112337063153,0.09198010981467783,-0.650559012945868,0.21753858706603063,0.1705522918665966,0.7532272506716166,-0.0844960737262684,-0.13265124538641956,-0.040063339937209494,0.14909399816730654,-0.058715482813859174,-0.32740154385900416,0.04448603371092762,-0.07657921504204601,0.8876688986858284,0.20191791752675586,0.6899030407678227,0.22170050156656815,0.123242328953049,-0.1507562671964076,0.21499169026830628,0.8627690380202162,-0.4200706112582572,-0.245898194885373,-0.5277451288052137
178.0,12.10236668586731,-0.2407163915735831,-0.24946155471955866,1.0143682225897535,-0.029972059626763276,-0.01436235903511228,-1.564970790248689,-0.0925569112570686,-0.2962221087285258,-0.023379732169985526,0.7495863203939376,-0.46448949815254476,0.08963776553124084,-0.6439067466830057,0.20626330131192505,0.1510503342933198,0.7558468297650398,-0.06154614875325403,-0.13789371236780965,-0.04215304492901149,0.14728179621614704,-0.05830187844827515,-0.3107333931605914,0.0418450025346479,-0.07768178015969887,0.8991214961950886,0.20181896928891202,0.6957532241666514,0.2228695804976697,0.13191777753725753,-0.14999510238658276,0.2103367376406027,0.8634084804318897,-0.4149638580070294,-0.24354674785589425,-0.5289533109348993
179.0,12.171020269393921,-0.24169871084474726,-0.26287136421564794,1.0132758745228956,-0.03158846851987834,-0.016341319443439754,-1.5483370100313367,-0.07955952745097469,-0.2994526193164851,-0.03312255838704049,0.7553421318636511,-0.4582034576755235,0.08759883443687891,-0.6364554535989562,0.1928541668863018,0.1294877948895356,0.7592327631665654,-0.04496590142548271,-0.14458689765892463,-0.043845525934072704,0.14556629244823438,-0.057692900599605974,-0.29211760902097866,0.037871995114187,-0.07935854274714563,0.9113306422525252,0.20200632518896472,0.7030522959571632,0.22497442382215666,0.1423931916741173,-0.1500731300373507,0.20453669738717686,0.8630516916666751,-0.4091618395285838,-0.2425433212468731,-0.5309925798360189
180.0,12.224270582199097,-0.24293035713179328,-0.2802112314655664,1.0123782733641487,-0.03388723358984473,-0.01751903568834401,-1.5246816286421097,-0.062386679621878105,-0.3022284629842324,-0.04834090558347861,0.7630372795495205,-0.44875126579126473,0.08547465729666706,-0.6259103663588272,0.17104459401475075,0.0956518742343237,0.7642254239369419,-0.030208871451630925,-0.15553331924526992,-0.04709913074229061,0.14405137114671573,-0.05677392650683927,-0.2662062336634202,0.030171695418753967,-0.08200337654757828,0.9287942767629465,0.2020490774503989,0.7151108984635983,0.22944464820218574,0.1590928580685284,-0.1519142867320545,0.1954776343016617,0.8606054523156352,-0.4010276781177958,-0.242839361560082,-0.5341254889888286
182.0,12.254899978637695,-0.2432351963045579,-0.2852664603987702,1.012301446146741,-0.034555436442499136,-0.01695581011009021,-1.517115356361189,-0.05746482388925635,-0.3023779808008469,-0.05415214959646021,0.7659083129525469,-0.4460880037409781,0.08525525797627032,-0.622834321548016,0.16327507954806816,0.08354795225617076,0.7662869191314986,-0.029595444619693753,-0.15937887611617213,-0.04817650692551988,0.14456310479366705,-0.05660466113017128,-0.2581096305298908,0.026773106104710835,-0.08265831695345005,0.9344660840276031,0.20177431706898072,0.7195473435415164,0.23186347491661413,0.16489824487977628,-0.15333180104816352,0.19225291208907863,0.8590604440927425,-0.39867061851448904,-0.24364175361881923,-0.5353214230685498
184.0,12.301694631576538,-0.24360687986186536,-0.29285156286743896,1.0120675160647987,-0.034556971250329256,-0.015657675495001994,-1.507833939163114,-0.05187319707210274,-0.30166814072633613,-0.06087554482791868,0.771591886466582,-0.44300193576116353,0.08535593375464208,-0.6196779620265302,0.15520389499967355,0.07001148622734923,0.7712188378338523,-0.030904551251078667,-0.1635191466008036,-0.048118605447099644,0.14643826413101885,-0.05657417561922083,-0.24701156604750796,0.02200915159706676,-0.08173589785150712,0.9426681833775892,0.20046583501758816,0.7269276914522276,0.23619757718634204,0.17083575999768907,-0.15542442842515952,0.18750846405023314,0.8578395640163111,-0.39523269611836076,-0.24392745237998528,-0.5365928340212978
185.0,12.365500926971436,-0.24396301158059502,-0.3029805759673567,1.0115812132259663,-0.03366416805841709,-0.0141975369089817,-1.4968705083484868,-0.0462273162351,-0.30052929429510356,-0.06775014714418809,0.7802431914015766,-0.4375939538030208,0.08528227827719248,-0.616478268845527,0.14739918395913698,0.05712165265461193,0.7794189013623529,-0.0333788241592137,-0.1674579228734545,-0.047387022243093754,0.14978310067261166,-0.056549475416717065,-0.23342080315039787,0.016803486522662572,-0.07813780731807327,0.9538179577667442,0.1972242659299921,0.7386897894270772,0.24139309522511554,0.17633464983367286,-0.15762758427311246,0.18165257705308213,0.8567909724041431,-0.39083001354245966,-0.24329530999898774,-0.5374449683642484
187.0,12.4044349193573,-0.24421011303541812,-0.3124854030495517,1.0110761215852655,-0.032847436320263906,-0.013002929248647651,-1.4866397798949018,-0.04155217810280601,-0.2994824347293133,-0.0735191223134691,0.7891610019154891,-0.43140910437477703,0.08506455595325596,-0.6136352268909475,0.14079757371256907,0.046705874899353766,0.7881283768061234,-0.035610462844304566,-0.17052449481645177,-0.04683271312544754,0.15330914165210344,-0.056609388875101405,-0.22038833301866506,0.012462293071864828,-0.07395079327246411,0.9644953385403773,0.19349881230176563,0.7506983105183631,0.24593083473488103,0.18166742073614783,-0.15961553958264793,0.17664981764235077,0.8552906059031173,-0.3873235490724062,-0.24359759497582445,-0.5385662689827131
189.0,12.471885681152344,-0.24437337209558774,-0.3233091425102149,1.0106238313628015,-0.03226681984143474,-0.012447184541411284,-1.4755471758754628,-0.036852767750833584,-0.298169499861285,-0.07772297603222184,0.7998243582055249,-0.4210755273416601,0.08451800861309386,-0.6100581949395616,0.1340461639912603,0.03738726329473967,0.7991415812974785,-0.033971867685150564,-0.17271216632618674,-0.0454932571184756,0.15757341261371607,-0.05717426462763296,-0.20469660268262355,0.009062686059191223,-0.06834666675063639,0.9762881522661875,0.18867250706412095,0.7647274467737605,0.24998939197693765,0.18772673818920899,-0.16165849812782143,0.17237518711650143,0.8528951580601518,-0.3850430064260583,-0.24647167030657904,-0.5415988043799588
191.0,12.536779165267944,-0.24451739904651887,-0.33496487909190004,1.0104747310049,-0.031664608008917114,-0.012326245765890875,-1.463624841285093,-0.03265354066989701,-0.2957247339436565,-0.07974186935609777,0.8118487481347875,-0.4063717886579937,0.08384602474492102,-0.6055550708031158,0.12693818508925256,0.028101960470497723,0.8113202247997311,-0.02673033087428457,-0.17414813972406243,-0.043312025845757954,0.1617844938274835,-0.05905725834123582,-0.18911836145926605,0.006592170841546654,-0.06229926916230802,0.9879009861534802,0.18344456272230913,0.7793234865993284,0.2532891452102854,0.19192816599106244,-0.16333513968962765,0.168113457402774,0.850691620623689,-0.38276265772995294,-0.24880476920880207,-0.5441505046728573
193.0,12.610914707183838,-0.2446710288418044,-0.34740412442913793,1.0106190341907797,-0.0310737424702223,-0.011855730459064972,-1.450155216031475,-0.029728450470327163,-0.29081213118588606,-0.07947323484983997,0.8265844012911328,-0.38717782769814724,0.08326907239156908,-0.5993437598180741,0.1211205846464446,0.019733544131125415,0.8236083863326658,-0.01552595976027429,-0.17463135950195052,-0.0411753823724835,0.16581523925346137,-0.06174015622150618,-0.17397814537662223,0.004175763375982562,-0.05657961458015402,0.999509590424571,0.17834410695732902,0.7941780790589301,0.25630819516014663,0.1946134955100478,-0.16544768027971773,0.16365046785043394,0.8486702077792414,-0.3805893469534412,-0.25077095360981827,-0.5464187011077917
195.0,12.692136764526367,-0.24474421767373705,-0.36044935472527173,1.0110745162566608,-0.03087519344432016,-0.011140145753109149,-1.4347014485983642,-0.02851848266713602,-0.2830551345456245,-0.07645033777255894,0.8448065997555513,-0.36182307269074954,0.08261760905726327,-0.5906408526699208,0.11674263749526725,0.012946819105296173,0.8350548625675762,-0.0018107760558312286,-0.17414429507517404,-0.0396785020985394,0.1699087503458946,-0.064028948154799,-0.15849816252138468,0.001535260050623097,-0.0528785663383491,1.0112905333525868,0.1744078985489922,0.8097605053847565,0.25829767901166056,0.19713680230394803,-0.1684859207677032,0.15888811772838435,0.8464763585757654,-0.3789305741249827,-0.25255046304708156,-0.5495451774421864
196.0,12.73183798789978,-0.24468536130012092,-0.37323856976971076,1.0119672924685021,-0.03134041530345861,-0.010658358280111819,-1.4174230794877447,-0.029649395844945622,-0.27238526376994265,-0.06989728222492782,0.8659990742092079,-0.32993413131156796,0.08196224688693445,-0.5795340407407077,0.11295737926056781,0.007754296198540376,0.8443201872947903,0.012700084893627022,-0.17267806258657187,-0.03890311483639418,0.17445574887083176,-0.06465506207809395,-0.14296784417828312,-0.00011718984275222984,-0.05391784726120774,1.0217214231208203,0.1734248321720367,0.8238708996994978,0.2572133935387224,0.19978525222702095,-0.1715269586491941,0.15441563310726691,0.8445301272094984,-0.3777488825930102,-0.25275917114558766,-0.5525010636582542
198.0,12.770368576049805,-0.2445997279433712,-0.3832641957894818,1.0128668747986838,-0.032283510133795275,-0.010186973447009764,-1.4022793376304976,-0.032197299842747676,-0.2615543249267999,-0.06236131115697469,0.8852974820327991,-0.30056581202673477,0.08163191903578686,-0.5692771019848725,0.11009628889585109,0.0038960156221386284,0.8502679684201151,0.02428874638770524,-0.17091983472137817,-0.03889495653219338,0.17880282347420512,-0.06412603571374557,-0.13043890245616407,-0.0006910985093075671,-0.05789063889589181,1.028813415204228,0.17445792251143447,0.8341357438036114,0.2544397861923451,0.20226557935668854,-0.17397195489578626,0.15117873380546953,0.8428238241141515,-0.3774323364229738,-0.25248006782645815,-0.5548470688660728
199.0,12.837615013122559,-0.24456238772082203,-0.3936214365899533,1.0140068422192816,-0.03378789933262265,-0.010137225158547213,-1.385033590579865,-0.03761178653621314,-0.24609438053949173,-0.04939075735318949,0.9089200814824051,-0.26464263580417446,0.08205564593130876,-0.557204504980112,0.10677007242167649,3.160794435500165e-05,0.8548789344669202,0.03490405729751292,-0.16834229783774807,-0.0387099213137868,0.18364450750597083,-0.06254426702000634,-0.11828310964061038,-5.426959066414836e-05,-0.06632258434818729,1.0339686999090425,0.17848218196470472,0.8410201714233037,0.24918822449493658,0.20365503421015785,-0.176730752437377,0.14860098291536705,0.8415275411147587,-0.37758750241077077,-0.2509357559098534,-0.5558032508116073
201.0,12.891621112823486,-0.24457650995039948,-0.4020161932364514,1.014979066245405,-0.0351484735161582,-0.009980223546237389,-1.3700884536460993,-0.044073231712522726,-0.2302903733516733,-0.03557830439080381,0.9305716595303131,-0.23193756696333173,0.08317874071452337,-0.5468058685025434,0.10396616253091959,-0.0035310169919364736,0.8576126272375371,0.0427467624699594,-0.16593239332560056,-0.038417461046512,0.18775745524015214,-0.06116115210965975,-0.10938201811043566,0.0007996469971589392,-0.07535245047268527,1.036380175928876,0.18306105586686022,0.8447150411789697,0.243862940693175,0.20333352543736422,-0.17934354834040822,0.14650831169395498,0.8408641652159284,-0.37730442493708843,-0.24761040710226245,-0.5537344355053861
204.0,12.956403970718384,-0.24463448624807377,-0.4114111340311245,1.016069346112075,-0.03597671408835076,-0.010063631491806722,-1.352465957203287,-0.054585206741166195,-0.20800519400356493,-0.014917532627068127,0.9572398810690934,-0.19190102686900418,0.08606474126463165,-0.5353012963868888,0.10176782432962651,-0.006115670698875064,0.8598986348638102,0.049177222908619395,-0.16298670745464466,-0.03750452141724548,0.1912550054493709,-0.06014293445816639,-0.10128511675909826,0.0018169332375433133,-0.08639669253783205,1.0368752774243164,0.18904883429165997,0.8450720130606688,0.23782805210650476,0.19992528145196695,-0.18300652004869788,0.1443427015982893,0.8416068389501565,-0.3754124399402621,-0.23948026107456552,-0.5446032256051468
206.0,13.03182315826416,-0.244706873733412,-0.4237720428249937,1.017479947061065,-0.03540760059576451,-0.010378863033034827,-1.327627455177873,-0.0736985151465368,-0.17355943958600906,0.017248951704478654,0.9968991255663693,-0.1395775938693581,0.09237891634071672,-0.5208050951478469,0.10264178480256286,-0.0048272269887703265,0.86226875785351,0.0538462406755906,-0.15849026875840044,-0.035309783889165974,0.19514551988410966,-0.05989980867238018,-0.093154257688662,0.00399096845447067,-0.09959941567484532,1.0343504120944889,0.19599639639902033,0.8397918605159176,0.22859401698706358,0.1931661167297597,-0.18900558927989078,0.1424447303615384,0.8424003501114766,-0.3735820947571228,-0.22986862488630525,-0.5316015785037759
207.0,13.09847378730774,-0.24474397481240878,-0.4356034972686002,1.0188469847528492,-0.03384714295184366,-0.009870762474555771,-1.3021037320352344,-0.09648554390201361,-0.13441364916102228,0.052285387604603675,1.0402405507331505,-0.09347882166781203,0.10197587512141268,-0.5071914603271066,0.10553399922682219,-0.002482199089866143,0.863307816041258,0.056124256692501276,-0.15350763582343863,-0.03268835404471109,0.19960669844177437,-0.060354807284267134,-0.08776557085477463,0.005831636823234891,-0.11124444874068752,1.0292108671632347,0.20140327817420006,0.8318682492886905,0.2181218445332161,0.1849340417153692,-0.19645958565527255,0.13988134535691749,0.841885246816467,-0.3729704107600861,-0.22264793909645686,-0.5229343842630417
210.0,13.151772022247314,-0.24476509399358568,-0.4449292451417999,1.0199417063126668,-0.032086759114809564,-0.00843668786497078,-1.2807306009653123,-0.11754198031290092,-0.09857862775180222,0.08322946077032367,1.0780180391005618,-0.06124914249038762,0.11248630412189245,-0.496588770642012,0.10904206349254476,-0.0007017493072256695,0.8628533074158804,0.0570318232281876,-0.1490451309169887,-0.030624940553167133,0.20435492311746645,-0.06089188979383364,-0.08439595971057012,0.007089380603876761,-0.11991381707600256,1.023398540213334,0.20498814801078158,0.8248573380362141,0.20913634148071186,0.17762831431246145,-0.20329563697306913,0.13727952118227824,0.8406081567581526,-0.37303516988227864,-0.2171748419712397,-0.5178243183482619
212.0,13.240940570831299,-0.2446328987981088,-0.45560377602047797,1.0213515914548936,-0.029016660217245534,-0.007637257234657115,-1.253005092118734,-0.1447436356706981,-0.05148407936477945,0.12589533682403814,1.1222642080951117,-0.05102606924299447,0.1305412429013384,-0.4842786628166527,0.11193821953105601,0.001277184189720173,0.8611047827327485,0.055251351365762216,-0.1433858162393125,-0.028830312440493985,0.20982938321389905,-0.059493524493547084,-0.08346850976903994,0.009516517810139548,-0.12591423657764622,1.014951649783585,0.20672288839444034,0.8154005114610285,0.1995945317163279,0.16793023334059792,-0.21214124425030817,0.13531090660906628,0.8388444247021498,-0.3758668616062797,-0.21267837469559722,-0.5164375023552628
214.0,13.3151113986969,-0.24442082896417197,-0.4653514601011368,1.0226130355219758,-0.025760497015909524,-0.007717697482404789,-1.2256567974729564,-0.16999744180824528,-0.0024727417845901156,0.17193775166252617,1.1623128120907975,-0.06656204839549457,0.1531855772132298,-0.4731101240664065,0.11332156454494544,0.0024994875792322593,0.8595217884640542,0.05341422055070497,-0.13809169419716605,-0.027329827661444206,0.21365934856115554,-0.05677765963623082,-0.08524361600706917,0.011426161096362384,-0.1290693033844691,1.0059096678667605,0.20681178612815648,0.8064346536117453,0.19170663844538421,0.1574541454960077,-0.2222241035076854,0.13406987412612054,0.8364578156450326,-0.3803904731806754,-0.21045813990485923,-0.5170986189792317
216.0,13.36567211151123,-0.24413896119024647,-0.47481111114485974,1.0236689106839334,-0.022411904390813205,-0.008526057301999415,-1.1983944840740528,-0.19317974456632517,0.04670938102123655,0.22012518354981359,1.197545225318503,-0.10164194313964087,0.17892106446483874,-0.4625216746888223,0.11484322573078158,0.00468530213893716,0.8586930747029611,0.051873412289422924,-0.13296875995476956,-0.025011245320453394,0.21505604858149682,-0.053334191164879266,-0.08923880221064848,0.011981469035569615,-0.13048814893759492,0.9956484793323874,0.20604656467951943,0.7962347516109332,0.18621535016231378,0.1449487464208749,-0.23384377900816405,0.13312920116137697,0.8348257689816915,-0.3850791074708753,-0.20649257765720125,-0.5150861742928047
218.0,13.45625638961792,-0.243857919439684,-0.4840461001860924,1.0246091893322606,-0.01966429603679046,-0.009867751745232353,-1.172441006763954,-0.21442685574729692,0.08942581146750929,0.26374694846181634,1.226120166249434,-0.15223157733443166,0.20343595412902196,-0.45169271924907994,0.11861893060625406,0.00960860198635864,0.858151453684566,0.05074815691215345,-0.12774879083036011,-0.02073227505252726,0.21464136102981557,-0.048905001655604234,-0.09370206011087306,0.01105306065377792,-0.13014556490398235,0.9837028431646706,0.20433825108926407,0.7842342796918168,0.18332481984507648,0.1308325768959632,-0.24629340079018555,0.13271735078404526,0.8350918727040886,-0.3896056530641667,-0.19699719434763419,-0.508649415078061
220.0,13.521520376205444,-0.24362506304354356,-0.4925766514846338,1.0253680606451454,-0.018104595057928878,-0.0121072343121705,-1.1500289634711591,-0.23405353098437248,0.11664083047720784,0.2945394649196701,1.2450075627748987,-0.21332001986389593,0.2214629976099911,-0.4408254392112152,0.12443326158464216,0.017062089573303213,0.8583432287377987,0.050709489513337265,-0.12284604988645939,-0.014001565504416988,0.21296165965040212,-0.043527308899511334,-0.0969497890349022,0.008139317283601575,-0.12760801769515442,0.971483749801167,0.20189142091342194,0.7732667398084773,0.1851258674580787,0.11786854441630899,-0.2595574372282805,0.13286135392744214,0.8351479613160131,-0.3945272568774858,-0.18794941983960128,-0.5016587320365415
223.0,13.592653751373291,-0.24328465560985996,-0.5009186382740236,1.0258120316703858,-0.017348417170646575,-0.015046509547049553,-1.129723747821799,-0.25436304250434616,0.12951404833617008,0.3140126942036069,1.255282756903898,-0.27378761901188053,0.23185318529720902,-0.4298936990128371,0.13116157984131988,0.025584159050516763,0.8599208794477856,0.051852345899839544,-0.11821182251918602,-0.005320999945642475,0.21102356777444295,-0.03786729651155875,-0.09951562904152883,0.003037107694353596,-0.12282514638879408,0.9591134472364874,0.19879913128517662,0.7636102189511873,0.19206779014676198,0.10619133418759563,-0.2746537256876166,0.13280483308073027,0.8330389117699529,-0.40007592147914783,-0.18448718035582948,-0.49727351195376657
225.0,13.674273014068604,-0.24237407557519916,-0.5109171567326517,1.0258640273179915,-0.01657383956573538,-0.018577713557516733,-1.1066888194053706,-0.2797848444444114,0.12959859931364404,0.32589568263759705,1.2536042603592787,-0.3310381292545896,0.23459270612449268,-0.41716100835430536,0.1395601376063615,0.035684903359190334,0.8632777212451429,0.054033809785996915,-0.11284888832312445,0.006237913379501171,0.20994595140075112,-0.03267872517777207,-0.1041590671480644,-0.003932104048733143,-0.11460305939449347,0.944437279331798,0.19396215126863975,0.7535663866763767,0.20311979698285768,0.0898261579863726,-0.2934791410435593,0.1319565067958045,0.8295695116536353,-0.40618416804276625,-0.1826256123966966,-0.4922730719056322
227.0,13.732578039169312,-0.24109450081720402,-0.520427795155871,1.0255633672040794,-0.015740329538978116,-0.02114363163843421,-1.0850683125748133,-0.30571393649753575,0.1211977961637761,0.3298156043098922,1.243677180749616,-0.3760185961895772,0.23120576682454688,-0.40550197235401336,0.1476804532365596,0.04422686651383953,0.8668149032933672,0.05744970803415198,-0.10748468356797164,0.01683890904046685,0.2104715610838615,-0.02865042893379886,-0.1091279555885043,-0.011097566089835783,-0.1052884911839145,0.9298526126250322,0.18825558321263908,0.744900715750478,0.213919633908822,0.07177232103725582,-0.3118971728210995,0.1315495858655349,0.8260340676938212,-0.4116964019172923,-0.18052801581019293,-0.4844712104659527
229.0,13.807567358016968,-0.23951412545064732,-0.5294072451107201,1.0248743728843372,-0.014681515041203977,-0.022605806090045658,-1.064221842023547,-0.33213566309097614,0.10679191453844891,0.32740338716970807,1.2274155787277237,-0.40988577734193904,0.22310911437459655,-0.39531990869601785,0.15544800981888263,0.05108509807533908,0.8706227820139782,0.06211591413121233,-0.10195819291855975,0.025774164366128963,0.2116470805679433,-0.026409683829992682,-0.11404943163890455,-0.018710762228932157,-0.09608210402312839,0.9158752417354705,0.18199198871848282,0.7365503123304586,0.22303547859354284,0.053097424685245066,-0.3293975042913896,0.13127612798484978,0.8222270079046569,-0.41667131148283854,-0.17951153605714856,-0.4760426044947045
232.0,13.885298013687134,-0.23771428173227474,-0.5378151839564007,1.023949698637976,-0.013058839902077807,-0.023357412288232106,-1.0434856263796903,-0.35846636217823796,0.0893019244210359,0.32183711709624396,1.2063496305820496,-0.435454975410742,0.21268832003129134,-0.3865524529380235,0.16315266154517272,0.05745560822271323,0.8745103082622817,0.06737411617333189,-0.09613063877448957,0.033073245383089464,0.21260825169130543,-0.026155401220178374,-0.1183955796459031,-0.02613551570578803,-0.08865230951219152,0.9034927562030097,0.17631887998575135,0.7291485873740545,0.22955380387198032,0.034699512777684724,-0.3453040666519042,0.12993696614097106,0.8180157525083531,-0.4208559455242795,-0.17959751532858967,-0.47048957069353475
233.0,13.965888023376465,-0.23557917905402487,-0.547151382530897,1.0227360477282081,-0.009969336669058505,-0.023728884297646392,-1.0180107047175664,-0.3886883166189383,0.06924265627716075,0.31622601482236296,1.1760024956310717,-0.4570182401655426,0.20012183865818556,-0.3776473924622966,0.17258708536578643,0.06491144366226853,0.8786267885152124,0.07386721501696633,-0.08910998610641277,0.0394811523956812,0.21215912192216652,-0.027854237186221736,-0.12233263660339723,-0.03410815660190915,-0.0839527118029898,0.8919240690418556,0.1716585068853413,0.7217907934898877,0.2333751545245933,0.014027161570215059,-0.36253494266067177,0.12628698484208958,0.81195137575078,-0.4250635367534257,-0.18116217345144164,-0.46954380595993406
234.0,14.006350040435791,-0.23384460653898698,-0.5544222184592288,1.0218579821413651,-0.006663608102065658,-0.023582071286729303,-0.9967834780174084,-0.41274081297244813,0.05396844611045566,0.3130201781324258,1.1495622510853578,-0.47184021422494116,0.19057462856259655,-0.3712694630367589,0.18015557708732854,0.07104748540643113,0.8812599277440598,0.07897906073167844,-0.08291829777304197,0.04334898408744336,0.21179018529711952,-0.03010021223756667,-0.12466714844068269,-0.04004429839626014,-0.0815394343928797,0.883249604072021,0.16867540791756916,0.7160746735772352,0.2351146409799053,-0.002069684872656221,-0.3756442771305348,0.12261391333867318,0.8064818170468331,-0.42813164404706,-0.1837932126242693,-0.4710842393569057
235.0,14.049657821655273,-0.23238156170317945,-0.5601255025793114,1.0213424773990782,-0.0034150875101011057,-0.023046855286470238,-0.9795252143479267,-0.4312554384443205,0.04344325468148721,0.3127056165754852,1.1268263755831924,-0.48207770566454994,0.18398397660620908,-0.36654626290783904,0.18612693807070696,0.0760970624817495,0.8824729595352114,0.08255026655568365,-0.07763876762747486,0.04580998902437457,0.21193813738783476,-0.032744750470000375,-0.1262365545321648,-0.04406089862758418,-0.08063245946937198,0.8770506498168686,0.1669777148973144,0.7120690618558514,0.2354033413906781,-0.01480802576930045,-0.38529839810360256,0.11928788157186054,0.8017192575830575,-0.43044635065629555,-0.18667721335649926,-0.47386181460552
237.0,14.086732149124146,-0.23104451299520096,-0.5647279958212332,1.0211390707387065,-0.0005914609960101988,-0.02229051100755735,-0.9659831359678255,-0.44506623840351495,0.036750189954525614,0.3147790504590515,1.1072849315855386,-0.48972128389268965,0.17952768205570976,-0.362600427734528,0.19068453825598702,0.08005212534079463,0.882473799253005,0.08459116834411302,-0.07336751744937615,0.04791103632874449,0.21266693000037024,-0.035725228727863226,-0.1278189911859548,-0.046644397102856366,-0.08044994021015242,0.8729166091770812,0.16612187781658164,0.7097028414596109,0.23506888630240275,-0.025553818593522633,-0.3924714638949477,0.11663629621275129,0.7976852279858657,-0.432536665849111,-0.18944459573491373,-0.47698010337942937
239.0,14.134488582611084,-0.22908368843228638,-0.5702197924396162,1.0211775183321414,0.0015146670744802943,-0.02132260967885495,-0.9523382465346945,-0.4583251458138311,0.03179500531627981,0.3200559369819134,1.0838266405737456,-0.4996148084065716,0.17512360335587515,-0.35628700202187225,0.1950780563349636,0.08305157244122954,0.8808681875488711,0.08489796066514718,-0.06955654465032195,0.05198594448684339,0.21461878655069194,-0.0397311163413225,-0.13094302887533676,-0.04862865895853792,-0.08070825924676536,0.870190185986408,0.16584448801052792,0.7091012532429791,0.23458094997221518,-0.039805324238697926,-0.40009769996133104,0.11415621478783518,0.792845432393035,-0.43563391726974854,-0.19270971534582515,-0.48098900188796956
240.0,14.205060005187988,-0.22657659619995918,-0.5767833836019742,1.0212655021030153,0.0027357192697734845,-0.019962162740456896,-0.9369347540492368,-0.4721357776196272,0.028813921738835114,0.32937365956967135,1.0552207518952794,-0.5101126629213002,0.17047530450434972,-0.34726483187335,0.1999954746611896,0.08473729073540713,0.8773539145464032,0.08407281378037296,-0.06577824401042902,0.05682008172754324,0.21801384050669426,-0.04325359565565377,-0.13402601753675755,-0.050298306794545174,-0.08174523097511578,0.8679484639493891,0.16599910869104303,0.7092730570367023,0.2332861737930304,-0.057279298890697786,-0.40835116158213736,0.11127205666464575,0.7867619828808982,-0.43902449989594605,-0.19709723483364433,-0.48557700918847646
241.0,14.233406782150269,-0.22435555649814615,-0.5824895688080978,1.021363222962592,0.00338302306907613,-0.018371673912429266,-0.9234779102683377,-0.48320830726771613,0.028130088375620938,0.3399148156702534,1.029338948188295,-0.5173095274867109,0.16674893803322927,-0.3388203508940497,0.204515596096351,0.08552725077018553,0.8730602022844511,0.08294916669961028,-0.0625045963284353,0.060327989168157556,0.22158856026540902,-0.04561272587051177,-0.1362347918812717,-0.051588976805190895,-0.08304588794998652,0.866340733929691,0.16637188508145812,0.7095723811745094,0.23178346983907422,-0.07280517615432842,-0.4151065988669779,0.1085239078235563,0.7814109467380392,-0.44173534318398644,-0.20154780346541984,-0.48978289388293644
242.0,14.288744449615479,-0.2214260666631755,-0.589915176867289,1.021575301592042,0.003767970118449787,-0.015206698076175088,-0.9054541443630266,-0.49619642588096,0.030250851940773,0.357629433719782,0.9931225656220302,-0.5218729951877887,0.162181394783933,-0.32700500175431685,0.21130461598653436,0.0858599377818939,0.8646972562553221,0.08113944413234608,-0.05788184841327318,0.06319742185890859,0.22722290758666586,-0.047520605294649645,-0.13813509119967476,-0.053404741027312935,-0.08549858805049884,0.8646104826544183,0.167334007393443,0.7094207478459222,0.2293890285863449,-0.09375255334838063,-0.4233284490245527,0.10392160522910368,0.7747557928758946,-0.44482267859077795,-0.20940871171211445,-0.4964844911616096
243.0,14.316729545593262,-0.220407195165228,-0.5924621345988379,1.0216938278253764,0.003703328481698997,-0.013579502865542128,-0.8993502728870308,-0.5005088619132619,0.031728378166082434,0.3642565899023059,0.9802736988917258,-0.5213583485573554,0.16033170294318272,-0.32285695789805624,0.21407065375932238,0.08566482008054083,0.8609332273042749,0.0803238764506683,-0.05632600568178302,0.06379512153652601,0.22934555538384468,-0.04806863181713995,-0.1384803360246924,-0.05414639315535635,-0.08674301014666871,0.8641623305846724,0.16797376740435815,0.7089080832736117,0.22858214238343097,-0.10118910177607493,-0.42586619319874525,0.10170711984135938,0.7725790410521671,-0.44563727735568986,-0.21294284622261372,-0.4997096283896971
245.0,14.352495670318604,-0.21921294369674002,-0.5953654120080546,1.0218395398776983,0.003422228702023606,-0.011594049593317918,-0.8929203116863258,-0.5059107809257395,0.033076144813821734,0.3705679454848896,0.9664659555950226,-0.5203094415442102,0.15766485257134089,-0.31827086013640554,0.2170731981580015,0.08490311433584949,0.8567663927829208,0.07923815164672462,-0.05495804394309862,0.06492139404998669,0.23166945339135736,-0.0489154069149384,-0.13875542271936037,-0.05484368125426182,-0.08845643628201871,0.8637172354302136,0.16892528580887872,0.7080357064682014,0.22765364147331857,-0.10956886266724838,-0.42838531933974316,0.09899278913602505,0.7698734295436278,-0.44632219453116123,-0.2168467682612537,-0.5037745691431658
248.0,14.424135446548462,-0.2171615417343047,-0.6001300929763574,1.0220123987666825,0.0025628775092064017,-0.008697666065536198,-0.8836954548736826,-0.5152558027192846,0.0345318358705453,0.37880564315226206,0.9460659045779076,-0.5168558108078871,0.15220654260475402,-0.3108626111367718,0.22046609413817475,0.08178663005633593,0.8505770087766729,0.0777031116332822,-0.05383180628973819,0.06765236631874204,0.2348958674511545,-0.05037563855959011,-0.13925662079661968,-0.05545612127177497,-0.09135081433341588,0.8632984008487063,0.17072566945514184,0.7070424121811758,0.22647279906234508,-0.12301986321799926,-0.43130161156150415,0.09499791276423222,0.7649072204493426,-0.4465728810826265,-0.22215859320779072,-0.5090068118333755
250.0,14.505696535110474,-0.2135690005785837,-0.607970438357406,1.0222459214726904,0.00046218459082987095,-0.004950611036798584,-0.8704984635591808,-0.5299782709342511,0.03484146585637409,0.38769153043243787,0.9153111404186736,-0.5092535670474186,0.14261187010072288,-0.29808652361675714,0.2237216570090631,0.07458085485696637,0.8410931979511764,0.07591824182709558,-0.053374619067999535,0.0722190113376152,0.23848687039407768,-0.05207885769961599,-0.14040375973403202,-0.056405098692463955,-0.09518805562237123,0.8642776447694994,0.17375154674507118,0.7085932056543005,0.22667235164751037,-0.14438550826561464,-0.4345494853277697,0.0891669402475348,0.7562241721764535,-0.4457508465089926,-0.23061471789388774,-0.515237579363022
251.0,14.563470125198364,-0.20963365872246292,-0.6161082305825818,1.0224390759298552,-0.0023140268313708336,-0.001145484667025828,-0.8574613055161848,-0.5442650518722845,0.03453432725420795,0.3948652371644117,0.8832657751064177,-0.5007804798054993,0.13304161933462522,-0.2840283496452595,0.22631726650118086,0.06585610940179984,0.8302073185917331,0.07477187020657573,-0.053157558906556754,0.07703411428127513,0.24170230998068093,-0.053330112704980934,-0.14104296151199047,-0.056552861695909014,-0.09966536944773405,0.8659683929092887,0.1774090484150731,0.7110732097620431,0.22649543381983686,-0.16641998851548206,-0.4363254817575431,0.08310429367832181,0.7475281097765669,-0.44568952063028805,-0.23801846584266567,-0.5243620527105475
253.0,14.616924047470093,-0.20634020297374503,-0.6226895788228242,1.022630419610578,-0.0048807259715400765,0.0019547220413280377,-0.8468906222103063,-0.5546796917127013,0.03379665828502258,0.3997648908297249,0.8560911386799971,-0.49386907688290815,0.1258492900792408,-0.2718939615965178,0.22786275369420644,0.05781475711267363,0.8199883546086522,0.07461439508042994,-0.05304038085248286,0.08073762272940968,0.24416954511467948,-0.053848913075249125,-0.1412540180947053,-0.055970343251804514,-0.10353747319449524,0.8676257490565156,0.18068255988888368,0.7130120352944694,0.22597537422451397,-0.18443430163186914,-0.43648197647189746,0.07823595126886179,0.7412449442525586,-0.446406528125211,-0.24348087653698242,-0.5336345528933607
256.0,14.684948921203613,-0.20291318193734736,-0.6290840013774648,1.022839788686802,-0.007758485892668774,0.004807373150885271,-0.8370594703595803,-0.5633190944688578,0.0327858779212601,0.402979801136384,0.829887762878645,-0.4923133121497576,0.12122167001282265,-0.2595662053713858,0.2290543216009449,0.04937247234823418,0.8095529521297372,0.0748814632949421,-0.05282666095430005,0.08414357045081439,0.24648885728289993,-0.05374836043861651,-0.14064033934834175,-0.054545837990357046,-0.10708006104171476,0.8692693382716464,0.18376418375832176,0.7147096672197912,0.22498790212486958,-0.20181958257665278,-0.4341033541410761,0.0740006058423139,0.7354837319820671,-0.447335901843827,-0.24915222504766857,-0.5445454597688617
257.0,14.765748023986816,-0.1985352181557013,-0.6367531258638077,1.0228116920268557,-0.011402454670905612,0.00799565241410856,-0.825839959804763,-0.5713472824989094,0.03430186895396433,0.40879359135670806,0.8024587495799687,-0.5005613672736735,0.11949635089060626,-0.24485186206710796,0.23069879828367368,0.03867536551536018,0.797723337113559,0.07547505755395587,-0.052262121086211144,0.08699935632441637,0.24849015091308346,-0.052914203547826534,-0.14005604117564718,-0.0542396814198081,-0.11019148162778478,0.8717679718030525,0.18609136138774074,0.7173727975819583,0.22364947545253933,-0.2216258758666984,-0.43075923544570827,0.070518425534466,0.7285691412587816,-0.4472193838978796,-0.2580709620707786,-0.5527728444113886
260.0,14.823231935501099,-0.1948568209178579,-0.6430495622290935,1.0226827116121342,-0.014738976685057715,0.010567655725577007,-0.8164684620309397,-0.5763315070778592,0.03702928706112968,0.4152285952024587,0.781246367671399,-0.5099171556663636,0.11913945843547252,-0.2321303652864412,0.23190893520754854,0.02880168781966768,0.7871664827929481,0.07677469610275246,-0.051721044834550214,0.08857301431792411,0.24985102099872972,-0.05181940292201306,-0.14004152188256228,-0.05415944584848231,-0.1124554963262287,0.8742915491568533,0.18773749411822632,0.7196068064499586,0.22241536148551072,-0.2373583451266133,-0.42810993203805137,0.06839614819061604,0.7238568377310695,-0.4473917731271678,-0.26667426665187866,-0.5578057778013459
262.0,14.90786337852478,-0.18975447629874903,-0.6512458906406995,1.02194317738737,-0.01939189299167035,0.014137390755638274,-0.804825598832593,-0.5806711693314637,0.04432404426321856,0.4276271787397554,0.7605422433647975,-0.5276130119202485,0.12007704859296858,-0.2164095058512002,0.23523257558337454,0.0170653250196508,0.7753129778968402,0.07847567576183152,-0.05048115919822485,0.09061423746761096,0.2501642315805535,-0.05176741655992207,-0.14015003163052678,-0.052786171401400364,-0.11517260238056239,0.8785467463096175,0.19031833394563047,0.7236170107082689,0.22157260652245145,-0.2542248309122248,-0.42308489312639413,0.06841310872548796,0.7180379087223949,-0.44860286298744856,-0.27737690516947666,-0.562872356429861
